AOC/315LM00022/Q3279WG5B #2 2020-09-28 14-08 0.3127x 0.329y sRGB F-S XYZLUT+MTX/Q3279WG5B #2 2020-09-28 14-08 0.3127x 0.329y sRGB F-S XYZLUT+MTX.ti1
CTI1   

DESCRIPTOR "Argyll Calibration Target chart information 1"
ORIGINATOR "Argyll targen"
CREATED "Mon Sep 28 14:14:39 2020"
APPROX_WHITE_POINT "94.211415 98.615951 108.732980"
COLOR_REP "RGB"
ACCURATE_EXPECTED_VALUES "true"
DARK_REGION_EMPHASIS "1.6"
WHITE_COLOR_PATCHES "4"
BLACK_COLOR_PATCHES "4"
SINGLE_DIM_STEPS "17"
COMP_GREY_STEPS "49"
OFPS_PATCHES "288"

NUMBER_OF_FIELDS 7
BEGIN_DATA_FORMAT
SAMPLE_ID RGB_R RGB_G RGB_B XYZ_X XYZ_Y XYZ_Z
END_DATA_FORMAT

NUMBER_OF_SETS 417
BEGIN_DATA
1 100.00000 100.00000 100.00000 94.211420 98.615950 108.73300
2 1.9608000 1.9608000 1.9608000 1.1428000 1.1502000 1.1637000
3 3.9216000 3.9216000 3.9216000 1.2856000 1.3005000 1.3273000
4 5.8824000 5.8824000 5.8824000 1.4495000 1.4729000 1.5152000
5 9.8039000 9.8039000 9.8039000 1.9148000 1.9624000 2.0484000
6 13.726000 13.726000 13.726000 2.5817000 2.6639000 2.8126000
7 17.647000 17.647000 17.647000 3.4695000 3.5979000 3.8300000
8 21.569000 21.569000 21.569000 4.5953000 4.7822000 5.1201000
9 25.490000 25.490000 25.490000 5.9745000 6.2332000 6.7007000
10 29.412000 29.412000 29.412000 7.6213000 7.9656000 8.5879000
11 33.333000 33.333000 33.333000 9.5488000 9.9933000 10.797000
12 37.255000 37.255000 37.255000 11.769000 12.329000 13.341000
13 41.176000 41.176000 41.176000 14.294000 14.985000 16.234000
14 45.098000 45.098000 45.098000 17.134000 17.973000 19.489000
15 49.020000 49.020000 49.020000 20.299000 21.303000 23.117000
16 52.941000 52.941000 52.941000 23.800000 24.986000 27.129000
17 56.863000 56.863000 56.863000 27.646000 29.032000 31.536000
18 60.784000 60.784000 60.784000 31.846000 33.450000 36.349000
19 64.706000 64.706000 64.706000 36.409000 38.250000 41.578000
20 68.627000 68.627000 68.627000 41.343000 43.440000 47.232000
21 72.549000 72.549000 72.549000 46.656000 49.030000 53.321000
22 76.471000 76.471000 76.471000 52.356000 55.027000 59.853000
23 80.392000 80.392000 80.392000 58.452000 61.439000 66.838000
24 84.314000 84.314000 84.314000 64.949000 68.275000 74.285000
25 88.235000 88.235000 88.235000 71.857000 75.541000 82.200000
26 92.157000 92.157000 92.157000 79.181000 83.246000 90.594000
27 96.078000 96.078000 96.078000 86.929000 91.397000 99.472000
28 14.418000 47.408400 59.764300 12.427890 15.761900 32.507540
29 13.244000 85.509900 60.710800 27.770130 52.732810 37.454650
30 31.292800 73.106500 0.0000000 18.359520 37.354240 3.8660240
31 77.494300 78.334500 0.0000000 42.462460 53.485630 4.7781960
32 100.00000 77.700000 0.0000000 62.371510 62.321770 4.9883480
33 100.00000 100.00000 29.548400 76.269550 93.164760 15.144830
34 100.00000 100.00000 51.791300 79.300630 94.085680 30.955470
35 7.8283000 18.174600 13.002000 1.4806200 2.2755060 1.8529860
36 51.715100 29.073900 19.336700 13.111280 10.099580 3.9063120
37 84.102600 47.403800 55.293200 41.253280 29.558800 28.120510
38 100.00000 51.858200 66.141600 59.968560 40.566490 41.689860
39 17.123300 0.0000000 0.0000000 1.2256680 0.6211300 0.1592530
40 21.428600 0.0000000 0.0000000 1.7531960 0.8708120 0.1667040
41 26.119400 0.0000000 0.0000000 2.5359080 1.2412750 0.1777590
42 31.250000 0.0000000 0.0000000 3.6792530 1.7824280 0.1939080
43 36.885200 0.0000000 0.0000000 5.0188460 2.4164670 0.2128290
44 43.103500 0.0000000 0.0000000 6.8851770 3.2998140 0.2391890
45 50.000000 0.0000000 0.0000000 9.7217330 4.6423760 0.2792540
46 54.032200 0.0000000 0.0000000 11.556600 5.5108320 0.3051700
47 57.692300 0.0000000 0.0000000 13.307350 6.3394720 0.3298980
48 66.326500 0.0000000 0.0000000 18.048570 8.5835230 0.3968640
49 76.087000 0.0000000 0.0000000 24.362720 11.572060 0.4860460
50 78.286800 29.759700 0.0000000 28.092520 17.494760 1.0419600
51 83.388800 34.134800 25.778300 33.922900 21.421930 6.6218080
52 33.895700 17.774600 0.0000000 5.0577110 3.9567760 0.3976000
53 32.973700 30.843000 0.0000000 6.3605920 7.5317010 0.7740880
54 71.535400 42.241100 0.0000000 25.625040 20.550760 1.5183920
55 84.754400 55.101800 41.040900 41.673900 34.595380 16.151390
56 51.299500 51.624100 0.0000000 17.105490 21.415360 1.9908180
57 51.443100 62.083600 23.532000 21.386570 29.850860 7.3021300
58 78.503400 62.459000 52.139700 40.861840 38.716710 26.247630
59 100.00000 33.331300 0.0000000 48.268330 28.129790 1.4583450
60 100.00000 57.046800 0.0000000 54.010860 42.052060 2.8956890
61 100.00000 100.00000 100.00000 94.211420 98.615950 108.73300
62 0.0000000 61.927100 0.0000000 10.186340 24.588800 2.6736340
63 0.0000000 66.326500 0.0000000 11.844360 28.608530 3.0886330
64 0.0000000 76.087000 0.0000000 16.111940 38.954910 4.1568000
65 0.0000000 87.209300 0.0000000 21.822070 52.798630 5.5860360
66 75.309400 100.00000 0.0000000 53.167540 82.458330 7.8231140
67 100.00000 100.00000 0.0000000 74.924820 92.756200 8.1304190
68 0.0000000 0.0000000 6.0976000 0.1668010 0.1045590 0.6170290
69 0.0000000 0.0000000 9.4937000 0.2471270 0.1289640 1.0360210
70 0.0000000 0.0000000 13.157900 0.3704440 0.1664310 1.6792680
71 0.0000000 0.0000000 17.123300 0.5545640 0.2223720 2.6396750
72 0.0000000 0.0000000 21.428600 0.7937200 0.2950330 3.8871560
73 0.0000000 0.0000000 26.119400 1.1285990 0.3967780 5.6339510
74 0.0000000 0.0000000 31.250000 1.5803450 0.5340290 7.9903400
75 0.0000000 0.0000000 36.885200 2.1776430 0.7155040 11.105960
76 0.0000000 0.0000000 43.103500 2.9592370 0.9529720 15.182900
77 0.0000000 0.0000000 50.000000 4.1085320 1.3021560 21.177840
78 0.0000000 0.0000000 57.692300 5.5569230 1.7422140 28.732930
79 0.0000000 0.0000000 66.326500 7.6398630 2.3750630 39.597940
80 0.0000000 19.895700 69.526800 9.5096390 4.9761020 44.590380
81 19.166500 11.526400 67.646600 9.7875580 4.0773220 41.680660
82 87.137000 18.548500 72.451400 43.362160 20.634460 49.190260
83 100.00000 37.811700 79.299500 60.307690 33.405840 60.468520
84 100.00000 64.872100 83.586800 69.486760 52.585620 69.964800
85 0.0000000 0.0000000 2.9412000 0.1096700 0.0872015 0.3190210
86 3.9683000 3.9683000 3.9683000 0.3221810 0.3391040 0.4284330
87 5.0201000 5.0201000 5.0201000 0.4187160 0.4420550 0.5359830
88 6.0976000 6.0976000 6.0976000 0.5270920 0.5594330 0.6565370
89 7.2016000 7.2016000 7.2016000 0.6470440 0.6915350 0.7907760
90 8.3333000 8.3333000 8.3333000 0.7854390 0.8418480 0.9425720
91 9.4937000 9.4937000 9.4937000 0.9423630 1.0109650 1.1127720
92 10.683800 10.683800 10.683800 1.1254570 1.2032510 1.3098310
93 11.904800 11.904800 11.904800 1.3366980 1.4213280 1.5418290
94 13.157900 13.157900 13.157900 1.5744660 1.6629570 1.8084410
95 14.444400 14.444400 14.444400 1.8379660 1.9278230 2.1165820
96 15.765800 15.765800 15.765800 2.1232090 2.2166420 2.4593690
97 17.123300 17.123300 17.123300 2.4348640 2.5377310 2.8387720
98 18.518500 18.518500 18.518500 2.7754340 2.8975890 3.2502410
99 19.953100 19.953100 19.953100 3.1531670 3.3071040 3.6932720
100 21.428600 21.428600 21.428600 3.5725730 3.7595970 4.1865710
101 22.946900 22.946900 22.946900 4.0410340 4.2573510 4.7408090
102 24.509800 24.509800 24.509800 4.5752510 4.8150270 5.3688380
103 26.119400 26.119400 26.119400 5.1980430 5.4631130 6.0715420
104 27.777800 27.777800 27.777800 5.9176120 6.2207830 6.8451800
105 29.487200 29.487200 29.487200 6.7098050 7.0660650 7.6965870
106 31.250000 31.250000 31.250000 7.5438930 7.9616710 8.6319940
107 33.068800 33.068800 33.068800 8.4172440 8.8998970 9.6568190
108 34.946200 34.946200 34.946200 9.3667580 9.9178140 10.776230
109 36.885200 36.885200 36.885200 10.406860 11.022370 11.998330
110 38.888900 38.888900 38.888900 11.547640 12.224070 13.336830
111 40.960500 40.960500 40.960500 12.816260 13.546760 14.795560
112 43.103500 43.103500 43.103500 14.248050 15.036160 16.400310
113 45.321600 45.321600 45.321600 15.925050 16.790660 18.246420
114 47.619100 47.619100 47.619100 17.882630 18.857320 20.409300
115 50.000000 50.000000 50.000000 20.072780 21.186120 22.895580
116 52.469100 52.469100 52.469100 22.384340 23.635180 25.533970
117 55.031400 55.031400 55.031400 24.803560 26.170200 28.171830
118 57.692300 57.692300 57.692300 27.429590 28.954700 31.082700
119 60.457500 60.457500 60.457500 30.372400 32.111020 34.540960
120 63.333300 63.333300 63.333300 33.626990 35.506170 38.326410
121 66.326500 66.326500 66.326500 37.380930 39.413210 42.797410
122 69.444400 69.444400 69.444400 41.538910 43.808040 47.787340
123 72.695000 72.695000 72.695000 45.904790 48.451020 52.792900
124 76.087000 76.087000 76.087000 50.689920 53.576730 58.180650
125 79.629600 79.629600 79.629600 56.089420 59.224860 64.330380
126 83.333300 83.333300 83.333300 62.295430 65.671160 71.409210
127 87.209300 87.209300 87.209300 69.003840 72.765640 78.826730
128 91.269800 91.269800 91.269800 76.153060 80.404560 87.065880
129 0.0000000 0.0000000 76.087000 10.367120 3.2036730 53.823830
130 0.0000000 0.0000000 87.209300 14.026980 4.3156300 72.914350
131 0.0000000 0.0000000 100.00000 19.362530 5.9367030 100.74560
132 42.631100 27.264400 100.00000 27.769980 13.356870 101.28080
133 75.370100 30.597900 100.00000 45.410460 22.671470 101.64680
134 35.365700 56.093400 25.084700 13.731810 22.236250 7.3094530
135 52.218500 75.579600 31.699900 28.065080 43.889700 12.324940
136 0.0000000 43.103500 0.0000000 4.5554890 10.937270 1.2642410
137 0.0000000 50.000000 0.0000000 6.3943720 15.395490 1.7245100
138 34.761200 55.329400 0.0000000 12.378750 21.304160 2.1814000
139 53.396500 88.659300 0.0000000 33.822100 60.071790 5.9484090
140 83.758400 88.869900 21.054700 53.768770 69.628920 9.8735660
141 49.895200 36.063600 0.0000000 12.818340 12.240790 1.0653380
142 71.676000 40.666400 20.921300 26.088190 20.040590 5.0241160
143 100.00000 48.078500 22.798100 52.136560 35.798610 6.4294540
144 48.149900 17.166100 16.762700 10.097930 6.1741370 2.8527000
145 58.777700 24.284200 29.926500 16.604760 10.382200 7.8804470
146 62.139200 41.012400 45.438400 22.856940 18.212350 18.214620
147 0.0000000 10.499800 16.141100 0.8366520 1.0109300 2.4651920
148 0.0000000 34.255500 52.536700 7.4266690 8.3290750 24.391390
149 0.0000000 52.246900 58.830600 12.791920 18.760790 31.766400
150 23.121700 61.509600 69.723200 20.497030 27.742700 47.160250
151 29.663000 62.975200 83.159700 26.380110 30.838380 68.433790
152 0.0000000 53.500600 100.00000 26.720350 23.775130 102.58720
153 0.0000000 70.347000 100.00000 32.837460 38.605550 104.11830
154 24.933600 77.046700 100.00000 38.076610 46.953390 104.90260
155 56.273600 77.829800 100.00000 48.762170 52.731670 105.14080
156 33.668500 30.621300 40.050300 8.9692080 8.2785460 13.719370
157 34.547000 43.833300 52.057100 13.499380 14.738640 24.446880
158 37.884900 100.00000 58.147100 40.207480 75.378760 36.660500
159 32.754700 66.167800 17.335500 16.207770 30.463570 5.6814920
160 50.548700 86.340200 23.572300 32.085650 56.565060 10.088790
161 56.494500 90.921300 47.062200 40.082120 64.968030 24.525680
162 79.287800 88.745100 44.338600 52.397440 68.440460 22.136110
163 85.823300 97.114800 67.983100 67.923920 84.963130 49.470620
164 85.101900 100.00000 84.055600 73.762830 90.022670 75.135890
165 84.820400 20.657900 12.723900 32.599960 17.430350 2.2883070
166 100.00000 30.268600 26.038600 48.835320 27.285770 6.7957410
167 100.00000 37.507300 45.236800 52.173870 30.819480 18.310540
168 89.392900 14.831100 30.001600 37.062770 18.470690 8.0126300
169 100.00000 84.464600 27.924500 67.015690 71.032970 12.118090
170 100.00000 84.432100 51.597500 70.134730 71.943140 28.475320
171 39.337200 25.034100 76.442100 17.565810 9.4772070 54.818860
172 48.128700 46.398500 87.084500 28.080990 21.271840 74.139820
173 12.342500 8.5089000 31.331600 2.4779450 1.4253260 8.1004500
174 19.691900 16.534900 46.194200 5.5620390 3.4476080 17.798870
175 67.951100 18.867600 63.846000 26.821610 13.260920 36.599200
176 76.177300 29.152600 81.296500 38.406720 20.172500 63.285930
177 71.748400 0.0000000 37.942800 23.691980 10.877390 12.054210
178 85.225700 65.027700 40.996500 45.483500 43.059810 16.981850
179 84.368900 80.027600 44.393500 51.889010 59.031580 21.062220
180 86.305900 79.855700 60.205400 56.409800 60.501480 36.550540
181 0.0000000 73.324000 27.676400 16.024540 36.239330 9.9979390
182 30.858500 73.424000 35.039000 20.297410 38.228540 13.784420
183 34.316500 79.679000 52.148000 26.558970 46.472050 27.811740
184 0.0000000 72.163800 61.756300 20.721740 36.572610 37.060930
185 17.574700 77.779800 87.861100 32.277660 45.749830 78.303090
186 0.0000000 0.0000000 0.0000000 0.0759274 0.0769496 0.1430140
187 0.0000000 15.700400 43.740400 3.6806660 2.5110220 15.810740
188 12.436900 25.438100 47.774500 5.8803360 5.1873960 19.415480
189 23.725000 51.909500 47.021200 12.474380 18.798200 20.091920
190 44.266700 56.883300 48.231900 19.383410 24.933520 21.648930
191 65.343400 63.218600 53.520600 32.706550 35.340210 27.521610
192 64.604100 74.401200 79.482700 43.592310 48.519050 63.326560
193 73.244200 74.333700 86.251600 51.287760 51.713340 75.338270
194 82.288500 78.440600 100.00000 65.582630 61.258060 105.44680
195 14.059500 0.0000000 13.981900 1.2258740 0.5654250 1.8720580
196 15.004700 9.3044000 18.308100 1.8114040 1.3427210 3.0445320
197 54.714500 4.3535000 78.770900 23.076940 9.2569900 58.272600
198 56.097800 21.091700 91.276600 29.022080 13.251240 80.985170
199 60.507800 44.786500 100.00000 38.858500 24.658700 102.17020
200 23.007200 84.108300 73.321900 31.532230 52.453590 54.791460
201 21.471000 88.101200 87.735500 38.135020 59.099540 79.440970
202 24.605900 86.749400 19.449600 24.338810 53.387040 8.6937770
203 21.502700 87.859000 40.595400 26.424620 55.252690 19.012900
204 76.090100 59.586800 0.0000000 33.658770 34.105230 2.8123100
205 82.335800 63.773400 25.517600 40.967320 40.271160 8.4919010
206 72.509100 89.272300 13.036500 45.158640 66.067410 7.6967190
207 79.034000 100.00000 55.945400 61.011710 85.300490 34.654240
208 100.00000 100.00000 100.00000 94.211420 98.615950 108.73300
209 38.834200 52.485300 70.156000 21.256760 22.406920 47.119580
210 43.156800 83.279300 81.578900 38.536010 54.471340 67.933020
211 61.302900 86.900800 89.048600 51.286920 63.936200 81.862110
212 21.367800 14.852000 86.591500 16.061410 6.4393950 71.981220
213 23.203700 30.342400 89.730900 19.068930 10.881870 78.116930
214 32.693200 63.569000 100.00000 33.981180 33.719840 103.47760
215 60.855800 64.594900 100.00000 45.245620 39.791750 103.72630
216 100.00000 66.447200 100.00000 76.685920 56.126850 104.34640
217 100.00000 86.252700 100.00000 86.080560 78.903360 106.69780
218 0.0000000 50.747700 25.632500 7.6306970 16.242410 7.0697650
219 0.0000000 71.381400 45.479200 17.225340 34.794940 20.498280
220 0.0000000 100.00000 49.150600 33.291470 72.394640 27.683970
221 0.0000000 100.00000 67.909300 37.436580 73.654030 49.305640
222 0.0000000 100.00000 85.296900 42.725440 75.260920 76.893380
223 0.0000000 100.00000 100.00000 48.706220 77.078030 108.09030
224 100.00000 0.0000000 59.673100 51.496020 23.411970 31.638980
225 100.00000 0.0000000 78.650600 56.650840 24.978130 58.527490
226 1.9380000 1.9380000 1.9380000 0.1623210 0.1706600 0.2488780
227 2.9412000 2.9412000 2.9412000 0.2360890 0.2486480 0.3331070
228 36.851600 14.381200 7.9017000 5.6885330 3.7799280 1.0319700
229 62.391700 14.436700 17.718500 16.779730 8.9718500 3.1590380
230 87.209300 0.0000000 0.0000000 33.306640 15.805280 0.6123720
231 100.00000 0.0000000 0.0000000 45.581120 21.614870 0.7857400
232 0.0000000 0.0000000 0.0000000 0.0759274 0.0769496 0.1430140
233 32.449900 24.909500 46.803400 8.8610600 6.5059070 18.564190
234 40.848000 49.791400 80.310000 24.008100 21.643300 62.347370
235 58.023200 55.790400 81.810600 33.618070 29.576450 65.543880
236 56.749200 65.477300 85.314500 37.584930 37.858830 72.618620
237 78.799500 90.047700 85.586100 63.107980 73.205360 76.267780
238 100.00000 100.00000 89.080200 89.526610 97.192590 84.296120
239 0.0000000 26.119400 0.0000000 1.6853910 3.9789590 0.5458600
240 0.0000000 32.183400 21.260200 3.2882170 6.3647320 4.4600080
241 13.906800 31.964500 28.707300 4.6211130 6.8340370 7.3950770
242 28.778100 35.613800 62.620200 12.778940 10.955390 35.352090
243 87.121700 47.794800 92.443700 54.770110 34.333660 84.792130
244 24.818600 0.0000000 28.276200 3.5179670 1.4973140 6.5998070
245 45.168700 0.0000000 34.576100 9.4986050 4.2241430 9.8717990
246 56.599300 9.7488000 34.303300 14.890370 7.3571890 9.8657350
247 64.091600 53.219600 50.428800 28.084860 26.829510 23.656940
248 68.255500 57.091800 64.080900 34.648430 31.736940 38.807810
249 87.193700 74.012900 69.467200 56.831830 54.928110 48.506660
250 53.002900 21.766000 0.0000000 12.210800 8.0338780 0.5823340
251 65.745700 23.940700 11.175000 19.267510 11.765330 1.8865200
252 75.757300 23.159100 32.877300 27.072090 15.056040 9.4940160
253 86.244900 47.745900 45.309300 41.355940 30.102920 18.749960
254 100.00000 72.082500 53.768700 64.538660 57.522710 29.072690
255 100.00000 86.402200 73.537200 76.446550 76.152670 56.032050
256 15.554300 18.369500 0.0000000 1.8805610 2.5437530 0.3637090
257 20.457500 25.869200 16.013400 3.6228960 4.7614170 2.7658400
258 86.354200 49.262800 15.591400 39.086150 30.368890 4.2277360
259 86.784400 77.451500 13.160200 49.919360 56.149180 6.3173540
260 100.00000 100.00000 100.00000 94.211420 98.615950 108.73300
261 0.0000000 34.224900 39.464600 5.3191690 7.6780230 13.423430
262 20.623600 41.525500 43.238200 8.6976260 11.764560 16.342940
263 30.131800 67.214300 55.743300 20.664350 32.644050 29.820580
264 40.438000 68.110100 68.557900 26.745920 35.743370 46.158240
265 38.781000 95.449200 69.659900 40.631950 69.706120 51.277670
266 39.978100 100.00000 83.497200 47.919820 77.822870 73.792600
267 66.357200 100.00000 88.505800 61.809460 84.108380 82.845270
268 49.447900 33.927100 13.295400 12.559310 11.366740 2.5385410
269 69.503300 34.757700 30.368200 24.377370 17.039240 8.5652730
270 28.997700 0.0000000 16.109800 3.5958620 1.6704700 2.4176920
271 48.102800 0.0000000 53.710000 13.613360 5.6826270 24.941000
272 54.520500 22.525200 69.886900 21.572220 11.157410 45.347090
273 61.878400 46.481000 76.026400 31.009750 23.318380 55.275530
274 77.268200 53.150500 77.167100 43.072200 32.782010 57.664380
275 86.471800 67.096000 76.759600 55.265770 48.009410 58.346290
276 88.722700 80.567300 88.914500 67.277380 64.897890 81.039140
277 95.528500 95.528500 95.528500 84.541500 89.126230 96.896050
278 18.361600 33.174800 21.413300 4.7451990 7.3594250 4.5667940
279 29.575800 40.894600 34.258100 9.1381130 11.914170 10.640460
280 63.371000 42.834000 36.104000 22.707040 19.071630 11.976890
281 76.335300 45.123300 62.512300 36.058620 25.652850 35.994110
282 0.0000000 9.4937000 0.0000000 0.3593250 0.7640240 0.2139480
283 0.0000000 13.157900 0.0000000 0.5508650 1.2283950 0.2618900
284 0.0000000 17.123300 0.0000000 0.8064860 1.8481290 0.3258720
285 0.0000000 21.428600 0.0000000 1.1775130 2.7476510 0.4187390
286 29.994700 29.619700 12.166000 5.7622190 6.8404850 2.0570010
287 47.136000 36.604700 28.958100 12.992760 12.287880 7.8099810
288 79.700200 57.710100 100.00000 54.981240 39.667090 103.29090
289 27.062700 0.0000000 46.984100 6.2175800 2.3937120 18.343000
290 68.273100 0.0000000 76.104500 29.556410 12.285220 54.121690
291 87.689900 16.177900 88.572300 48.781310 21.979300 76.009320
292 0.0000000 0.0000000 0.0000000 0.0759274 0.0769496 0.1430140
293 6.0976000 0.0000000 0.0000000 0.2904840 0.1785010 0.1460440
294 8.7134000 14.299400 55.006900 5.9404940 3.0707060 26.166640
295 22.467000 25.420700 64.152100 10.397170 6.7528650 36.924670
296 61.562300 32.895400 63.500800 24.689290 15.679130 36.530420
297 72.356000 0.0000000 56.434200 27.089880 11.976400 27.733040
298 85.909800 13.431200 57.902100 38.228680 18.156080 29.544080
299 100.00000 29.375400 58.884200 53.392210 28.382270 31.239750
300 0.0000000 31.250000 0.0000000 2.4361510 5.7991120 0.7337740
301 0.0000000 36.885200 0.0000000 3.3622240 8.0443000 0.9655680
302 0.0000000 57.692300 0.0000000 8.7171700 21.026920 2.3059030
303 0.0000000 100.00000 28.163400 30.641750 71.589590 13.862540
304 46.956000 100.00000 35.887000 39.719030 75.756040 17.977630
305 50.551300 0.0000000 19.893700 10.592630 4.9483130 3.5533070
306 53.331100 26.353900 39.158200 15.241230 10.052850 13.085780
307 72.466600 31.850400 43.840300 27.371650 17.276360 16.649430
308 2.9412000 0.0000000 0.0000000 0.1502680 0.1121350 0.1440640
309 9.4937000 0.0000000 0.0000000 0.4877660 0.2718760 0.1488310
310 13.157900 0.0000000 0.0000000 0.8050130 0.4220310 0.1533120
311 23.921800 37.480500 0.0000000 5.5181810 9.2695250 1.0208090
312 90.758200 62.610100 11.220200 46.818270 42.353620 4.4076120
313 100.00000 67.408600 28.728700 59.074940 51.633270 10.477100
314 42.599300 47.757200 10.933700 12.579990 16.996780 2.7673310
315 66.029900 48.996300 14.526200 24.236890 23.194100 3.7428730
316 71.885400 67.648600 17.796400 34.393420 40.279780 6.2094780
317 15.155900 43.516800 26.058400 6.6311840 11.921400 6.7660620
318 17.261800 43.399500 65.205500 13.036900 13.851130 39.116750
319 22.616800 48.442500 87.867400 21.953340 19.452990 75.576950
320 5.9586000 10.176200 21.916800 1.3476120 1.1678930 4.1273880
321 23.467600 12.136400 27.366300 3.6265740 2.3760800 6.2981670
322 40.406600 15.926800 43.406900 9.5812620 5.3411600 15.651700
323 43.330600 32.967300 64.543600 16.667930 11.860160 37.793560
324 51.218900 52.797500 63.548000 24.234600 24.305310 37.655940
325 65.526600 59.323900 73.862500 36.420240 33.597600 53.080160
326 100.00000 100.00000 73.029200 84.354670 95.621220 57.318310
327 54.985000 70.659500 0.0000000 25.615920 38.715180 3.7175170
328 66.042800 75.130900 25.596200 34.476570 46.608520 9.5716290
329 100.00000 83.177400 85.015200 78.332220 73.002020 74.587700
330 34.097600 25.280200 14.060800 6.1649550 5.8429760 2.3153320
331 42.439300 27.745600 29.139900 9.7938600 8.0265290 7.5169180
332 50.434800 55.621800 39.965900 20.369940 24.839550 15.176520
333 55.165000 68.921700 41.995600 27.696760 37.794820 17.790580
334 61.733700 70.600900 59.628900 34.844430 42.034040 34.559490
335 71.830600 81.829600 60.859300 46.535730 57.755540 37.432030
336 0.0000000 21.024900 20.690000 1.8118480 2.8583630 3.9196110
337 13.141400 23.126800 27.533800 3.2419120 3.8549840 6.5670470
338 43.686200 28.231100 43.605000 11.948330 8.9040720 16.127290
339 49.812200 39.677800 46.331100 16.801570 14.822720 18.807640
340 73.949400 0.0000000 20.399600 23.559540 11.080800 3.8849230
341 85.496000 17.618100 43.112500 35.518300 17.861680 15.830720
342 86.007600 34.584600 60.735600 41.345580 24.210730 33.446070
343 85.699900 43.940500 75.328300 46.775120 29.578280 54.300800
344 33.152800 50.160400 33.100300 12.160950 17.931870 10.605430
345 38.553400 52.051500 52.921300 16.983560 20.827580 25.861400
346 0.0000000 48.562400 41.250100 8.6019180 15.157840 15.366630
347 0.0000000 48.473300 77.552400 16.667230 17.553060 57.566170
348 23.045400 56.550000 86.182900 23.862120 25.169970 73.188620
349 31.953100 72.871700 86.677200 32.170910 41.352770 75.664170
350 81.927800 100.00000 100.00000 77.483950 90.698730 108.49670
351 19.001600 16.942600 7.5794000 2.2823540 2.4991170 0.9834960
352 19.801500 32.780200 10.444600 4.3380280 7.1314510 1.8513810
353 40.416300 40.708400 30.342300 11.419190 12.989510 8.6217740
354 58.335400 51.607700 38.445100 22.704060 23.667990 13.959830
355 59.736200 83.111200 56.478000 39.055190 55.694170 32.552470
356 64.009300 100.00000 66.557300 53.621040 81.379950 47.517660
357 0.0000000 59.475900 77.588300 20.069430 25.778500 58.471370
358 0.0000000 75.401100 78.379000 26.776750 41.518440 61.371190
359 0.0000000 86.219500 100.00000 40.557060 57.321060 106.05050
360 47.039100 100.00000 100.00000 57.052430 81.028350 108.20810
361 0.0000000 100.00000 0.0000000 29.419620 71.218280 7.4876930
362 41.894200 100.00000 0.0000000 35.820600 74.247900 7.5781020
