AOC/315LM00022/Q3279WG5B #2 2020-09-28 14-08 0.3127x 0.329y sRGB F-S XYZLUT+MTX/Q3279WG5B #2 2020-09-28 14-08 0.3127x 0.329y sRGB F-S XYZLUT+MTX.cal
CAL    

DESCRIPTOR "Argyll Device Calibration Curves"
ORIGINATOR "Argyll dispcal"
CREATED "Mon Sep 28 14:13:56 2020"
DEVICE_CLASS "DISPLAY"
COLOR_REP "RGB"
VIDEO_LUT_CALIBRATION_POSSIBLE "YES"
TV_OUTPUT_ENCODING "NO"
DEVICE_TYPE "n"
TARGET_WHITE_XYZ "203.650559 214.266178 233.348242"
TARGET_GAMMA "sRGB"
DEGREE_OF_BLACK_OUTPUT_OFFSET "1.0"
BLACK_POINT_CORRECTION "0.0"
BLACK_NEUTRAL_BLEND_RATE "4.0"
BLACK_POINT_HACK "YES"
QUALITY "low"

BEGIN_ARGYLL_DISPCAL_ARGS
-v2 -d2 -c1 -yn -P0.481012658228,0.140684410646,2.21671388102 -F -ql -m -w0.3127,0.329 -gs -f1.0 -k0 -A4.0 -b
END_ARGYLL_DISPCAL_ARGS


NUMBER_OF_FIELDS 4
BEGIN_DATA_FORMAT
RGB_I RGB_R RGB_G RGB_B
END_DATA_FORMAT

NUMBER_OF_SETS 256
BEGIN_DATA
0.00000000 0.00000000 0.00000000 0.00000000
0.00392157 0.00688858 0.00655842 0.00661548
0.00784314 0.01327290 0.01264960 0.01276380
0.01176470 0.01920640 0.01832190 0.01849260
0.01568630 0.02473530 0.02361690 0.02384360
0.01960780 0.02989940 0.02857110 0.02885290
0.02352940 0.03473330 0.03321630 0.03355350
0.02745100 0.03926110 0.03758210 0.03798590
0.03137250 0.04353100 0.04172060 0.04219970
0.03529410 0.04759110 0.04567540 0.04623470
0.03921570 0.05148280 0.04948010 0.05013130
0.04313730 0.05524190 0.05315770 0.05391660
0.04705880 0.05888920 0.05673140 0.05761840
0.05098040 0.06243940 0.06021990 0.06125130
0.05490200 0.06590420 0.06363170 0.06482110
0.05882350 0.06929900 0.06697840 0.06833540
0.06274510 0.07264080 0.07026910 0.07180350
0.06666670 0.07593860 0.07350990 0.07522500
0.07058820 0.07919800 0.07670420 0.07859550
0.07450980 0.08242060 0.07984670 0.08192400
0.07843140 0.08561810 0.08294580 0.08521250
0.08235290 0.08879390 0.08600340 0.08846330
0.08627450 0.09195210 0.08902720 0.09166990
0.09019610 0.09509250 0.09201540 0.09483140
0.09411760 0.09820990 0.09496510 0.09796260
0.09803920 0.10131600 0.09789240 0.10106500
0.10196100 0.10440900 0.10079900 0.10413400
0.10588200 0.10748300 0.10368300 0.10718400
0.10980400 0.11053900 0.10655600 0.11021400
0.11372500 0.11359200 0.10942700 0.11322900
0.11764700 0.11664800 0.11229500 0.11622600
0.12156900 0.11971000 0.11516500 0.11922500
0.12549000 0.12278100 0.11804900 0.12222700
0.12941200 0.12588300 0.12096500 0.12523500
0.13333300 0.12902200 0.12391500 0.12824800
0.13725500 0.13219700 0.12690000 0.13126200
0.14117600 0.13541200 0.12991900 0.13429500
0.14509800 0.13866500 0.13297700 0.13735500
0.14902000 0.14197800 0.13609400 0.14044100
0.15294100 0.14535700 0.13927400 0.14355100
0.15686300 0.14880100 0.14251600 0.14668500
0.16078400 0.15231000 0.14582100 0.14983200
0.16470600 0.15588800 0.14918600 0.15299700
0.16862700 0.15951600 0.15259200 0.15618500
0.17254900 0.16319800 0.15604200 0.15940200
0.17647100 0.16693000 0.15953000 0.16265000
0.18039200 0.17069500 0.16305600 0.16593100
0.18431400 0.17446200 0.16660900 0.16924500
0.18823500 0.17823100 0.17019300 0.17259800
0.19215700 0.18201100 0.17381600 0.17596700
0.19607800 0.18579200 0.17746800 0.17935000
0.20000000 0.18955900 0.18113300 0.18274500
0.20392200 0.19331500 0.18481300 0.18615800
0.20784300 0.19706100 0.18851500 0.18959700
0.21176500 0.20081000 0.19224700 0.19305500
0.21568600 0.20457300 0.19601100 0.19652000
0.21960800 0.20832600 0.19979000 0.19999000
0.22352900 0.21207400 0.20358500 0.20345900
0.22745100 0.21581200 0.20739500 0.20693700
0.23137300 0.21954900 0.21122800 0.21042900
0.23529400 0.22328900 0.21507900 0.21391000
0.23921600 0.22701600 0.21890600 0.21736400
0.24313700 0.23071400 0.22270900 0.22080200
0.24705900 0.23439900 0.22649000 0.22422400
0.25098000 0.23806800 0.23024200 0.22762600
0.25490200 0.24171400 0.23396200 0.23101000
0.25882400 0.24533700 0.23764800 0.23437700
0.26274500 0.24893400 0.24131500 0.23775000
0.26666700 0.25253100 0.24497500 0.24113600
0.27058800 0.25613700 0.24860600 0.24452200
0.27451000 0.25973500 0.25221300 0.24791300
0.27843100 0.26333100 0.25580200 0.25131100
0.28235300 0.26693400 0.25937100 0.25471300
0.28627500 0.27054500 0.26293400 0.25811700
0.29019600 0.27417000 0.26649400 0.26152500
0.29411800 0.27781300 0.27006400 0.26494100
0.29803900 0.28147100 0.27365500 0.26837900
0.30196100 0.28515200 0.27725200 0.27183400
0.30588200 0.28885000 0.28082700 0.27528200
0.30980400 0.29253600 0.28438600 0.27871300
0.31372500 0.29621300 0.28794000 0.28213400
0.31764700 0.29989100 0.29150600 0.28555500
0.32156900 0.30358100 0.29508300 0.28898800
0.32549000 0.30727800 0.29864700 0.29243000
0.32941200 0.31097600 0.30219500 0.29587000
0.33333300 0.31465000 0.30572600 0.29930500
0.33725500 0.31830200 0.30923700 0.30273500
0.34117600 0.32192900 0.31272500 0.30616200
0.34509800 0.32553200 0.31619000 0.30958500
0.34902000 0.32911100 0.31964400 0.31300600
0.35294100 0.33266700 0.32310500 0.31644000
0.35686300 0.33622800 0.32656400 0.31988400
0.36078400 0.33980200 0.33002200 0.32333200
0.36470600 0.34338900 0.33348100 0.32678200
0.36862700 0.34698700 0.33695100 0.33023900
0.37254900 0.35060600 0.34042900 0.33370600
0.37647100 0.35425400 0.34391500 0.33717800
0.38039200 0.35792800 0.34742300 0.34066100
0.38431400 0.36163800 0.35094500 0.34416300
0.38823500 0.36539100 0.35446600 0.34766100
0.39215700 0.36916100 0.35799200 0.35116000
0.39607800 0.37294400 0.36155100 0.35466800
0.40000000 0.37675300 0.36514400 0.35819900
0.40392200 0.38061400 0.36876600 0.36175500
0.40784300 0.38452100 0.37242100 0.36532800
0.41176500 0.38848100 0.37612000 0.36892300
0.41568600 0.39250100 0.37986900 0.37255500
0.41960800 0.39658500 0.38366400 0.37622700
0.42352900 0.40073100 0.38744700 0.37991900
0.42745100 0.40487900 0.39120400 0.38357900
0.43137300 0.40898400 0.39495100 0.38720900
0.43529400 0.41306600 0.39870300 0.39083400
0.43921600 0.41715300 0.40247800 0.39446700
0.44313700 0.42126900 0.40627700 0.39812100
0.44705900 0.42541600 0.41012100 0.40179300
0.45098000 0.42960300 0.41403100 0.40550200
0.45490200 0.43384900 0.41800600 0.40926200
0.45882400 0.43814500 0.42205100 0.41307800
0.46274500 0.44249500 0.42617800 0.41695000
0.46666700 0.44690300 0.43033900 0.42087800
0.47058800 0.45132800 0.43452200 0.42481700
0.47451000 0.45577700 0.43873800 0.42876700
0.47843100 0.46026000 0.44298600 0.43272900
0.48235300 0.46477600 0.44723300 0.43669900
0.48627500 0.46929400 0.45148500 0.44065700
0.49019600 0.47383700 0.45573900 0.44460100
0.49411800 0.47840400 0.45998900 0.44852600
0.49803900 0.48299100 0.46422200 0.45243400
0.50196100 0.48760200 0.46843600 0.45632200
0.50588200 0.49224000 0.47263100 0.46019100
0.50980400 0.49690500 0.47680700 0.46404100
0.51372500 0.50160100 0.48098600 0.46787300
0.51764700 0.50629700 0.48515800 0.47169200
0.52156900 0.51094200 0.48931400 0.47553700
0.52549000 0.51553500 0.49345500 0.47940600
0.52941200 0.52007700 0.49758100 0.48329900
0.53333300 0.52456200 0.50170000 0.48721500
0.53725500 0.52899700 0.50582300 0.49115500
0.54117600 0.53338000 0.50995400 0.49511700
0.54509800 0.53771400 0.51408800 0.49910500
0.54902000 0.54199900 0.51822600 0.50312200
0.55294100 0.54625300 0.52237000 0.50715500
0.55686300 0.55045900 0.52648900 0.51119400
0.56078400 0.55460900 0.53058200 0.51523500
0.56470600 0.55873500 0.53467600 0.51924900
0.56862700 0.56286400 0.53877000 0.52323000
0.57254900 0.56699300 0.54285700 0.52719500
0.57647100 0.57112200 0.54693900 0.53114800
0.58039200 0.57522900 0.55097400 0.53508500
0.58431400 0.57928200 0.55495200 0.53901700
0.58823500 0.58329900 0.55889500 0.54292100
0.59215700 0.58730600 0.56282100 0.54677500
0.59607800 0.59130800 0.56672800 0.55059800
0.60000000 0.59530300 0.57062000 0.55440800
0.60392200 0.59929200 0.57449600 0.55820600
0.60784300 0.60326700 0.57834800 0.56199900
0.61176500 0.60723000 0.58217600 0.56578500
0.61568600 0.61118100 0.58598200 0.56956100
0.61960800 0.61512100 0.58977300 0.57331800
0.62352900 0.61903300 0.59352400 0.57705300
0.62745100 0.62290200 0.59724200 0.58077700
0.63137300 0.62674300 0.60095900 0.58447700
0.63529400 0.63058900 0.60468100 0.58815300
0.63921600 0.63444500 0.60840600 0.59182300
0.64313700 0.63830000 0.61213800 0.59550100
0.64705900 0.64215100 0.61586800 0.59918900
0.65098000 0.64599700 0.61960300 0.60288900
0.65490200 0.64985000 0.62335600 0.60659400
0.65882400 0.65373000 0.62714000 0.61031200
0.66274500 0.65765400 0.63096700 0.61405700
0.66666700 0.66163000 0.63484100 0.61784600
0.67058800 0.66565900 0.63874800 0.62169600
0.67451000 0.66971400 0.64259200 0.62561100
0.67843100 0.67370300 0.64635400 0.62958700
0.68235300 0.67761600 0.65003600 0.63352000
0.68627500 0.68145500 0.65365500 0.63737900
0.69019600 0.68523500 0.65723100 0.64116300
0.69411800 0.68898000 0.66077000 0.64488100
0.69803900 0.69270000 0.66427500 0.64855900
0.70196100 0.69640700 0.66774800 0.65220300
0.70588200 0.70010400 0.67119600 0.65581100
0.70980400 0.70379600 0.67464100 0.65937800
0.71372500 0.70749500 0.67807800 0.66291500
0.71764700 0.71119800 0.68150800 0.66643600
0.72156900 0.71491300 0.68494600 0.66993800
0.72549000 0.71865400 0.68840100 0.67341800
0.72941200 0.72242300 0.69186700 0.67689400
0.73333300 0.72621400 0.69535200 0.68037000
0.73725500 0.73002100 0.69883800 0.68385100
0.74117600 0.73381800 0.70232800 0.68734100
0.74509800 0.73762700 0.70583200 0.69081800
0.74902000 0.74145000 0.70934700 0.69429000
0.75294100 0.74527600 0.71286700 0.69775700
0.75686300 0.74910800 0.71639600 0.70121400
0.76078400 0.75296100 0.71994300 0.70466000
0.76470600 0.75683300 0.72350000 0.70809900
0.76862700 0.76072400 0.72706700 0.71154800
0.77254900 0.76463800 0.73064900 0.71500700
0.77647100 0.76857400 0.73425000 0.71847500
0.78039200 0.77252200 0.73785700 0.72195200
0.78431400 0.77646200 0.74145700 0.72544600
0.78823500 0.78042500 0.74507300 0.72894900
0.79215700 0.78443600 0.74871900 0.73246800
0.79607800 0.78850000 0.75239500 0.73602100
0.80000000 0.79263700 0.75611400 0.73961400
0.80392200 0.79686900 0.75988700 0.74324700
0.80784300 0.80119500 0.76372000 0.74693400
0.81176500 0.80553300 0.76757500 0.75068500
0.81568600 0.80985900 0.77141200 0.75450100
0.81960800 0.81419400 0.77524000 0.75832900
0.82352900 0.81854800 0.77907900 0.76214500
0.82745100 0.82291400 0.78292800 0.76596400
0.83137300 0.82728400 0.78679000 0.76979300
0.83529400 0.83165100 0.79065700 0.77362700
0.83921600 0.83600700 0.79452500 0.77745900
0.84313700 0.84030000 0.79839200 0.78127800
0.84705900 0.84452800 0.80225000 0.78508500
0.85098000 0.84868200 0.80610400 0.78889400
0.85490200 0.85278100 0.80995600 0.79271300
0.85882400 0.85685200 0.81380900 0.79654600
0.86274500 0.86088800 0.81767300 0.80038600
0.86666700 0.86485300 0.82153700 0.80423600
0.87058800 0.86876100 0.82536100 0.80811000
0.87451000 0.87263900 0.82915600 0.81198000
0.87843100 0.87649100 0.83293800 0.81582700
0.88235300 0.88035100 0.83671200 0.81967300
0.88627500 0.88422700 0.84050800 0.82352000
0.89019600 0.88813000 0.84432700 0.82737600
0.89411800 0.89205700 0.84818100 0.83126200
0.89803900 0.89597200 0.85205900 0.83518000
0.90196100 0.89988600 0.85591700 0.83914500
0.90588200 0.90381500 0.85976000 0.84310700
0.90980400 0.90776700 0.86361200 0.84705900
0.91372500 0.91174000 0.86748800 0.85101600
0.91764700 0.91570800 0.87138100 0.85499900
0.92156900 0.91968100 0.87527000 0.85901000
0.92549000 0.92367700 0.87916600 0.86301900
0.92941200 0.92767900 0.88308800 0.86703700
0.93333300 0.93168600 0.88701200 0.87108400
0.93725500 0.93570900 0.89094600 0.87514400
0.94117600 0.93973800 0.89489300 0.87923300
0.94509800 0.94377500 0.89884600 0.88334600
0.94902000 0.94780800 0.90280100 0.88747200
0.95294100 0.95183000 0.90676300 0.89159900
0.95686300 0.95584500 0.91073100 0.89573700
0.96078400 0.95986000 0.91470400 0.89988400
0.96470600 0.96388600 0.91868800 0.90404600
0.96862700 0.96791900 0.92268200 0.90822400
0.97254900 0.97195200 0.92668300 0.91241600
0.97647100 0.97598200 0.93069000 0.91662100
0.98039200 0.98001000 0.93470200 0.92084100
0.98431400 0.98403500 0.93872000 0.92507600
0.98823500 0.98805700 0.94274300 0.92932600
0.99215700 0.99207700 0.94677100 0.93359100
0.99607800 0.99609400 0.95080500 0.93787200
1.00000000 1.00000000 0.95484400 0.94216900
END_DATA
CAL    

DESCRIPTOR "Argyll Calibration options and model"
ORIGINATOR "Argyll dispcal"
CREATED "Mon Sep 28 14:13:56 202"

NUMBER_OF_FIELDS 3
BEGIN_DATA_FORMAT
R_P G_P B_P
END_DATA_FORMAT

NUMBER_OF_SETS 32
BEGIN_DATA
-0.000385310 0.000127749 0.000709297
1.000385000 0.999872000 0.999291000
1.520782000 1.549556000 1.295098000
0.531917000 0.470203000 0.560675000
0.041474000 0.089686900 0.079796100
0.083279800 0.103207000 0.133337000
0.085156900 0.081413100 0.089453900
0.086397400 0.070759800 0.070216900
0.053315000 0.065283900 0.064175700
0.040936200 0.050317100 0.066470300
0.046000000 0.054138300 0.053674600
0.039897900 0.040732400 0.054347900
0.040025200 0.040028000 0.049642000
0.039805800 0.039293300 0.041939900
0.032717500 0.034658500 0.049626000
0.031897700 0.033842200 0.044388400
0.031525200 0.031793000 0.037340100
0.030888200 0.030734000 0.036825500
0.027846600 0.028529100 0.031435400
0.025093100 0.028412200 0.032728400
0.023633600 0.026451600 0.027482000
0.021735200 0.026034500 0.027401400
0.020630300 0.025308100 0.025814000
0.019901800 0.024822500 0.025368100
0.018045300 0.024239000 0.024830400
0.017544200 0.024583600 0.022454600
0.016602600 0.025067400 0.021008900
0.015080900 0.024205700 0.020072200
0.014241700 0.024034400 0.019306700
0.013346800 0.024576600 0.018312800
0.013227500 0.024925800 0.016643600
0.012125700 0.023251500 0.015845600
END_DATA
