AOC/315LM00022/Q3279WG5B #2 2020-09-28 14-08 0.3127x 0.329y sRGB F-S XYZLUT+MTX/Q3279WG5B #2 2020-09-28 14-08 0.3127x 0.329y sRGB F-S XYZLUT+MTX.bpc.ti3
CTI3   

DESCRIPTOR "Argyll Calibration Target chart information 3"
ORIGINATOR "Argyll dispread"
CREATED "Mon Sep 28 14:14:49 2020"
DEVICE_CLASS "DISPLAY"
SINGLE_DIM_STEPS "17"
COMP_GREY_STEPS "49"
DARK_REGION_EMPHASIS "1.6"
COLOR_REP "RGB_XYZ"
TARGET_INSTRUMENT "X-Rite i1 DisplayPro, ColorMunki Display"
DISPLAY_TYPE_REFRESH "NO"
DISPLAY_TYPE_BASE_ID "1"
INSTRUMENT_TYPE_SPECTRAL "NO"
LUMINANCE_XYZ_CDM2 "204.865297 216.126425 235.300104"
NORMALIZED_TO_Y_100 "YES"
VIDEO_LUT_CALIBRATION_POSSIBLE "YES"

BEGIN_ARGYLL_COLPROF_ARGS
-v -qh -aX -bn -C "No copyright. Created with DisplayCAL 3.8.9.3 and ArgyllCMS 2.1.2" -M "Q3279WG5B" -A "AOC"
END_ARGYLL_COLPROF_ARGS

OBSERVER "1931_2"
USE_BLACK_POINT_COMPENSATION "NO"
BLACK_POINT_CORRECTION "0.0"
HIRES_B2A "YES"
HIRES_B2A_SIZE "-1"
SMOOTH_B2A "YES"
PATCH_SEQUENCE "OPTIMIZE_DISPLAY_RESPONSE_DELAY"

NUMBER_OF_FIELDS 7
BEGIN_DATA_FORMAT
SAMPLE_ID RGB_R RGB_G RGB_B XYZ_X XYZ_Y XYZ_Z
END_DATA_FORMAT

NUMBER_OF_SETS 417
BEGIN_DATA
1 100.00000 100.00000 100.00000 94.789560 100.00000 108.87150
2 1.9608000 1.9608000 1.9608000 0.1628914 0.1734448 0.2107319
3 3.9216000 3.9216000 3.9216000 0.3149274 0.3277488 0.3903609
4 5.8824000 5.8824000 5.8824000 0.4969687 0.5288108 0.6185712
5 9.8039000 9.8039000 9.8039000 0.9640788 1.0420346 1.1281220
6 13.726000 13.726000 13.726000 1.6975066 1.7854885 1.9243768
7 17.647000 17.647000 17.647000 2.5532829 2.6413403 3.0094587
8 21.569000 21.569000 21.569000 3.6018697 3.8148831 4.2005949
9 25.490000 25.490000 25.490000 4.8954907 5.1354228 5.7887627
10 29.412000 29.412000 29.412000 6.7227524 7.0756724 7.6566651
11 33.333000 33.333000 33.333000 8.5477590 9.0446280 9.8138727
12 37.255000 37.255000 37.255000 10.611178 11.247069 12.242220
13 41.176000 41.176000 41.176000 12.933207 13.671588 14.959860
14 45.098000 45.098000 45.098000 15.650887 16.487867 17.947319
15 49.020000 49.020000 49.020000 19.198396 20.250657 21.828638
16 52.941000 52.941000 52.941000 22.904315 24.209036 26.238867
17 56.863000 56.863000 56.863000 26.550584 27.964155 29.942526
18 60.784000 60.784000 60.784000 30.752183 32.581694 35.060325
19 64.706000 64.706000 64.706000 35.204452 37.097533 40.084554
20 68.627000 68.627000 68.627000 40.543981 42.763082 46.698693
21 72.549000 72.549000 72.549000 45.714530 48.212921 52.607712
22 76.471000 76.471000 76.471000 51.243649 54.215080 58.784560
23 80.392000 80.392000 80.392000 57.255058 60.435688 65.661769
24 84.314000 84.314000 84.314000 64.068666 67.499507 73.508957
25 88.235000 88.235000 88.235000 70.885245 74.748455 80.831166
26 92.157000 92.157000 92.157000 77.813384 82.236474 89.035764
27 96.078000 96.078000 96.078000 85.657022 90.262202 98.203492
28 14.418000 47.408400 59.764300 12.333297 15.737088 31.863516
29 13.244000 85.509900 60.710800 27.639634 52.155050 37.429375
30 31.292800 73.106500 0.0000000 17.999156 36.541693 3.7322229
31 77.494300 78.334500 0.0000000 42.247651 52.954850 4.6309968
32 100.00000 77.700000 0.0000000 62.195817 61.977678 4.8571617
33 100.00000 100.00000 29.548400 76.939084 94.387061 15.808649
34 100.00000 100.00000 51.791300 80.081393 95.449461 32.166786
35 7.8283000 18.174600 13.002000 1.4574812 2.2196994 1.8799912
36 51.715100 29.073900 19.336700 12.967417 10.072029 3.9844969
37 84.102600 47.403800 55.293200 41.189721 29.742485 28.404007
38 100.00000 51.858200 66.141600 60.170067 41.106562 42.373914
39 17.123300 0.0000000 0.0000000 1.2041642 0.6105857 0.1490259
40 21.428600 0.0000000 0.0000000 1.6932671 0.8420997 0.1600673
41 26.119400 0.0000000 0.0000000 2.5206984 1.2333006 0.1723299
42 31.250000 0.0000000 0.0000000 3.5067559 1.7001825 0.1853301
43 36.885200 0.0000000 0.0000000 4.7801501 2.3021574 0.2016535
44 43.103500 0.0000000 0.0000000 6.5801368 3.1538082 0.2229410
45 50.000000 0.0000000 0.0000000 9.3851816 4.4783589 0.2570039
46 54.032200 0.0000000 0.0000000 11.213737 5.3455587 0.2806505
47 57.692300 0.0000000 0.0000000 12.852787 6.1216066 0.3009916
48 66.326500 0.0000000 0.0000000 17.389696 8.2684461 0.3561506
49 76.087000 0.0000000 0.0000000 23.679125 11.246469 0.4354786
50 78.286800 29.759700 0.0000000 27.824624 17.426997 0.9933675
51 83.388800 34.134800 25.778300 33.658613 21.392276 6.7584403
52 33.895700 17.774600 0.0000000 4.9040904 3.8308801 0.3794035
53 32.973700 30.843000 0.0000000 6.2171205 7.3730373 0.7455816
54 71.535400 42.241100 0.0000000 25.210135 20.468397 1.4747904
55 84.754400 55.101800 41.040900 41.465941 34.642454 16.530949
56 51.299500 51.624100 0.0000000 16.968026 21.377886 1.9531423
57 51.443100 62.083600 23.532000 21.127355 29.329955 7.2972932
58 78.503400 62.459000 52.139700 40.653781 38.428143 26.447757
59 100.00000 33.331300 0.0000000 48.092770 28.183705 1.4140204
60 100.00000 57.046800 0.0000000 53.764279 41.851642 2.7991701
61 100.00000 100.00000 100.00000 94.872160 100.03130 108.87080
62 0.0000000 61.927100 0.0000000 9.7691577 23.632986 2.5454152
63 0.0000000 66.326500 0.0000000 11.452927 27.668885 2.9565601
64 0.0000000 76.087000 0.0000000 15.692877 37.942753 4.0084519
65 0.0000000 87.209300 0.0000000 21.325425 51.595100 5.4049516
66 75.309400 100.00000 0.0000000 53.559109 83.385273 7.8252941
67 100.00000 100.00000 0.0000000 75.488874 94.079721 8.1715330
68 0.0000000 0.0000000 6.0976000 0.1637717 0.1040028 0.5621732
69 0.0000000 0.0000000 9.4937000 0.2387027 0.1265858 0.9523731
70 0.0000000 0.0000000 13.157900 0.3588530 0.1630218 1.5704052
71 0.0000000 0.0000000 17.123300 0.5388830 0.2173998 2.5016331
72 0.0000000 0.0000000 21.428600 0.7636414 0.2856888 3.6665428
73 0.0000000 0.0000000 26.119400 1.0680878 0.3781658 5.2667792
74 0.0000000 0.0000000 31.250000 1.5443121 0.5232968 7.7577876
75 0.0000000 0.0000000 36.885200 2.0811317 0.6871837 10.573325
76 0.0000000 0.0000000 43.103500 2.8713473 0.9283687 14.704477
77 0.0000000 0.0000000 50.000000 3.9940893 1.2694796 20.574864
78 0.0000000 0.0000000 57.692300 5.3255461 1.6775615 27.511626
79 0.0000000 0.0000000 66.326500 7.3089136 2.2836864 37.869029
80 0.0000000 19.895700 69.526800 9.3315348 4.9570528 43.599199
81 19.166500 11.526400 67.646600 9.5692324 4.0131920 40.414115
82 87.137000 18.548500 72.451400 43.153191 20.600037 49.060412
83 100.00000 37.811700 79.299500 60.286147 33.684594 60.537430
84 100.00000 64.872100 83.586800 69.560425 52.856190 70.038598
85 0.0000000 0.0000000 2.9412000 0.1010768 0.0851635 0.2318415
86 3.9683000 3.9683000 3.9683000 0.3148321 0.3276818 0.3902079
87 5.0201000 5.0201000 5.0201000 0.4112409 0.4364078 0.5224804
88 6.0976000 6.0976000 6.0976000 0.5284431 0.5465457 0.6524376
89 7.2016000 7.2016000 7.2016000 0.6303385 0.6548297 0.7625272
90 8.3333000 8.3333000 8.3333000 0.7628665 0.8201057 0.9023083
91 9.4937000 9.4937000 9.4937000 0.9437461 0.9865127 1.1141287
92 10.683800 10.683800 10.683800 1.0982293 1.1531546 1.2834203
93 11.904800 11.904800 11.904800 1.2784699 1.3404596 1.4907345
94 13.157900 13.157900 13.157900 1.6429528 1.6850635 1.8372186
95 14.444400 14.444400 14.444400 1.8614353 1.9702935 2.1327108
96 15.765800 15.765800 15.765800 2.1431337 2.2088804 2.4874954
97 17.123300 17.123300 17.123300 2.4667614 2.5484503 2.8763341
98 18.518500 18.518500 18.518500 2.7444166 2.8624913 3.2839291
99 19.953100 19.953100 19.953100 3.1711954 3.3368672 3.6784458
100 21.428600 21.428600 21.428600 3.6019627 3.8139891 4.1999909
101 22.946900 22.946900 22.946900 4.1465578 4.3684560 4.7385012
102 24.509800 24.509800 24.509800 4.5842788 4.8124899 5.2694093
103 26.119400 26.119400 26.119400 5.3033047 5.5371587 6.0171520
104 27.777800 27.777800 27.777800 6.0314385 6.3242885 6.9643251
105 29.487200 29.487200 29.487200 6.7571784 7.0870534 7.6558741
106 31.250000 31.250000 31.250000 7.5682172 7.9533652 8.8199829
107 33.068800 33.068800 33.068800 8.3169141 8.7963630 9.5543297
108 34.946200 34.946200 34.946200 9.3218668 9.8105388 10.817300
109 36.885200 36.885200 36.885200 10.375698 10.996829 11.967050
110 38.888900 38.888900 38.888900 11.556407 12.093798 13.404620
111 40.960500 40.960500 40.960500 12.669317 13.384318 14.626610
112 43.103500 43.103500 43.103500 14.355097 15.154538 16.622399
113 45.321600 45.321600 45.321600 16.212826 17.124097 18.373779
114 47.619100 47.619100 47.619100 17.842506 18.790187 20.311368
115 50.000000 50.000000 50.000000 20.209866 21.316486 23.043528
116 52.469100 52.469100 52.469100 22.517325 23.826516 25.688397
117 55.031400 55.031400 55.031400 24.517105 25.942515 28.155477
118 57.692300 57.692300 57.692300 27.469224 29.026025 31.063926
119 60.457500 60.457500 60.457500 30.374403 32.104544 34.588526
120 63.333300 63.333300 63.333300 33.303693 35.124544 37.847985
121 66.326500 66.326500 66.326500 37.300582 39.268483 42.780724
122 69.444400 69.444400 69.444400 41.641081 43.929692 47.980693
123 72.695000 72.695000 72.695000 45.716770 48.187401 52.562402
124 76.087000 76.087000 76.087000 50.648659 53.459920 58.027401
125 79.629600 79.629600 79.629600 56.063538 59.063899 64.633699
126 83.333300 83.333300 83.333300 61.884907 65.102687 70.977298
127 87.209300 87.209300 87.209300 69.024615 72.544426 78.467426
128 91.269800 91.269800 91.269800 76.295654 80.670994 87.198115
129 0.0000000 0.0000000 76.087000 10.067725 3.1312852 52.262488
130 0.0000000 0.0000000 87.209300 13.605547 4.2067660 70.692428
131 0.0000000 0.0000000 100.00000 18.959546 5.8147347 98.600190
132 42.631100 27.264400 100.00000 27.853464 13.600568 100.17780
133 75.370100 30.597900 100.00000 45.199520 22.711496 100.41730
134 35.365700 56.093400 25.084700 13.749127 22.027106 7.3557052
135 52.218500 75.579600 31.699900 27.995984 43.537322 12.650120
136 0.0000000 43.103500 0.0000000 4.4704049 10.653789 1.2213205
137 0.0000000 50.000000 0.0000000 6.1940385 14.935148 1.6605554
138 34.761200 55.329400 0.0000000 12.266587 20.950576 2.1101133
139 53.396500 88.659300 0.0000000 33.511283 59.436438 5.8050035
140 83.758400 88.869900 21.054700 54.027199 69.716716 10.029731
141 49.895200 36.063600 0.0000000 12.531337 11.979408 1.0211325
142 71.676000 40.666400 20.921300 25.967324 20.033217 4.9722307
143 100.00000 48.078500 22.798100 52.225099 36.256983 6.5510254
144 48.149900 17.166100 16.762700 9.8431887 6.0471686 2.8844400
145 58.777700 24.284200 29.926500 16.483556 10.398499 7.8715931
146 62.139200 41.012400 45.438400 22.738855 18.295147 18.293649
147 0.0000000 10.499800 16.141100 0.8110587 0.9645057 2.4245472
148 0.0000000 34.255500 52.536700 7.3011523 8.1699722 23.899378
149 0.0000000 52.246900 58.830600 12.543247 18.463847 31.026796
150 23.121700 61.509600 69.723200 20.556656 27.735325 46.975853
151 29.663000 62.975200 83.159700 26.489944 30.858284 67.865569
152 0.0000000 53.500600 100.00000 26.422314 23.525896 101.24580
153 0.0000000 70.347000 100.00000 32.305963 37.820023 102.71500
154 24.933600 77.046700 100.00000 37.999762 46.761051 104.09710
155 56.273600 77.829800 100.00000 48.477070 52.214050 104.46820
156 33.668500 30.621300 40.050300 8.9416149 8.2169931 13.539640
157 34.547000 43.833300 52.057100 13.650417 14.915998 24.531158
158 37.884900 100.00000 58.147100 40.911971 76.330485 37.017085
159 32.754700 66.167800 17.335500 16.214356 30.258505 5.7050255
160 50.548700 86.340200 23.572300 32.068793 56.191659 10.100871
161 56.494500 90.921300 47.062200 40.333151 64.905367 25.050977
162 79.287800 88.745100 44.338600 52.359559 68.083657 22.458328
163 85.823300 97.114800 67.983100 68.327136 85.092563 50.022872
164 85.101900 100.00000 84.055600 74.333014 91.041012 75.531457
165 84.820400 20.657900 12.723900 32.013963 17.242147 2.3557612
166 100.00000 30.268600 26.038600 48.696150 27.278875 6.9495333
167 100.00000 37.507300 45.236800 52.247119 31.154634 18.761889
168 89.392900 14.831100 30.001600 36.726212 18.338667 8.2405420
169 100.00000 84.464600 27.924500 67.184206 71.078566 12.677720
170 100.00000 84.432100 51.597500 70.358085 72.005556 29.459447
171 39.337200 25.034100 76.442100 17.533196 9.5218239 54.278261
172 48.128700 46.398500 87.084500 27.999084 21.390556 73.223167
173 12.342500 8.5089000 31.331600 2.4360082 1.3817226 8.0515807
174 19.691900 16.534900 46.194200 5.5356848 3.4605051 17.603990
175 67.951100 18.867600 63.846000 26.433194 13.150278 36.176905
176 76.177300 29.152600 81.296500 38.063052 20.165747 62.320880
177 71.748400 0.0000000 37.942800 23.259315 10.671609 12.064130
178 85.225700 65.027700 40.996500 45.174830 42.947742 17.517129
179 84.368900 80.027600 44.393500 51.768689 58.783729 21.431778
180 86.305900 79.855700 60.205400 56.624138 60.566488 37.215365
181 0.0000000 73.324000 27.676400 15.850646 35.761603 9.9864836
182 30.858500 73.424000 35.039000 20.284766 37.998063 13.875680
183 34.316500 79.679000 52.148000 26.580724 46.031591 27.933877
184 0.0000000 72.163800 61.756300 20.367436 35.960393 36.477085
185 17.574700 77.779800 87.861100 31.852413 44.840742 77.603177
186 0.0000000 0.0000000 0.0000000 0.0727507 0.0768084 0.0835644
187 0.0000000 15.700400 43.740400 3.6043956 2.4637473 15.485736
188 12.436900 25.438100 47.774500 5.8303655 5.1364418 19.122527
189 23.725000 51.909500 47.021200 12.473057 18.722297 20.040619
190 44.266700 56.883300 48.231900 19.465036 24.786806 21.794238
191 65.343400 63.218600 53.520600 32.717643 35.171014 27.481667
192 64.604100 74.401200 79.482700 43.750281 48.519771 63.589659
193 73.244200 74.333700 86.251600 51.496109 51.803060 75.045547
194 82.288500 78.440600 100.00000 65.639186 61.213238 104.88450
195 14.059500 0.0000000 13.981900 1.2079852 0.5568977 1.8454924
196 15.004700 9.3044000 18.308100 1.8173664 1.3368576 3.1207811
197 54.714500 4.3535000 78.770900 22.803815 9.1707900 57.445271
198 56.097800 21.091700 91.276600 28.721694 13.255518 80.110046
199 60.507800 44.786500 100.00000 38.801512 24.771136 101.07740
200 23.007200 84.108300 73.321900 31.379113 51.756970 54.600311
201 21.471000 88.101200 87.735500 38.186252 59.009109 79.151296
202 24.605900 86.749400 19.449600 24.258005 52.781970 8.7195279
203 21.502700 87.859000 40.595400 26.361304 54.747929 19.290419
204 76.090100 59.586800 0.0000000 33.317383 33.877764 2.7273291
205 82.335800 63.773400 25.517600 40.654951 40.084863 8.6678069
206 72.509100 89.272300 13.036500 45.174040 66.060207 7.8197111
207 79.034000 100.00000 55.945400 61.896947 86.509953 35.548195
208 100.00000 100.00000 100.00000 94.864120 100.05090 108.95920
209 38.834200 52.485300 70.156000 21.308885 22.575406 46.350043
210 43.156800 83.279300 81.578900 38.476752 54.088020 67.369109
211 61.302900 86.900800 89.048600 51.470619 64.005468 81.230396
212 21.367800 14.852000 86.591500 15.845596 6.3974205 70.782927
213 23.203700 30.342400 89.730900 18.905656 10.791109 76.877317
214 32.693200 63.569000 100.00000 33.938643 33.664824 102.44430
215 60.855800 64.594900 100.00000 45.444260 40.062593 103.16720
216 100.00000 66.447200 100.00000 76.862944 56.597099 104.19560
217 100.00000 86.252700 100.00000 86.390352 79.415344 106.89540
218 0.0000000 50.747700 25.632500 7.3639683 15.691138 6.8888513
219 0.0000000 71.381400 45.479200 16.869586 33.999754 20.230078
220 0.0000000 100.00000 49.150600 33.592603 73.134626 27.754457
221 0.0000000 100.00000 67.909300 37.707042 74.361395 49.255662
222 0.0000000 100.00000 85.296900 42.892291 75.877815 76.285127
223 0.0000000 100.00000 100.00000 48.894680 77.778005 107.44140
224 100.00000 0.0000000 59.673100 51.027129 23.177886 31.660556
225 100.00000 0.0000000 78.650600 56.297658 24.813716 58.690720
226 1.9380000 1.9380000 1.9380000 0.1630613 0.1735608 0.2108988
227 2.9412000 2.9412000 2.9412000 0.2222414 0.2289158 0.2732041
228 36.851600 14.381200 7.9017000 5.6091302 3.7895801 1.0067001
229 62.391700 14.436700 17.718500 16.424736 8.8521410 3.1746851
230 87.209300 0.0000000 0.0000000 32.715903 15.521818 0.5484086
231 100.00000 0.0000000 0.0000000 43.539191 20.651237 0.6982056
232 0.0000000 0.0000000 0.0000000 0.0728736 0.0768522 0.0837174
233 32.449900 24.909500 46.803400 8.8195169 6.5237215 18.220799
234 40.848000 49.791400 80.310000 24.055295 21.671646 62.120750
235 58.023200 55.790400 81.810600 33.672313 29.557615 65.271749
236 56.749200 65.477300 85.314500 37.728832 37.924953 71.945268
237 78.799500 90.047700 85.586100 63.374127 73.472806 75.843527
238 100.00000 100.00000 89.080200 90.121121 98.485950 84.472165
239 0.0000000 26.119400 0.0000000 1.6343433 3.8541601 0.5276515
240 0.0000000 32.183400 21.260200 3.1716051 6.1553206 4.2589197
241 13.906800 31.964500 28.707300 4.6132128 6.8126504 7.3949961
242 28.778100 35.613800 62.620200 12.734657 10.956169 34.942615
243 87.121700 47.794800 92.443700 54.976088 34.803314 84.731015
244 24.818600 0.0000000 28.276200 3.4812752 1.4816416 6.5286043
245 45.168700 0.0000000 34.576100 9.2122215 4.0965390 9.6463054
246 56.599300 9.7488000 34.303300 14.622057 7.2471194 9.7299386
247 64.091600 53.219600 50.428800 28.021464 26.886145 23.896968
248 68.255500 57.091800 64.080900 34.536483 31.723454 38.299575
249 87.193700 74.012900 69.467200 56.959578 54.859949 48.985263
250 53.002900 21.766000 0.0000000 11.946687 7.9681502 0.5619716
251 65.745700 23.940700 11.175000 19.046446 11.741048 1.9189723
252 75.757300 23.159100 32.877300 26.731384 14.971508 9.6113377
253 86.244900 47.745900 45.309300 41.434371 30.368455 19.177849
254 100.00000 72.082500 53.768700 64.818596 57.864409 29.658287
255 100.00000 86.402200 73.537200 76.822044 76.351085 57.396211
256 15.554300 18.369500 0.0000000 1.9002329 2.5316243 0.3571801
257 20.457500 25.869200 16.013400 3.6567780 4.7387899 2.8887581
258 86.354200 49.262800 15.591400 38.905452 30.379685 4.4173838
259 86.784400 77.451500 13.160200 49.900039 55.955579 6.4116704
260 100.00000 100.00000 100.00000 94.905420 100.06650 108.95880
261 0.0000000 34.224900 39.464600 5.2256327 7.5389413 13.096880
262 20.623600 41.525500 43.238200 8.7148730 11.765308 16.268839
263 30.131800 67.214300 55.743300 20.602155 32.239434 29.816017
264 40.438000 68.110100 68.557900 26.920144 35.779783 46.222303
265 38.781000 95.449200 69.659900 40.836691 69.284446 51.848402
266 39.978100 100.00000 83.497200 48.565860 78.779364 73.960857
267 66.357200 100.00000 88.505800 62.543547 85.305063 82.913805
268 49.447900 33.927100 13.295400 12.476917 11.408708 2.5751422
269 69.503300 34.757700 30.368200 24.120305 16.973037 8.6244129
270 28.997700 0.0000000 16.109800 3.6002009 1.6690275 2.4749127
271 48.102800 0.0000000 53.710000 13.302617 5.5504307 24.467036
272 54.520500 22.525200 69.886900 21.390675 11.154669 44.837903
273 61.878400 46.481000 76.026400 31.133903 23.685206 55.011701
274 77.268200 53.150500 77.167100 43.272671 33.182714 58.327081
275 86.471800 67.096000 76.759600 55.771868 48.262811 59.092780
276 88.722700 80.567300 88.914500 67.169386 64.666417 80.825546
277 95.528500 95.528500 95.528500 85.119312 89.522062 97.236222
278 18.361600 33.174800 21.413300 4.7216908 7.3656143 4.5620037
279 29.575800 40.894600 34.258100 9.1095369 11.809378 10.592261
280 63.371000 42.834000 36.104000 22.644465 19.162137 11.944420
281 76.335300 45.123300 62.512300 35.942322 25.705976 35.714845
282 0.0000000 9.4937000 0.0000000 0.3369200 0.7089117 0.2028271
283 0.0000000 13.157900 0.0000000 0.5354180 1.1908396 0.2567541
284 0.0000000 17.123300 0.0000000 0.7881714 1.8036105 0.3192619
285 0.0000000 21.428600 0.0000000 1.1658143 2.7174233 0.4124921
286 29.994700 29.619700 12.166000 5.7591636 6.9271094 2.1378952
287 47.136000 36.604700 28.958100 12.958997 12.216528 7.9006001
288 79.700200 57.710100 100.00000 55.007558 40.074763 102.49360
289 27.062700 0.0000000 46.984100 6.1612679 2.3812124 18.015708
290 68.273100 0.0000000 76.104500 28.972104 12.047268 53.178492
291 87.689900 16.177900 88.572300 48.654450 22.020456 75.467897
292 0.0000000 0.0000000 0.0000000 0.0728820 0.0768882 0.0837094
293 6.0976000 0.0000000 0.0000000 0.2912133 0.1796518 0.1056025
294 8.7134000 14.299400 55.006900 5.7974037 3.0203832 25.418549
295 22.467000 25.420700 64.152100 10.310618 6.7385855 36.227815
296 61.562300 32.895400 63.500800 24.684705 15.771868 36.159765
297 72.356000 0.0000000 56.434200 26.660154 11.788648 27.357277
298 85.909800 13.431200 57.902100 37.671332 17.903537 29.489947
299 100.00000 29.375400 58.884200 53.359079 28.602445 31.540176
300 0.0000000 31.250000 0.0000000 2.3402433 5.5674527 0.7023814
301 0.0000000 36.885200 0.0000000 3.2663031 7.7786492 0.9292255
302 0.0000000 57.692300 0.0000000 8.5151270 20.565947 2.2353483
303 0.0000000 100.00000 28.163400 31.024453 72.286516 14.205610
304 46.956000 100.00000 35.887000 40.443431 76.674055 18.476219
305 50.551300 0.0000000 19.893700 10.355918 4.8380329 3.4893520
306 53.331100 26.353900 39.158200 15.103917 10.023549 13.014260
307 72.466600 31.850400 43.840300 27.047424 17.165667 16.739039
308 2.9412000 0.0000000 0.0000000 0.1445003 0.1105698 0.0914905
309 9.4937000 0.0000000 0.0000000 0.4819185 0.2695978 0.1192624
310 13.157900 0.0000000 0.0000000 0.8096452 0.4243718 0.1357877
311 23.921800 37.480500 0.0000000 5.5175156 9.2074339 0.9997445
312 90.758200 62.610100 11.220200 46.653080 42.287212 4.4864708
313 100.00000 67.408600 28.728700 59.359607 52.023990 11.028420
314 42.599300 47.757200 10.933700 12.645417 17.030487 2.8492431
315 66.029900 48.996300 14.526200 23.984955 23.141126 3.8554489
316 71.885400 67.648600 17.796400 34.270713 40.223322 6.2889464
317 15.155900 43.516800 26.058400 6.6561724 11.948358 6.7298743
318 17.261800 43.399500 65.205500 12.922557 13.928768 38.155275
319 22.616800 48.442500 87.867400 21.999765 19.706717 74.693547
320 5.9586000 10.176200 21.916800 1.3049084 1.1047276 4.0501260
321 23.467600 12.136400 27.366300 3.6355496 2.3755564 6.1437824
322 40.406600 15.926800 43.406900 9.5283838 5.3679507 15.752348
323 43.330600 32.967300 64.543600 16.593826 11.856298 37.448775
324 51.218900 52.797500 63.548000 24.320405 24.535186 37.191915
325 65.526600 59.323900 73.862500 36.435322 33.715794 52.988782
326 100.00000 100.00000 73.029200 85.181812 96.991821 58.406581
327 54.985000 70.659500 0.0000000 24.992055 37.865793 3.5812010
328 66.042800 75.130900 25.596200 34.332163 46.414901 9.7198167
329 100.00000 83.177400 85.015200 78.568203 73.284566 74.904527
330 34.097600 25.280200 14.060800 6.1293545 5.7553357 2.3392300
331 42.439300 27.745600 29.139900 9.7752877 8.0682132 7.4632661
332 50.434800 55.621800 39.965900 20.425946 24.789456 15.252530
333 55.165000 68.921700 41.995600 27.687644 37.789783 18.105859
334 61.733700 70.600900 59.628900 34.788843 41.701512 34.682275
335 71.830600 81.829600 60.859300 46.662180 57.733479 37.847715
336 0.0000000 21.024900 20.690000 1.7990032 2.8663193 3.8197400
337 13.141400 23.126800 27.533800 3.2960119 3.9154700 6.3840608
338 43.686200 28.231100 43.605000 11.928067 8.9657080 16.304289
339 49.812200 39.677800 46.331100 16.765106 14.776948 18.765559
340 73.949400 0.0000000 20.399600 23.373365 10.993339 3.7447529
341 85.496000 17.618100 43.112500 34.968212 17.625007 16.105449
342 86.007600 34.584600 60.735600 40.947791 24.040106 33.587856
343 85.699900 43.940500 75.328300 46.788560 29.907195 53.821641
344 33.152800 50.160400 33.100300 12.166167 17.853037 10.527681
345 38.553400 52.051500 52.921300 17.139196 20.982536 25.986657
346 0.0000000 48.562400 41.250100 8.5155710 14.999758 15.111470
347 0.0000000 48.473300 77.552400 16.484736 17.493357 56.626561
348 23.045400 56.550000 86.182900 23.781355 24.996826 72.381008
349 31.953100 72.871700 86.677200 32.074393 41.224062 74.988957
350 81.927800 100.00000 100.00000 78.360053 92.065492 108.81360
351 19.001600 16.942600 7.5794000 2.2336972 2.4845723 0.9297620
352 19.801500 32.780200 10.444600 4.3393289 7.1270054 1.8884633
353 40.416300 40.708400 30.342300 11.378417 12.956558 8.6573689
354 58.335400 51.607700 38.445100 22.904685 24.002446 14.231030
355 59.736200 83.111200 56.478000 39.086502 55.461889 32.473576
