AOC/315LM00022/Q3279WG5B #2 2020-09-28 14-08 0.3127x 0.329y sRGB F-S XYZLUT+MTX/Q3279WG5B #2 2020-09-28 14-08 0.3127x 0.329y sRGB F-S XYZLUT+MTX.ti3
CTI3   

DESCRIPTOR "Argyll Calibration Target chart information 3"
ORIGINATOR "Argyll dispread"
CREATED "Mon Sep 28 14:14:49 2020"
DEVICE_CLASS "DISPLAY"
SINGLE_DIM_STEPS "17"
COMP_GREY_STEPS "49"
DARK_REGION_EMPHASIS "1.6"
COLOR_REP "RGB_XYZ"
TARGET_INSTRUMENT "X-Rite i1 DisplayPro, ColorMunki Display"
DISPLAY_TYPE_REFRESH "NO"
DISPLAY_TYPE_BASE_ID "1"
INSTRUMENT_TYPE_SPECTRAL "NO"
LUMINANCE_XYZ_CDM2 "204.865297 216.126425 235.300104"
NORMALIZED_TO_Y_100 "YES"
VIDEO_LUT_CALIBRATION_POSSIBLE "YES"

BEGIN_ARGYLL_COLPROF_ARGS
-v -qh -aX -bn -C "No copyright. Created with DisplayCAL 3.8.9.3 and ArgyllCMS 2.1.2" -M "Q3279WG5B" -A "AOC"
END_ARGYLL_COLPROF_ARGS

OBSERVER "1931_2"
USE_BLACK_POINT_COMPENSATION "NO"
BLACK_POINT_CORRECTION "0.0"
HIRES_B2A "YES"
HIRES_B2A_SIZE "-1"
SMOOTH_B2A "YES"
PATCH_SEQUENCE "OPTIMIZE_DISPLAY_RESPONSE_DELAY"

NUMBER_OF_FIELDS 7
BEGIN_DATA_FORMAT
SAMPLE_ID RGB_R RGB_G RGB_B XYZ_X XYZ_Y XYZ_Z
END_DATA_FORMAT

NUMBER_OF_SETS 417
BEGIN_DATA
1 100.00000 100.00000 100.00000 94.789560 100.00000 108.87150
2 1.9608000 1.9608000 1.9608000 0.1650880 0.1734240 0.2528810
3 3.9216000 3.9216000 3.9216000 0.3161610 0.3277280 0.4141860
4 5.8824000 5.8824000 5.8824000 0.4975380 0.5287900 0.6297550
5 9.8039000 9.8039000 9.8039000 0.9641500 1.0420140 1.1298490
6 13.726000 13.726000 13.726000 1.6975010 1.7854680 1.9246150
7 17.647000 17.647000 17.647000 2.5532660 2.6413200 3.0094830
8 21.569000 21.569000 21.569000 3.6018510 3.8148630 4.2005790
9 25.490000 25.490000 25.490000 4.8954720 5.1354030 5.7887420
10 29.412000 29.412000 29.412000 6.7227340 7.0756530 7.6566440
11 33.333000 33.333000 33.333000 8.5477410 9.0446090 9.8138520
12 37.255000 37.255000 37.255000 10.611160 11.247050 12.242200
13 41.176000 41.176000 41.176000 12.933190 13.671570 14.959840
14 45.098000 45.098000 45.098000 15.650870 16.487850 17.947300
15 49.020000 49.020000 49.020000 19.198380 20.250640 21.828620
16 52.941000 52.941000 52.941000 22.904300 24.209020 26.238850
17 56.863000 56.863000 56.863000 26.550570 27.964140 29.942510
18 60.784000 60.784000 60.784000 30.752170 32.581680 35.060310
19 64.706000 64.706000 64.706000 35.204440 37.097520 40.084540
20 68.627000 68.627000 68.627000 40.543970 42.763070 46.698680
21 72.549000 72.549000 72.549000 45.714520 48.212910 52.607700
22 76.471000 76.471000 76.471000 51.243640 54.215070 58.784550
23 80.392000 80.392000 80.392000 57.255050 60.435680 65.661760
24 84.314000 84.314000 84.314000 64.068660 67.499500 73.508950
25 88.235000 88.235000 88.235000 70.885240 74.748450 80.831160
26 92.157000 92.157000 92.157000 77.813380 82.236470 89.035760
27 96.078000 96.078000 96.078000 85.657020 90.262200 98.203490
28 14.418000 47.408400 59.764300 12.333280 15.737070 31.863500
29 13.244000 85.509900 60.710800 27.639620 52.155040 37.429360
30 31.292800 73.106500 0.0000000 17.999140 36.541680 3.7322010
31 77.494300 78.334500 0.0000000 42.247640 52.954840 4.6309750
32 100.00000 77.700000 0.0000000 62.195810 61.977670 4.8571400
33 100.00000 100.00000 29.548400 76.939080 94.387060 15.808630
34 100.00000 100.00000 51.791300 80.081390 95.449460 32.166770
35 7.8283000 18.174600 13.002000 1.4574660 2.2196790 1.8800560
36 51.715100 29.073900 19.336700 12.967400 10.072010 3.9844750
37 84.102600 47.403800 55.293200 41.189710 29.742470 28.403990
38 100.00000 51.858200 66.141600 60.170060 41.106550 42.373900
39 17.123300 0.0000000 0.0000000 1.2046930 0.6105650 0.1572120
40 21.428600 0.0000000 0.0000000 1.6935290 0.8420790 0.1634000
41 26.119400 0.0000000 0.0000000 2.5207690 1.2332800 0.1731290
42 31.250000 0.0000000 0.0000000 3.5067650 1.7001620 0.1855140
43 36.885200 0.0000000 0.0000000 4.7801390 2.3021370 0.2016770
44 43.103500 0.0000000 0.0000000 6.5801200 3.1537880 0.2229260
45 50.000000 0.0000000 0.0000000 9.3851640 4.4783390 0.2569820
46 54.032200 0.0000000 0.0000000 11.213720 5.3455390 0.2806280
47 57.692300 0.0000000 0.0000000 12.852770 6.1215870 0.3009690
48 66.326500 0.0000000 0.0000000 17.389680 8.2684270 0.3561280
49 76.087000 0.0000000 0.0000000 23.679110 11.246450 0.4354560
50 78.286800 29.759700 0.0000000 27.824610 17.426980 0.9933450
51 83.388800 34.134800 25.778300 33.658600 21.392260 6.7584190
52 33.895700 17.774600 0.0000000 4.9040720 3.8308600 0.3793830
53 32.973700 30.843000 0.0000000 6.2171020 7.3730180 0.7455590
54 71.535400 42.241100 0.0000000 25.210120 20.468380 1.4747680
55 84.754400 55.101800 41.040900 41.465930 34.642440 16.530930
56 51.299500 51.624100 0.0000000 16.968010 21.377870 1.9531200
57 51.443100 62.083600 23.532000 21.127340 29.329940 7.2972720
58 78.503400 62.459000 52.139700 40.653770 38.428130 26.447740
59 100.00000 33.331300 0.0000000 48.092760 28.183690 1.4139980
60 100.00000 57.046800 0.0000000 53.764270 41.851630 2.7991480
61 100.00000 100.00000 100.00000 94.872160 100.03130 108.87080
62 0.0000000 61.927100 0.0000000 9.7691400 23.632970 2.5453930
63 0.0000000 66.326500 0.0000000 11.452910 27.668870 2.9565380
64 0.0000000 76.087000 0.0000000 15.692860 37.942740 4.0084300
65 0.0000000 87.209300 0.0000000 21.325410 51.595090 5.4049300
66 75.309400 100.00000 0.0000000 53.559100 83.385270 7.8252730
67 100.00000 100.00000 0.0000000 75.488870 94.079720 8.1715120
68 0.0000000 0.0000000 6.0976000 0.1666090 0.1039820 0.6165130
69 0.0000000 0.0000000 9.4937000 0.2413140 0.1265650 1.0028990
70 0.0000000 0.0000000 13.157900 0.3611360 0.1630010 1.6317850
71 0.0000000 0.0000000 17.123300 0.5407490 0.2173790 2.5699340
72 0.0000000 0.0000000 21.428600 0.7650870 0.2856680 3.7348250
73 0.0000000 0.0000000 26.119400 1.0692870 0.3781450 5.3282490
74 0.0000000 0.0000000 31.250000 1.5451950 0.5232760 7.8037790
75 0.0000000 0.0000000 36.885200 2.0817010 0.6871630 10.603520
76 0.0000000 0.0000000 43.103500 2.8716140 0.9283480 14.719200
77 0.0000000 0.0000000 50.000000 3.9941790 1.2694590 20.580470
78 0.0000000 0.0000000 57.692300 5.3255670 1.6775410 27.513660
79 0.0000000 0.0000000 66.326500 7.3089060 2.2836660 37.869570
80 0.0000000 19.895700 69.526800 9.3315170 4.9570330 43.599190
81 19.166500 11.526400 67.646600 9.5692150 4.0131720 40.414120
82 87.137000 18.548500 72.451400 43.153180 20.600020 49.060400
83 100.00000 37.811700 79.299500 60.286140 33.684580 60.537420
84 100.00000 64.872100 83.586800 69.560420 52.856180 70.038590
85 0.0000000 0.0000000 2.9412000 0.1041170 0.0851427 0.2900420
86 3.9683000 3.9683000 3.9683000 0.3160660 0.3276610 0.4140390
87 5.0201000 5.0201000 5.0201000 0.4120560 0.4363870 0.5383420
88 6.0976000 6.0976000 6.0976000 0.5289740 0.5465250 0.6628920
89 7.2016000 7.2016000 7.2016000 0.6306830 0.6548090 0.7694340
90 8.3333000 8.3333000 8.3333000 0.7630390 0.8200850 0.9059420
91 9.4937000 9.4937000 9.4937000 0.9438360 0.9864920 1.1162290
92 10.683800 10.683800 10.683800 1.0982770 1.1531340 1.2846940
93 11.904800 11.904800 11.904800 1.2784910 1.3404390 1.4914940
94 13.157900 13.157900 13.157900 1.6429510 1.6850430 1.8375270
95 14.444400 14.444400 14.444400 1.8614250 1.9702730 2.1328620
96 15.765800 15.765800 15.765800 2.1431200 2.2088600 2.4875810
97 17.123300 17.123300 17.123300 2.4667450 2.5484300 2.8763670
98 18.518500 18.518500 18.518500 2.7443990 2.8624710 3.2839380
99 19.953100 19.953100 19.953100 3.1711770 3.3368470 3.6784370
100 21.428600 21.428600 21.428600 3.6019440 3.8139690 4.1999750
101 22.946900 22.946900 22.946900 4.1465390 4.3684360 4.7384820
102 24.509800 24.509800 24.509800 4.5842600 4.8124700 5.2693890
103 26.119400 26.119400 26.119400 5.3032860 5.5371390 6.0171310
104 27.777800 27.777800 27.777800 6.0314200 6.3242690 6.9643040
105 29.487200 29.487200 29.487200 6.7571600 7.0870340 7.6558530
106 31.250000 31.250000 31.250000 7.5681990 7.9533460 8.8199620
107 33.068800 33.068800 33.068800 8.3168960 8.7963440 9.5543090
108 34.946200 34.946200 34.946200 9.3218490 9.8105200 10.817280
109 36.885200 36.885200 36.885200 10.375680 10.996810 11.967030
110 38.888900 38.888900 38.888900 11.556390 12.093780 13.404600
111 40.960500 40.960500 40.960500 12.669300 13.384300 14.626590
112 43.103500 43.103500 43.103500 14.355080 15.154520 16.622380
113 45.321600 45.321600 45.321600 16.212810 17.124080 18.373760
114 47.619100 47.619100 47.619100 17.842490 18.790170 20.311350
115 50.000000 50.000000 50.000000 20.209850 21.316470 23.043510
116 52.469100 52.469100 52.469100 22.517310 23.826500 25.688380
117 55.031400 55.031400 55.031400 24.517090 25.942500 28.155460
118 57.692300 57.692300 57.692300 27.469210 29.026010 31.063910
119 60.457500 60.457500 60.457500 30.374390 32.104530 34.588510
120 63.333300 63.333300 63.333300 33.303680 35.124530 37.847970
121 66.326500 66.326500 66.326500 37.300570 39.268470 42.780710
122 69.444400 69.444400 69.444400 41.641070 43.929680 47.980680
123 72.695000 72.695000 72.695000 45.716760 48.187390 52.562390
124 76.087000 76.087000 76.087000 50.648650 53.459910 58.027390
125 79.629600 79.629600 79.629600 56.063530 59.063890 64.633690
126 83.333300 83.333300 83.333300 61.884900 65.102680 70.977290
127 87.209300 87.209300 87.209300 69.024610 72.544420 78.467420
128 91.269800 91.269800 91.269800 76.295650 80.670990 87.198110
129 0.0000000 0.0000000 76.087000 10.067710 3.1312650 52.262590
130 0.0000000 0.0000000 87.209300 13.605530 4.2067460 70.692440
131 0.0000000 0.0000000 100.00000 18.959530 5.8147150 98.600190
132 42.631100 27.264400 100.00000 27.853450 13.600550 100.17780
133 75.370100 30.597900 100.00000 45.199510 22.711480 100.41730
134 35.365700 56.093400 25.084700 13.749110 22.027090 7.3556840
135 52.218500 75.579600 31.699900 27.995970 43.537310 12.650100
136 0.0000000 43.103500 0.0000000 4.4703860 10.653770 1.2212980
137 0.0000000 50.000000 0.0000000 6.1940200 14.935130 1.6605330
138 34.761200 55.329400 0.0000000 12.266570 20.950560 2.1100910
139 53.396500 88.659300 0.0000000 33.511270 59.436430 5.8049820
140 83.758400 88.869900 21.054700 54.027190 69.716710 10.029710
141 49.895200 36.063600 0.0000000 12.531320 11.979390 1.0211100
142 71.676000 40.666400 20.921300 25.967310 20.033200 4.9722090
143 100.00000 48.078500 22.798100 52.225090 36.256970 6.5510040
144 48.149900 17.166100 16.762700 9.8431710 6.0471490 2.8844180
145 58.777700 24.284200 29.926500 16.483540 10.398480 7.8715720
146 62.139200 41.012400 45.438400 22.738840 18.295130 18.293630
147 0.0000000 10.499800 16.141100 0.8111490 0.9644850 2.4283930
148 0.0000000 34.255500 52.536700 7.3011340 8.1699530 23.899360
149 0.0000000 52.246900 58.830600 12.543230 18.463830 31.026780
150 23.121700 61.509600 69.723200 20.556640 27.735310 46.975840
151 29.663000 62.975200 83.159700 26.489930 30.858270 67.865560
152 0.0000000 53.500600 100.00000 26.422300 23.525880 101.24580
153 0.0000000 70.347000 100.00000 32.305950 37.820010 102.71500
154 24.933600 77.046700 100.00000 37.999750 46.761040 104.09710
155 56.273600 77.829800 100.00000 48.477060 52.214040 104.46820
156 33.668500 30.621300 40.050300 8.9415970 8.2169740 13.539620
157 34.547000 43.833300 52.057100 13.650400 14.915980 24.531140
158 37.884900 100.00000 58.147100 40.911960 76.330480 37.017070
159 32.754700 66.167800 17.335500 16.214340 30.258490 5.7050040
160 50.548700 86.340200 23.572300 32.068780 56.191650 10.100850
161 56.494500 90.921300 47.062200 40.333140 64.905360 25.050960
162 79.287800 88.745100 44.338600 52.359550 68.083650 22.458310
163 85.823300 97.114800 67.983100 68.327130 85.092560 50.022860
164 85.101900 100.00000 84.055600 74.333010 91.041010 75.531450
165 84.820400 20.657900 12.723900 32.013950 17.242130 2.3557390
166 100.00000 30.268600 26.038600 48.696140 27.278860 6.9495120
167 100.00000 37.507300 45.236800 52.247110 31.154620 18.761870
168 89.392900 14.831100 30.001600 36.726200 18.338650 8.2405210
169 100.00000 84.464600 27.924500 67.184200 71.078560 12.677700
170 100.00000 84.432100 51.597500 70.358080 72.005550 29.459430
171 39.337200 25.034100 76.442100 17.533180 9.5218050 54.278250
172 48.128700 46.398500 87.084500 27.999070 21.390540 73.223160
173 12.342500 8.5089000 31.331600 2.4360440 1.3817020 8.0536800
174 19.691900 16.534900 46.194200 5.5356670 3.4604850 17.604000
175 67.951100 18.867600 63.846000 26.433180 13.150260 36.176890
176 76.177300 29.152600 81.296500 38.063040 20.165730 62.320870
177 71.748400 0.0000000 37.942800 23.259300 10.671590 12.064110
178 85.225700 65.027700 40.996500 45.174820 42.947730 17.517110
179 84.368900 80.027600 44.393500 51.768680 58.783720 21.431760
180 86.305900 79.855700 60.205400 56.624130 60.566480 37.215350
181 0.0000000 73.324000 27.676400 15.850630 35.761590 9.9864630
182 30.858500 73.424000 35.039000 20.284750 37.998050 13.875660
183 34.316500 79.679000 52.148000 26.580710 46.031580 27.933860
184 0.0000000 72.163800 61.756300 20.367420 35.960380 36.477070
185 17.574700 77.779800 87.861100 31.852400 44.840730 77.603170
186 0.0000000 0.0000000 0.0000000 0.0758844 0.0767876 0.1435440
187 0.0000000 15.700400 43.740400 3.6043810 2.4637270 15.485920
188 12.436900 25.438100 47.774500 5.8303470 5.1364220 19.122510
189 23.725000 51.909500 47.021200 12.473040 18.722280 20.040600
190 44.266700 56.883300 48.231900 19.465020 24.786790 21.794220
191 65.343400 63.218600 53.520600 32.717630 35.171000 27.481650
192 64.604100 74.401200 79.482700 43.750270 48.519760 63.589650
193 73.244200 74.333700 86.251600 51.496100 51.803050 75.045540
194 82.288500 78.440600 100.00000 65.639180 61.213230 104.88450
195 14.059500 0.0000000 13.981900 1.2086400 0.5568770 1.8610330
196 15.004700 9.3044000 18.308100 1.8173990 1.3368370 3.1220530
197 54.714500 4.3535000 78.770900 22.803800 9.1707710 57.445260
198 56.097800 21.091700 91.276600 28.721680 13.255500 80.110040
199 60.507800 44.786500 100.00000 38.801500 24.771120 101.07740
200 23.007200 84.108300 73.321900 31.379100 51.756960 54.600300
201 21.471000 88.101200 87.735500 38.186240 59.009100 79.151290
202 24.605900 86.749400 19.449600 24.257990 52.781960 8.7195070
203 21.502700 87.859000 40.595400 26.361290 54.747920 19.290400
204 76.090100 59.586800 0.0000000 33.317370 33.877750 2.7273070
205 82.335800 63.773400 25.517600 40.654940 40.084850 8.6677860
206 72.509100 89.272300 13.036500 45.174030 66.060200 7.8196900
207 79.034000 100.00000 55.945400 61.896940 86.509950 35.548180
208 100.00000 100.00000 100.00000 94.864120 100.05090 108.95920
209 38.834200 52.485300 70.156000 21.308870 22.575390 46.350030
210 43.156800 83.279300 81.578900 38.476740 54.088010 67.369100
211 61.302900 86.900800 89.048600 51.470610 64.005460 81.230390
212 21.367800 14.852000 86.591500 15.845580 6.3974010 70.782920
213 23.203700 30.342400 89.730900 18.905640 10.791090 76.877310
214 32.693200 63.569000 100.00000 33.938630 33.664810 102.44430
215 60.855800 64.594900 100.00000 45.444250 40.062580 103.16720
216 100.00000 66.447200 100.00000 76.862940 56.597090 104.19560
217 100.00000 86.252700 100.00000 86.390350 79.415340 106.89540
218 0.0000000 50.747700 25.632500 7.3639500 15.691120 6.8888300
219 0.0000000 71.381400 45.479200 16.869570 33.999740 20.230060
220 0.0000000 100.00000 49.150600 33.592590 73.134620 27.754440
221 0.0000000 100.00000 67.909300 37.707030 74.361390 49.255650
222 0.0000000 100.00000 85.296900 42.892280 75.877810 76.285120
223 0.0000000 100.00000 100.00000 48.894670 77.778000 107.44140
224 100.00000 0.0000000 59.673100 51.027120 23.177870 31.660540
225 100.00000 0.0000000 78.650600 56.297650 24.813700 58.690710
226 1.9380000 1.9380000 1.9380000 0.1652570 0.1735400 0.2530300
227 2.9412000 2.9412000 2.9412000 0.2240290 0.2288950 0.3075710
228 36.851600 14.381200 7.9017000 5.6091120 3.7895600 1.0066800
229 62.391700 14.436700 17.718500 16.424720 8.8521220 3.1746630
230 87.209300 0.0000000 0.0000000 32.715890 15.521800 0.5483860
231 100.00000 0.0000000 0.0000000 43.539180 20.651220 0.6981830
232 0.0000000 0.0000000 0.0000000 0.0760073 0.0768314 0.1436970
233 32.449900 24.909500 46.803400 8.8194990 6.5237020 18.220780
234 40.848000 49.791400 80.310000 24.055280 21.671630 62.120740
235 58.023200 55.790400 81.810600 33.672300 29.557600 65.271740
236 56.749200 65.477300 85.314500 37.728820 37.924940 71.945260
237 78.799500 90.047700 85.586100 63.374120 73.472800 75.843520
238 100.00000 100.00000 89.080200 90.121120 98.485950 84.472160
239 0.0000000 26.119400 0.0000000 1.6343240 3.8541400 0.5276310
240 0.0000000 32.183400 21.260200 3.1715860 6.1553010 4.2588980
241 13.906800 31.964500 28.707300 4.6131940 6.8126310 7.3949750
242 28.778100 35.613800 62.620200 12.734640 10.956150 34.942600
243 87.121700 47.794800 92.443700 54.976080 34.803300 84.731010
244 24.818600 0.0000000 28.276200 3.4813080 1.4816210 6.5299510
245 45.168700 0.0000000 34.576100 9.2122040 4.0965190 9.6462910
246 56.599300 9.7488000 34.303300 14.622040 7.2471000 9.7299180
247 64.091600 53.219600 50.428800 28.021450 26.886130 23.896950
248 68.255500 57.091800 64.080900 34.536470 31.723440 38.299560
249 87.193700 74.012900 69.467200 56.959570 54.859940 48.985250
250 53.002900 21.766000 0.0000000 11.946670 7.9681310 0.5619490
251 65.745700 23.940700 11.175000 19.046430 11.741030 1.9189500
252 75.757300 23.159100 32.877300 26.731370 14.971490 9.6113170
253 86.244900 47.745900 45.309300 41.434360 30.368440 19.177830
254 100.00000 72.082500 53.768700 64.818590 57.864400 29.658270
255 100.00000 86.402200 73.537200 76.822040 76.351080 57.396200
256 15.554300 18.369500 0.0000000 1.9002160 2.5316040 0.3571850
257 20.457500 25.869200 16.013400 3.6567590 4.7387700 2.8887370
258 86.354200 49.262800 15.591400 38.905440 30.379670 4.4173620
259 86.784400 77.451500 13.160200 49.900030 55.955570 6.4116490
260 100.00000 100.00000 100.00000 94.905420 100.06650 108.95880
261 0.0000000 34.224900 39.464600 5.2256140 7.5389220 13.096860
262 20.623600 41.525500 43.238200 8.7148550 11.765290 16.268820
263 30.131800 67.214300 55.743300 20.602140 32.239420 29.816000
264 40.438000 68.110100 68.557900 26.920130 35.779770 46.222290
265 38.781000 95.449200 69.659900 40.836680 69.284440 51.848390
266 39.978100 100.00000 83.497200 48.565850 78.779360 73.960850
267 66.357200 100.00000 88.505800 62.543540 85.305060 82.913800
268 49.447900 33.927100 13.295400 12.476900 11.408690 2.5751200
269 69.503300 34.757700 30.368200 24.120290 16.973020 8.6243920
270 28.997700 0.0000000 16.109800 3.6002130 1.6690070 2.4753120
271 48.102800 0.0000000 53.710000 13.302600 5.5504110 24.467020
272 54.520500 22.525200 69.886900 21.390660 11.154650 44.837890
273 61.878400 46.481000 76.026400 31.133890 23.685190 55.011690
274 77.268200 53.150500 77.167100 43.272660 33.182700 58.327070
275 86.471800 67.096000 76.759600 55.771860 48.262800 59.092770
276 88.722700 80.567300 88.914500 67.169380 64.666410 80.825540
277 95.528500 95.528500 95.528500 85.119310 89.522060 97.236220
278 18.361600 33.174800 21.413300 4.7216720 7.3655950 4.5619820
279 29.575800 40.894600 34.258100 9.1095190 11.809360 10.592240
280 63.371000 42.834000 36.104000 22.644450 19.162120 11.944400
281 76.335300 45.123300 62.512300 35.942310 25.705960 35.714830
282 0.0000000 9.4937000 0.0000000 0.3371960 0.7088910 0.2084320
283 0.0000000 13.157900 0.0000000 0.5354480 1.1908190 0.2576760
284 0.0000000 17.123300 0.0000000 0.7881600 1.8035900 0.3193960
285 0.0000000 21.428600 0.0000000 1.1657960 2.7174030 0.4124880
286 29.994700 29.619700 12.166000 5.7591450 6.9270900 2.1378730
287 47.136000 36.604700 28.958100 12.958980 12.216510 7.9005790
288 79.700200 57.710100 100.00000 55.007550 40.074750 102.49360
289 27.062700 0.0000000 46.984100 6.1612570 2.3811920 18.015960
290 68.273100 0.0000000 76.104500 28.972090 12.047250 53.178480
291 87.689900 16.177900 88.572300 48.654440 22.020440 75.467890
292 0.0000000 0.0000000 0.0000000 0.0760157 0.0768674 0.1436890
293 6.0976000 0.0000000 0.0000000 0.2933600 0.1796310 0.1468020
294 8.7134000 14.299400 55.006900 5.7973870 3.0203630 25.418620
295 22.467000 25.420700 64.152100 10.310600 6.7385660 36.227800
296 61.562300 32.895400 63.500800 24.684690 15.771850 36.159750
297 72.356000 0.0000000 56.434200 26.660140 11.788630 27.357260
298 85.909800 13.431200 57.902100 37.671320 17.903520 29.489930
299 100.00000 29.375400 58.884200 53.359070 28.602430 31.540160
300 0.0000000 31.250000 0.0000000 2.3402240 5.5674330 0.7023590
301 0.0000000 36.885200 0.0000000 3.2662840 7.7786300 0.9292030
302 0.0000000 57.692300 0.0000000 8.5151090 20.565930 2.2353260
303 0.0000000 100.00000 28.163400 31.024440 72.286510 14.205590
304 46.956000 100.00000 35.887000 40.443420 76.674050 18.476200
305 50.551300 0.0000000 19.893700 10.355900 4.8380130 3.4893310
306 53.331100 26.353900 39.158200 15.103900 10.023530 13.014240
307 72.466600 31.850400 43.840300 27.047410 17.165650 16.739020
308 2.9412000 0.0000000 0.0000000 0.1472700 0.1105490 0.1445440
309 9.4937000 0.0000000 0.0000000 0.4834540 0.2695770 0.1488310
310 13.157900 0.0000000 0.0000000 0.8104990 0.4243510 0.1523840
311 23.921800 37.480500 0.0000000 5.5174970 9.2074150 0.9997220
312 90.758200 62.610100 11.220200 46.653070 42.287200 4.4864490
313 100.00000 67.408600 28.728700 59.359600 52.023980 11.028400
314 42.599300 47.757200 10.933700 12.645400 17.030470 2.8492210
315 66.029900 48.996300 14.526200 23.984940 23.141110 3.8554270
316 71.885400 67.648600 17.796400 34.270700 40.223310 6.2889250
317 15.155900 43.516800 26.058400 6.6561540 11.948340 6.7298530
318 17.261800 43.399500 65.205500 12.922540 13.928750 38.155260
319 22.616800 48.442500 87.867400 21.999750 19.706700 74.693540
320 5.9586000 10.176200 21.916800 1.3049780 1.1047070 4.0533940
321 23.467600 12.136400 27.366300 3.6355360 2.3755360 6.1438950
322 40.406600 15.926800 43.406900 9.5283660 5.3679310 15.752330
323 43.330600 32.967300 64.543600 16.593810 11.856280 37.448760
324 51.218900 52.797500 63.548000 24.320390 24.535170 37.191900
325 65.526600 59.323900 73.862500 36.435310 33.715780 52.988770
326 100.00000 100.00000 73.029200 85.181810 96.991820 58.406570
327 54.985000 70.659500 0.0000000 24.992040 37.865780 3.5811790
328 66.042800 75.130900 25.596200 34.332150 46.414890 9.7197960
329 100.00000 83.177400 85.015200 78.568200 73.284560 74.904520
330 34.097600 25.280200 14.060800 6.1293360 5.7553160 2.3392080
331 42.439300 27.745600 29.139900 9.7752700 8.0681940 7.4632450
332 50.434800 55.621800 39.965900 20.425930 24.789440 15.252510
333 55.165000 68.921700 41.995600 27.687630 37.789770 18.105840
334 61.733700 70.600900 59.628900 34.788830 41.701500 34.682260
335 71.830600 81.829600 60.859300 46.662170 57.733470 37.847700
336 0.0000000 21.024900 20.690000 1.7989850 2.8662990 3.8197520
337 13.141400 23.126800 27.533800 3.2959930 3.9154500 6.3840460
338 43.686200 28.231100 43.605000 11.928050 8.9656890 16.304270
339 49.812200 39.677800 46.331100 16.765090 14.776930 18.765540
340 73.949400 0.0000000 20.399600 23.373350 10.993320 3.7447310
341 85.496000 17.618100 43.112500 34.968200 17.624990 16.105430
342 86.007600 34.584600 60.735600 40.947780 24.040090 33.587840
343 85.699900 43.940500 75.328300 46.788550 29.907180 53.821630
344 33.152800 50.160400 33.100300 12.166150 17.853020 10.527660
345 38.553400 52.051500 52.921300 17.139180 20.982520 25.986640
346 0.0000000 48.562400 41.250100 8.5155530 14.999740 15.111450
347 0.0000000 48.473300 77.552400 16.484720 17.493340 56.626550
348 23.045400 56.550000 86.182900 23.781340 24.996810 72.381000
349 31.953100 72.871700 86.677200 32.074380 41.224050 74.988950
350 81.927800 100.00000 100.00000 78.360050 92.065490 108.81360
351 19.001600 16.942600 7.5794000 2.2336810 2.4845520 0.9297700
352 19.801500 32.780200 10.444600 4.3393100 7.1269860 1.8884410
353 40.416300 40.708400 30.342300 11.378400 12.956540 8.6573480
354 58.335400 51.607700 38.445100 22.904670 24.002430 14.231010
355 59.736200 83.111200 56.478000 39.086490 55.461880 32.473560
