Dell/U2718Q/U2718Q #1 2020-05-26 12-15 0.3127x 0.329y sRGB M-S XYZLUT+MTX/U2718Q #1 2020-05-26 12-15 0.3127x 0.329y sRGB M-S XYZLUT+MTX.ti1
CTI1   

DESCRIPTOR "Argyll Calibration Target chart information 1"
ORIGINATOR "Argyll targen"
CREATED "Tue May 26 12:26:44 2020"
APPROX_WHITE_POINT "93.660211 97.350190 109.501664"
COLOR_REP "RGB"
ACCURATE_EXPECTED_VALUES "true"
DARK_REGION_EMPHASIS "1.6"
WHITE_COLOR_PATCHES "4"
BLACK_COLOR_PATCHES "4"
SINGLE_DIM_STEPS "29"
COMP_GREY_STEPS "85"
OFPS_PATCHES "939"

NUMBER_OF_FIELDS 7
BEGIN_DATA_FORMAT
SAMPLE_ID RGB_R RGB_G RGB_B XYZ_X XYZ_Y XYZ_Z
END_DATA_FORMAT

NUMBER_OF_SETS 1140
BEGIN_DATA
1 100.0000 100.0000 100.0000 93.66021 97.35019 109.5017
2 1.960800 1.960800 1.960800 1.142800 1.150200 1.163700
3 3.921600 3.921600 3.921600 1.285600 1.300500 1.327300
4 5.882400 5.882400 5.882400 1.449500 1.472900 1.515200
5 9.803900 9.803900 9.803900 1.914800 1.962400 2.048400
6 13.72600 13.72600 13.72600 2.581700 2.663900 2.812600
7 17.64700 17.64700 17.64700 3.469500 3.597900 3.830000
8 21.56900 21.56900 21.56900 4.595300 4.782200 5.120100
9 25.49000 25.49000 25.49000 5.974500 6.233200 6.700700
10 29.41200 29.41200 29.41200 7.621300 7.965600 8.587900
11 33.33300 33.33300 33.33300 9.548800 9.993300 10.79700
12 37.25500 37.25500 37.25500 11.76900 12.32900 13.34100
13 41.17600 41.17600 41.17600 14.29400 14.98500 16.23400
14 45.09800 45.09800 45.09800 17.13400 17.97300 19.48900
15 49.02000 49.02000 49.02000 20.29900 21.30300 23.11700
16 52.94100 52.94100 52.94100 23.80000 24.98600 27.12900
17 56.86300 56.86300 56.86300 27.64600 29.03200 31.53600
18 60.78400 60.78400 60.78400 31.84600 33.45000 36.34900
19 64.70600 64.70600 64.70600 36.40900 38.25000 41.57800
20 68.62700 68.62700 68.62700 41.34300 43.44000 47.23200
21 72.54900 72.54900 72.54900 46.65600 49.03000 53.32100
22 76.47100 76.47100 76.47100 52.35600 55.02700 59.85300
23 80.39200 80.39200 80.39200 58.45200 61.43900 66.83800
24 84.31400 84.31400 84.31400 64.94900 68.27500 74.28500
25 88.23500 88.23500 88.23500 71.85700 75.54100 82.20000
26 92.15700 92.15700 92.15700 79.18100 83.24600 90.59400
27 96.07800 96.07800 96.07800 86.92900 91.39700 99.47200
28 46.00270 28.10420 18.71280 9.593827 8.530482 4.077276
29 71.87900 37.20220 26.78020 22.49680 18.09231 8.031960
30 72.69460 47.85180 40.40090 27.82093 25.00835 16.39490
31 76.75090 59.57040 69.21870 40.58042 37.25293 47.00782
32 100.0000 0.000000 16.74560 35.67359 20.20929 4.460452
33 100.0000 0.000000 29.16690 36.53048 20.60069 8.802086
34 100.0000 16.42100 38.60990 38.48091 22.69408 14.20334
35 64.35070 69.16220 0.000000 31.04989 38.73750 6.031763
36 81.40920 71.46570 0.000000 41.55453 46.30053 6.950000
37 100.0000 73.66540 0.000000 55.95735 56.07808 8.095153
38 7.042300 0.000000 0.000000 0.322011 0.228751 0.195246
39 8.992800 0.000000 0.000000 0.410433 0.278848 0.200367
40 11.02940 0.000000 0.000000 0.519807 0.340816 0.206701
41 13.15790 0.000000 0.000000 0.657260 0.418693 0.214662
42 15.38460 0.000000 0.000000 0.828151 0.515515 0.224560
43 17.71650 0.000000 0.000000 1.040376 0.635755 0.236852
44 20.16130 0.000000 0.000000 1.303020 0.784562 0.252063
45 22.72730 0.000000 0.000000 1.613782 0.960630 0.270062
46 25.42370 0.000000 0.000000 1.967480 1.161025 0.290548
47 28.26090 0.000000 0.000000 2.380320 1.394928 0.314458
48 31.25000 0.000000 0.000000 2.919525 1.700425 0.345688
49 34.40370 0.000000 0.000000 3.570531 2.069266 0.383393
50 37.73580 0.000000 0.000000 4.263574 2.461924 0.423532
51 41.26210 0.000000 0.000000 5.075120 2.921722 0.470535
52 45.00000 0.000000 0.000000 6.097065 3.500726 0.529724
53 53.19150 0.000000 0.000000 8.701574 4.976363 0.680571
54 55.44400 0.000000 0.000000 9.525496 5.443173 0.728291
55 57.69230 0.000000 0.000000 10.37802 5.926189 0.777668
56 62.50000 0.000000 0.000000 12.26768 6.996815 0.887113
57 67.64710 0.000000 0.000000 14.65151 8.347420 1.025179
58 73.17070 0.000000 0.000000 17.43505 9.924491 1.186395
59 79.11390 0.000000 0.000000 20.81869 11.84156 1.382368
60 85.52630 0.000000 0.000000 24.74764 14.06759 1.609924
61 92.46570 0.000000 0.000000 29.23017 16.60726 1.869543
62 100.0000 34.87420 15.06880 39.62039 27.17730 5.209878
63 100.0000 43.53950 53.55340 46.45826 33.50355 27.91987
64 0.000000 3.378400 0.000000 0.216378 0.293479 0.213080
65 0.000000 5.172400 0.000000 0.282756 0.408999 0.231905
66 0.000000 7.042300 0.000000 0.361806 0.546573 0.254324
67 0.000000 8.992800 0.000000 0.458175 0.714286 0.281654
68 0.000000 11.02940 0.000000 0.584643 0.934383 0.317521
69 0.000000 13.15790 0.000000 0.752420 1.226371 0.365103
70 0.000000 15.38460 0.000000 0.949410 1.569199 0.420969
71 0.000000 17.71650 0.000000 1.182206 1.974341 0.486990
72 0.000000 20.16130 0.000000 1.479532 2.491787 0.571312
73 0.000000 22.72730 0.000000 1.846177 3.129872 0.675293
74 0.000000 25.42370 0.000000 2.276447 3.878684 0.797318
75 0.000000 28.26090 0.000000 2.787689 4.768415 0.942307
76 0.000000 31.25000 0.000000 3.356935 5.759092 1.103746
77 0.000000 34.40370 0.000000 4.025041 6.921819 1.293222
78 0.000000 37.73580 0.000000 4.872680 8.396992 1.533613
79 0.000000 41.26210 0.000000 5.895942 10.17781 1.823811
80 0.000000 45.00000 0.000000 7.133747 12.33200 2.174854
81 0.000000 48.96910 0.000000 8.614667 14.90929 2.594845
82 0.000000 53.19150 0.000000 10.25421 17.76263 3.059820
83 0.000000 57.69230 0.000000 12.10773 20.98839 3.585483
84 0.000000 62.50000 0.000000 14.52209 25.19017 4.270197
85 0.000000 67.64710 0.000000 17.24532 29.92949 5.042507
86 0.000000 73.17070 0.000000 20.52321 35.63412 5.972123
87 0.000000 79.11390 0.000000 24.45407 42.47512 7.086918
88 0.000000 85.52630 0.000000 29.02197 50.42477 8.382379
89 0.000000 92.46570 0.000000 34.39671 59.77861 9.906663
90 100.0000 100.0000 0.000000 74.69480 88.68748 13.40912
91 100.0000 100.0000 23.32610 75.54111 89.07404 17.69711
92 0.000000 0.000000 3.378400 0.157405 0.130311 0.421937
93 0.000000 0.000000 5.172400 0.185322 0.143063 0.563389
94 0.000000 0.000000 7.042300 0.220075 0.158937 0.739470
95 0.000000 0.000000 8.992800 0.266966 0.180355 0.977055
96 0.000000 0.000000 11.02940 0.326329 0.207469 1.277829
97 0.000000 0.000000 13.15790 0.399329 0.240813 1.647700
98 0.000000 0.000000 15.38460 0.489747 0.282113 2.105826
99 0.000000 0.000000 17.71650 0.603637 0.334134 2.682875
100 0.000000 0.000000 20.16130 0.746277 0.399287 3.405591
101 0.000000 0.000000 22.72730 0.915262 0.476473 4.261793
102 0.000000 0.000000 25.42370 1.106942 0.564025 5.232981
103 0.000000 0.000000 28.26090 1.330624 0.666195 6.366321
104 0.000000 0.000000 31.25000 1.608204 0.792984 7.772742
105 0.000000 0.000000 34.40370 1.936847 0.943096 9.437884
106 0.000000 0.000000 37.73580 2.315119 1.115877 11.35449
107 0.000000 0.000000 41.26210 2.784248 1.330158 13.73144
108 0.000000 0.000000 45.00000 3.350988 1.589024 16.60295
109 0.000000 0.000000 48.96910 3.993813 1.882644 19.85997
110 0.000000 0.000000 53.19150 4.747483 2.226893 23.67861
111 0.000000 0.000000 57.69230 5.697764 2.660947 28.49342
112 0.000000 0.000000 62.50000 6.774082 3.152570 33.94683
113 0.000000 0.000000 67.64710 7.992542 3.709118 40.12044
114 0.000000 0.000000 73.17070 9.541691 4.416713 47.96955
115 0.000000 0.000000 79.11390 11.26366 5.203246 56.69429
116 0.000000 0.000000 85.52630 13.42982 6.192670 67.66964
117 0.000000 17.84320 100.0000 20.16157 10.66133 96.58349
118 0.000000 49.87470 100.0000 27.93312 24.18642 98.78752
119 0.000000 60.26470 100.0000 32.31399 31.81059 100.0299
120 23.84380 70.00780 100.0000 39.18894 41.84168 101.6079
121 0.000000 17.71540 81.33500 13.04716 7.393660 60.60406
122 0.000000 29.77390 100.0000 22.04063 13.93152 97.11640
123 0.000000 40.43760 100.0000 24.61056 18.40405 97.84523
124 25.70000 48.75530 100.0000 29.39306 24.50266 98.77384
125 2.796400 2.796400 2.796400 0.304275 0.315034 0.407580
126 3.378400 3.378400 3.378400 0.349858 0.363926 0.457037
127 5.172400 5.172400 5.172400 0.499647 0.523639 0.620527
128 5.787000 5.787000 5.787000 0.555525 0.582908 0.681480
129 6.410300 6.410300 6.410300 0.618420 0.648588 0.750797
130 7.042300 7.042300 7.042300 0.683407 0.716722 0.823079
131 7.683200 7.683200 7.683200 0.754228 0.790265 0.903137
132 8.333300 8.333300 8.333300 0.832798 0.870948 0.996238
133 8.992800 8.992800 8.992800 0.915088 0.955951 1.093116
134 9.661800 9.661800 9.661800 1.006685 1.050985 1.200421
135 10.34060 10.34060 10.34060 1.105772 1.155299 1.314934
136 11.02940 11.02940 11.02940 1.210293 1.265131 1.436090
137 11.72840 11.72840 11.72840 1.328549 1.391218 1.568707
138 12.43780 12.43780 12.43780 1.454684 1.525610 1.710364
139 13.15790 13.15790 13.15790 1.588523 1.668339 1.861505
140 13.88890 13.88890 13.88890 1.732849 1.820642 2.024722
141 14.63100 14.63100 14.63100 1.883893 1.979908 2.196708
142 15.38460 15.38460 15.38460 2.046822 2.149288 2.385394
143 16.14990 16.14990 16.14990 2.219072 2.327221 2.586383
144 16.92710 16.92710 16.92710 2.403592 2.517970 2.801762
145 17.71650 17.71650 17.71650 2.605733 2.726691 3.040756
146 18.51850 18.51850 18.51850 2.821061 2.949279 3.293338
147 19.33330 19.33330 19.33330 3.056891 3.195453 3.569628
148 20.16130 20.16130 20.16130 3.308343 3.458096 3.863006
149 21.00270 21.00270 21.00270 3.575755 3.738831 4.173176
150 21.85790 21.85790 21.85790 3.859003 4.037221 4.500623
151 22.72730 22.72730 22.72730 4.154735 4.349436 4.841187
152 23.61110 23.61110 23.61110 4.464211 4.676521 5.196164
153 24.50980 24.50980 24.50980 4.789257 5.021638 5.567468
154 25.42370 25.42370 25.42370 5.130383 5.386196 5.954887
155 26.35330 26.35330 26.35330 5.490733 5.771850 6.363591
156 27.29890 27.29890 27.29890 5.871915 6.181406 6.795313
157 28.26090 28.26090 28.26090 6.278148 6.612000 7.257125
158 0.000000 0.000000 0.000000 0.110243 0.108769 0.182980
159 12.11140 15.63450 0.000000 1.449735 1.879830 0.455169
160 31.25000 31.25000 31.25000 7.664178 8.034963 8.856215
161 32.28230 32.28230 32.28230 8.185652 8.562183 9.458333
162 33.33330 33.33330 33.33330 8.735758 9.117464 10.09439
163 34.40370 34.40370 34.40370 9.311934 9.716643 10.74854
164 35.49380 35.49380 35.49380 9.917973 10.35223 11.43786
165 36.60440 36.60440 36.60440 10.55573 11.03481 12.16503
166 37.73580 37.73580 37.73580 11.23089 11.75725 12.94567
167 38.88890 38.88890 38.88890 11.94513 12.52156 13.77957
168 40.06410 40.06410 40.06410 12.71463 13.34117 14.68931
169 41.26210 41.26210 41.26210 13.53482 14.21215 15.65982
170 42.48370 42.48370 42.48370 14.41279 15.14182 16.69424
171 43.72940 43.72940 43.72940 15.35767 16.14119 17.79072
172 45.00000 45.00000 45.00000 16.36132 17.20421 18.94157
173 46.29630 46.29630 46.29630 17.42662 18.33566 20.14773
174 47.61910 47.61910 47.61910 18.54097 19.52455 21.39291
175 48.96910 48.96910 48.96910 19.70067 20.76385 22.68898
176 50.34720 50.34720 50.34720 20.90739 22.05097 24.04590
177 51.75440 51.75440 51.75440 22.16092 23.37819 25.48165
178 53.19150 53.19150 53.19150 23.48278 24.74835 27.05304
179 54.65950 54.65950 54.65950 24.88738 26.18746 28.75587
180 56.15940 56.15940 56.15940 26.37941 27.71596 30.57658
181 57.69230 57.69230 57.69230 27.96303 29.35798 32.49061
182 59.25930 59.25930 59.25930 29.64160 31.13350 34.47459
183 60.86140 60.86140 60.86140 31.43416 33.06328 36.54537
184 62.50000 62.50000 62.50000 33.34337 35.12202 38.73818
185 64.17620 64.17620 64.17620 35.35247 37.26413 41.00497
186 65.89150 65.89150 65.89150 37.45019 39.46600 43.33295
187 67.64710 67.64710 67.64710 39.66888 41.76849 45.82216
188 69.44440 69.44440 69.44440 42.05327 44.24441 48.59448
189 71.28510 71.28510 71.28510 44.60500 46.92190 51.62938
190 73.17070 73.17070 73.17070 47.27947 49.75778 54.76211
191 75.10290 75.10290 75.10290 50.08147 52.73814 57.91603
192 77.08330 77.08330 77.08330 53.08958 55.91856 61.22050
193 79.11390 79.11390 79.11390 56.31594 59.30239 64.79761
194 81.19660 81.19660 81.19660 59.68490 62.83305 68.65522
195 83.33330 83.33330 83.33330 63.20344 66.52353 72.80914
196 85.52630 85.52630 85.52630 66.97894 70.46749 77.29598
197 87.77780 87.77780 87.77780 70.97088 74.62942 82.16909
198 90.09010 90.09010 90.09010 75.10559 78.95396 87.37820
199 92.46570 92.46570 92.46570 79.51623 83.58514 92.65877
200 94.90740 94.90740 94.90740 84.35304 88.66551 97.97564
201 44.09980 73.26260 59.29380 32.24595 41.69175 36.40997
202 45.66090 73.63210 69.52420 35.38459 43.47652 48.89976
203 57.17610 83.94630 100.0000 56.89262 62.76376 104.7274
204 0.000000 17.07780 65.02500 8.365417 5.167757 37.20885
205 21.35780 23.85780 66.92410 11.05415 7.705043 39.81781
206 0.000000 20.19650 36.23870 3.513088 3.426634 10.85246
207 39.34460 22.40560 41.52080 9.017656 6.839229 14.66117
208 48.29580 22.74980 73.52990 18.37634 11.45248 49.38465
209 81.58030 0.000000 100.0000 41.27466 21.34878 97.56124
210 100.0000 0.000000 100.0000 54.19624 28.66976 98.30963
211 100.0000 26.30890 100.0000 56.51570 32.70640 98.96744
212 82.81140 35.29420 0.000000 27.16913 20.28076 2.681011
213 100.0000 36.66650 0.000000 39.70746 27.79788 3.486666
214 35.87150 0.000000 19.17090 4.449458 2.504055 3.316457
215 36.93420 0.000000 27.58730 5.257841 2.897428 6.311518
216 20.70950 0.000000 40.92200 3.992169 2.019880 13.55739
217 22.21110 40.79270 42.09750 9.986794 12.01934 16.03156
218 32.25100 63.14910 66.28360 25.42794 30.94930 42.77404
219 58.50520 66.12390 68.87910 35.21894 38.26295 46.99934
220 100.0000 69.86160 78.60890 64.60847 57.01839 63.14912
221 52.77590 14.44410 0.000000 9.310698 6.206078 0.885936
222 67.83360 20.55770 0.000000 16.16727 10.87601 1.434028
223 48.96910 0.000000 0.000000 7.312679 4.189456 0.600130
224 52.76100 0.000000 13.83220 8.866848 5.035418 2.267692
225 56.17110 0.000000 60.48450 16.00075 8.430801 32.16962
226 100.0000 39.18750 79.37280 51.63246 34.13171 60.60236
227 100.0000 79.51430 78.95080 70.95493 67.92772 65.45436
228 100.0000 88.42110 100.0000 85.29655 82.79465 107.1297
229 25.63490 0.000000 53.27310 6.649587 3.302826 23.86828
230 63.62530 0.000000 74.08540 22.44298 11.69761 50.02077
231 74.36290 32.79190 83.35840 34.16443 22.20176 65.81241
232 0.000000 14.09660 12.94580 1.114460 1.495646 1.812255
233 0.000000 16.57440 23.73510 1.937314 2.165323 4.886505
234 0.000000 27.51860 36.18650 4.673284 5.453340 11.15324
235 0.000000 47.80250 60.33400 14.33649 16.94928 33.72300
236 21.53230 49.89480 64.04070 17.35169 19.51200 38.35034
237 39.04240 76.72270 100.0000 46.23328 50.82471 102.9757
238 5.172400 0.000000 0.000000 0.252054 0.189116 0.191194
239 3.968300 3.968300 3.968300 0.397267 0.414299 0.509241
240 4.566200 4.566200 4.566200 0.448460 0.469155 0.564807
241 35.26040 16.23260 23.71770 5.542970 4.169303 5.081666
242 56.65500 23.39090 38.73460 14.14811 9.962603 13.07566
243 71.54250 42.08920 49.45420 26.61684 21.78641 22.93888
244 0.000000 67.38150 46.32170 20.55505 31.25846 22.49323
245 0.000000 67.94550 66.76810 25.06778 33.70900 43.90728
246 0.000000 83.63960 85.84440 41.06970 54.14431 76.07076
247 0.000000 87.10860 100.0000 49.18165 61.16592 104.8136
248 0.000000 38.26680 78.55050 15.99793 13.66621 57.20309
249 0.000000 48.49250 81.02020 20.19383 19.96342 62.13835
250 67.85920 18.89630 49.63420 19.95947 12.33326 21.61356
251 100.0000 24.17290 59.83070 43.24738 26.18405 33.46155
252 0.544700 0.544700 0.544700 0.126830 0.126662 0.202263
253 1.096500 1.096500 1.096500 0.160185 0.161759 0.241840
254 25.17470 100.0000 20.68500 42.06689 70.12799 14.87108
255 54.01770 100.0000 36.28720 50.49466 74.75301 22.19727
256 84.20900 100.0000 37.92340 65.60049 83.29027 24.04150
257 100.0000 100.0000 40.99750 77.33087 89.89154 26.76533
258 100.0000 100.0000 56.09590 79.93479 91.08091 39.95871
259 23.53420 0.000000 67.34400 9.522643 4.584439 39.82537
260 44.07200 0.000000 77.64900 16.53343 8.238186 54.75321
261 67.69010 38.33200 100.0000 38.56503 25.59626 98.51616
262 75.63480 82.92780 100.0000 64.72522 66.33865 105.0152
263 0.000000 38.61690 32.38990 6.730055 9.557837 9.780050
264 0.000000 41.21140 47.74360 9.562157 11.83221 20.47476
265 65.62700 42.43790 83.74270 32.50576 24.29608 66.97393
266 100.0000 58.27710 86.00440 60.99562 47.52283 74.07886
267 100.0000 62.31010 100.0000 68.50582 53.57320 102.3678
268 0.000000 100.0000 51.05800 43.81442 70.72596 32.85894
269 0.000000 100.0000 77.10590 50.11967 73.60597 64.80591
270 0.000000 100.0000 88.61970 54.07328 75.41184 84.83778
271 0.000000 100.0000 100.0000 58.53963 77.45191 107.4676
272 26.82810 100.0000 100.0000 60.59320 78.61540 107.5865
273 26.67440 25.05320 40.95630 6.875563 6.122168 14.22364
274 29.00710 36.21820 48.36760 10.64763 10.78070 20.73325
275 59.73980 51.91130 73.51550 30.34241 27.51735 51.84233
276 66.41050 61.82190 100.0000 47.05713 41.11504 101.0668
277 0.000000 0.000000 92.46570 16.10983 7.416802 81.24853
278 0.000000 0.000000 100.0000 19.07565 8.771482 96.27553
279 29.56230 21.33710 100.0000 23.09599 12.84737 96.85410
280 44.92840 46.79680 100.0000 32.71936 25.51355 98.79850
281 84.79120 66.54720 100.0000 59.79267 51.26644 102.3689
282 100.0000 75.87540 100.0000 76.35184 67.22787 104.5930
283 0.000000 69.91060 33.27660 20.22692 32.92673 14.05540
284 14.36450 86.70820 33.71800 32.30160 53.13491 17.55714
285 58.59830 76.94180 19.65240 34.19325 46.19169 10.34558
286 76.50730 76.84770 37.84460 44.27089 51.64997 18.99745
287 28.22700 33.38350 0.000000 6.057870 7.801586 1.358665
288 29.07130 48.46180 39.01110 13.18873 17.01270 14.66052
289 63.63490 52.80640 42.24570 25.56727 25.95334 18.02601
290 52.49270 34.91440 0.000000 12.49279 11.85882 1.810463
291 65.12310 55.05580 16.26990 24.72578 26.77672 6.167228
292 79.29620 62.47420 26.22590 36.38609 37.44525 10.82793
293 100.0000 77.44190 68.46330 66.52567 64.08362 49.79818
294 100.0000 88.10820 69.02290 74.33701 77.48159 52.74522
295 83.96600 0.000000 17.23090 24.22357 13.71933 3.921350
296 100.0000 0.000000 41.41330 37.92674 21.23845 15.87652
297 100.0000 24.20740 49.71100 41.20357 25.25759 23.07983
298 0.000000 60.05750 18.74030 13.79312 23.21547 6.694528
299 0.000000 65.40070 73.43830 25.56666 32.20803 52.87742
300 0.000000 71.13850 85.45410 32.55034 39.50281 72.96525
301 47.70520 100.0000 100.0000 65.34823 81.30946 107.8619
302 78.41290 100.0000 100.0000 78.81831 88.94121 108.6421
303 82.86920 47.75860 0.000000 31.12044 27.11627 3.793708
304 100.0000 49.27880 0.000000 43.85526 35.01644 4.662988
305 100.0000 59.91280 31.93220 49.85712 43.45064 13.85906
306 100.0000 65.72550 45.90410 54.73324 49.60331 23.93717
307 0.000000 1.655600 0.000000 0.153922 0.184786 0.195368
308 1.655600 1.655600 1.655600 0.209309 0.213946 0.299884
309 2.222200 2.222200 2.222200 0.259027 0.266670 0.357401
310 100.0000 0.000000 0.000000 35.23083 20.00705 2.217088
311 100.0000 21.83350 0.000000 36.83447 22.79792 2.671881
312 100.0000 32.37850 26.96110 39.81872 26.56128 8.847890
313 100.0000 42.38800 40.29370 43.90828 31.85151 16.81568
314 0.000000 0.000000 0.000000 0.110243 0.108769 0.182980
315 18.34410 7.137400 0.000000 1.359690 1.116938 0.313079
316 28.39700 65.45450 84.63710 31.37815 35.14992 70.70730
317 48.70330 68.43880 100.0000 43.76010 43.37395 101.6693
318 47.96570 0.000000 22.61160 7.797687 4.376706 4.621439
319 64.82570 28.70710 27.44550 17.20329 12.90745 7.568769
320 30.56390 18.57630 0.000000 3.954258 3.658428 0.669369
321 34.38860 48.69860 0.000000 11.96772 16.68687 2.765558
322 45.27090 58.49730 39.08680 20.92335 26.16106 16.07501
323 47.89650 69.41350 81.66880 37.07485 41.00608 66.39640
324 48.35430 50.56870 58.16580 21.93746 22.56176 32.00815
325 76.69710 74.23830 63.33940 47.31311 50.85698 42.03130
326 87.15550 78.60200 100.0000 68.76201 65.08299 104.5678
327 46.59510 0.000000 100.0000 25.54203 12.43514 96.65005
328 64.98740 0.000000 100.0000 32.33034 16.28120 97.04321
329 0.000000 10.58460 33.14560 2.248626 1.656564 8.889572
330 0.000000 19.24730 46.93700 4.911995 3.907975 18.52773
331 0.000000 39.69840 64.54630 12.56636 12.62201 37.86657
332 78.97710 100.0000 85.11930 73.36893 86.49007 79.30091
333 33.40050 29.77650 17.05650 6.787934 7.322554 3.535554
334 33.21140 37.08200 20.02650 8.538253 10.19829 4.849548
335 32.21290 77.15000 29.94820 27.49147 42.47473 13.82924
336 0.000000 100.0000 0.000000 39.57422 68.78919 11.37501
337 0.000000 100.0000 20.84430 40.25359 69.09951 14.81722
338 26.26350 100.0000 72.94500 50.91534 74.18612 58.95202
339 0.000000 28.02960 21.63010 3.476058 5.028223 4.633601
340 0.000000 35.47510 36.71490 6.363518 8.317730 11.92019
341 0.000000 70.11790 100.0000 37.60595 41.02036 101.5307
342 0.000000 78.26690 100.0000 42.83847 50.12667 103.0147
343 24.41730 79.89060 100.0000 45.67876 53.04772 103.4314
344 40.97040 40.95040 0.000000 10.69174 12.78250 2.079950
345 54.44600 46.97990 0.000000 16.89974 18.71342 2.903585
346 65.68260 57.21540 0.000000 25.47722 28.31215 4.311556
347 100.0000 61.75310 0.000000 49.24318 44.39320 6.191008
348 100.0000 74.44720 22.15740 57.22399 57.29856 12.12082
349 100.0000 85.97370 39.95150 66.96803 72.04340 23.13092
350 25.45750 78.29480 0.000000 25.75394 42.55199 7.035382
351 64.83300 83.55010 0.000000 40.75044 55.36264 8.733429
352 15.29250 25.55990 0.000000 3.009694 4.321295 0.845011
353 29.23980 29.23980 29.23980 6.711810 7.066021 7.753538
354 30.23600 30.23600 30.23600 7.173506 7.539509 8.286130
355 0.000000 43.51870 15.97750 7.029201 11.62834 4.089333
356 0.000000 51.74120 39.69150 12.14964 17.90953 15.34228
357 35.81750 100.0000 55.14250 48.36361 73.21595 37.11144
358 49.05880 100.0000 69.31360 55.13120 76.68903 53.98131
359 76.39920 100.0000 69.80170 67.11415 83.46317 55.36140
360 100.0000 100.0000 70.26670 83.29032 92.61360 56.96023
361 100.0000 100.0000 81.39790 86.58058 94.11647 73.63112
362 100.0000 100.0000 90.76610 90.04375 95.69832 91.17806
363 70.26090 0.000000 62.50090 22.62937 12.13569 34.86620
364 100.0000 0.000000 73.73800 44.82349 24.38863 50.82048
365 100.0000 29.01300 89.29820 52.81738 31.65853 77.83899
366 100.0000 47.82600 100.0000 62.26279 42.70824 100.5973
367 84.67660 51.78870 38.45260 36.10012 31.51867 15.92210
368 100.0000 54.80560 42.96230 48.93355 40.09993 20.09372
369 100.0000 66.45260 57.11490 57.19268 51.21746 34.56970
370 46.80110 0.000000 37.88660 8.862732 4.823530 11.82635
371 66.16960 0.000000 46.86480 17.46560 9.553191 18.91445
372 76.29470 13.39270 46.26490 23.23054 13.60685 18.91706
373 27.16920 100.0000 0.000000 41.67693 69.98053 11.49679
374 48.97570 100.0000 0.000000 46.77873 72.87106 11.79228
375 90.03980 100.0000 100.0000 86.03715 93.03119 109.0602
376 97.41780 97.41780 97.41780 89.58840 94.14985 103.7129
377 1.655600 0.000000 0.000000 0.145404 0.128690 0.185017
378 3.378400 0.000000 0.000000 0.196561 0.157674 0.187980
379 39.00600 0.000000 11.30320 4.765523 2.721630 1.578528
380 71.03230 0.000000 23.34180 17.19835 9.697335 5.417122
381 100.0000 0.000000 51.40180 39.53181 21.97158 24.00898
382 100.0000 0.000000 61.93000 41.76219 22.99034 35.30971
383 0.000000 0.000000 1.655600 0.130469 0.118008 0.285460
384 10.55930 0.000000 11.34050 0.719257 0.429005 1.350125
385 24.05400 0.000000 27.05640 2.906927 1.570115 5.963490
386 38.84640 17.59020 46.67430 9.071208 6.042639 18.51405
387 43.35080 32.35100 50.50700 13.23758 11.16189 22.48258
388 48.32460 43.40930 78.02330 24.40614 20.28728 57.23612
389 0.000000 82.64970 52.59750 31.44471 48.83586 30.70250
390 0.000000 84.29080 76.66450 38.52434 53.59110 60.90314
391 26.70720 100.0000 82.83290 53.97889 75.59232 74.16060
392 50.51540 100.0000 90.20310 62.39550 80.05801 88.46493
393 64.34030 100.0000 100.0000 71.49884 84.79421 108.2181
394 0.000000 100.0000 35.68850 41.54117 69.68763 21.34100
395 49.61250 100.0000 48.62880 50.80754 74.73340 31.19547
396 71.33140 100.0000 56.45750 61.28311 80.50485 39.26937
397 31.76830 65.05930 0.000000 18.79553 29.20819 4.824731
398 82.50730 84.79990 0.000000 51.23382 62.37597 9.547058
399 100.0000 86.25440 0.000000 64.68888 71.27386 10.57143
