Dell/U2718Q/U2718Q #1 2020-05-26 12-15 0.3127x 0.329y sRGB M-S XYZLUT+MTX/U2718Q #1 2020-05-26 12-15 0.3127x 0.329y sRGB M-S XYZLUT+MTX.bpc.ti3
CTI3   

DESCRIPTOR "Argyll Calibration Target chart information 3"
ORIGINATOR "Argyll dispread"
CREATED "Tue May 26 12:27:02 2020"
DEVICE_CLASS "DISPLAY"
SINGLE_DIM_STEPS "29"
COMP_GREY_STEPS "85"
DARK_REGION_EMPHASIS "1.6"
COLOR_REP "RGB_XYZ"
TARGET_INSTRUMENT "X-Rite i1 DisplayPro, ColorMunki Display"
DISPLAY_TYPE_REFRESH "YES"
INSTRUMENT_TYPE_SPECTRAL "NO"
LUMINANCE_XYZ_CDM2 "374.720273 393.486529 433.536678"
NORMALIZED_TO_Y_100 "YES"
VIDEO_LUT_CALIBRATION_POSSIBLE "YES"

BEGIN_ARGYLL_COLPROF_ARGS
-v -qh -aX -bn -C "No copyright. Created with DisplayCAL 3.8.9.3 and ArgyllCMS 2.1.2" -M "DELL U2718Q" -A "Dell, Inc."
END_ARGYLL_COLPROF_ARGS

OBSERVER "1931_2"
USE_BLACK_POINT_COMPENSATION "NO"
BLACK_POINT_CORRECTION "0.0"
HIRES_B2A "YES"
HIRES_B2A_SIZE "-1"
SMOOTH_B2A "YES"
PATCH_SEQUENCE "OPTIMIZE_DISPLAY_RESPONSE_DELAY"

NUMBER_OF_FIELDS 7
BEGIN_DATA_FORMAT
SAMPLE_ID RGB_R RGB_G RGB_B XYZ_X XYZ_Y XYZ_Z
END_DATA_FORMAT

NUMBER_OF_SETS 1140
BEGIN_DATA
1 100.0000 100.0000 100.0000 95.23078 100.0000 110.1783
2 1.960800 1.960800 1.960800 0.236998 0.247244 0.299181
3 3.921600 3.921600 3.921600 0.372079 0.388852 0.470142
4 5.882400 5.882400 5.882400 0.551130 0.585052 0.645872
5 9.803900 9.803900 9.803900 0.998095 1.033590 1.203136
6 13.72600 13.72600 13.72600 1.700898 1.798642 1.971571
7 17.64700 17.64700 17.64700 2.553788 2.665478 2.983414
8 21.56900 21.56900 21.56900 3.777300 3.950050 4.412004
9 25.49000 25.49000 25.49000 5.150222 5.400554 5.979987
10 29.41200 29.41200 29.41200 6.771600 7.160072 7.807507
11 33.33300 33.33300 33.33300 8.743140 9.094513 10.12063
12 37.25500 37.25500 37.25500 10.93254 11.44027 12.56615
13 41.17600 41.17600 41.17600 13.44123 14.12187 15.56414
14 45.09800 45.09800 45.09800 16.43385 17.27116 19.06146
15 49.02000 49.02000 49.02000 19.79390 20.86352 22.77490
16 52.94100 52.94100 52.94100 23.22847 24.53507 26.66186
17 56.86300 56.86300 56.86300 27.09670 28.39907 31.51715
18 60.78400 60.78400 60.78400 31.32133 32.93371 36.43120
19 64.70600 64.70600 64.70600 36.03739 38.03503 41.82165
20 68.62700 68.62700 68.62700 40.88860 43.01042 47.08792
21 72.54900 72.54900 72.54900 46.46348 48.86346 53.95266
22 76.47100 76.47100 76.47100 52.05267 54.85899 60.11400
23 80.39200 80.39200 80.39200 58.47578 61.54947 67.12101
24 84.31400 84.31400 84.31400 64.79294 68.20547 74.72598
25 88.23500 88.23500 88.23500 71.91958 75.60750 83.06634
26 92.15700 92.15700 92.15700 78.87283 82.90221 92.20119
27 96.07800 96.07800 96.07800 86.75814 91.19004 100.5464
28 46.00270 28.10420 18.71280 9.706271 8.593639 4.318166
29 71.87900 37.20220 26.78020 22.63088 18.28211 8.253013
30 72.69460 47.85180 40.40090 27.80904 24.89854 16.56853
31 76.75090 59.57040 69.21870 40.82742 37.46398 47.78652
32 100.0000 0.000000 16.74560 36.18765 20.48637 5.465014
33 100.0000 0.000000 29.16690 36.94350 20.82749 9.347846
34 100.0000 16.42100 38.60990 39.27543 23.59662 14.86104
35 64.35070 69.16220 0.000000 31.27223 39.01610 5.818462
36 81.40920 71.46570 0.000000 41.89452 46.55363 6.765012
37 100.0000 73.66540 0.000000 56.12083 56.18920 8.061707
38 7.042300 0.000000 0.000000 0.332915 0.245195 0.171715
39 8.992800 0.000000 0.000000 0.422749 0.300275 0.192334
40 11.02940 0.000000 0.000000 0.528663 0.364929 0.217295
41 13.15790 0.000000 0.000000 0.678245 0.447551 0.228201
42 15.38460 0.000000 0.000000 0.825654 0.528851 0.237750
43 17.71650 0.000000 0.000000 1.046065 0.650934 0.249389
44 20.16130 0.000000 0.000000 1.344629 0.820329 0.269980
45 22.72730 0.000000 0.000000 1.633637 0.982418 0.284834
46 25.42370 0.000000 0.000000 2.011446 1.197455 0.305228
47 28.26090 0.000000 0.000000 2.415844 1.423028 0.321870
48 31.25000 0.000000 0.000000 2.925320 1.710544 0.348562
49 34.40370 0.000000 0.000000 3.524920 2.050638 0.382577
50 37.73580 0.000000 0.000000 4.192806 2.429361 0.422931
51 41.26210 0.000000 0.000000 5.065879 2.916480 0.459016
52 45.00000 0.000000 0.000000 6.163363 3.534565 0.507295
53 53.19150 0.000000 0.000000 8.914827 5.085531 0.647464
54 55.44400 0.000000 0.000000 9.457657 5.394429 0.680210
55 57.69230 0.000000 0.000000 10.29537 5.867247 0.723708
56 62.50000 0.000000 0.000000 12.46129 7.081199 0.833292
57 67.64710 0.000000 0.000000 14.68709 8.348564 0.955808
58 73.17070 0.000000 0.000000 17.59834 9.988814 1.110256
59 79.11390 0.000000 0.000000 20.83338 11.82738 1.302217
60 85.52630 0.000000 0.000000 24.75452 14.06030 1.522816
61 92.46570 0.000000 0.000000 29.46237 16.72621 1.786127
62 100.0000 34.87420 15.06880 40.46680 28.08667 6.312273
63 100.0000 43.53950 53.55340 47.06065 34.17493 28.35349
64 0.000000 3.378400 0.000000 0.214797 0.293482 0.197616
65 0.000000 5.172400 0.000000 0.266782 0.379703 0.230249
66 0.000000 7.042300 0.000000 0.370304 0.554139 0.271549
67 0.000000 8.992800 0.000000 0.456183 0.698349 0.299138
68 0.000000 11.02940 0.000000 0.589484 0.920712 0.335071
69 0.000000 13.15790 0.000000 0.797183 1.284565 0.388392
70 0.000000 15.38460 0.000000 0.949519 1.552982 0.423519
71 0.000000 17.71650 0.000000 1.166719 1.937540 0.471235
72 0.000000 20.16130 0.000000 1.442343 2.420900 0.533891
73 0.000000 22.72730 0.000000 1.822930 3.098447 0.627044
74 0.000000 25.42370 0.000000 2.285925 3.902315 0.731061
75 0.000000 28.26090 0.000000 2.786827 4.771989 0.855927
76 0.000000 31.25000 0.000000 3.395077 5.839017 1.010740
77 0.000000 34.40370 0.000000 4.061422 7.011309 1.185840
78 0.000000 37.73580 0.000000 4.887632 8.443230 1.395959
79 0.000000 41.26210 0.000000 5.870879 10.16460 1.647934
80 0.000000 45.00000 0.000000 7.159330 12.43023 1.979510
81 0.000000 48.96910 0.000000 8.572708 14.88971 2.340439
82 0.000000 53.19150 0.000000 10.20359 17.74394 2.775622
83 0.000000 57.69230 0.000000 11.99638 20.87927 3.249617
84 0.000000 62.50000 0.000000 14.45229 25.16539 3.888873
85 0.000000 67.64710 0.000000 17.34616 30.21955 4.698434
86 0.000000 73.17070 0.000000 20.39243 35.50709 5.574044
87 0.000000 79.11390 0.000000 24.38982 42.45025 6.710218
88 0.000000 85.52630 0.000000 28.93059 50.33731 8.043548
89 0.000000 92.46570 0.000000 34.62387 60.23530 9.733070
90 100.0000 100.0000 0.000000 76.26012 91.36667 14.25701
91 100.0000 100.0000 23.32610 77.26680 91.82218 19.32635
92 0.000000 0.000000 3.378400 0.152293 0.131384 0.370745
93 0.000000 0.000000 5.172400 0.175311 0.141996 0.486224
94 0.000000 0.000000 7.042300 0.211301 0.158510 0.669510
95 0.000000 0.000000 8.992800 0.257746 0.179965 0.907933
96 0.000000 0.000000 11.02940 0.309957 0.204183 1.167661
97 0.000000 0.000000 13.15790 0.393063 0.242458 1.581569
98 0.000000 0.000000 15.38460 0.469755 0.277764 1.963865
99 0.000000 0.000000 17.71650 0.583242 0.330307 2.536606
100 0.000000 0.000000 20.16130 0.719738 0.393256 3.229886
101 0.000000 0.000000 22.72730 0.921335 0.486369 4.255420
102 0.000000 0.000000 25.42370 1.112714 0.574740 5.230340
103 0.000000 0.000000 28.26090 1.348753 0.684123 6.428286
104 0.000000 0.000000 31.25000 1.618436 0.808567 7.803145
105 0.000000 0.000000 34.40370 1.928197 0.949700 9.375873
106 0.000000 0.000000 37.73580 2.322100 1.132959 11.37458
107 0.000000 0.000000 41.26210 2.767740 1.337092 13.62753
108 0.000000 0.000000 45.00000 3.386659 1.623317 16.76267
109 0.000000 0.000000 48.96910 4.038358 1.923170 20.06755
110 0.000000 0.000000 53.19150 4.752079 2.254451 23.68541
111 0.000000 0.000000 57.69230 5.633794 2.663738 28.15754
112 0.000000 0.000000 62.50000 6.795963 3.193871 34.02467
113 0.000000 0.000000 67.64710 8.054142 3.775641 40.40481
114 0.000000 0.000000 73.17070 9.746208 4.554210 48.94939
115 0.000000 0.000000 79.11390 11.34150 5.284872 57.06648
116 0.000000 0.000000 85.52630 13.52062 6.278598 68.08844
117 0.000000 17.84320 100.0000 20.37860 10.78489 97.61968
118 0.000000 49.87470 100.0000 27.85940 24.01923 99.17497
119 0.000000 60.26470 100.0000 32.49948 32.06326 100.7538
120 23.84380 70.00780 100.0000 39.29486 42.14373 102.3144
121 0.000000 17.71540 81.33500 12.99611 7.383223 60.42207
122 0.000000 29.77390 100.0000 22.19709 13.99063 97.98956
123 0.000000 40.43760 100.0000 24.66922 18.37692 98.49755
124 25.70000 48.75530 100.0000 29.06987 24.20010 99.35651
125 2.796400 2.796400 2.796400 0.286649 0.292913 0.362332
126 3.378400 3.378400 3.378400 0.348120 0.362930 0.446481
127 5.172400 5.172400 5.172400 0.473383 0.487880 0.592038
128 5.787000 5.787000 5.787000 0.553689 0.586002 0.658736
129 6.410300 6.410300 6.410300 0.586960 0.621562 0.695522
130 7.042300 7.042300 7.042300 0.689916 0.721801 0.824881
131 7.683200 7.683200 7.683200 0.774256 0.809383 0.928401
132 8.333300 8.333300 8.333300 0.816995 0.855428 0.974139
133 8.992800 8.992800 8.992800 0.909824 0.935317 1.133074
134 9.661800 9.661800 9.661800 1.001668 1.035056 1.220242
135 10.34060 10.34060 10.34060 1.066558 1.104379 1.309941
136 11.02940 11.02940 11.02940 1.197385 1.237988 1.507228
137 11.72840 11.72840 11.72840 1.351413 1.400532 1.686490
138 12.43780 12.43780 12.43780 1.503172 1.569499 1.793955
139 13.15790 13.15790 13.15790 1.635545 1.723585 1.964181
140 13.88890 13.88890 13.88890 1.707856 1.801763 1.995625
141 14.63100 14.63100 14.63100 1.857656 1.934072 2.185535
142 15.38460 15.38460 15.38460 2.015683 2.112262 2.412861
143 16.14990 16.14990 16.14990 2.229587 2.332481 2.642796
144 16.92710 16.92710 16.92710 2.412948 2.541280 2.784211
145 17.71650 17.71650 17.71650 2.559274 2.669650 3.016906
146 18.51850 18.51850 18.51850 2.771319 2.906338 3.318814
147 19.33330 19.33330 19.33330 3.022801 3.169806 3.597444
148 20.16130 20.16130 20.16130 3.273459 3.381055 3.776004
149 21.00270 21.00270 21.00270 3.607707 3.769546 4.266161
150 21.85790 21.85790 21.85790 3.816893 3.973607 4.601219
151 22.72730 22.72730 22.72730 4.139683 4.311721 4.865171
152 23.61110 23.61110 23.61110 4.417261 4.634232 5.238558
153 24.50980 24.50980 24.50980 4.698702 4.885040 5.470713
154 25.42370 25.42370 25.42370 5.170454 5.416184 6.039888
155 26.35330 26.35330 26.35330 5.501724 5.800980 6.424354
156 27.29890 27.29890 27.29890 5.961031 6.242468 6.866035
157 28.26090 28.26090 28.26090 6.303387 6.627367 7.307177
158 0.000000 0.000000 0.000000 0.103330 0.108503 0.119182
159 12.11140 15.63450 0.000000 1.455860 1.879046 0.467847
160 31.25000 31.25000 31.25000 7.717876 8.109782 8.953555
161 32.28230 32.28230 32.28230 8.157318 8.545327 9.509211
162 33.33330 33.33330 33.33330 8.789801 9.138177 10.24021
163 34.40370 34.40370 34.40370 9.291395 9.761232 10.71982
164 35.49380 35.49380 35.49380 10.01319 10.56227 11.65997
165 36.60440 36.60440 36.60440 10.60498 11.16207 12.36384
166 37.73580 37.73580 37.73580 11.19676 11.76188 13.06773
167 38.88890 38.88890 38.88890 12.10852 12.67726 14.18082
168 40.06410 40.06410 40.06410 12.71521 13.30809 14.82921
169 41.26210 41.26210 41.26210 13.52015 14.18583 15.74338
170 42.48370 42.48370 42.48370 14.54297 15.24728 16.89076
171 43.72940 43.72940 43.72940 15.56980 16.28729 18.06528
172 45.00000 45.00000 45.00000 16.53206 17.34976 19.29952
173 46.29630 46.29630 46.29630 17.51472 18.27627 20.49699
174 47.61910 47.61910 47.61910 18.51674 19.39618 21.73361
175 48.96910 48.96910 48.96910 19.91843 20.97010 23.07245
176 50.34720 50.34720 50.34720 20.92154 21.92770 24.24278
177 51.75440 51.75440 51.75440 22.32937 23.52682 25.69678
178 53.19150 53.19150 53.19150 23.91492 25.17471 27.43409
179 54.65950 54.65950 54.65950 24.91163 26.34850 28.90163
180 56.15940 56.15940 56.15940 26.40922 27.72539 30.85312
181 57.69230 57.69230 57.69230 27.83098 29.23773 32.55797
182 59.25930 59.25930 59.25930 29.68299 31.11744 34.70092
183 60.86140 60.86140 60.86140 31.48686 33.07212 36.84931
184 62.50000 62.50000 62.50000 33.49178 35.15641 38.88661
185 64.17620 64.17620 64.17620 35.69157 37.62530 41.71004
186 65.89150 65.89150 65.89150 37.44529 39.35854 43.33451
187 67.64710 67.64710 67.64710 40.05389 42.12182 46.47847
188 69.44440 69.44440 69.44440 42.22684 44.35900 49.17533
189 71.28510 71.28510 71.28510 45.12232 47.33964 52.46746
190 73.17070 73.17070 73.17070 47.74179 49.97317 55.85987
191 75.10290 75.10290 75.10290 50.47865 53.05966 58.30786
192 77.08330 77.08330 77.08330 53.56131 56.39339 61.92904
193 79.11390 79.11390 79.11390 56.59137 59.59414 65.23070
194 81.19660 81.19660 81.19660 59.94696 63.09534 69.31060
195 83.33330 83.33330 83.33330 62.95164 66.27492 73.03858
196 85.52630 85.52630 85.52630 66.91661 70.43316 77.71139
197 87.77780 87.77780 87.77780 71.20402 74.86406 82.81934
198 90.09010 90.09010 90.09010 75.44387 79.28876 87.89958
199 92.46570 92.46570 92.46570 79.78046 83.83845 93.49711
200 94.90740 94.90740 94.90740 84.67679 88.75778 98.78979
201 44.09980 73.26260 59.29380 32.13617 41.52164 36.63714
202 45.66090 73.63210 69.52420 35.28379 43.32289 49.24854
203 57.17610 83.94630 100.0000 56.94280 62.65063 105.5320
204 0.000000 17.07780 65.02500 8.522793 5.286310 37.97606
205 21.35780 23.85780 66.92410 11.07334 7.788280 40.11012
206 0.000000 20.19650 36.23870 3.591453 3.489859 11.23149
207 39.34460 22.40560 41.52080 9.047727 6.816231 14.99638
208 48.29580 22.74980 73.52990 18.57543 11.55362 50.57012
209 81.58030 0.000000 100.0000 41.46499 21.29767 98.98703
210 100.0000 0.000000 100.0000 54.64312 28.77455 99.65184
211 100.0000 26.30890 100.0000 57.17719 33.27923 100.1652
212 82.81140 35.29420 0.000000 27.52201 20.73916 2.648259
213 100.0000 36.66650 0.000000 40.36004 28.66112 3.695095
214 35.87150 0.000000 19.17090 4.339999 2.442852 3.406537
215 36.93420 0.000000 27.58730 5.164022 2.845605 6.432917
216 20.70950 0.000000 40.92200 3.999980 2.021476 13.67019
217 22.21110 40.79270 42.09750 10.04767 12.11311 16.30254
218 32.25100 63.14910 66.28360 25.42055 31.09222 42.76827
219 58.50520 66.12390 68.87910 35.29408 38.36891 47.56862
220 100.0000 69.86160 78.60890 65.03545 57.57148 63.52350
221 52.77590 14.44410 0.000000 9.469322 6.357080 0.898182
222 67.83360 20.55770 0.000000 16.43006 11.10904 1.413265
223 48.96910 0.000000 0.000000 7.421452 4.245339 0.585360
224 52.76100 0.000000 13.83220 8.985920 5.082255 2.327880
225 56.17110 0.000000 60.48450 16.14197 8.476558 33.02995
226 100.0000 39.18750 79.37280 52.37524 34.97592 61.55003
227 100.0000 79.51430 78.95080 71.41562 68.51367 66.08257
228 100.0000 88.42110 100.0000 85.45011 82.71660 108.1589
229 25.63490 0.000000 53.27310 6.570487 3.255246 24.09968
230 63.62530 0.000000 74.08540 22.83671 11.87478 51.22967
231 74.36290 32.79190 83.35840 34.49961 22.52986 67.31204
232 0.000000 14.09660 12.94580 1.102257 1.470491 1.846993
233 0.000000 16.57440 23.73510 1.957090 2.186206 4.982389
234 0.000000 27.51860 36.18650 4.705640 5.465879 11.43316
235 0.000000 47.80250 60.33400 14.40807 16.97683 34.41309
236 21.53230 49.89480 64.04070 17.40687 19.55576 38.84670
237 39.04240 76.72270 100.0000 46.32709 50.83300 103.9603
238 5.172400 0.000000 0.000000 0.241263 0.184405 0.139537
239 3.968300 3.968300 3.968300 0.374909 0.390747 0.486009
240 4.566200 4.566200 4.566200 0.447360 0.460825 0.561727
241 35.26040 16.23260 23.71770 5.455801 4.128069 5.150417
242 56.65500 23.39090 38.73460 14.32936 10.15350 13.52864
243 71.54250 42.08920 49.45420 26.96510 22.09882 23.28680
244 0.000000 67.38150 46.32170 20.75377 31.53472 23.03456
245 0.000000 67.94550 66.76810 25.02830 33.81514 43.67407
246 0.000000 83.63960 85.84440 41.04831 54.10521 76.86066
247 0.000000 87.10860 100.0000 49.32790 61.24595 106.2828
248 0.000000 38.26680 78.55050 16.23432 13.97477 57.93659
249 0.000000 48.49250 81.02020 20.30962 20.10339 62.77711
250 67.85920 18.89630 49.63420 20.22480 12.64671 22.30190
251 100.0000 24.17290 59.83070 43.90826 26.85115 34.46666
252 0.544700 0.544700 0.544700 0.149893 0.156136 0.179360
253 1.096500 1.096500 1.096500 0.191450 0.195823 0.234452
254 25.17470 100.0000 20.68500 44.33846 73.55269 16.73472
255 54.01770 100.0000 36.28720 52.79457 78.11280 24.28653
256 84.20900 100.0000 37.92340 67.82048 86.42103 26.23710
257 100.0000 100.0000 40.99750 79.16740 92.67874 29.17987
258 100.0000 100.0000 56.09590 81.63862 93.81238 41.68318
259 23.53420 0.000000 67.34400 9.440982 4.544475 40.24606
260 44.07200 0.000000 77.64900 16.50013 8.214656 55.49277
261 67.69010 38.33200 100.0000 38.96074 25.83218 100.1315
262 75.63480 82.92780 100.0000 64.74934 66.20083 105.5549
263 0.000000 38.61690 32.38990 6.838050 9.660498 10.20174
264 0.000000 41.21140 47.74360 9.732374 11.99714 21.19893
265 65.62700 42.43790 83.74270 32.91337 24.55577 68.43318
266 100.0000 58.27710 86.00440 61.50674 48.00000 75.09497
267 100.0000 62.31010 100.0000 69.32233 54.28555 104.3933
268 0.000000 100.0000 51.05800 45.73049 73.99778 33.97690
269 0.000000 100.0000 77.10590 51.97520 76.84428 66.04557
270 0.000000 100.0000 88.61970 55.81997 78.58503 85.75319
271 0.000000 100.0000 100.0000 60.24780 80.54015 108.5906
272 26.82810 100.0000 100.0000 62.27823 81.68370 108.6377
273 26.67440 25.05320 40.95630 6.948628 6.178912 14.41075
274 29.00710 36.21820 48.36760 10.83738 10.98577 21.48512
275 59.73980 51.91130 73.51550 30.58137 27.41554 53.05382
276 66.41050 61.82190 100.0000 47.33366 41.31906 102.6210
277 0.000000 0.000000 92.46570 16.30344 7.526148 82.24195
278 0.000000 0.000000 100.0000 19.18756 8.796112 96.90675
279 29.56230 21.33710 100.0000 22.89366 12.64088 98.12345
280 44.92840 46.79680 100.0000 32.69116 25.26203 100.3297
281 84.79120 66.54720 100.0000 60.11549 51.57065 103.4831
282 100.0000 75.87540 100.0000 76.73718 67.42293 105.9160
283 0.000000 69.91060 33.27660 20.36768 33.08780 14.59379
284 14.36450 86.70820 33.71800 32.75371 53.40202 18.83334
285 58.59830 76.94180 19.65240 34.46069 46.37753 11.35912
286 76.50730 76.84770 37.84460 44.66219 51.89371 20.09239
287 28.22700 33.38350 0.000000 6.059465 7.793255 1.270825
288 29.07130 48.46180 39.01110 13.25949 17.10945 15.09217
289 63.63490 52.80640 42.24570 26.13044 26.38480 18.94164
290 52.49270 34.91440 0.000000 12.62563 12.05668 1.750989
291 65.12310 55.05580 16.26990 25.11228 26.89259 7.011329
292 79.29620 62.47420 26.22590 36.73673 37.77966 11.46634
293 100.0000 77.44190 68.46330 66.87301 64.32483 50.86145
294 100.0000 88.10820 69.02290 74.62280 77.83920 53.30896
295 83.96600 0.000000 17.23090 24.20022 13.67661 4.546819
296 100.0000 0.000000 41.41330 38.33312 21.45517 16.78067
297 100.0000 24.20740 49.71100 41.91076 26.02824 24.07652
298 0.000000 60.05750 18.74030 13.90249 23.30617 7.179255
299 0.000000 65.40070 73.43830 25.78890 32.41479 54.13583
300 0.000000 71.13850 85.45410 32.76896 39.71619 74.20435
301 47.70520 100.0000 100.0000 67.11899 84.35137 108.8779
302 78.41290 100.0000 100.0000 80.39947 91.71871 109.3064
303 82.86920 47.75860 0.000000 31.29588 27.33884 3.694128
304 100.0000 49.27880 0.000000 44.38261 35.70819 4.836366
305 100.0000 59.91280 31.93220 50.42041 44.05272 14.75419
306 100.0000 65.72550 45.90410 55.33856 50.25834 25.07302
307 0.000000 1.655600 0.000000 0.155223 0.194089 0.156636
308 1.655600 1.655600 1.655600 0.216405 0.226040 0.263741
309 2.222200 2.222200 2.222200 0.259616 0.269663 0.334428
310 100.0000 0.000000 0.000000 35.46905 20.15555 2.197094
311 100.0000 21.83350 0.000000 37.46763 23.63315 2.823831
312 100.0000 32.37850 26.96110 40.56655 27.44723 9.616018
313 100.0000 42.38800 40.29370 44.72363 32.81949 17.82676
314 0.000000 0.000000 0.000000 0.103817 0.109013 0.119938
315 18.34410 7.137400 0.000000 1.353529 1.117470 0.348348
316 28.39700 65.45450 84.63710 31.54816 35.27757 71.89954
317 48.70330 68.43880 100.0000 44.19552 43.80659 103.2639
318 47.96570 0.000000 22.61160 7.828800 4.381045 4.750776
319 64.82570 28.70710 27.44550 17.33300 13.02087 7.760326
320 30.56390 18.57630 0.000000 3.944192 3.680460 0.671427
321 34.38860 48.69860 0.000000 11.83916 16.54111 2.537317
322 45.27090 58.49730 39.08680 20.98005 26.12870 16.79791
323 47.89650 69.41350 81.66880 37.38930 41.36536 67.18985
324 48.35430 50.56870 58.16580 21.92102 22.43606 32.19014
325 76.69710 74.23830 63.33940 47.48660 50.83779 43.05000
326 87.15550 78.60200 100.0000 68.78579 64.94484 106.0720
327 46.59510 0.000000 100.0000 25.63648 12.35575 98.04333
328 64.98740 0.000000 100.0000 32.61280 16.29623 98.27875
329 0.000000 10.58460 33.14560 2.376911 1.710670 9.590790
330 0.000000 19.24730 46.93700 5.129389 4.045102 19.56755
331 0.000000 39.69840 64.54630 12.89351 12.95763 39.05587
332 78.97710 100.0000 85.11930 74.98249 89.33494 80.71763
333 33.40050 29.77650 17.05650 6.858644 7.396962 3.618934
334 33.21140 37.08200 20.02650 8.726029 10.40000 5.126174
335 32.21290 77.15000 29.94820 27.66732 42.55189 14.31399
336 0.000000 100.0000 0.000000 41.45634 72.02262 11.93177
337 0.000000 100.0000 20.84430 42.33018 72.42453 16.46030
338 26.26350 100.0000 72.94500 52.99146 77.50920 60.59521
339 0.000000 28.02960 21.63010 3.474255 5.003034 4.728157
340 0.000000 35.47510 36.71490 6.542077 8.487474 12.53208
341 0.000000 70.11790 100.0000 37.93504 41.41639 102.7595
342 0.000000 78.26690 100.0000 43.00393 50.27705 104.2332
343 24.41730 79.89060 100.0000 45.73234 53.15504 104.5346
344 40.97040 40.95040 0.000000 10.69157 12.75826 1.930667
345 54.44600 46.97990 0.000000 16.89709 18.77302 2.741053
346 65.68260 57.21540 0.000000 25.75278 28.59033 4.112800
347 100.0000 61.75310 0.000000 49.49276 44.70014 6.174972
348 100.0000 74.44720 22.15740 57.68427 57.72225 13.29395
349 100.0000 85.97370 39.95150 67.31131 72.24009 24.63622
350 25.45750 78.29480 0.000000 25.87152 42.65718 6.713842
351 64.83300 83.55010 0.000000 41.08255 55.60125 8.633361
352 15.29250 25.55990 0.000000 2.983822 4.309876 0.785369
353 29.23980 29.23980 29.23980 6.854476 7.234126 7.983942
354 30.23600 30.23600 30.23600 7.193554 7.506940 8.504104
355 0.000000 43.51870 15.97750 7.148727 11.74421 4.488934
356 0.000000 51.74120 39.69150 12.17722 17.88803 15.78829
357 35.81750 100.0000 55.14250 50.47698 76.52639 38.90784
358 49.05880 100.0000 69.31360 57.40571 80.04615 55.88519
359 76.39920 100.0000 69.80170 69.18557 86.56913 57.29613
360 100.0000 100.0000 70.26670 85.01559 95.33513 58.91279
361 100.0000 100.0000 81.39790 88.37288 96.87551 75.94463
362 100.0000 100.0000 90.76610 91.57971 98.32023 92.20595
363 70.26090 0.000000 62.50090 22.74716 12.15548 35.90604
364 100.0000 0.000000 73.73800 45.43423 24.68510 52.83639
365 100.0000 29.01300 89.29820 53.53741 32.29125 79.47144
366 100.0000 47.82600 100.0000 62.97103 43.27242 102.3702
367 84.67660 51.78870 38.45260 36.47474 31.73358 16.73196
368 100.0000 54.80560 42.96230 49.50861 40.62506 21.38099
369 100.0000 66.45260 57.11490 57.56147 51.54621 35.34236
370 46.80110 0.000000 37.88660 8.995122 4.864149 12.52284
371 66.16960 0.000000 46.86480 17.69604 9.650626 19.88275
372 76.29470 13.39270 46.26490 23.71084 14.07075 19.57035
373 27.16920 100.0000 0.000000 43.73711 73.27112 12.03600
374 48.97570 100.0000 0.000000 48.95340 76.17214 12.53713
375 90.03980 100.0000 100.0000 87.86886 95.83761 110.4514
376 97.41780 97.41780 97.41780 89.33695 93.73670 103.8637
377 1.655600 0.000000 0.000000 0.145012 0.131792 0.126798
378 3.378400 0.000000 0.000000 0.190314 0.156641 0.133146
379 39.00600 0.000000 11.30320 4.817135 2.749321 1.689072
380 71.03230 0.000000 23.34180 17.18371 9.664570 5.746292
381 100.0000 0.000000 51.40180 39.87700 22.16389 24.64152
382 100.0000 0.000000 61.93000 42.15647 23.18369 36.26037
383 0.000000 0.000000 1.655600 0.125550 0.119168 0.231613
384 10.55930 0.000000 11.34050 0.711773 0.423528 1.323815
385 24.05400 0.000000 27.05640 2.870163 1.548361 6.211103
386 38.84640 17.59020 46.67430 9.328727 6.211997 19.33849
387 43.35080 32.35100 50.50700 13.51883 11.28919 23.29041
388 48.32460 43.40930 78.02330 24.64179 20.46757 58.22865
389 0.000000 82.64970 52.59750 31.68791 49.16451 31.36602
390 0.000000 84.29080 76.66450 38.56028 53.70708 61.32598
391 26.70720 100.0000 82.83290 55.96028 78.86216 75.57592
