Dell/U2718Q/U2718Q #1 2020-05-26 12-15 0.3127x 0.329y sRGB M-S XYZLUT+MTX/U2718Q #1 2020-05-26 12-15 0.3127x 0.329y sRGB M-S XYZLUT+MTX.ti3
CTI3   

DESCRIPTOR "Argyll Calibration Target chart information 3"
ORIGINATOR "Argyll dispread"
CREATED "Tue May 26 12:27:02 2020"
DEVICE_CLASS "DISPLAY"
SINGLE_DIM_STEPS "29"
COMP_GREY_STEPS "85"
DARK_REGION_EMPHASIS "1.6"
COLOR_REP "RGB_XYZ"
TARGET_INSTRUMENT "X-Rite i1 DisplayPro, ColorMunki Display"
DISPLAY_TYPE_REFRESH "YES"
INSTRUMENT_TYPE_SPECTRAL "NO"
LUMINANCE_XYZ_CDM2 "374.720273 393.486529 433.536678"
NORMALIZED_TO_Y_100 "YES"
VIDEO_LUT_CALIBRATION_POSSIBLE "YES"

BEGIN_ARGYLL_COLPROF_ARGS
-v -qh -aX -bn -C "No copyright. Created with DisplayCAL 3.8.9.3 and ArgyllCMS 2.1.2" -M "DELL U2718Q" -A "Dell, Inc."
END_ARGYLL_COLPROF_ARGS

OBSERVER "1931_2"
USE_BLACK_POINT_COMPENSATION "NO"
BLACK_POINT_CORRECTION "0.0"
HIRES_B2A "YES"
HIRES_B2A_SIZE "-1"
SMOOTH_B2A "YES"
PATCH_SEQUENCE "OPTIMIZE_DISPLAY_RESPONSE_DELAY"

NUMBER_OF_FIELDS 7
BEGIN_DATA_FORMAT
SAMPLE_ID RGB_R RGB_G RGB_B XYZ_X XYZ_Y XYZ_Z
END_DATA_FORMAT

NUMBER_OF_SETS 1140
BEGIN_DATA
1 100.0000 100.0000 100.0000 95.23078 100.0000 110.1783
2 1.960800 1.960800 1.960800 0.241698 0.248025 0.338261
3 3.921600 3.921600 3.921600 0.375158 0.389632 0.493569
4 5.882400 5.882400 5.882400 0.552984 0.585831 0.657480
5 9.803900 9.803900 9.803900 0.999056 1.034365 1.206209
6 13.72600 13.72600 13.72600 1.701662 1.799411 1.972720
7 17.64700 17.64700 17.64700 2.554519 2.666240 2.984305
8 21.56900 21.56900 21.56900 3.778017 3.950802 4.412838
9 25.49000 25.49000 25.49000 5.150928 5.401295 5.980804
10 29.41200 29.41200 29.41200 6.772293 7.160799 7.808309
11 33.33300 33.33300 33.33300 8.743817 9.095225 10.12141
12 37.25500 37.25500 37.25500 10.93320 11.44096 12.56691
13 41.17600 41.17600 41.17600 13.44187 14.12254 15.56488
14 45.09800 45.09800 45.09800 16.43447 17.27181 19.06217
15 49.02000 49.02000 49.02000 19.79449 20.86414 22.77558
16 52.94100 52.94100 52.94100 23.22903 24.53566 26.66251
17 56.86300 56.86300 56.86300 27.09723 28.39963 31.51777
18 60.78400 60.78400 60.78400 31.32183 32.93424 36.43178
19 64.70600 64.70600 64.70600 36.03785 38.03552 41.82219
20 68.62700 68.62700 68.62700 40.88903 43.01087 47.08841
21 72.54900 72.54900 72.54900 46.46386 48.86386 53.95310
22 76.47100 76.47100 76.47100 52.05301 54.85934 60.11439
23 80.39200 80.39200 80.39200 58.47607 61.54977 67.12135
24 84.31400 84.31400 84.31400 64.79318 68.20572 74.72626
25 88.23500 88.23500 88.23500 71.91976 75.60769 83.06655
26 92.15700 92.15700 92.15700 78.87296 82.90234 92.20133
27 96.07800 96.07800 96.07800 86.75821 91.19011 100.5465
28 46.00270 28.10420 18.71280 9.706941 8.594355 4.318995
29 71.87900 37.20220 26.78020 22.63145 18.28275 8.253811
30 72.69460 47.85180 40.40090 27.80957 24.89913 16.56926
31 76.75090 59.57040 69.21870 40.82785 37.46447 47.78701
32 100.0000 0.000000 16.74560 36.18811 20.48699 5.465834
33 100.0000 0.000000 29.16690 36.94396 20.82811 9.348636
34 100.0000 16.42100 38.60990 39.27587 23.59722 14.86179
35 64.35070 69.16220 0.000000 31.27273 39.01658 5.819279
36 81.40920 71.46570 0.000000 41.89494 46.55405 6.765822
37 100.0000 73.66540 0.000000 56.12114 56.18954 8.062507
38 7.042300 0.000000 0.000000 0.337644 0.245976 0.211086
39 8.992800 0.000000 0.000000 0.426742 0.301056 0.224597
40 11.02940 0.000000 0.000000 0.531959 0.365709 0.242836
41 13.15790 0.000000 0.000000 0.680859 0.448331 0.247165
42 15.38460 0.000000 0.000000 0.827771 0.529630 0.251924
43 17.71650 0.000000 0.000000 1.047802 0.651712 0.258604
44 20.16130 0.000000 0.000000 1.345977 0.821106 0.275177
45 22.72730 0.000000 0.000000 1.634744 0.983193 0.288018
46 25.42370 0.000000 0.000000 2.012379 1.198229 0.307185
47 28.26090 0.000000 0.000000 2.416684 1.423800 0.323270
48 31.25000 0.000000 0.000000 2.926099 1.711314 0.349661
49 34.40370 0.000000 0.000000 3.525665 2.051405 0.383536
50 37.73580 0.000000 0.000000 4.193531 2.430125 0.423832
51 41.26210 0.000000 0.000000 5.066590 2.917240 0.459890
52 45.00000 0.000000 0.000000 6.164062 3.535320 0.508158
53 53.19150 0.000000 0.000000 8.915503 5.086274 0.648322
54 55.44400 0.000000 0.000000 9.458329 5.395170 0.681068
55 57.69230 0.000000 0.000000 10.29604 5.867984 0.724565
56 62.50000 0.000000 0.000000 12.46194 7.081927 0.834148
57 67.64710 0.000000 0.000000 14.68772 8.349282 0.956663
58 73.17070 0.000000 0.000000 17.59895 9.989519 1.111110
59 79.11390 0.000000 0.000000 20.83396 11.82807 1.303070
60 85.52630 0.000000 0.000000 24.75507 14.06097 1.523667
61 92.46570 0.000000 0.000000 29.46289 16.72686 1.786976
62 100.0000 34.87420 15.06880 40.46723 28.08723 6.313086
63 100.0000 43.53950 53.55340 47.06103 34.17545 28.35413
64 0.000000 3.378400 0.000000 0.218874 0.294263 0.230681
65 0.000000 5.172400 0.000000 0.269943 0.380483 0.254464
66 0.000000 7.042300 0.000000 0.372299 0.554918 0.284503
67 0.000000 8.992800 0.000000 0.457646 0.699127 0.306960
68 0.000000 11.02940 0.000000 0.590528 0.921488 0.338862
69 0.000000 13.15790 0.000000 0.798008 1.285338 0.390079
70 0.000000 15.38460 0.000000 0.950299 1.553753 0.424748
71 0.000000 17.71650 0.000000 1.167473 1.938308 0.472226
72 0.000000 20.16130 0.000000 1.443084 2.421664 0.534791
73 0.000000 22.72730 0.000000 1.823663 3.099206 0.627912
74 0.000000 25.42370 0.000000 2.286653 3.903068 0.731920
75 0.000000 28.26090 0.000000 2.787551 4.772735 0.856784
76 0.000000 31.25000 0.000000 3.395796 5.839754 1.011595
77 0.000000 34.40370 0.000000 4.062136 7.012037 1.186694
78 0.000000 37.73580 0.000000 4.888339 8.443947 1.396811
79 0.000000 41.26210 0.000000 5.871579 10.16530 1.648784
80 0.000000 45.00000 0.000000 7.160020 12.43092 1.980357
81 0.000000 48.96910 0.000000 8.573387 14.89038 2.341283
82 0.000000 53.19150 0.000000 10.20426 17.74458 2.776463
83 0.000000 57.69230 0.000000 11.99703 20.87989 3.250454
84 0.000000 62.50000 0.000000 14.45292 25.16598 3.889705
85 0.000000 67.64710 0.000000 17.34677 30.22010 4.699260
86 0.000000 73.17070 0.000000 20.39302 35.50760 5.574863
87 0.000000 79.11390 0.000000 24.39037 42.45070 6.711028
88 0.000000 85.52630 0.000000 28.93111 50.33770 8.044348
89 0.000000 92.46570 0.000000 34.62434 60.23561 9.733857
90 100.0000 100.0000 0.000000 76.26027 91.36674 14.25776
91 100.0000 100.0000 23.32610 77.26694 91.82224 19.32706
92 0.000000 0.000000 3.378400 0.159094 0.132166 0.430120
93 0.000000 0.000000 5.172400 0.181881 0.142778 0.543369
94 0.000000 0.000000 7.042300 0.217529 0.159292 0.723350
95 0.000000 0.000000 8.992800 0.263558 0.180747 0.957760
96 0.000000 0.000000 11.02940 0.315337 0.204965 1.219764
97 0.000000 0.000000 13.15790 0.397832 0.243239 1.636725
98 0.000000 0.000000 15.38460 0.474030 0.278545 2.019648
99 0.000000 0.000000 17.71650 0.586890 0.331088 2.590925
100 0.000000 0.000000 20.16130 0.722776 0.394036 3.280286
101 0.000000 0.000000 22.72730 0.923792 0.487148 4.298131
102 0.000000 0.000000 25.42370 1.114844 0.575519 5.265486
103 0.000000 0.000000 28.26090 1.350530 0.684901 6.454976
104 0.000000 0.000000 31.25000 1.619895 0.809344 7.822118
105 0.000000 0.000000 34.40370 1.929399 0.950476 9.388531
106 0.000000 0.000000 37.73580 2.323105 1.133733 11.38236
107 0.000000 0.000000 41.26210 2.768625 1.337865 13.63236
108 0.000000 0.000000 45.00000 3.387457 1.624087 16.76542
109 0.000000 0.000000 48.96910 4.039112 1.923938 20.06928
110 0.000000 0.000000 53.19150 4.752808 2.255216 23.68660
111 0.000000 0.000000 57.69230 5.634505 2.664500 28.15841
112 0.000000 0.000000 62.50000 6.796659 3.194629 34.02536
113 0.000000 0.000000 67.64710 8.054826 3.776395 40.40539
114 0.000000 0.000000 73.17070 9.746878 4.554957 48.94988
115 0.000000 0.000000 79.11390 11.34216 5.285614 57.06690
116 0.000000 0.000000 85.52630 13.52126 6.279332 68.08877
117 0.000000 17.84320 100.0000 20.37919 10.78559 97.61978
118 0.000000 49.87470 100.0000 27.85993 24.01983 99.17506
119 0.000000 60.26470 100.0000 32.49997 32.06379 100.7539
120 23.84380 70.00780 100.0000 39.29530 42.14418 102.3145
121 0.000000 17.71540 81.33500 12.99675 7.383948 60.42246
122 0.000000 29.77390 100.0000 22.19766 13.99130 97.98966
123 0.000000 40.43760 100.0000 24.66977 18.37756 98.49764
124 25.70000 48.75530 100.0000 29.07039 24.20069 99.35659
125 2.796400 2.796400 2.796400 0.290733 0.293694 0.395464
126 3.378400 3.378400 3.378400 0.351437 0.363710 0.472205
127 5.172400 5.172400 5.172400 0.475734 0.488659 0.608444
128 5.787000 5.787000 5.787000 0.555539 0.586781 0.670305
129 6.410300 6.410300 6.410300 0.588669 0.622340 0.705729
130 7.042300 7.042300 7.042300 0.691314 0.722578 0.832096
131 7.683200 7.683200 7.683200 0.775464 0.810160 0.933782
132 8.333300 8.333300 8.333300 0.818126 0.856204 0.978778
133 8.992800 8.992800 8.992800 0.910865 0.936093 1.136994
134 9.661800 9.661800 9.661800 1.002629 1.035831 1.223324
135 10.34060 10.34060 10.34060 1.067477 1.105153 1.312623
136 11.02940 11.02940 11.02940 1.198247 1.238761 1.509364
137 11.72840 11.72840 11.72840 1.352230 1.401304 1.688172
138 12.43780 12.43780 12.43780 1.503960 1.570270 1.795333
139 13.15790 13.15790 13.15790 1.636315 1.724355 1.965396
140 13.88890 13.88890 13.88890 1.708619 1.802532 1.996774
141 14.63100 14.63100 14.63100 1.858411 1.934840 2.186608
142 15.38460 15.38460 15.38460 2.016429 2.113029 2.413862
143 16.14990 16.14990 16.14990 2.230325 2.333246 2.643737
144 16.92710 16.92710 16.92710 2.413682 2.542043 2.785116
145 17.71650 17.71650 17.71650 2.560005 2.670412 3.017797
146 18.51850 18.51850 18.51850 2.772046 2.907098 3.319684
147 19.33330 19.33330 19.33330 3.023525 3.170564 3.598300
148 20.16130 20.16130 20.16130 3.274181 3.381812 3.776852
149 21.00270 21.00270 21.00270 3.608425 3.770300 4.266998
150 21.85790 21.85790 21.85790 3.817609 3.974359 4.602051
151 22.72730 22.72730 22.72730 4.140397 4.312470 4.865999
152 23.61110 23.61110 23.61110 4.417972 4.634979 5.239382
153 24.50980 24.50980 24.50980 4.699411 4.885785 5.471534
154 25.42370 25.42370 25.42370 5.171159 5.416925 6.040704
155 26.35330 26.35330 26.35330 5.502427 5.801718 6.425167
156 27.29890 27.29890 27.29890 5.961730 6.243202 6.866844
157 28.26090 28.26090 28.26090 6.304083 6.628098 7.307983
158 0.000000 0.000000 0.000000 0.110623 0.109285 0.183310
159 12.11140 15.63450 0.000000 1.456617 1.879814 0.468859
160 31.25000 31.25000 31.25000 7.718561 8.110502 8.954348
161 32.28230 32.28230 32.28230 8.158000 8.546043 9.509999
162 33.33330 33.33330 33.33330 8.790478 9.138889 10.24099
163 34.40370 34.40370 34.40370 9.292068 9.761939 10.72060
164 35.49380 35.49380 35.49380 10.01386 10.56297 11.66074
165 36.60440 36.60440 36.60440 10.60564 11.16277 12.36461
166 37.73580 37.73580 37.73580 11.19742 11.76257 13.06849
167 38.88890 38.88890 38.88890 12.10917 12.67794 14.18157
168 40.06410 40.06410 40.06410 12.71586 13.30877 14.82996
169 41.26210 41.26210 41.26210 13.52079 14.18650 15.74412
170 42.48370 42.48370 42.48370 14.54360 15.24794 16.89149
171 43.72940 43.72940 43.72940 15.57042 16.28795 18.06600
172 45.00000 45.00000 45.00000 16.53268 17.35041 19.30023
173 46.29630 46.29630 46.29630 17.51533 18.27691 20.49769
174 47.61910 47.61910 47.61910 18.51734 19.39681 21.73430
175 48.96910 48.96910 48.96910 19.91902 20.97072 23.07313
176 50.34720 50.34720 50.34720 20.92212 21.92831 24.24345
177 51.75440 51.75440 51.75440 22.32994 23.52742 25.69744
178 53.19150 53.19150 53.19150 23.91548 25.17530 27.43474
179 54.65950 54.65950 54.65950 24.91218 26.34908 28.90227
180 56.15940 56.15940 56.15940 26.40976 27.72596 30.85374
181 57.69230 57.69230 57.69230 27.83151 29.23828 32.55858
182 59.25930 59.25930 59.25930 29.68350 31.11798 34.70151
183 60.86140 60.86140 60.86140 31.48736 33.07264 36.84988
184 62.50000 62.50000 62.50000 33.49226 35.15692 38.88717
185 64.17620 64.17620 64.17620 35.69204 37.62579 41.71058
186 65.89150 65.89150 65.89150 37.44574 39.35901 43.33503
187 67.64710 67.64710 67.64710 40.05432 42.12227 46.47897
188 69.44440 69.44440 69.44440 42.22726 44.35944 49.17581
189 71.28510 71.28510 71.28510 45.12271 47.34005 52.46791
190 73.17070 73.17070 73.17070 47.74216 49.97356 55.86030
191 75.10290 75.10290 75.10290 50.47900 53.06003 58.30827
192 77.08330 77.08330 77.08330 53.56164 56.39373 61.92942
193 79.11390 79.11390 79.11390 56.59167 59.59446 65.23105
194 81.19660 81.19660 81.19660 59.94724 63.09563 69.31092
195 83.33330 83.33330 83.33330 62.95189 66.27518 73.03887
196 85.52630 85.52630 85.52630 66.91683 70.43339 77.71164
197 87.77780 87.77780 87.77780 71.20421 74.86426 82.81955
198 90.09010 90.09010 90.09010 75.44402 79.28892 87.89975
199 92.46570 92.46570 92.46570 79.78058 83.83858 93.49724
200 94.90740 94.90740 94.90740 84.67687 88.75787 98.78988
201 44.09980 73.26260 59.29380 32.13666 41.52210 36.63772
202 45.66090 73.63210 69.52420 35.28426 43.32333 49.24902
203 57.17610 83.94630 100.0000 56.94310 62.65092 105.5320
204 0.000000 17.07780 65.02500 8.523472 5.287052 37.97663
205 21.35780 23.85780 66.92410 11.07400 7.789002 40.11067
206 0.000000 20.19650 36.23870 3.592172 3.490615 11.23229
207 39.34460 22.40560 41.52080 9.048402 6.816961 14.99713
208 48.29580 22.74980 73.52990 18.57603 11.55431 50.57059
209 81.58030 0.000000 100.0000 41.46541 21.29829 98.98712
210 100.0000 0.000000 100.0000 54.64344 28.77511 99.65192
211 100.0000 26.30890 100.0000 57.17749 33.27975 100.1653
212 82.81140 35.29420 0.000000 27.52254 20.73978 2.649101
213 100.0000 36.66650 0.000000 40.36047 28.66168 3.695929
214 35.87150 0.000000 19.17090 4.340723 2.443616 3.407465
215 36.93420 0.000000 27.58730 5.164733 2.846366 6.433789
216 20.70950 0.000000 40.92200 4.000726 2.022243 13.67157
217 22.21110 40.79270 42.09750 10.04834 12.11380 16.30328
218 32.25100 63.14910 66.28360 25.42110 31.09276 42.76880
219 58.50520 66.12390 68.87910 35.29455 38.36939 47.56911
220 100.0000 69.86160 78.60890 65.03569 57.57181 63.52387
221 52.77590 14.44410 0.000000 9.469994 6.357813 0.899038
222 67.83360 20.55770 0.000000 16.43068 11.10974 1.414117
223 48.96910 0.000000 0.000000 7.422140 4.246089 0.586219
224 52.76100 0.000000 13.83220 8.986596 5.082998 2.328725
225 56.17110 0.000000 60.48450 16.14259 8.477275 33.03055
226 100.0000 39.18750 79.37280 52.37558 34.97643 61.55041
227 100.0000 79.51430 78.95080 71.41581 68.51392 66.08292
228 100.0000 88.42110 100.0000 85.45019 82.71674 108.1589
229 25.63490 0.000000 53.27310 6.571184 3.256004 24.10042
230 63.62530 0.000000 74.08540 22.83728 11.87547 51.23013
231 74.36290 32.79190 83.35840 34.50009 22.53047 67.31238
232 0.000000 14.09660 12.94580 1.103052 1.471263 1.848559
233 0.000000 16.57440 23.73510 1.957833 2.186972 4.983426
234 0.000000 27.51860 36.18650 4.706349 5.466619 11.43393
235 0.000000 47.80250 60.33400 14.40870 16.97748 34.41368
236 21.53230 49.89480 64.04070 17.40748 19.55639 38.84726
237 39.04240 76.72270 100.0000 46.32747 50.83339 103.9603
238 5.172400 0.000000 0.000000 0.246993 0.185187 0.188577
239 3.968300 3.968300 3.968300 0.377971 0.391527 0.509276
240 4.566200 4.566200 4.566200 0.449885 0.461605 0.579805
241 35.26040 16.23260 23.71770 5.456505 4.128820 5.151244
242 56.65500 23.39090 38.73460 14.32999 10.15420 13.52940
243 71.54250 42.08920 49.45420 26.96563 22.09943 23.28748
244 0.000000 67.38150 46.32170 20.75435 31.53526 23.03524
245 0.000000 67.94550 66.76810 25.02885 33.81566 43.67459
246 0.000000 83.63960 85.84440 41.04873 54.10557 76.86092
247 0.000000 87.10860 100.0000 49.32826 61.24625 106.2828
248 0.000000 38.26680 78.55050 16.23494 13.97544 57.93700
249 0.000000 48.49250 81.02020 20.31021 20.10402 62.77748
250 67.85920 18.89630 49.63420 20.22539 12.64739 22.30259
251 100.0000 24.17290 59.83070 43.90866 26.85172 34.46725
252 0.544700 0.544700 0.544700 0.156169 0.156918 0.233667
253 1.096500 1.096500 1.096500 0.196976 0.196605 0.281511
254 25.17470 100.0000 20.68500 44.33886 73.55290 16.73545
255 54.01770 100.0000 36.28720 52.79490 78.11297 24.28720
256 84.20900 100.0000 37.92340 67.82069 86.42114 26.23776
257 100.0000 100.0000 40.99750 79.16753 92.67880 29.18050
258 100.0000 100.0000 56.09590 81.63873 93.81243 41.68372
259 23.53420 0.000000 67.34400 9.441654 4.545223 40.24662
260 44.07200 0.000000 77.64900 16.50075 8.215375 55.49320
261 67.69010 38.33200 100.0000 38.96118 25.83276 100.1316
262 75.63480 82.92780 100.0000 64.74958 66.20109 105.5549
263 0.000000 38.61690 32.38990 6.838742 9.661205 10.20252
264 0.000000 41.21140 47.74360 9.733044 11.99783 21.19963
265 65.62700 42.43790 83.74270 32.91386 24.55636 68.43351
266 100.0000 58.27710 86.00440 61.50700 48.00041 75.09524
267 100.0000 62.31010 100.0000 69.32253 54.28591 104.3933
268 0.000000 100.0000 51.05800 45.73088 73.99798 33.97750
269 0.000000 100.0000 77.10590 51.97554 76.84446 66.04592
270 0.000000 100.0000 88.61970 55.82028 78.58520 85.75338
271 0.000000 100.0000 100.0000 60.24807 80.54030 108.5906
272 26.82810 100.0000 100.0000 62.27849 81.68384 108.6377
273 26.67440 25.05320 40.95630 6.949319 6.179647 14.41150
274 29.00710 36.21820 48.36760 10.83804 10.98647 21.48581
275 59.73980 51.91130 73.51550 30.58188 27.41611 53.05427
276 66.41050 61.82190 100.0000 47.33404 41.31952 102.6211
277 0.000000 0.000000 92.46570 16.30406 7.526872 82.24217
278 0.000000 0.000000 100.0000 19.18816 8.796826 96.90685
279 29.56230 21.33710 100.0000 22.89423 12.64156 98.12354
280 44.92840 46.79680 100.0000 32.69165 25.26262 100.3298
281 84.79120 66.54720 100.0000 60.11576 51.57103 103.4832
282 100.0000 75.87540 100.0000 76.73732 67.42319 105.9160
283 0.000000 69.91060 33.27660 20.36827 33.08832 14.59454
284 14.36450 86.70820 33.71800 32.75420 53.40238 18.83406
285 58.59830 76.94180 19.65240 34.46117 46.37795 11.35989
286 76.50730 76.84770 37.84460 44.66259 51.89409 20.09310
287 28.22700 33.38350 0.000000 6.060163 7.793977 1.271678
288 29.07130 48.46180 39.01110 13.26013 17.11010 15.09291
289 63.63490 52.80640 42.24570 26.13098 26.38538 18.94235
290 52.49270 34.91440 0.000000 12.62628 12.05737 1.751838
291 65.12310 55.05580 16.26990 25.11283 26.89316 7.012137
292 79.29620 62.47420 26.22590 36.73719 37.78015 11.46711
293 100.0000 77.44190 68.46330 66.87323 64.32511 50.86191
294 100.0000 88.10820 69.02290 74.62296 77.83937 53.30941
295 83.96600 0.000000 17.23090 24.20078 13.67729 4.547646
296 100.0000 0.000000 41.41330 38.33357 21.45579 16.78140
297 100.0000 24.20740 49.71100 41.91118 26.02882 24.07719
298 0.000000 60.05750 18.74030 13.90313 23.30677 7.180062
299 0.000000 65.40070 73.43830 25.78944 32.41532 54.13627
300 0.000000 71.13850 85.45410 32.76945 39.71666 74.20463
301 47.70520 100.0000 100.0000 67.11921 84.35149 108.8779
302 78.41290 100.0000 100.0000 80.39959 91.71877 109.3064
303 82.86920 47.75860 0.000000 31.29638 27.33941 3.694962
304 100.0000 49.27880 0.000000 44.38301 35.70869 4.837191
305 100.0000 59.91280 31.93220 50.42076 44.05316 14.75494
306 100.0000 65.72550 45.90410 55.33887 50.25873 25.07369
307 0.000000 1.655600 0.000000 0.160780 0.194871 0.203991
308 1.655600 1.655600 1.655600 0.221427 0.226821 0.305934
309 2.222200 2.222200 2.222200 0.264001 0.270444 0.370465
310 100.0000 0.000000 0.000000 35.46952 20.15618 2.197940
311 100.0000 21.83350 0.000000 37.46808 23.63375 2.824672
312 100.0000 32.37850 26.96110 40.56698 27.44780 9.616806
313 100.0000 42.38800 40.29370 44.72403 32.82002 17.82748
314 0.000000 0.000000 0.000000 0.111110 0.109795 0.184066
315 18.34410 7.137400 0.000000 1.354468 1.118244 0.350644
316 28.39700 65.45450 84.63710 31.54866 35.27808 71.89984
317 48.70330 68.43880 100.0000 44.19592 43.80703 103.2640
318 47.96570 0.000000 22.61160 7.829485 4.381794 4.751605
319 64.82570 28.70710 27.44550 17.33361 13.02155 7.761128
320 30.56390 18.57630 0.000000 3.944908 3.681214 0.672288
321 34.38860 48.69860 0.000000 11.83981 16.54176 2.538160
322 45.27090 58.49730 39.08680 20.98063 26.12928 16.79864
323 47.89650 69.41350 81.66880 37.38975 41.36582 67.19019
324 48.35430 50.56870 58.16580 21.92159 22.43667 32.19075
325 76.69710 74.23830 63.33940 47.48697 50.83817 43.05053
326 87.15550 78.60200 100.0000 68.78600 64.94511 106.0720
327 46.59510 0.000000 100.0000 25.63703 12.35644 98.04343
328 64.98740 0.000000 100.0000 32.61329 16.29689 98.27884
329 0.000000 10.58460 33.14560 2.377687 1.711440 9.592672
330 0.000000 19.24730 46.93700 5.130095 4.045853 19.56827
331 0.000000 39.69840 64.54630 12.89415 12.95831 39.05643
332 78.97710 100.0000 85.11930 74.98265 89.33502 80.71786
333 33.40050 29.77650 17.05650 6.859336 7.397687 3.619769
334 33.21140 37.08200 20.02650 8.726706 10.40070 5.126997
335 32.21290 77.15000 29.94820 27.66785 42.55234 14.31474
336 0.000000 100.0000 0.000000 41.45676 72.02284 11.93254
337 0.000000 100.0000 20.84430 42.33059 72.42475 16.46103
338 26.26350 100.0000 72.94500 52.99179 77.50938 60.59560
339 0.000000 28.02960 21.63010 3.474974 5.003778 4.728984
340 0.000000 35.47510 36.71490 6.542772 8.488191 12.53284
341 0.000000 70.11790 100.0000 37.93549 41.41685 102.7596
342 0.000000 78.26690 100.0000 43.00434 50.27744 104.2332
343 24.41730 79.89060 100.0000 45.73273 53.15541 104.5346
344 40.97040 40.95040 0.000000 10.69223 12.75894 1.931515
345 54.44600 46.97990 0.000000 16.89770 18.77366 2.741894
346 65.68260 57.21540 0.000000 25.75332 28.59089 4.113631
347 100.0000 61.75310 0.000000 49.49312 44.70057 6.175786
348 100.0000 74.44720 22.15740 57.68456 57.72258 13.29471
349 100.0000 85.97370 39.95150 67.31153 72.24031 24.63689
350 25.45750 78.29480 0.000000 25.87206 42.65763 6.714652
351 64.83300 83.55010 0.000000 41.08297 55.60160 8.634156
352 15.29250 25.55990 0.000000 2.984545 4.310625 0.786227
353 29.23980 29.23980 29.23980 6.855168 7.234852 7.984742
354 30.23600 30.23600 30.23600 7.194243 7.507664 8.504900
355 0.000000 43.51870 15.97750 7.149417 11.74490 4.489762
356 0.000000 51.74120 39.69150 12.17787 17.88867 15.78903
357 35.81750 100.0000 55.14250 50.47733 76.52657 38.90840
358 49.05880 100.0000 69.31360 57.40601 80.04631 55.88562
359 76.39920 100.0000 69.80170 69.18577 86.56924 57.29654
360 100.0000 100.0000 70.26670 85.01567 95.33517 58.91319
361 100.0000 100.0000 81.39790 88.37293 96.87553 75.94490
362 100.0000 100.0000 90.76610 91.57974 98.32024 92.20609
363 70.26090 0.000000 62.50090 22.74773 12.15617 35.90662
364 100.0000 0.000000 73.73800 45.43462 24.68569 52.83684
365 100.0000 29.01300 89.29820 53.53774 32.29178 79.47168
366 100.0000 47.82600 100.0000 62.97128 43.27286 102.3703
367 84.67660 51.78870 38.45260 36.47520 31.73411 16.73269
368 100.0000 54.80560 42.96230 49.50897 40.62552 21.38169
369 100.0000 66.45260 57.11490 57.56176 51.54659 35.34295
370 46.80110 0.000000 37.88660 8.995798 4.864894 12.52361
371 66.16960 0.000000 46.86480 17.69665 9.651334 19.88346
372 76.29470 13.39270 46.26490 23.71140 14.07142 19.57106
373 27.16920 100.0000 0.000000 43.73751 73.27133 12.03677
374 48.97570 100.0000 0.000000 48.95376 76.17233 12.53789
375 90.03980 100.0000 100.0000 87.86892 95.83764 110.4514
376 97.41780 97.41780 97.41780 89.33700 93.73675 103.8637
377 1.655600 0.000000 0.000000 0.151804 0.132574 0.186087
378 3.378400 0.000000 0.000000 0.196580 0.157423 0.187354
379 39.00600 0.000000 11.30320 4.817850 2.750083 1.689951
380 71.03230 0.000000 23.34180 17.18432 9.665277 5.747110
381 100.0000 0.000000 51.40180 39.87743 22.16450 24.64219
382 100.0000 0.000000 61.93000 42.15689 23.18429 36.26095
383 0.000000 0.000000 1.655600 0.132628 0.119950 0.293660
384 10.55930 0.000000 11.34050 0.714564 0.424308 1.349110
385 24.05400 0.000000 27.05640 2.870974 1.549132 6.213203
386 38.84640 17.59020 46.67430 9.329400 6.212731 19.33920
387 43.35080 32.35100 50.50700 13.51947 11.28988 23.29109
388 48.32460 43.40930 78.02330 24.64234 20.46819 58.22906
389 0.000000 82.64970 52.59750 31.68841 49.16491 31.36664
390 0.000000 84.29080 76.66450 38.56072 53.70744 61.32636
391 26.70720 100.0000 82.83290 55.96059 78.86233 75.57619
