Dell/U2718Q/U2718Q #1 2020-05-26 12-15 0.3127x 0.329y sRGB M-S XYZLUT+MTX/U2718Q #1 2020-05-26 12-15 0.3127x 0.329y sRGB M-S XYZLUT+MTX.cal
CAL    

DESCRIPTOR "Argyll Device Calibration Curves"
ORIGINATOR "Argyll dispcal"
CREATED "Tue May 26 12:25:50 2020"
DEVICE_CLASS "DISPLAY"
COLOR_REP "RGB"
VIDEO_LUT_CALIBRATION_POSSIBLE "YES"
TV_OUTPUT_ENCODING "NO"
DEVICE_TYPE "n"
TARGET_WHITE_XYZ "373.849872 393.337409 428.367154"
TARGET_GAMMA "sRGB"
DEGREE_OF_BLACK_OUTPUT_OFFSET "1.0"
BLACK_POINT_CORRECTION "0.0"
BLACK_NEUTRAL_BLEND_RATE "4.0"
BLACK_POINT_HACK "YES"
QUALITY "medium"

BEGIN_ARGYLL_DISPCAL_ARGS
-v2 -d1 -c1 -yn -P0.475468687675,0.649334945586,2.11251980983 -F -X "i1 DisplayPro, ColorMunki Display & Dell, DELL U2718Q (i1 Pro).ccmx" -qm -m -w0.3127,0.329 -gs -f1.0 -k0 -A4.0 -b
END_ARGYLL_DISPCAL_ARGS


NUMBER_OF_FIELDS 4
BEGIN_DATA_FORMAT
RGB_I RGB_R RGB_G RGB_B
END_DATA_FORMAT

NUMBER_OF_SETS 256
BEGIN_DATA
0.00000000 0.00000000 0.00000000 0.00000000
0.00392157 0.00528323 0.00522148 0.00572726
0.00784314 0.01051610 0.01037360 0.01133470
0.01176470 0.01569930 0.01545780 0.01682600
0.01568630 0.02083350 0.02047540 0.02220480
0.01960780 0.02591950 0.02542770 0.02747450
0.02352940 0.03095790 0.03031590 0.03263840
0.02745100 0.03594850 0.03513850 0.03769040
0.03137250 0.04088230 0.03988250 0.04261990
0.03529410 0.04575880 0.04453780 0.04741800
0.03921570 0.05057170 0.04909810 0.05206270
0.04313730 0.05530680 0.05355650 0.05654760
0.04705880 0.05995800 0.05791530 0.06087230
0.05098040 0.06451520 0.06217530 0.06504290
0.05490200 0.06897620 0.06634320 0.06907640
0.05882350 0.07335200 0.07043190 0.07299270
0.06274510 0.07765430 0.07445350 0.07680760
0.06666670 0.08188860 0.07841940 0.08053650
0.07058820 0.08605930 0.08233800 0.08419100
0.07450980 0.09017890 0.08621810 0.08778260
0.07843140 0.09425680 0.09006460 0.09132340
0.08235290 0.09830570 0.09388110 0.09482830
0.08627450 0.10233500 0.09767250 0.09830400
0.09019610 0.10634400 0.10144300 0.10175800
0.09411760 0.11033000 0.10519300 0.10518900
0.09803920 0.11429600 0.10891700 0.10859800
0.10196100 0.11825000 0.11261000 0.11200500
0.10588200 0.12219300 0.11627500 0.11541200
0.10980400 0.12612900 0.11991300 0.11882100
0.11372500 0.13006400 0.12352400 0.12224000
0.11764700 0.13400000 0.12710700 0.12567900
0.12156900 0.13793100 0.13066200 0.12913500
0.12549000 0.14185800 0.13419000 0.13260800
0.12941200 0.14578400 0.13769600 0.13609400
0.13333300 0.14970400 0.14119100 0.13959700
0.13725500 0.15361800 0.14467400 0.14311600
0.14117600 0.15752600 0.14814400 0.14664700
0.14509800 0.16142600 0.15159700 0.15018600
0.14902000 0.16531500 0.15503000 0.15372500
0.15294100 0.16918900 0.15844800 0.15725500
0.15686300 0.17302800 0.16185400 0.16078100
0.16078400 0.17682900 0.16524700 0.16431100
0.16470600 0.18059100 0.16862900 0.16783300
0.16862700 0.18431100 0.17199700 0.17134300
0.17254900 0.18798700 0.17534900 0.17484000
0.17647100 0.19162000 0.17868200 0.17832300
0.18039200 0.19521500 0.18199400 0.18179300
0.18431400 0.19877400 0.18528800 0.18524900
0.18823500 0.20230200 0.18856400 0.18869700
0.19215700 0.20581300 0.19183200 0.19214000
0.19607800 0.20930700 0.19509600 0.19558400
0.20000000 0.21278900 0.19835600 0.19903500
0.20392200 0.21626200 0.20161200 0.20249200
0.20784300 0.21972800 0.20486400 0.20595600
0.21176500 0.22318800 0.20811700 0.20943000
0.21568600 0.22664400 0.21136800 0.21292100
0.21960800 0.23009800 0.21461800 0.21642800
0.22352900 0.23355000 0.21786900 0.21994800
0.22745100 0.23699900 0.22112200 0.22346700
0.23137300 0.24044700 0.22437800 0.22698100
0.23529400 0.24388500 0.22763700 0.23049600
0.23921600 0.24731100 0.23090000 0.23400900
0.24313700 0.25073100 0.23416700 0.23751900
0.24705900 0.25415800 0.23745100 0.24102300
0.25098000 0.25759400 0.24075100 0.24453000
0.25490200 0.26103900 0.24406500 0.24803900
0.25882400 0.26449700 0.24739500 0.25153800
0.26274500 0.26796700 0.25073600 0.25502600
0.26666700 0.27144900 0.25409100 0.25850500
0.27058800 0.27494400 0.25745800 0.26197800
0.27451000 0.27846000 0.26083900 0.26544500
0.27843100 0.28199600 0.26423600 0.26891700
0.28235300 0.28554900 0.26765200 0.27240500
0.28627500 0.28911800 0.27108600 0.27590700
0.29019600 0.29270400 0.27452800 0.27942000
0.29411800 0.29630800 0.27797200 0.28294100
0.29803900 0.29992900 0.28141400 0.28646000
0.30196100 0.30356500 0.28485800 0.28997400
0.30588200 0.30721600 0.28830600 0.29348200
0.30980400 0.31087800 0.29176000 0.29699200
0.31372500 0.31454800 0.29521500 0.30050100
0.31764700 0.31822200 0.29866900 0.30400000
0.32156900 0.32189700 0.30212300 0.30748100
0.32549000 0.32557100 0.30557700 0.31094800
0.32941200 0.32924200 0.30903200 0.31439300
0.33333300 0.33291700 0.31248700 0.31781600
0.33725500 0.33659500 0.31595000 0.32121500
0.34117600 0.34026700 0.31941900 0.32459500
0.34509800 0.34393300 0.32288200 0.32796800
0.34902000 0.34759400 0.32634100 0.33133600
0.35294100 0.35125200 0.32979400 0.33469300
0.35686300 0.35491200 0.33324300 0.33804100
0.36078400 0.35857600 0.33668500 0.34138400
0.36470600 0.36225100 0.34012500 0.34472300
0.36862700 0.36593800 0.34356500 0.34805600
0.37254900 0.36963600 0.34700400 0.35139000
0.37647100 0.37333900 0.35043900 0.35472700
0.38039200 0.37704900 0.35386700 0.35806900
0.38431400 0.38077000 0.35729200 0.36141200
0.38823500 0.38450700 0.36071300 0.36475300
0.39215700 0.38826500 0.36413300 0.36810300
0.39607800 0.39204400 0.36755500 0.37146700
0.40000000 0.39583500 0.37098400 0.37484500
0.40392200 0.39963600 0.37441800 0.37824600
0.40784300 0.40343900 0.37785600 0.38167300
0.41176500 0.40722700 0.38129900 0.38512000
0.41568600 0.41099900 0.38474100 0.38858500
0.41960800 0.41475200 0.38817700 0.39206800
0.42352900 0.41848600 0.39160400 0.39556500
0.42745100 0.42220900 0.39501900 0.39907800
0.43137300 0.42592500 0.39842600 0.40259800
0.43529400 0.42963300 0.40182900 0.40612000
0.43921600 0.43333100 0.40522900 0.40965300
0.44313700 0.43702000 0.40863000 0.41320200
0.44705900 0.44069900 0.41204100 0.41676900
0.45098000 0.44436700 0.41546000 0.42035900
0.45490200 0.44802800 0.41888800 0.42396700
0.45882400 0.45168500 0.42232400 0.42759100
0.46274500 0.45533800 0.42576900 0.43123300
0.46666700 0.45899200 0.42922200 0.43489200
0.47058800 0.46265400 0.43268000 0.43855500
0.47451000 0.46632300 0.43614700 0.44221400
0.47843100 0.46999700 0.43961800 0.44587100
0.48235300 0.47368200 0.44309000 0.44954100
0.48627500 0.47737900 0.44656700 0.45321500
0.49019600 0.48109500 0.45005400 0.45688700
0.49411800 0.48482800 0.45355100 0.46056200
0.49803900 0.48858300 0.45705800 0.46424500
0.50196100 0.49236100 0.46057200 0.46793800
0.50588200 0.49616000 0.46409200 0.47164200
0.50980400 0.49998500 0.46761900 0.47536100
0.51372500 0.50383500 0.47115600 0.47909600
0.51764700 0.50768700 0.47471300 0.48284800
0.52156900 0.51154100 0.47828600 0.48661900
0.52549000 0.51539500 0.48187400 0.49041500
0.52941200 0.51924900 0.48547600 0.49420700
0.53333300 0.52310100 0.48909300 0.49798900
0.53725500 0.52695000 0.49272500 0.50176200
0.54117600 0.53079100 0.49637500 0.50552600
0.54509800 0.53462000 0.50004400 0.50927600
0.54902000 0.53843600 0.50373200 0.51301200
0.55294100 0.54223900 0.50743700 0.51673200
0.55686300 0.54603300 0.51115900 0.52043100
0.56078400 0.54981800 0.51490300 0.52411200
0.56470600 0.55359300 0.51866700 0.52777800
0.56862700 0.55736300 0.52244900 0.53143600
0.57254900 0.56113600 0.52624600 0.53508800
0.57647100 0.56491100 0.53005000 0.53873100
0.58039200 0.56868500 0.53386000 0.54236600
0.58431400 0.57245200 0.53767400 0.54601400
0.58823500 0.57621300 0.54148800 0.54968200
0.59215700 0.57996500 0.54528900 0.55337400
0.59607800 0.58370700 0.54906700 0.55708300
0.60000000 0.58744500 0.55282300 0.56080200
0.60392200 0.59118100 0.55656000 0.56452000
0.60784300 0.59491600 0.56028300 0.56824000
0.61176500 0.59864700 0.56399600 0.57196500
0.61568600 0.60237500 0.56770300 0.57570000
0.61960800 0.60611500 0.57141000 0.57944100
0.62352900 0.60987000 0.57512800 0.58318200
0.62745100 0.61363700 0.57885700 0.58692700
0.63137300 0.61741100 0.58260100 0.59068300
0.63529400 0.62118900 0.58635700 0.59445100
0.63921600 0.62496500 0.59012100 0.59823100
0.64313700 0.62874100 0.59389300 0.60201700
0.64705900 0.63252300 0.59767400 0.60579600
0.65098000 0.63631200 0.60145900 0.60956700
0.65490200 0.64011200 0.60524700 0.61334500
0.65882400 0.64392800 0.60904000 0.61713200
0.66274500 0.64776500 0.61284300 0.62092800
0.66666700 0.65162200 0.61665600 0.62474500
0.67058800 0.65549700 0.62047200 0.62859500
0.67451000 0.65938500 0.62428600 0.63248800
0.67843100 0.66328500 0.62809800 0.63641900
0.68235300 0.66719600 0.63190800 0.64038000
0.68627500 0.67111400 0.63571400 0.64436600
0.69019600 0.67503200 0.63950100 0.64837700
0.69411800 0.67895000 0.64326500 0.65240600
0.69803900 0.68286600 0.64700400 0.65642200
0.70196100 0.68677800 0.65071400 0.66041900
0.70588200 0.69068000 0.65439500 0.66439300
0.70980400 0.69457400 0.65804900 0.66833600
0.71372500 0.69846600 0.66168300 0.67224000
0.71764700 0.70235800 0.66530000 0.67611200
0.72156900 0.70625100 0.66890500 0.67996700
0.72549000 0.71015000 0.67249700 0.68381400
0.72941200 0.71405800 0.67607400 0.68765900
0.73333300 0.71797500 0.67964600 0.69150800
0.73725500 0.72190000 0.68322000 0.69536000
0.74117600 0.72582800 0.68679900 0.69921700
0.74509800 0.72975100 0.69038300 0.70307800
0.74902000 0.73366300 0.69397200 0.70694200
0.75294100 0.73756800 0.69756800 0.71080400
0.75686300 0.74146700 0.70117800 0.71466200
0.76078400 0.74535900 0.70480200 0.71852300
0.76470600 0.74924200 0.70844300 0.72239300
0.76862700 0.75313200 0.71211100 0.72626900
0.77254900 0.75703900 0.71581000 0.73014900
0.77647100 0.76096600 0.71954100 0.73403300
0.78039200 0.76491900 0.72330400 0.73791700
0.78431400 0.76890600 0.72709700 0.74180200
0.78823500 0.77292200 0.73091500 0.74569000
0.79215700 0.77696400 0.73475000 0.74958300
0.79607800 0.78103200 0.73860000 0.75346600
0.80000000 0.78513600 0.74245700 0.75732200
0.80392200 0.78928300 0.74632500 0.76115600
0.80784300 0.79347900 0.75020700 0.76498900
0.81176500 0.79772500 0.75410200 0.76882900
0.81568600 0.80201400 0.75800800 0.77268400
0.81960800 0.80632200 0.76191700 0.77655100
0.82352900 0.81064800 0.76582800 0.78042600
0.82745100 0.81497900 0.76973900 0.78431000
0.83137300 0.81930900 0.77364900 0.78819800
0.83529400 0.82364200 0.77756500 0.79208900
0.83921600 0.82798500 0.78148800 0.79598100
0.84313700 0.83233800 0.78542200 0.79988200
0.84705900 0.83669400 0.78936300 0.80381100
0.85098000 0.84102800 0.79331800 0.80776800
0.85490200 0.84534200 0.79728600 0.81175600
0.85882400 0.84963700 0.80126800 0.81577300
0.86274500 0.85391900 0.80526800 0.81981500
0.86666700 0.85819200 0.80928600 0.82388000
0.87058800 0.86245500 0.81331200 0.82797500
0.87451000 0.86670300 0.81733100 0.83210500
0.87843100 0.87093500 0.82133700 0.83626500
0.88235300 0.87515700 0.82533800 0.84044300
0.88627500 0.87937500 0.82933900 0.84462600
0.89019600 0.88359400 0.83334300 0.84880800
0.89411800 0.88780800 0.83735000 0.85299900
0.89803900 0.89201900 0.84135800 0.85721500
0.90196100 0.89623200 0.84536700 0.86146600
0.90588200 0.90044500 0.84937800 0.86575000
0.90980400 0.90466100 0.85338800 0.87006100
0.91372500 0.90887500 0.85740200 0.87438200
0.91764700 0.91307700 0.86142100 0.87871700
0.92156900 0.91726400 0.86544100 0.88307700
0.92549000 0.92144000 0.86946100 0.88745800
0.92941200 0.92561200 0.87348600 0.89186000
0.93333300 0.92977900 0.87751400 0.89628200
0.93725500 0.93394600 0.88153600 0.90073300
0.94117600 0.93811200 0.88555700 0.90519500
0.94509800 0.94227400 0.88957800 0.90967300
0.94902000 0.94643200 0.89360000 0.91417000
0.95294100 0.95058000 0.89762900 0.91869100
0.95686300 0.95472000 0.90166900 0.92324200
0.96078400 0.95886000 0.90571600 0.92781800
0.96470600 0.96300500 0.90977300 0.93241300
0.96862700 0.96715400 0.91384100 0.93702100
0.97254900 0.97130500 0.91792200 0.94164700
0.97647100 0.97545600 0.92201200 0.94628900
0.98039200 0.97960900 0.92611000 0.95094600
0.98431400 0.98376200 0.93021600 0.95561600
0.98823500 0.98791600 0.93433000 0.96030000
0.99215700 0.99207200 0.93845300 0.96499700
0.99607800 0.99622800 0.94258500 0.96970900
1.00000000 1.00000000 0.94672400 0.97443400
END_DATA
CAL    

DESCRIPTOR "Argyll Calibration options and model"
ORIGINATOR "Argyll dispcal"
CREATED "Tue May 26 12:25:50 202"

NUMBER_OF_FIELDS 3
BEGIN_DATA_FORMAT
R_P G_P B_P
END_DATA_FORMAT

NUMBER_OF_SETS 32
BEGIN_DATA
0.000506547 0.000752446 0.001374550
0.999493000 0.999248000 0.998625000
1.421915000 1.587217000 1.556759000
0.476154000 0.293614000 0.300341000
0.131294000 0.191751000 0.187472000
0.156745000 0.155589000 0.153918000
0.155871000 0.125723000 0.128198000
0.095143100 0.104398000 0.114552000
0.061264300 0.094833700 0.102600000
0.063385200 0.080313500 0.093653900
0.068780900 0.074156900 0.083099500
0.062236600 0.064180600 0.072826300
0.053697700 0.056124600 0.066437500
0.040108500 0.059162800 0.062564400
0.049162700 0.047021200 0.054121400
0.041863500 0.045228500 0.049862100
0.042450000 0.048207000 0.048324900
0.035788200 0.042813100 0.043921800
0.031693800 0.039164200 0.040141300
0.026971800 0.035866000 0.035995400
0.031738000 0.037094700 0.037191300
0.024385300 0.034884100 0.031410800
0.023770500 0.030152200 0.029705800
0.021341900 0.035841100 0.033670500
0.017926600 0.023899400 0.024534000
0.015901400 0.023378400 0.024000800
0.015663100 0.029494800 0.024814100
0.012838900 0.023409600 0.021361800
0.014122700 0.023695800 0.023093800
0.011842400 0.026216700 0.026182100
0.013325300 0.023980800 0.023241600
0.009150690 0.018736900 0.016204400
END_DATA
