AOC/315LM00022/Q3279WG5B #2 2020-09-28 13-50 0.3127x 0.329y sRGB F-S XYZLUT+MTX/Q3279WG5B #2 2020-09-28 13-50 0.3127x 0.329y sRGB F-S XYZLUT+MTX.bpc.ti3
CTI3   

DESCRIPTOR "Argyll Calibration Target chart information 3"
ORIGINATOR "Argyll dispread"
CREATED "Mon Sep 28 13:56:43 2020"
DEVICE_CLASS "DISPLAY"
SINGLE_DIM_STEPS "5"
COMP_GREY_STEPS "52"
MULTI_DIM_STEPS "5"
COLOR_REP "RGB_XYZ"
TARGET_INSTRUMENT "X-Rite i1 DisplayPro, ColorMunki Display"
DISPLAY_TYPE_REFRESH "NO"
DISPLAY_TYPE_BASE_ID "1"
INSTRUMENT_TYPE_SPECTRAL "NO"
LUMINANCE_XYZ_CDM2 "189.386408 199.098099 217.196348"
NORMALIZED_TO_Y_100 "YES"
VIDEO_LUT_CALIBRATION_POSSIBLE "YES"

BEGIN_ARGYLL_COLPROF_ARGS
-v -qh -aX -bn -C "No copyright. Created with DisplayCAL 3.8.9.3 and ArgyllCMS 2.1.2" -M "Q3279WG5B" -A "AOC"
END_ARGYLL_COLPROF_ARGS

OBSERVER "1931_2"
USE_BLACK_POINT_COMPENSATION "NO"
BLACK_POINT_CORRECTION "0.0"
HIRES_B2A "YES"
HIRES_B2A_SIZE "-1"
SMOOTH_B2A "YES"
PATCH_SEQUENCE "OPTIMIZE_DISPLAY_RESPONSE_DELAY"

NUMBER_OF_FIELDS 7
BEGIN_DATA_FORMAT
SAMPLE_ID RGB_R RGB_G RGB_B XYZ_X XYZ_Y XYZ_Z
END_DATA_FORMAT

NUMBER_OF_SETS 175
BEGIN_DATA
1 100.00000 100.00000 100.00000 95.122160 100.00000 109.09010
2 100.00000 100.00000 75.000000 86.019833 96.649151 63.164493
3 100.00000 100.00000 100.00000 95.101960 99.999350 108.99500
4 100.00000 100.00000 100.00000 95.122160 100.00000 109.09010
5 0.0000000 0.0000000 0.0000000 0.0782059 0.0822163 0.0896899
6 25.000000 0.0000000 0.0000000 2.0101707 1.0293202 0.1829659
7 50.000000 0.0000000 0.0000000 8.2192246 4.3814343 0.4742971
8 75.000000 0.0000000 0.0000000 19.651472 10.412126 1.2310498
9 100.00000 0.0000000 0.0000000 37.045107 19.322643 2.1391545
10 100.00000 0.0000000 25.000000 39.163206 20.271253 6.5433703
11 100.00000 25.000000 25.000000 40.915015 23.508762 7.1197491
12 100.00000 50.000000 25.000000 47.490254 35.831088 9.3795435
13 100.00000 75.000000 25.000000 58.925670 57.673052 13.155017
14 0.0000000 0.0000000 25.000000 0.9124084 0.3448644 4.3938090
15 25.000000 0.0000000 25.000000 2.9362825 1.3787681 4.6995309
16 75.000000 0.0000000 100.00000 37.942306 17.113034 93.776604
17 100.00000 0.0000000 100.00000 56.553121 26.643571 94.797544
18 1.9608000 1.9608000 1.9608000 0.1098402 0.1158835 0.1321355
19 3.9216000 3.9216000 3.9216000 0.2857905 0.2867885 0.3863483
20 5.8824000 5.8824000 5.8824000 0.5299995 0.5506974 0.6275671
21 7.8431000 7.8431000 7.8431000 0.7779563 0.8279283 0.9038339
22 9.8039000 9.8039000 9.8039000 0.9923176 1.0576122 1.1298448
23 11.765000 11.765000 11.765000 1.3023897 1.3675532 1.5255771
24 13.726000 13.726000 13.726000 1.6720178 1.7409520 1.9568534
25 15.686000 15.686000 15.686000 2.0110095 2.1059949 2.3806254
26 17.647000 17.647000 17.647000 2.4580369 2.6033988 2.8402381
27 19.608000 19.608000 19.608000 2.9913744 3.1601686 3.4673067
28 21.569000 21.569000 21.569000 3.4935847 3.6436865 4.0498903
29 23.529000 23.529000 23.529000 4.1301688 4.3058533 4.8404707
30 27.451000 27.451000 27.451000 5.6574125 5.8819369 6.5317120
31 29.412000 29.412000 29.412000 6.6064753 6.9152646 7.5243169
32 31.373000 31.373000 31.373000 7.5405040 7.8909933 8.6331297
33 33.333000 33.333000 33.333000 8.4655168 8.9129070 9.6852504
34 35.294000 35.294000 35.294000 9.5418834 10.050376 10.913158
35 37.255000 37.255000 37.255000 10.727404 11.318005 12.220018
36 39.216000 39.216000 39.216000 11.796354 12.381185 13.562127
37 41.176000 41.176000 41.176000 13.336723 14.040185 15.234877
38 43.137000 43.137000 43.137000 14.552633 15.287344 16.547896
39 45.098000 45.098000 45.098000 16.138543 16.889334 18.372736
40 47.059000 47.059000 47.059000 17.709172 18.570773 20.325075
41 49.020000 49.020000 49.020000 19.163222 20.137363 21.951865
42 50.980000 50.980000 50.980000 20.932281 21.945952 24.055174
43 52.941000 52.941000 52.941000 22.650851 23.906902 25.970914
44 54.902000 54.902000 54.902000 24.681540 26.014231 28.361593
45 56.863000 56.863000 56.863000 26.554790 28.026871 30.371282
46 58.824000 58.824000 58.824000 28.637489 30.209930 32.857902
47 60.784000 60.784000 60.784000 30.794088 32.442079 35.057851
48 62.745000 62.745000 62.745000 32.986478 34.607229 37.924310
49 64.706000 64.706000 64.706000 35.258737 37.065248 40.221740
50 66.667000 66.667000 66.667000 37.180947 39.005427 42.611279
51 68.627000 68.627000 68.627000 40.274176 42.397876 45.866388
52 70.588000 70.588000 70.588000 42.335145 44.660176 48.450117
53 72.549000 72.549000 72.549000 45.160774 47.510085 51.700206
54 76.471000 76.471000 76.471000 50.829493 53.475533 58.109125
55 78.431000 78.431000 78.431000 53.809642 56.632522 61.839274
56 80.392000 80.392000 80.392000 57.053261 60.113541 65.093573
57 82.353000 82.353000 82.353000 60.478790 63.653040 68.918791
58 84.314000 84.314000 84.314000 63.811599 67.010319 73.028730
59 86.275000 86.275000 86.275000 67.139058 70.642138 76.379729
60 88.235000 88.235000 88.235000 70.988067 74.590787 80.682618
61 90.196000 90.196000 90.196000 74.734416 78.563466 84.987477
62 92.157000 92.157000 92.157000 78.421565 82.401715 89.100076
63 94.118000 94.118000 94.118000 82.540764 86.575334 93.879874
64 96.078000 96.078000 96.078000 86.597682 90.774303 98.851963
65 98.039000 98.039000 98.039000 90.783431 95.193671 103.63490
66 25.000000 25.000000 0.0000000 3.8402610 4.6064852 0.8219733
67 50.000000 25.000000 0.0000000 10.052354 7.7923433 1.2803578
68 75.000000 25.000000 0.0000000 21.456591 13.618285 1.8473856
69 100.00000 25.000000 0.0000000 40.166316 23.223282 2.8564163
70 100.00000 50.000000 0.0000000 46.510994 35.401848 5.0254717
71 50.000000 50.000000 0.0000000 16.271603 19.696313 3.6188341
72 75.000000 50.000000 0.0000000 27.788899 25.784001 4.1896830
73 25.000000 50.000000 0.0000000 9.9507853 16.410504 3.2986662
74 25.000000 75.000000 0.0000000 20.864961 37.836378 7.0448711
75 50.000000 75.000000 0.0000000 27.471179 41.415817 7.4158060
76 75.000000 75.000000 0.0000000 39.060956 47.441465 7.9170399
77 100.00000 75.000000 0.0000000 57.919521 57.205922 8.7488657
78 25.000000 100.00000 0.0000000 39.184256 73.807537 13.258047
79 50.000000 100.00000 0.0000000 45.705624 77.236137 13.527517
80 75.000000 100.00000 0.0000000 57.450961 83.159525 14.076527
81 100.00000 100.00000 0.0000000 76.680405 93.023462 15.037437
82 100.00000 100.00000 25.000000 77.554145 93.550692 19.230836
83 50.000000 0.0000000 25.000000 9.1774454 4.7602432 5.0335552
84 50.000000 25.000000 50.000000 13.940413 9.2407139 20.894115
85 0.0000000 25.000000 0.0000000 1.9412443 3.5817525 0.6946692
86 0.0000000 25.000000 25.000000 2.8165001 3.9084404 5.2442012
87 25.490000 25.490000 25.490000 4.8820837 5.0930631 5.5578936
88 50.000000 25.000000 25.000000 10.958994 8.1373092 5.7021065
89 75.000000 25.000000 25.000000 22.414871 14.021775 6.2535154
90 0.0000000 50.000000 0.0000000 8.1541838 15.421874 3.1976862
91 0.0000000 50.000000 25.000000 9.0249396 15.853504 7.3891580
92 25.000000 50.000000 25.000000 10.815914 16.746444 7.4757570
93 50.000000 50.000000 25.000000 17.238912 20.162193 7.8420299
94 75.000000 50.000000 25.000000 28.701439 26.137031 8.3785418
95 0.0000000 75.000000 0.0000000 19.122942 36.960588 6.9772952
96 0.0000000 75.000000 25.000000 19.959471 37.258578 11.094238
97 25.000000 75.000000 25.000000 21.733571 38.267938 11.226208
98 50.000000 75.000000 25.000000 28.313529 41.772477 11.622618
99 75.000000 75.000000 25.000000 39.975696 47.816025 12.253288
100 0.0000000 100.00000 0.0000000 37.240587 72.576458 13.123217
101 0.0000000 100.00000 25.000000 38.082006 72.970108 17.251046
102 25.000000 100.00000 25.000000 40.027996 74.105757 17.408916
103 50.000000 100.00000 25.000000 46.617864 77.647646 17.777416
104 75.000000 100.00000 25.000000 58.487690 83.834215 18.390896
105 0.0000000 0.0000000 50.000000 3.9047723 1.5395461 19.388317
106 25.000000 0.0000000 50.000000 5.9347582 2.6445968 19.760098
107 50.000000 0.0000000 50.000000 12.210554 5.9688828 20.197425
108 75.000000 0.0000000 50.000000 23.671020 11.920255 20.885775
109 100.00000 0.0000000 50.000000 42.271855 21.439012 22.097585
110 100.00000 0.0000000 75.000000 47.657494 23.420152 49.061817
111 100.00000 25.000000 75.000000 49.363813 26.626021 49.853207
112 75.000000 0.0000000 25.000000 20.610391 10.768865 5.6524865
113 75.000000 25.000000 50.000000 25.445540 15.126544 21.676135
114 100.00000 25.000000 50.000000 44.117095 24.711641 22.697075
115 25.000000 25.000000 50.000000 7.6853360 6.0395758 20.458725
116 25.000000 50.000000 50.000000 13.857073 17.934443 22.855085
117 75.000000 50.000000 50.000000 31.721708 27.213291 23.883214
118 100.00000 50.000000 50.000000 50.501743 36.965538 24.905304
119 100.00000 50.000000 75.000000 56.056281 39.063197 52.441626
120 25.000000 75.000000 50.000000 24.825940 39.494617 26.772284
121 50.000000 75.000000 50.000000 31.459008 43.016436 27.207283
122 75.000000 75.000000 50.000000 43.128765 49.097255 27.799153
123 100.00000 75.000000 50.000000 61.959289 58.697152 29.008813
124 100.00000 75.000000 75.000000 67.414068 60.914441 56.548675
125 25.000000 100.00000 50.000000 43.125245 75.221527 33.201752
126 50.000000 100.00000 50.000000 49.758313 78.743346 33.636752
127 75.000000 100.00000 50.000000 61.490190 84.746234 34.321821
128 100.00000 100.00000 50.000000 80.810914 94.745662 35.626151
129 25.000000 0.0000000 75.000000 11.243524 4.6874832 46.822170
130 50.000000 0.0000000 75.000000 17.517552 7.9719793 47.258678
131 75.000000 0.0000000 75.000000 28.916629 13.854275 47.851347
132 75.000000 25.000000 75.000000 30.793538 17.149374 48.737097
133 75.000000 50.000000 100.00000 46.215334 32.683869 97.061673
134 25.000000 25.000000 75.000000 12.940983 7.9206443 47.518708
135 25.000000 50.000000 100.00000 28.078969 23.259942 95.748894
136 0.0000000 25.000000 50.000000 5.7094895 4.9804771 20.280243
137 0.0000000 25.000000 75.000000 10.875584 6.8937106 47.246687
138 0.0000000 50.000000 75.000000 17.221142 18.878873 49.641907
139 25.000000 50.000000 75.000000 19.124132 19.902073 49.820897
140 50.000000 50.000000 75.000000 25.582170 23.318952 50.352267
141 75.000000 50.000000 75.000000 37.130447 29.290670 50.944167
142 74.510000 74.510000 74.510000 47.840614 50.339724 54.474916
143 0.0000000 75.000000 75.000000 28.263759 40.435537 53.557916
144 25.000000 75.000000 75.000000 30.126209 41.404837 53.832076
145 50.000000 75.000000 75.000000 36.750547 44.947826 54.363026
146 0.0000000 75.000000 50.000000 22.976501 38.467258 26.496944
147 0.0000000 100.00000 50.000000 41.064675 74.051047 32.927242
148 0.0000000 100.00000 75.000000 46.512264 76.209617 60.370764
149 25.000000 100.00000 75.000000 48.460083 77.249827 60.549364
150 50.000000 100.00000 75.000000 55.174081 80.826855 61.079504
151 75.000000 100.00000 75.000000 66.999748 86.774294 62.144013
152 75.000000 100.00000 100.00000 75.850706 90.033303 107.59470
153 25.000000 0.0000000 100.00000 20.150101 8.0087103 92.463935
154 50.000000 0.0000000 100.00000 26.499750 11.265475 92.898815
155 0.0000000 0.0000000 75.000000 9.2798357 3.6551765 46.262095
156 0.0000000 0.0000000 100.00000 18.355112 7.0720235 92.093835
157 0.0000000 25.000000 100.00000 19.651202 10.027716 92.887305
158 25.000000 25.000000 100.00000 21.836151 11.168385 93.350315
159 50.000000 25.000000 100.00000 28.194589 14.449514 93.499114
160 75.000000 25.000000 100.00000 39.702176 20.314743 94.471654
161 100.00000 25.000000 100.00000 58.365011 29.921010 95.588534
162 100.00000 50.000000 100.00000 64.902959 42.359096 97.797513
163 50.000000 25.000000 75.000000 19.330632 11.248565 48.049627
164 50.000000 50.000000 100.00000 34.542817 26.560041 96.182754
165 0.0000000 50.000000 50.000000 11.962804 16.890074 22.580145
166 0.0000000 50.000000 100.00000 26.148600 22.177382 95.378414
167 0.0000000 75.000000 100.00000 37.344357 43.865626 99.580653
168 25.000000 75.000000 100.00000 39.105676 44.779066 99.664523
169 50.000000 75.000000 100.00000 45.860064 48.357395 100.38500
170 75.000000 75.000000 100.00000 57.496621 54.495623 100.88290
171 100.00000 75.000000 100.00000 76.312605 64.233470 102.28600
172 0.0000000 100.00000 100.00000 55.517751 79.467726 106.20090
173 25.000000 100.00000 100.00000 57.461121 80.492226 106.57020
174 50.000000 100.00000 100.00000 64.076759 83.748435 107.09640
175 100.00000 100.00000 100.00000 95.232010 100.03470 109.18450
END_DATA
CAL    

DESCRIPTOR "Argyll Device Calibration State"
ORIGINATOR "Argyll dispread"
CREATED "Mon Sep 28 13:56:43 2020"
DEVICE_CLASS "DISPLAY"
COLOR_REP "RGB"

BEGIN_ARGYLL_DISPCAL_ARGS
-v2 -ql -m -w0.3127,0.329 -gs -f1.0 -k0 -A4.0 -d2 -c1 -yn -P0.481148002251,0.140791476408,2.21813031161 -F
END_ARGYLL_DISPCAL_ARGS


NUMBER_OF_FIELDS 4
BEGIN_DATA_FORMAT
RGB_I RGB_R RGB_G RGB_B
END_DATA_FORMAT

NUMBER_OF_SETS 256
BEGIN_DATA
0.00000000 0.00000000 0.00000000 0.00000000
0.00392157 0.01557590 0.01729220 0.01521320
0.00784314 0.02694370 0.02930590 0.02583460
0.01176470 0.03560770 0.03815550 0.03367500
0.01568630 0.04248830 0.04502690 0.03978710
0.01960780 0.04818080 0.05059920 0.04481890
0.02352940 0.05305100 0.05529440 0.04913780
0.02745100 0.05734150 0.05937950 0.05295860
0.03137250 0.06121180 0.06302670 0.05641720
0.03529410 0.06477410 0.06634980 0.05961280
0.03921570 0.06810350 0.06942420 0.06261660
0.04313730 0.07124910 0.07231160 0.06547280
0.04705880 0.07425290 0.07505890 0.06821430
0.05098040 0.07714850 0.07769630 0.07087480
0.05490200 0.07995060 0.08025730 0.07346830
0.05882350 0.08269020 0.08275610 0.07602170
0.06274510 0.08537470 0.08521010 0.07853570
0.06666670 0.08802460 0.08764290 0.08103060
0.07058820 0.09065540 0.09005250 0.08351640
0.07450980 0.09326470 0.09245730 0.08599100
0.07843140 0.09587740 0.09487390 0.08847560
0.08235290 0.09850290 0.09729640 0.09097130
0.08627450 0.10113800 0.09972790 0.09347170
0.09019610 0.10378500 0.10219500 0.09598710
0.09411760 0.10647300 0.10470500 0.09853730
0.09803920 0.10919500 0.10725200 0.10111700
0.10196100 0.11195000 0.10983500 0.10372600
0.10588200 0.11473500 0.11246600 0.10636500
0.10980400 0.11757500 0.11516200 0.10905800
0.11372500 0.12047800 0.11792200 0.11180800
0.11764700 0.12343000 0.12073500 0.11460800
0.12156900 0.12643100 0.12360000 0.11746500
0.12549000 0.12947600 0.12651600 0.12036400
0.12941200 0.13257400 0.12950000 0.12332800
0.13333300 0.13575800 0.13256600 0.12636500
0.13725500 0.13900700 0.13569700 0.12945700
0.14117600 0.14231400 0.13887800 0.13260000
0.14509800 0.14568600 0.14211200 0.13580000
0.14902000 0.14910000 0.14539000 0.13902600
0.15294100 0.15254400 0.14868500 0.14228700
0.15686300 0.15604700 0.15203300 0.14560200
0.16078400 0.15960300 0.15543900 0.14895400
0.16470600 0.16320000 0.15887600 0.15232700
0.16862700 0.16683700 0.16233900 0.15572500
0.17254900 0.17053500 0.16584000 0.15915300
0.17647100 0.17426200 0.16938900 0.16257000
0.18039200 0.17800700 0.17294600 0.16599000
0.18431400 0.18179700 0.17653200 0.16943100
0.18823500 0.18563000 0.18015900 0.17287700
0.19215700 0.18948500 0.18382000 0.17632300
0.19607800 0.19338700 0.18751700 0.17978000
0.20000000 0.19733200 0.19124000 0.18324500
0.20392200 0.20133400 0.19498300 0.18674500
0.20784300 0.20540300 0.19877800 0.19028700
0.21176500 0.20947000 0.20261900 0.19382000
0.21568600 0.21351800 0.20644200 0.19733600
0.21960800 0.21757300 0.21023800 0.20086000
0.22352900 0.22166200 0.21404900 0.20440500
0.22745100 0.22578000 0.21789100 0.20797000
0.23137300 0.22987600 0.22175200 0.21151800
0.23529400 0.23395100 0.22559200 0.21506400
0.23921600 0.23801800 0.22943100 0.21862500
0.24313700 0.24205200 0.23328000 0.22218400
0.24705900 0.24606900 0.23712700 0.22575300
0.25098000 0.25008800 0.24098800 0.22934100
0.25490200 0.25416300 0.24488900 0.23300400
0.25882400 0.25825000 0.24888500 0.23672000
0.26274500 0.26230500 0.25292100 0.24043300
0.26666700 0.26633600 0.25694500 0.24414400
0.27058800 0.27034300 0.26096200 0.24786400
0.27451000 0.27434100 0.26497600 0.25157900
0.27843100 0.27835100 0.26899500 0.25532100
0.28235300 0.28239400 0.27302700 0.25908100
0.28627500 0.28648300 0.27709400 0.26289100
0.29019600 0.29057500 0.28121100 0.26674600
0.29411800 0.29458300 0.28532600 0.27054700
0.29803900 0.29853800 0.28934700 0.27427600
0.30196100 0.30250600 0.29330800 0.27800900
0.30588200 0.30648400 0.29728200 0.28175900
0.30980400 0.31047600 0.30126700 0.28553100
0.31372500 0.31444700 0.30525800 0.28929100
0.31764700 0.31841700 0.30922200 0.29304700
0.32156900 0.32237300 0.31317000 0.29679500
0.32549000 0.32631400 0.31709500 0.30053500
0.32941200 0.33024600 0.32099600 0.30426700
0.33333300 0.33422900 0.32488700 0.30802800
0.33725500 0.33827900 0.32884600 0.31187100
0.34117600 0.34232100 0.33285800 0.31570900
0.34509800 0.34634600 0.33684100 0.31952300
0.34902000 0.35035100 0.34078600 0.32331100
0.35294100 0.35434200 0.34468600 0.32708000
0.35686300 0.35830800 0.34854800 0.33082400
0.36078400 0.36228300 0.35236900 0.33457500
0.36470600 0.36627400 0.35619500 0.33834400
0.36862700 0.37022600 0.36001700 0.34207000
0.37254900 0.37416000 0.36378100 0.34577700
0.37647100 0.37811100 0.36754100 0.34950000
0.38039200 0.38205700 0.37131700 0.35321300
0.38431400 0.38599900 0.37508300 0.35692600
0.38823500 0.38997400 0.37885600 0.36067500
0.39215700 0.39401800 0.38268200 0.36449300
0.39607800 0.39815300 0.38659600 0.36840800
0.40000000 0.40237400 0.39061400 0.37239000
0.40392200 0.40652400 0.39472600 0.37626800
0.40784300 0.41054400 0.39877100 0.38001300
0.41176500 0.41447000 0.40269400 0.38367500
0.41568600 0.41835500 0.40652600 0.38730500
0.41960800 0.42223400 0.41032900 0.39091800
0.42352900 0.42609100 0.41413800 0.39450400
0.42745100 0.42996500 0.41794700 0.39810400
0.43137300 0.43384700 0.42179800 0.40168900
0.43529400 0.43772100 0.42566000 0.40525600
0.43921600 0.44161000 0.42951900 0.40884500
0.44313700 0.44553300 0.43340600 0.41246800
0.44705900 0.44944200 0.43733700 0.41606200
0.45098000 0.45329200 0.44125500 0.41963500
0.45490200 0.45714000 0.44512400 0.42323900
0.45882400 0.46101600 0.44900600 0.42688200
0.46274500 0.46491200 0.45291800 0.43052700
0.46666700 0.46879200 0.45683600 0.43417800
0.47058800 0.47267700 0.46073400 0.43783500
0.47451000 0.47654400 0.46462300 0.44149100
0.47843100 0.48039700 0.46848700 0.44513600
0.48235300 0.48424100 0.47232400 0.44876200
0.48627500 0.48807500 0.47613100 0.45236000
0.49019600 0.49189800 0.47990200 0.45593200
0.49411800 0.49571200 0.48363700 0.45947800
0.49803900 0.49953700 0.48733700 0.46305500
0.50196100 0.50345600 0.49105600 0.46668000
0.50588200 0.50738700 0.49486900 0.47027800
0.50980400 0.51131500 0.49867600 0.47385000
0.51372500 0.51523900 0.50247300 0.47739500
0.51764700 0.51916200 0.50626100 0.48091900
0.52156900 0.52308200 0.51004100 0.48443100
0.52549000 0.52699600 0.51381900 0.48794200
0.52941200 0.53089900 0.51760200 0.49145200
0.53333300 0.53481200 0.52138700 0.49497100
0.53725500 0.53870300 0.52519200 0.49847200
0.54117600 0.54259800 0.52898000 0.50199600
0.54509800 0.54651900 0.53280000 0.50555200
0.54902000 0.55041600 0.53665800 0.50908000
0.55294100 0.55427000 0.54048900 0.51258000
0.55686300 0.55812900 0.54429200 0.51608500
0.56078400 0.56199600 0.54811200 0.51958800
0.56470600 0.56588700 0.55193600 0.52310700
0.56862700 0.56984200 0.55579000 0.52667400
0.57254900 0.57385600 0.55970500 0.53027600
0.57647100 0.57781600 0.56365600 0.53380600
0.58039200 0.58171800 0.56752500 0.53726900
0.58431400 0.58560200 0.57131500 0.54070700
0.58823500 0.58950800 0.57507800 0.54415000
0.59215700 0.59340900 0.57884400 0.54758300
0.59607800 0.59729600 0.58258900 0.55100700
0.60000000 0.60117300 0.58631700 0.55442800
0.60392200 0.60503900 0.59004500 0.55786700
0.60784300 0.60886300 0.59376800 0.56129900
0.61176500 0.61264300 0.59746100 0.56472400
0.61568600 0.61639700 0.60112700 0.56815600
0.61960800 0.62009500 0.60478700 0.57157500
0.62352900 0.62372300 0.60840100 0.57495100
0.62745100 0.62730000 0.61195600 0.57829900
0.63137300 0.63084200 0.61548300 0.58163600
0.63529400 0.63434600 0.61898500 0.58495600
0.63921600 0.63781400 0.62245400 0.58825100
0.64313700 0.64128700 0.62589900 0.59155500
0.64705900 0.64477600 0.62936100 0.59486600
0.65098000 0.64832200 0.63285900 0.59821500
0.65490200 0.65196300 0.63644100 0.60163600
0.65882400 0.65574100 0.64014800 0.60516800
0.66274500 0.65968600 0.64401300 0.60884700
0.66666700 0.66381200 0.64805800 0.61269000
0.67058800 0.66811800 0.65229900 0.61670200
0.67451000 0.67235900 0.65668200 0.62065800
0.67843100 0.67644100 0.66090700 0.62442600
0.68235300 0.68037300 0.66494400 0.62802000
0.68627500 0.68417100 0.66880600 0.63147100
0.69019600 0.68786800 0.67252100 0.63482400
0.69411800 0.69150600 0.67612800 0.63812500
0.69803900 0.69511700 0.67967100 0.64140500
0.70196100 0.69872100 0.68319600 0.64469100
0.70588200 0.70234100 0.68671600 0.64799200
0.70980400 0.70599800 0.69027700 0.65133600
0.71372500 0.70968200 0.69388500 0.65471300
0.71764700 0.71338000 0.69751200 0.65811300
0.72156900 0.71713100 0.70117800 0.66156500
0.72549000 0.72091600 0.70489300 0.66505700
0.72941200 0.72473700 0.70863100 0.66857500
0.73333300 0.72862100 0.71241400 0.67214200
0.73725500 0.73251800 0.71624300 0.67571600
0.74117600 0.73641700 0.72005400 0.67927600
0.74509800 0.74033500 0.72387800 0.68285200
0.74902000 0.74426100 0.72770700 0.68643300
0.75294100 0.74819600 0.73154000 0.69001800
0.75686300 0.75215700 0.73538400 0.69361900
0.76078400 0.75613100 0.73926400 0.69724300
0.76470600 0.76010300 0.74314300 0.70086500
0.76862700 0.76406700 0.74701500 0.70448500
0.77254900 0.76802900 0.75087100 0.70810000
0.77647100 0.77200800 0.75473700 0.71173300
0.78039200 0.77595900 0.75859200 0.71533900
0.78431400 0.77990300 0.76240600 0.71892000
0.78823500 0.78387000 0.76622000 0.72250800
0.79215700 0.78786000 0.77003600 0.72609800
0.79607800 0.79192300 0.77388600 0.72972100
0.80000000 0.79610100 0.77782100 0.73341600
0.80392200 0.80041300 0.78187100 0.73721800
0.80784300 0.80472200 0.78603800 0.74110200
0.81176500 0.80891900 0.79015100 0.74489100
0.81568600 0.81302500 0.79414900 0.74856700
0.81960800 0.81708800 0.79805600 0.75217100
0.82352900 0.82114900 0.80191800 0.75575100
0.82745100 0.82524800 0.80578300 0.75934200
0.83137300 0.82935200 0.80967700 0.76295400
0.83529400 0.83346200 0.81356800 0.76656600
0.83921600 0.83758600 0.81745200 0.77017800
0.84313700 0.84171000 0.82135100 0.77379500
0.84705900 0.84582600 0.82525400 0.77740700
0.85098000 0.84994400 0.82915600 0.78101700
0.85490200 0.85411300 0.83307400 0.78464000
0.85882400 0.85835700 0.83706200 0.78831900
0.86274500 0.86256500 0.84113700 0.79207600
0.86666700 0.86669100 0.84520000 0.79581800
0.87058800 0.87077600 0.84918000 0.79949200
0.87451000 0.87482700 0.85311400 0.80313800
0.87843100 0.87886500 0.85702900 0.80678200
0.88235300 0.88289800 0.86094400 0.81043100
0.88627500 0.88695600 0.86487600 0.81409700
0.89019600 0.89104900 0.86883800 0.81777900
0.89411800 0.89508400 0.87285700 0.82150900
0.89803900 0.89906300 0.87685000 0.82522500
0.90196100 0.90301700 0.88078900 0.82890400
0.90588200 0.90698800 0.88470300 0.83257100
0.90980400 0.91098300 0.88864700 0.83626400
0.91372500 0.91493700 0.89263900 0.84000900
0.91764700 0.91885600 0.89661500 0.84375300
0.92156900 0.92278700 0.90056100 0.84747300
0.92549000 0.92671200 0.90453400 0.85121600
0.92941200 0.93060600 0.90852500 0.85499000
0.93333300 0.93451800 0.91248800 0.85874200
0.93725500 0.93841800 0.91648200 0.86251600
0.94117600 0.94232100 0.92047200 0.86628600
0.94509800 0.94621200 0.92447100 0.87006400
0.94902000 0.95009800 0.92846500 0.87384200
0.95294100 0.95397800 0.93246500 0.87762400
0.95686300 0.95785300 0.93646600 0.88140900
0.96078400 0.96172000 0.94046900 0.88519500
0.96470600 0.96558100 0.94447200 0.88898400
0.96862700 0.96943200 0.94847500 0.89277500
0.97254900 0.97327600 0.95247900 0.89657200
0.97647100 0.97711400 0.95648700 0.90037600
