AOC/315LM00022/Q3279WG5B #2 2020-09-28 13-50 0.3127x 0.329y sRGB F-S XYZLUT+MTX/Q3279WG5B #2 2020-09-28 13-50 0.3127x 0.329y sRGB F-S XYZLUT+MTX.cal
CAL    

DESCRIPTOR "Argyll Device Calibration Curves"
ORIGINATOR "Argyll dispcal"
CREATED "Mon Sep 28 13:56:42 2020"
DEVICE_CLASS "DISPLAY"
COLOR_REP "RGB"
VIDEO_LUT_CALIBRATION_POSSIBLE "YES"
TV_OUTPUT_ENCODING "NO"
DEVICE_TYPE "n"
TARGET_WHITE_XYZ "187.670392 197.453019 215.037741"
TARGET_GAMMA "sRGB"
DEGREE_OF_BLACK_OUTPUT_OFFSET "1.0"
BLACK_POINT_CORRECTION "0.0"
BLACK_NEUTRAL_BLEND_RATE "4.0"
BLACK_POINT_HACK "YES"
QUALITY "low"

BEGIN_ARGYLL_DISPCAL_ARGS
-v2 -d2 -c1 -yn -P0.481148002251,0.140791476408,2.21813031161 -F -ql -m -w0.3127,0.329 -gs -f1.0 -k0 -A4.0 -b
END_ARGYLL_DISPCAL_ARGS


NUMBER_OF_FIELDS 4
BEGIN_DATA_FORMAT
RGB_I RGB_R RGB_G RGB_B
END_DATA_FORMAT

NUMBER_OF_SETS 256
BEGIN_DATA
0.00000000 0.00000000 0.00000000 0.00000000
0.00392157 0.01557590 0.01729220 0.01521320
0.00784314 0.02694370 0.02930590 0.02583460
0.01176470 0.03560770 0.03815550 0.03367500
0.01568630 0.04248830 0.04502690 0.03978710
0.01960780 0.04818080 0.05059920 0.04481890
0.02352940 0.05305100 0.05529440 0.04913780
0.02745100 0.05734150 0.05937950 0.05295860
0.03137250 0.06121180 0.06302670 0.05641720
0.03529410 0.06477410 0.06634980 0.05961280
0.03921570 0.06810350 0.06942420 0.06261660
0.04313730 0.07124910 0.07231160 0.06547280
0.04705880 0.07425290 0.07505890 0.06821430
0.05098040 0.07714850 0.07769630 0.07087480
0.05490200 0.07995060 0.08025730 0.07346830
0.05882350 0.08269020 0.08275610 0.07602170
0.06274510 0.08537470 0.08521010 0.07853570
0.06666670 0.08802460 0.08764290 0.08103060
0.07058820 0.09065540 0.09005250 0.08351640
0.07450980 0.09326470 0.09245730 0.08599100
0.07843140 0.09587740 0.09487390 0.08847560
0.08235290 0.09850290 0.09729640 0.09097130
0.08627450 0.10113800 0.09972790 0.09347170
0.09019610 0.10378500 0.10219500 0.09598710
0.09411760 0.10647300 0.10470500 0.09853730
0.09803920 0.10919500 0.10725200 0.10111700
0.10196100 0.11195000 0.10983500 0.10372600
0.10588200 0.11473500 0.11246600 0.10636500
0.10980400 0.11757500 0.11516200 0.10905800
0.11372500 0.12047800 0.11792200 0.11180800
0.11764700 0.12343000 0.12073500 0.11460800
0.12156900 0.12643100 0.12360000 0.11746500
0.12549000 0.12947600 0.12651600 0.12036400
0.12941200 0.13257400 0.12950000 0.12332800
0.13333300 0.13575800 0.13256600 0.12636500
0.13725500 0.13900700 0.13569700 0.12945700
0.14117600 0.14231400 0.13887800 0.13260000
0.14509800 0.14568600 0.14211200 0.13580000
0.14902000 0.14910000 0.14539000 0.13902600
0.15294100 0.15254400 0.14868500 0.14228700
0.15686300 0.15604700 0.15203300 0.14560200
0.16078400 0.15960300 0.15543900 0.14895400
0.16470600 0.16320000 0.15887600 0.15232700
0.16862700 0.16683700 0.16233900 0.15572500
0.17254900 0.17053500 0.16584000 0.15915300
0.17647100 0.17426200 0.16938900 0.16257000
0.18039200 0.17800700 0.17294600 0.16599000
0.18431400 0.18179700 0.17653200 0.16943100
0.18823500 0.18563000 0.18015900 0.17287700
0.19215700 0.18948500 0.18382000 0.17632300
0.19607800 0.19338700 0.18751700 0.17978000
0.20000000 0.19733200 0.19124000 0.18324500
0.20392200 0.20133400 0.19498300 0.18674500
0.20784300 0.20540300 0.19877800 0.19028700
0.21176500 0.20947000 0.20261900 0.19382000
0.21568600 0.21351800 0.20644200 0.19733600
0.21960800 0.21757300 0.21023800 0.20086000
0.22352900 0.22166200 0.21404900 0.20440500
0.22745100 0.22578000 0.21789100 0.20797000
0.23137300 0.22987600 0.22175200 0.21151800
0.23529400 0.23395100 0.22559200 0.21506400
0.23921600 0.23801800 0.22943100 0.21862500
0.24313700 0.24205200 0.23328000 0.22218400
0.24705900 0.24606900 0.23712700 0.22575300
0.25098000 0.25008800 0.24098800 0.22934100
0.25490200 0.25416300 0.24488900 0.23300400
0.25882400 0.25825000 0.24888500 0.23672000
0.26274500 0.26230500 0.25292100 0.24043300
0.26666700 0.26633600 0.25694500 0.24414400
0.27058800 0.27034300 0.26096200 0.24786400
0.27451000 0.27434100 0.26497600 0.25157900
0.27843100 0.27835100 0.26899500 0.25532100
0.28235300 0.28239400 0.27302700 0.25908100
0.28627500 0.28648300 0.27709400 0.26289100
0.29019600 0.29057500 0.28121100 0.26674600
0.29411800 0.29458300 0.28532600 0.27054700
0.29803900 0.29853800 0.28934700 0.27427600
0.30196100 0.30250600 0.29330800 0.27800900
0.30588200 0.30648400 0.29728200 0.28175900
0.30980400 0.31047600 0.30126700 0.28553100
0.31372500 0.31444700 0.30525800 0.28929100
0.31764700 0.31841700 0.30922200 0.29304700
0.32156900 0.32237300 0.31317000 0.29679500
0.32549000 0.32631400 0.31709500 0.30053500
0.32941200 0.33024600 0.32099600 0.30426700
0.33333300 0.33422900 0.32488700 0.30802800
0.33725500 0.33827900 0.32884600 0.31187100
0.34117600 0.34232100 0.33285800 0.31570900
0.34509800 0.34634600 0.33684100 0.31952300
0.34902000 0.35035100 0.34078600 0.32331100
0.35294100 0.35434200 0.34468600 0.32708000
0.35686300 0.35830800 0.34854800 0.33082400
0.36078400 0.36228300 0.35236900 0.33457500
0.36470600 0.36627400 0.35619500 0.33834400
0.36862700 0.37022600 0.36001700 0.34207000
0.37254900 0.37416000 0.36378100 0.34577700
0.37647100 0.37811100 0.36754100 0.34950000
0.38039200 0.38205700 0.37131700 0.35321300
0.38431400 0.38599900 0.37508300 0.35692600
0.38823500 0.38997400 0.37885600 0.36067500
0.39215700 0.39401800 0.38268200 0.36449300
0.39607800 0.39815300 0.38659600 0.36840800
0.40000000 0.40237400 0.39061400 0.37239000
0.40392200 0.40652400 0.39472600 0.37626800
0.40784300 0.41054400 0.39877100 0.38001300
0.41176500 0.41447000 0.40269400 0.38367500
0.41568600 0.41835500 0.40652600 0.38730500
0.41960800 0.42223400 0.41032900 0.39091800
0.42352900 0.42609100 0.41413800 0.39450400
0.42745100 0.42996500 0.41794700 0.39810400
0.43137300 0.43384700 0.42179800 0.40168900
0.43529400 0.43772100 0.42566000 0.40525600
0.43921600 0.44161000 0.42951900 0.40884500
0.44313700 0.44553300 0.43340600 0.41246800
0.44705900 0.44944200 0.43733700 0.41606200
0.45098000 0.45329200 0.44125500 0.41963500
0.45490200 0.45714000 0.44512400 0.42323900
0.45882400 0.46101600 0.44900600 0.42688200
0.46274500 0.46491200 0.45291800 0.43052700
0.46666700 0.46879200 0.45683600 0.43417800
0.47058800 0.47267700 0.46073400 0.43783500
0.47451000 0.47654400 0.46462300 0.44149100
0.47843100 0.48039700 0.46848700 0.44513600
0.48235300 0.48424100 0.47232400 0.44876200
0.48627500 0.48807500 0.47613100 0.45236000
0.49019600 0.49189800 0.47990200 0.45593200
0.49411800 0.49571200 0.48363700 0.45947800
0.49803900 0.49953700 0.48733700 0.46305500
0.50196100 0.50345600 0.49105600 0.46668000
0.50588200 0.50738700 0.49486900 0.47027800
0.50980400 0.51131500 0.49867600 0.47385000
0.51372500 0.51523900 0.50247300 0.47739500
0.51764700 0.51916200 0.50626100 0.48091900
0.52156900 0.52308200 0.51004100 0.48443100
0.52549000 0.52699600 0.51381900 0.48794200
0.52941200 0.53089900 0.51760200 0.49145200
0.53333300 0.53481200 0.52138700 0.49497100
0.53725500 0.53870300 0.52519200 0.49847200
0.54117600 0.54259800 0.52898000 0.50199600
0.54509800 0.54651900 0.53280000 0.50555200
0.54902000 0.55041600 0.53665800 0.50908000
0.55294100 0.55427000 0.54048900 0.51258000
0.55686300 0.55812900 0.54429200 0.51608500
0.56078400 0.56199600 0.54811200 0.51958800
0.56470600 0.56588700 0.55193600 0.52310700
0.56862700 0.56984200 0.55579000 0.52667400
0.57254900 0.57385600 0.55970500 0.53027600
0.57647100 0.57781600 0.56365600 0.53380600
0.58039200 0.58171800 0.56752500 0.53726900
0.58431400 0.58560200 0.57131500 0.54070700
0.58823500 0.58950800 0.57507800 0.54415000
0.59215700 0.59340900 0.57884400 0.54758300
0.59607800 0.59729600 0.58258900 0.55100700
0.60000000 0.60117300 0.58631700 0.55442800
0.60392200 0.60503900 0.59004500 0.55786700
0.60784300 0.60886300 0.59376800 0.56129900
0.61176500 0.61264300 0.59746100 0.56472400
0.61568600 0.61639700 0.60112700 0.56815600
0.61960800 0.62009500 0.60478700 0.57157500
0.62352900 0.62372300 0.60840100 0.57495100
0.62745100 0.62730000 0.61195600 0.57829900
0.63137300 0.63084200 0.61548300 0.58163600
0.63529400 0.63434600 0.61898500 0.58495600
0.63921600 0.63781400 0.62245400 0.58825100
0.64313700 0.64128700 0.62589900 0.59155500
0.64705900 0.64477600 0.62936100 0.59486600
0.65098000 0.64832200 0.63285900 0.59821500
0.65490200 0.65196300 0.63644100 0.60163600
0.65882400 0.65574100 0.64014800 0.60516800
0.66274500 0.65968600 0.64401300 0.60884700
0.66666700 0.66381200 0.64805800 0.61269000
0.67058800 0.66811800 0.65229900 0.61670200
0.67451000 0.67235900 0.65668200 0.62065800
0.67843100 0.67644100 0.66090700 0.62442600
0.68235300 0.68037300 0.66494400 0.62802000
0.68627500 0.68417100 0.66880600 0.63147100
0.69019600 0.68786800 0.67252100 0.63482400
0.69411800 0.69150600 0.67612800 0.63812500
0.69803900 0.69511700 0.67967100 0.64140500
0.70196100 0.69872100 0.68319600 0.64469100
0.70588200 0.70234100 0.68671600 0.64799200
0.70980400 0.70599800 0.69027700 0.65133600
0.71372500 0.70968200 0.69388500 0.65471300
0.71764700 0.71338000 0.69751200 0.65811300
0.72156900 0.71713100 0.70117800 0.66156500
0.72549000 0.72091600 0.70489300 0.66505700
0.72941200 0.72473700 0.70863100 0.66857500
0.73333300 0.72862100 0.71241400 0.67214200
0.73725500 0.73251800 0.71624300 0.67571600
0.74117600 0.73641700 0.72005400 0.67927600
0.74509800 0.74033500 0.72387800 0.68285200
0.74902000 0.74426100 0.72770700 0.68643300
0.75294100 0.74819600 0.73154000 0.69001800
0.75686300 0.75215700 0.73538400 0.69361900
0.76078400 0.75613100 0.73926400 0.69724300
0.76470600 0.76010300 0.74314300 0.70086500
0.76862700 0.76406700 0.74701500 0.70448500
0.77254900 0.76802900 0.75087100 0.70810000
0.77647100 0.77200800 0.75473700 0.71173300
0.78039200 0.77595900 0.75859200 0.71533900
0.78431400 0.77990300 0.76240600 0.71892000
0.78823500 0.78387000 0.76622000 0.72250800
0.79215700 0.78786000 0.77003600 0.72609800
0.79607800 0.79192300 0.77388600 0.72972100
0.80000000 0.79610100 0.77782100 0.73341600
0.80392200 0.80041300 0.78187100 0.73721800
0.80784300 0.80472200 0.78603800 0.74110200
0.81176500 0.80891900 0.79015100 0.74489100
0.81568600 0.81302500 0.79414900 0.74856700
0.81960800 0.81708800 0.79805600 0.75217100
0.82352900 0.82114900 0.80191800 0.75575100
0.82745100 0.82524800 0.80578300 0.75934200
0.83137300 0.82935200 0.80967700 0.76295400
0.83529400 0.83346200 0.81356800 0.76656600
0.83921600 0.83758600 0.81745200 0.77017800
0.84313700 0.84171000 0.82135100 0.77379500
0.84705900 0.84582600 0.82525400 0.77740700
0.85098000 0.84994400 0.82915600 0.78101700
0.85490200 0.85411300 0.83307400 0.78464000
0.85882400 0.85835700 0.83706200 0.78831900
0.86274500 0.86256500 0.84113700 0.79207600
0.86666700 0.86669100 0.84520000 0.79581800
0.87058800 0.87077600 0.84918000 0.79949200
0.87451000 0.87482700 0.85311400 0.80313800
0.87843100 0.87886500 0.85702900 0.80678200
0.88235300 0.88289800 0.86094400 0.81043100
0.88627500 0.88695600 0.86487600 0.81409700
0.89019600 0.89104900 0.86883800 0.81777900
0.89411800 0.89508400 0.87285700 0.82150900
0.89803900 0.89906300 0.87685000 0.82522500
0.90196100 0.90301700 0.88078900 0.82890400
0.90588200 0.90698800 0.88470300 0.83257100
0.90980400 0.91098300 0.88864700 0.83626400
0.91372500 0.91493700 0.89263900 0.84000900
0.91764700 0.91885600 0.89661500 0.84375300
0.92156900 0.92278700 0.90056100 0.84747300
0.92549000 0.92671200 0.90453400 0.85121600
0.92941200 0.93060600 0.90852500 0.85499000
0.93333300 0.93451800 0.91248800 0.85874200
0.93725500 0.93841800 0.91648200 0.86251600
0.94117600 0.94232100 0.92047200 0.86628600
0.94509800 0.94621200 0.92447100 0.87006400
0.94902000 0.95009800 0.92846500 0.87384200
0.95294100 0.95397800 0.93246500 0.87762400
0.95686300 0.95785300 0.93646600 0.88140900
0.96078400 0.96172000 0.94046900 0.88519500
0.96470600 0.96558100 0.94447200 0.88898400
0.96862700 0.96943200 0.94847500 0.89277500
0.97254900 0.97327600 0.95247900 0.89657200
0.97647100 0.97711400 0.95648700 0.90037600
0.98039200 0.98094500 0.96050000 0.90418800
0.98431400 0.98476900 0.96451700 0.90800800
0.98823500 0.98858700 0.96853800 0.91183600
0.99215700 0.99239800 0.97256300 0.91567100
0.99607800 0.99620300 0.97659300 0.91951500
1.00000000 1.00000000 0.98062600 0.92336600
END_DATA
CAL    

DESCRIPTOR "Argyll Calibration options and model"
ORIGINATOR "Argyll dispcal"
CREATED "Mon Sep 28 13:56:42 202"

NUMBER_OF_FIELDS 3
BEGIN_DATA_FORMAT
R_P G_P B_P
END_DATA_FORMAT

NUMBER_OF_SETS 32
BEGIN_DATA
-0.000472601 -0.000104546 0.000460144
1.000473000 1.000105000 0.999540000
1.589961000 1.484490000 1.508372000
0.613728000 0.512294000 0.533475000
0.031196700 0.095614200 0.111579000
0.065463100 0.127308000 0.095069600
0.079580700 0.105258000 0.088666400
0.137587000 0.073654900 0.091910600
0.080473900 0.056534300 0.063212500
0.065998800 0.062234900 0.079373900
0.046523800 0.054656100 0.060124200
0.041675700 0.053589900 0.056218200
0.039997100 0.047975200 0.052040300
0.034596300 0.039735000 0.044143000
0.031735100 0.046644500 0.047766000
0.035796000 0.046245800 0.042386700
0.027951200 0.034216500 0.041825100
0.028660300 0.032013600 0.039082300
0.026373900 0.028666800 0.036525100
0.025741500 0.033953700 0.036331300
0.023073600 0.033168600 0.032574800
0.020455000 0.031327800 0.030494300
0.021623200 0.030045500 0.028931700
0.019773500 0.027692000 0.027358100
0.017493900 0.029814500 0.025325800
0.018389400 0.030442000 0.024315200
0.017824900 0.028619800 0.022497600
0.015617300 0.028559700 0.023213200
0.015057100 0.028056900 0.024367900
0.015051600 0.027781800 0.021617600
0.015353100 0.027556300 0.021680800
0.014523500 0.025813400 0.019202800
END_DATA
