Apple/MacBook Pro 13' (2013 Late)/MacBookPro11,1 #1 2020-05-26 15-23 0.3127x 0.329y sRGB M-S 1xCurve+MTX/MacBookPro11,1 #1 2020-05-26 15-23 0.3127x 0.329y sRGB M-S 1xCurve+MTX.bpc.ti3
CTI3   

DESCRIPTOR "Argyll Calibration Target chart information 3"
ORIGINATOR "Argyll dispread"
CREATED "Tue May 26 15:31:53 2020"
DEVICE_CLASS "DISPLAY"
SINGLE_DIM_STEPS "25"
COMP_GREY_STEPS "73"
DARK_REGION_EMPHASIS "1.6"
COLOR_REP "RGB_XYZ"
TARGET_INSTRUMENT "X-Rite i1 DisplayPro, ColorMunki Display"
DISPLAY_TYPE_REFRESH "NO"
DISPLAY_TYPE_BASE_ID "1"
INSTRUMENT_TYPE_SPECTRAL "NO"
LUMINANCE_XYZ_CDM2 "328.960389 345.554802 380.011882"
NORMALIZED_TO_Y_100 "YES"
VIDEO_LUT_CALIBRATION_POSSIBLE "YES"

BEGIN_ARGYLL_COLPROF_ARGS
-v -qh -aS -C "No copyright. Created with DisplayCAL 3.8.9.3 and ArgyllCMS 2.1.2" -M "MacBookPro11,1" -A "Apple Computer Inc"
END_ARGYLL_COLPROF_ARGS

OBSERVER "1931_2"
USE_BLACK_POINT_COMPENSATION "YES"
BLACK_POINT_CORRECTION "0.0"
HIRES_B2A "YES"
HIRES_B2A_SIZE "-1"
SMOOTH_B2A "YES"
PATCH_SEQUENCE "OPTIMIZE_DISPLAY_RESPONSE_DELAY"

NUMBER_OF_FIELDS 7
BEGIN_DATA_FORMAT
SAMPLE_ID RGB_R RGB_G RGB_B XYZ_X XYZ_Y XYZ_Z
END_DATA_FORMAT

NUMBER_OF_SETS 825
BEGIN_DATA
1 100.0000 100.0000 100.0000 95.19775 100.0000 109.9715
2 1.960800 1.960800 1.960800 0.282607 0.294402 0.348615
3 3.921600 3.921600 3.921600 0.446693 0.467423 0.549538
4 5.882400 5.882400 5.882400 0.612490 0.633451 0.735604
5 9.803900 9.803900 9.803900 1.101281 1.129963 1.339281
6 13.72600 13.72600 13.72600 1.786207 1.871754 2.174181
7 17.64700 17.64700 17.64700 2.656610 2.807523 3.106312
8 21.56900 21.56900 21.56900 3.789519 3.985658 4.455159
9 25.49000 25.49000 25.49000 5.175392 5.448006 6.063284
10 29.41200 29.41200 29.41200 6.757745 7.155609 7.793747
11 33.33300 33.33300 33.33300 8.750337 9.216485 10.04532
12 37.25500 37.25500 37.25500 10.88070 11.46139 12.48041
13 41.17600 41.17600 41.17600 13.31260 13.99887 15.45509
14 45.09800 45.09800 45.09800 16.15433 16.93785 18.54022
15 49.02000 49.02000 49.02000 19.32072 20.39915 22.12404
16 52.94100 52.94100 52.94100 23.01662 24.19843 26.31029
17 56.86300 56.86300 56.86300 26.90799 28.26336 31.10284
18 60.78400 60.78400 60.78400 31.13505 32.81051 36.00834
19 64.70600 64.70600 64.70600 35.65612 37.58817 41.02320
20 68.62700 68.62700 68.62700 40.76151 42.95036 47.02868
21 72.54900 72.54900 72.54900 45.88030 48.22090 52.86745
22 76.47100 76.47100 76.47100 51.53086 54.27978 59.86605
23 80.39200 80.39200 80.39200 57.85046 60.64503 66.63961
24 84.31400 84.31400 84.31400 64.28953 67.59581 74.46593
25 88.23500 88.23500 88.23500 71.37762 75.10944 82.18180
26 92.15700 92.15700 92.15700 79.15560 83.34237 91.32884
27 96.07800 96.07800 96.07800 87.22363 91.83259 100.2008
28 31.28150 40.89400 76.08020 18.46283 15.53119 53.79345
29 40.12970 62.94790 78.37870 29.17805 32.44832 59.57856
30 38.68330 67.68800 76.80270 30.68839 36.62525 57.75574
31 67.01110 68.04710 78.02530 42.24113 43.04817 60.32685
32 71.16160 81.32250 91.13330 56.23125 60.02008 85.69685
33 100.0000 29.62290 0.000000 41.93139 26.10124 2.310931
34 100.0000 38.60590 23.97240 44.83939 30.26615 7.604423
35 82.37940 24.24020 0.000000 26.64363 16.73132 1.544905
36 84.96900 100.0000 0.000000 63.63212 85.86850 12.26653
37 100.0000 100.0000 0.000000 75.97580 92.52734 12.73961
38 100.0000 100.0000 23.35290 77.01567 93.01014 17.46159
39 100.0000 100.0000 41.01620 78.88791 93.76590 26.96020
40 13.15790 0.000000 0.000000 0.748942 0.455405 0.221685
41 15.76580 0.000000 0.000000 0.973688 0.574598 0.238837
42 18.51850 0.000000 0.000000 1.222957 0.706403 0.253439
43 21.42860 0.000000 0.000000 1.578580 0.895044 0.270103
44 24.50980 0.000000 0.000000 1.905305 1.068715 0.282716
45 27.77780 0.000000 0.000000 2.525402 1.398254 0.304125
46 31.25000 0.000000 0.000000 3.152412 1.731273 0.324922
47 34.94620 0.000000 0.000000 3.829609 2.090957 0.346322
48 38.88890 0.000000 0.000000 4.845115 2.631931 0.378366
49 43.10350 0.000000 0.000000 5.984988 3.235795 0.410258
50 47.61910 0.000000 0.000000 7.236183 3.903422 0.454911
51 52.46910 0.000000 0.000000 9.196853 4.942996 0.516104
52 57.69230 0.000000 0.000000 11.24526 6.033746 0.582601
53 63.33330 0.000000 0.000000 13.79758 7.388630 0.663826
54 69.44440 0.000000 0.000000 16.84859 9.011746 0.762393
55 76.08700 0.000000 0.000000 20.56226 10.98434 0.881543
56 83.33330 0.000000 0.000000 25.61907 13.67226 1.047394
57 82.52630 51.11080 33.97810 35.05149 30.04531 12.81059
58 100.0000 76.66610 68.42610 67.56150 63.28627 49.00520
59 100.0000 89.97880 82.01410 80.35237 81.93473 72.33182
60 0.000000 0.000000 18.51850 0.647376 0.328070 2.843459
61 0.000000 0.000000 21.42860 0.829160 0.397567 3.781396
62 46.98710 28.76060 64.06380 16.60604 11.40467 36.09836
63 59.59400 31.87750 71.25760 24.25287 15.99336 46.45302
64 59.77500 45.91760 79.26620 30.05762 23.61113 59.25163
65 0.000000 15.76580 0.000000 0.902556 1.629933 0.455853
66 0.000000 18.51850 0.000000 1.136829 2.087133 0.525987
67 0.000000 21.42860 0.000000 1.512177 2.817956 0.636958
68 0.000000 24.50980 0.000000 1.840616 3.457937 0.733323
69 0.000000 27.77780 0.000000 2.363025 4.491186 0.890389
70 0.000000 31.25000 0.000000 2.932468 5.603069 1.059101
71 0.000000 34.94620 0.000000 3.597309 6.876321 1.254580
72 0.000000 38.88890 0.000000 4.542881 8.722235 1.533604
73 0.000000 43.10350 0.000000 5.538121 10.67641 1.831792
74 0.000000 47.61910 0.000000 6.867290 13.22290 2.220330
75 0.000000 52.46910 0.000000 8.560490 16.57043 2.734144
76 0.000000 57.69230 0.000000 10.51128 20.39217 3.315419
77 0.000000 63.33330 0.000000 12.99476 25.23927 4.064063
78 0.000000 69.44440 0.000000 15.97878 31.04673 4.957611
79 0.000000 76.08700 0.000000 19.45865 37.84805 6.009939
80 28.71160 80.94680 0.000000 24.92552 44.77410 6.954832
81 39.06740 100.0000 23.28940 42.59846 74.57413 15.97326
82 59.58600 100.0000 45.68350 52.53346 79.52881 28.93895
83 0.000000 0.000000 1.938000 0.145905 0.134895 0.285823
84 0.000000 0.000000 3.968300 0.176261 0.146570 0.443104
85 0.000000 0.000000 6.097600 0.213217 0.160887 0.635705
86 0.000000 0.000000 8.333300 0.252899 0.176443 0.842982
87 0.000000 0.000000 10.68380 0.335703 0.208350 1.255044
88 0.000000 0.000000 13.15790 0.429684 0.244685 1.732006
89 0.000000 18.11530 68.39880 8.986757 5.134724 40.83930
90 21.55770 29.73280 76.72520 14.50054 9.970209 53.65061
91 96.99450 96.99450 96.99450 88.74410 93.37751 102.0393
92 100.0000 100.0000 100.0000 95.18355 99.99057 110.0266
93 0.000000 0.000000 24.50980 0.995565 0.461269 4.645108
94 0.000000 0.000000 27.77780 1.268531 0.566049 6.064684
95 0.000000 0.000000 31.25000 1.584091 0.686939 7.700441
96 0.000000 0.000000 34.94620 1.916593 0.814445 9.426056
97 0.000000 0.000000 38.88890 2.386422 0.994517 11.86864
98 0.000000 0.000000 43.10350 2.876711 1.181163 14.40167
99 0.000000 0.000000 47.61910 3.494873 1.419777 17.59112
100 0.000000 0.000000 57.69230 5.397952 2.146108 27.42347
101 0.000000 0.000000 63.33330 6.697112 2.638397 34.12227
102 0.000000 0.000000 69.44440 8.229002 3.222377 42.02855
103 0.000000 0.000000 76.08700 10.07855 3.922450 51.58167
104 0.000000 0.000000 83.33330 12.43650 4.795672 63.71474
105 0.000000 33.84300 100.0000 22.29388 13.87629 97.75994
106 0.000000 46.00370 100.0000 25.30435 19.72726 98.69217
107 100.0000 44.94920 68.94200 53.94835 36.51533 45.90371
108 100.0000 44.12250 83.14970 57.95649 37.71323 67.31150
109 1.938000 1.938000 1.938000 0.282507 0.294297 0.348913
110 2.604200 2.604200 2.604200 0.361575 0.369768 0.431679
111 3.280800 3.280800 3.280800 0.393399 0.403944 0.472166
112 3.968300 3.968300 3.968300 0.446404 0.467242 0.549785
113 4.666700 4.666700 4.666700 0.519808 0.543812 0.645676
114 5.376300 5.376300 5.376300 0.572536 0.591134 0.690114
115 6.097600 6.097600 6.097600 0.636368 0.667103 0.781564
116 6.830600 6.830600 6.830600 0.680878 0.713622 0.834246
117 7.575800 7.575800 7.575800 0.763661 0.779861 0.945261
118 8.333300 8.333300 8.333300 0.842931 0.884065 1.021882
119 9.103600 9.103600 9.103600 0.981755 1.030709 1.180289
120 9.887000 9.887000 9.887000 1.100381 1.129240 1.338468
121 10.68380 10.68380 10.68380 1.215227 1.270088 1.502491
122 11.49420 11.49420 11.49420 1.357490 1.428654 1.619375
123 12.31880 12.31880 12.31880 1.492620 1.541814 1.798433
124 13.15790 13.15790 13.15790 1.696339 1.776739 2.069559
125 14.01180 14.01180 14.01180 1.862957 1.964170 2.187113
126 14.88100 14.88100 14.88100 2.053850 2.166506 2.404959
127 15.76580 15.76580 15.76580 2.206060 2.295421 2.607921
128 16.66670 16.66670 16.66670 2.462174 2.584077 2.975416
129 17.58410 17.58410 17.58410 2.654289 2.805787 3.107160
130 18.51850 18.51850 18.51850 2.835775 2.955688 3.362937
131 19.47040 19.47040 19.47040 3.150087 3.302044 3.786965
132 20.44020 20.44020 20.44020 3.372309 3.552900 3.949683
133 21.42860 21.42860 21.42860 3.765512 3.976126 4.457379
134 22.43590 22.43590 22.43590 4.033783 4.200540 4.769605
135 23.46280 23.46280 23.46280 4.372858 4.609696 5.147040
136 24.50980 24.50980 24.50980 4.634613 4.895148 5.461313
137 25.57760 25.57760 25.57760 5.151730 5.439376 6.069898
138 26.66670 26.66670 26.66670 5.581222 5.844974 6.473557
139 27.77780 27.77780 27.77780 6.106796 6.415361 7.108105
140 28.91160 28.91160 28.91160 6.562122 6.953178 7.576555
141 30.06870 30.06870 30.06870 7.066791 7.403870 8.248494
142 31.25000 31.25000 31.25000 7.694689 8.059494 8.992395
143 32.45610 32.45610 32.45610 8.288209 8.735340 9.531335
144 33.68790 33.68790 33.68790 8.950575 9.401046 10.31571
145 34.94620 34.94620 34.94620 9.408296 9.887310 11.00332
146 36.23190 36.23190 36.23190 10.10098 10.61459 11.60075
147 37.54580 37.54580 37.54580 11.14028 11.75498 12.81396
148 38.88890 38.88890 38.88890 11.95549 12.55022 13.85980
149 40.26220 40.26220 40.26220 12.77661 13.46468 14.79757
150 41.66670 41.66670 41.66670 13.59852 14.30280 15.78903
151 43.10350 43.10350 43.10350 14.64874 15.37275 16.78090
152 44.57360 44.57360 44.57360 15.87456 16.64038 18.21338
153 46.07840 46.07840 46.07840 16.64807 17.53875 19.37159
154 47.61910 47.61910 47.61910 17.93903 18.94204 20.53037
155 49.19680 49.19680 49.19680 19.31973 20.41561 22.18393
156 50.81300 50.81300 50.81300 21.16445 22.28911 24.00211
157 52.46910 52.46910 52.46910 22.61249 23.78619 25.93004
158 54.16670 54.16670 54.16670 24.08054 25.38161 27.85930
159 55.90720 55.90720 55.90720 26.22745 27.67017 30.28480
160 57.69230 57.69230 57.69230 27.73067 29.18018 31.82711
161 59.52380 59.52380 59.52380 29.94994 31.48006 34.47169
162 61.40350 61.40350 61.40350 31.94839 33.51464 37.11518
163 63.33330 63.33330 63.33330 34.18035 36.00690 39.43281
164 65.31530 65.31530 65.31530 36.65358 38.66525 42.46452
165 67.35160 67.35160 67.35160 39.06272 41.20250 45.33017
166 69.44440 69.44440 69.44440 41.82253 44.12487 48.47191
167 71.59620 71.59620 71.59620 44.79135 47.07412 51.83090
168 73.80950 73.80950 73.80950 47.41442 49.95063 55.13896
169 76.08700 76.08700 76.08700 50.94695 53.67026 59.32724
170 78.43140 78.43140 78.43140 54.35476 57.11073 62.96275
171 80.84580 80.84580 80.84580 58.53282 61.36971 67.59019
172 83.33330 83.33330 83.33330 62.93133 66.12767 72.99262
173 85.89740 85.89740 85.89740 67.11335 70.53732 78.06251
174 88.54170 88.54170 88.54170 72.10195 75.90240 83.19112
175 91.26980 91.26980 91.26980 77.71730 81.78951 89.63885
176 94.08600 94.08600 94.08600 83.21839 87.53039 96.25086
177 100.0000 0.000000 32.38980 40.85503 21.53793 9.893652
178 100.0000 0.000000 45.16150 42.42686 22.14023 17.95470
179 91.26980 0.000000 0.000000 31.76265 16.94745 1.258181
180 100.0000 0.000000 0.000000 39.17438 20.88048 1.527702
181 100.0000 0.000000 17.75280 39.72721 21.09713 4.147605
182 100.0000 22.71230 30.68470 42.35739 24.63784 9.579104
183 100.0000 39.75700 51.83390 48.47642 32.02339 25.17790
184 18.88350 27.77800 0.000000 3.569180 5.162801 0.936792
185 32.34640 32.79880 0.000000 6.572549 8.092518 1.280272
186 46.69860 53.16780 35.86270 18.09500 22.14992 13.04725
187 49.34880 56.55630 64.38330 25.31044 26.92581 39.14089
188 58.68580 56.49050 71.34310 31.12453 29.76842 48.72428
189 79.31990 52.21870 81.83210 43.68201 33.80834 65.15431
190 100.0000 60.10890 86.93730 65.04549 49.50715 75.65087
191 100.0000 62.33620 100.0000 71.24904 53.36051 102.4045
192 13.66450 0.000000 10.50350 1.009034 0.563103 1.353605
193 21.48480 6.693300 12.87260 2.132397 1.459822 1.904367
194 0.000000 0.000000 15.76580 0.520896 0.279418 2.194347
195 10.23120 6.775800 21.78670 1.541578 1.079913 4.154068
196 12.87330 35.19490 34.12930 6.212502 8.264258 10.43206
197 34.07220 44.10490 48.44880 13.41586 14.87607 21.13620
198 47.75610 47.15130 73.31130 23.79252 21.04292 50.28472
199 100.0000 76.45810 87.84730 73.59278 65.65010 79.80620
200 100.0000 86.31870 87.52720 79.56576 77.56380 81.01498
201 100.0000 90.90290 100.0000 88.12281 86.25667 107.7039
202 0.000000 8.333300 0.000000 0.403199 0.661693 0.297833
203 21.48510 9.309000 0.000000 1.926486 1.554040 0.373881
204 33.38930 13.19240 0.000000 4.213734 3.155458 0.518803
205 52.69380 82.62360 0.000000 32.83237 50.79596 7.562720
206 81.66410 100.0000 43.27930 64.44239 85.93215 27.43448
207 0.000000 0.000000 52.46910 4.409413 1.767114 22.31603
208 24.35670 0.000000 54.31380 6.693783 2.911247 24.77759
209 27.15190 0.000000 76.25190 12.48620 5.185014 52.00609
210 47.90710 18.90550 85.76430 22.09167 11.36514 69.34220
211 47.80520 23.36970 100.0000 28.25846 14.57519 97.73546
212 0.000000 89.38080 100.0000 47.17838 62.43774 105.5100
213 29.14680 89.72320 100.0000 50.42776 64.74974 105.8841
214 0.000000 0.000000 0.000000 0.117645 0.123592 0.135676
215 34.59530 68.01990 0.000000 19.03084 31.62860 4.862420
216 72.00010 69.88250 44.44650 38.26467 43.24373 21.61780
217 75.13610 78.52880 56.54400 46.70082 53.79401 34.53544
218 81.37380 77.82920 67.78410 53.27351 56.22433 47.95011
219 38.95830 49.63190 0.000000 12.57047 17.51507 2.641005
220 42.81200 53.97380 44.09780 18.36210 22.55106 18.60464
221 51.01330 60.67670 54.74750 25.90826 30.18671 29.50701
222 100.0000 64.84510 57.03910 58.73052 50.30982 33.68795
223 100.0000 89.60350 61.20510 74.23857 79.02720 43.06287
224 100.0000 100.0000 69.43480 84.55328 95.89222 56.38787
225 0.000000 57.22310 61.80420 16.78946 22.77077 35.68156
226 0.000000 63.16940 79.26250 23.96582 29.45774 60.54298
227 0.000000 75.83920 82.57250 31.64579 42.52253 68.72966
228 0.000000 33.23860 82.32600 15.45897 11.20795 63.00631
229 86.26340 40.08580 100.0000 51.90451 31.78264 99.47787
230 100.0000 46.94340 100.0000 65.37804 41.90704 100.6519
231 55.65570 0.000000 46.49220 13.92340 6.959823 18.02556
232 61.97800 0.000000 61.96190 19.58918 9.524571 33.05129
233 64.28320 0.000000 79.73500 25.49782 11.94546 57.75042
234 65.51090 38.44010 100.0000 38.68513 24.23693 98.89329
235 0.000000 57.43850 100.0000 29.39633 27.68450 100.0282
236 0.000000 69.23220 100.0000 35.07401 38.76012 101.7224
237 0.000000 79.28650 100.0000 40.25418 48.86654 103.4080
238 0.000000 100.0000 100.0000 55.44394 78.59291 108.2949
239 41.14570 61.90360 14.80030 18.24912 27.17483 6.049567
240 29.45930 100.0000 0.000000 39.31120 72.82300 11.48389
241 51.48480 100.0000 0.000000 45.53524 76.14901 11.66502
242 68.85940 100.0000 0.000000 53.50468 80.41979 11.94488
243 84.42830 100.0000 25.51960 64.22496 86.06659 17.81552
244 0.000000 83.23780 65.05820 30.97219 49.20673 44.04847
245 0.000000 100.0000 72.82040 45.77555 74.93774 58.77373
246 31.44190 100.0000 77.64480 50.51595 77.35298 66.16646
247 88.00960 100.0000 89.29520 80.62664 92.82519 87.74489
248 0.000000 22.70190 12.17820 1.912739 3.178936 2.066666
249 19.59820 61.80650 25.61130 14.69316 25.17925 9.182268
250 29.81700 64.15160 38.71420 18.86647 28.96566 16.50482
251 58.62830 70.49850 44.70870 32.04980 40.44138 21.77576
252 37.52290 55.92210 64.27410 21.81440 25.04848 38.99782
253 57.02940 68.61900 66.41240 34.53933 39.72591 43.83461
254 30.31540 52.11580 39.95110 14.01924 19.24162 15.53560
255 40.71810 78.52530 39.10610 28.69512 44.52235 18.92578
256 40.67270 76.39110 57.55720 30.81564 43.85720 34.44643
257 67.79490 87.99980 74.76300 53.54867 65.78469 59.71099
258 0.000000 32.37600 44.67860 6.290360 7.387146 16.82955
259 0.000000 31.74310 56.56220 8.270136 7.897197 27.75232
260 0.000000 13.72460 53.07620 5.181637 3.073868 23.15359
261 51.21240 15.95560 52.99850 14.33747 8.228251 23.87026
262 68.45770 15.51530 59.09530 23.31830 12.76106 30.73875
263 15.70430 38.98080 21.86760 6.292725 9.710330 5.513153
264 26.46080 39.54470 28.68790 8.263725 10.87596 8.218034
265 46.79030 39.70850 100.0000 30.92733 20.38726 98.67226
266 31.60630 0.000000 100.0000 22.09700 8.831003 96.90822
267 30.15180 79.79030 100.0000 43.68939 51.23496 103.7252
268 54.89290 100.0000 100.0000 66.15864 84.37135 108.8881
269 83.12640 40.05950 0.000000 30.21417 22.88640 2.462579
270 84.86570 54.04310 0.000000 35.82766 32.21703 3.834000
271 85.97680 62.21810 16.29310 40.66841 39.50203 7.296861
272 100.0000 65.36900 34.79570 55.57627 49.64931 15.79595
273 100.0000 74.98390 50.84990 62.65927 59.89168 28.89410
274 64.12910 18.75960 0.000000 15.36907 9.755980 1.000031
275 64.31110 24.95320 21.47070 17.07953 11.74007 5.070070
276 69.51550 25.82790 32.68140 20.79351 13.80459 9.720215
277 0.000000 91.26980 0.000000 29.77204 58.03802 9.202707
278 0.000000 100.0000 44.40300 39.61469 72.54499 27.20427
279 0.000000 100.0000 59.41380 42.46828 73.66046 41.80867
280 26.97220 100.0000 60.47310 45.21298 75.16375 43.16688
281 0.000000 63.86050 53.89740 18.01134 27.75645 28.04702
282 45.12390 75.31030 74.00700 35.69042 44.88599 55.45315
283 48.12080 77.39130 100.0000 47.08368 50.93824 103.5033
284 66.55150 87.32860 100.0000 61.89562 68.50923 105.9369
285 73.65960 100.0000 100.0000 75.35369 89.28067 109.2699
286 100.0000 100.0000 100.0000 95.09020 99.89666 110.0814
287 0.000000 50.00600 45.26140 11.00211 16.43658 18.61446
288 13.98220 56.69330 56.09680 16.29923 22.54108 29.85549
289 67.21130 57.21490 58.28580 32.07104 31.23265 32.95016
290 52.18150 0.000000 14.08620 9.430230 5.021784 2.249957
291 67.86790 0.000000 13.61320 16.37998 8.713904 2.483500
292 75.92930 0.000000 26.11570 21.70345 11.44208 6.258377
293 100.0000 0.000000 69.75130 47.66190 24.13580 44.96688
294 100.0000 0.000000 83.31030 51.63900 25.62454 65.22509
295 100.0000 25.58860 84.33060 54.24327 29.89743 68.22692
296 46.44320 39.12810 0.000000 11.40759 12.50429 1.779192
297 50.78740 47.96930 26.32940 16.95013 18.92137 8.057894
298 53.39510 83.80030 29.83400 35.60515 53.39251 14.95434
299 0.000000 49.33310 19.24590 8.158302 14.87128 5.482279
300 0.000000 49.65050 33.39750 9.395633 15.58058 11.10672
301 0.000000 100.0000 86.77060 50.11326 76.58528 80.95401
302 26.30010 100.0000 90.22280 53.87473 78.45962 88.18763
303 30.80580 100.0000 100.0000 58.78158 80.44840 108.6600
304 100.0000 21.57900 14.58440 41.08682 23.93985 3.877090
305 100.0000 40.81490 38.50600 46.79864 31.86780 15.19143
306 0.000000 10.68380 0.000000 0.541649 0.928696 0.346852
307 0.000000 13.15790 0.000000 0.724481 1.283435 0.403344
308 24.78820 16.60410 20.27690 3.545727 3.090530 3.854530
309 25.47100 18.92660 74.58380 12.92148 7.030190 50.16053
310 0.000000 9.707100 37.69130 2.605130 1.646060 11.23244
311 55.59830 19.40760 40.21160 14.26778 8.900754 13.87311
312 55.05480 43.16190 66.58440 23.54295 19.47730 41.13267
313 82.08700 0.000000 38.07540 27.07794 14.12769 12.50008
314 100.0000 0.000000 57.20740 44.58152 22.95457 29.09990
315 100.0000 27.17420 56.98690 46.93696 27.41358 30.01876
316 26.74570 0.000000 22.68310 3.118940 1.602850 4.290431
317 35.22330 14.47210 22.99780 5.548755 3.921701 4.796640
318 43.35380 0.000000 27.47490 7.311666 3.779024 6.272724
319 59.44200 0.000000 27.69830 13.45090 7.033385 6.689414
320 78.21600 0.000000 100.0000 40.96116 18.84773 97.66798
321 100.0000 0.000000 100.0000 58.10979 27.96331 98.38384
322 100.0000 26.15050 100.0000 60.40361 32.27998 99.19125
323 0.000000 100.0000 0.000000 36.48901 71.23432 11.38169
324 0.000000 100.0000 25.46530 37.58299 71.74698 16.71743
325 31.24280 100.0000 38.87460 42.26267 74.15129 23.94591
326 39.54930 100.0000 52.29260 46.30328 76.01018 34.30985
327 59.11800 100.0000 79.68800 60.32670 82.47540 69.78731
328 0.000000 0.000000 91.26980 15.28574 5.846970 78.42814
329 0.000000 0.000000 100.0000 18.82450 7.097003 96.70914
330 0.000000 19.52040 100.0000 20.04326 9.450972 97.17003
331 47.55600 53.37610 100.0000 35.64923 29.08770 100.0662
332 21.14110 0.000000 36.03790 3.469879 1.619603 10.16518
333 26.22140 9.483700 46.29980 5.984059 3.231235 17.58928
334 0.000000 11.02600 29.19940 1.816118 1.483797 6.723247
335 0.000000 35.80580 28.78920 5.076624 7.831472 7.747409
336 0.000000 40.80560 44.34830 8.046116 10.88261 17.13641
337 0.000000 55.56790 81.75680 21.79557 23.96750 63.72877
338 33.24220 57.90630 90.73870 29.66560 29.00101 80.79716
339 57.42820 0.000000 100.0000 30.20971 13.12991 97.29635
340 62.86860 19.32640 100.0000 33.99573 16.83127 97.85062
341 67.10700 65.57290 100.0000 49.33544 43.75927 102.0283
342 85.01870 65.70150 100.0000 60.67179 50.03581 102.5104
343 64.47960 42.80550 0.000000 19.75564 18.22792 2.291105
344 76.36170 65.39430 17.52630 35.77531 39.10218 7.786462
345 54.31810 51.91970 0.000000 18.31764 21.57279 3.017073
346 68.60170 54.85520 0.000000 26.20193 27.55124 3.604628
347 80.99140 75.48550 10.64970 43.91578 50.58695 7.957084
348 62.64860 69.87530 33.79340 32.05757 40.09030 14.73008
349 75.19820 82.36590 39.52490 46.30035 57.50334 20.57957
350 0.000000 44.32820 65.26910 13.07686 14.29154 38.45573
351 0.000000 44.01250 79.81190 17.12342 15.66134 59.70085
352 0.000000 85.76140 81.85610 37.70075 54.79811 69.39330
353 100.0000 49.26860 0.000000 46.82917 35.78766 3.805166
354 100.0000 67.85250 0.000000 54.53677 50.80320 6.116694
355 100.0000 74.28650 24.78530 58.93099 57.69033 12.19493
356 100.0000 83.08380 42.92260 66.24159 68.97511 23.65719
357 100.0000 85.38670 68.13470 73.10405 74.16336 50.97311
358 0.636100 0.636100 0.636100 0.169876 0.176444 0.209412
359 1.282100 1.282100 1.282100 0.211106 0.220682 0.255954
360 0.000000 1.938000 0.000000 0.183486 0.244896 0.187374
361 0.000000 3.968300 0.000000 0.248510 0.367684 0.227940
362 0.000000 6.097600 0.000000 0.323835 0.509465 0.265221
363 14.05170 12.75030 0.000000 1.408331 1.619993 0.420889
364 23.19450 16.59780 31.93370 4.224885 3.320649 8.516519
365 35.05250 24.38850 42.79830 8.502275 6.692270 15.18912
366 53.27630 29.31330 42.49170 15.12631 11.42237 15.38728
367 66.14270 30.57040 51.77160 22.48096 15.35801 23.48053
368 70.32940 43.92540 62.66070 30.06111 23.40156 36.42414
369 0.000000 7.592700 11.71160 0.613748 0.680185 1.573259
370 34.22070 26.30690 14.85820 6.240995 6.194450 2.896960
371 61.76420 37.09120 25.47850 18.40663 15.65006 7.168209
372 37.37530 24.24010 0.000000 6.221291 5.836951 0.883427
373 43.29800 32.87620 45.37840 12.68706 10.98830 18.11216
374 66.58520 49.69400 69.60630 31.82045 26.80851 45.85904
375 74.05270 62.70440 69.26910 40.95409 38.82472 47.62617
376 38.79950 0.000000 15.31550 5.279149 2.808929 2.389011
377 37.25460 0.000000 35.67380 6.384362 3.173757 10.05684
378 39.88640 0.000000 49.54800 9.065319 4.314831 19.92532
379 72.49810 9.831300 52.18500 23.56709 12.47933 23.25056
380 0.000000 0.000000 0.000000 0.117570 0.123526 0.135713
381 3.968300 0.000000 0.000000 0.250838 0.193507 0.161475
382 22.71750 39.99620 0.000000 6.465090 10.16673 1.677873
383 23.97320 55.05450 0.000000 11.37601 19.55371 3.110996
384 50.62380 64.17740 0.000000 21.94014 30.81225 4.513040
385 67.58610 67.50470 0.000000 30.87219 37.72459 5.212265
386 84.74350 68.59640 0.000000 42.28876 44.77068 5.773620
387 100.0000 83.23310 0.000000 63.12260 67.54686 8.726641
388 100.0000 100.0000 55.89120 81.34218 94.63721 40.35665
389 0.000000 20.32440 16.65260 1.821945 2.727162 2.885933
390 0.000000 20.25560 27.35220 2.508737 2.999582 6.406574
391 0.000000 20.90930 36.96700 3.458369 3.450422 11.03195
392 0.000000 48.03260 59.95840 13.01757 15.99588 32.76555
393 33.45970 47.96850 74.24020 20.38909 19.54942 51.57662
394 82.64800 75.87100 100.0000 64.09314 59.14199 104.0410
395 100.0000 78.50070 100.0000 79.51046 69.48186 105.1339
396 12.22270 18.40790 0.000000 1.721488 2.414565 0.549003
397 18.93680 25.38020 17.24080 3.754490 4.757654 3.305958
398 21.10300 26.00890 39.62140 6.002101 5.783972 13.17719
