Apple/MacBook Pro 13' (2013 Late)/MacBookPro11,1 #1 2020-05-26 15-23 0.3127x 0.329y sRGB M-S 1xCurve+MTX/MacBookPro11,1 #1 2020-05-26 15-23 0.3127x 0.329y sRGB M-S 1xCurve+MTX.ti1
CTI1   

DESCRIPTOR "Argyll Calibration Target chart information 1"
ORIGINATOR "Argyll targen"
CREATED "Tue May 26 15:31:41 2020"
APPROX_WHITE_POINT "95.164203 99.999893 109.837386"
COLOR_REP "RGB"
ACCURATE_EXPECTED_VALUES "true"
DARK_REGION_EMPHASIS "1.6"
WHITE_COLOR_PATCHES "4"
BLACK_COLOR_PATCHES "4"
SINGLE_DIM_STEPS "25"
COMP_GREY_STEPS "73"
OFPS_PATCHES "648"

NUMBER_OF_FIELDS 7
BEGIN_DATA_FORMAT
SAMPLE_ID RGB_R RGB_G RGB_B XYZ_X XYZ_Y XYZ_Z
END_DATA_FORMAT

NUMBER_OF_SETS 825
BEGIN_DATA
1 100.0000 100.0000 100.0000 95.16420 99.99989 109.8374
2 1.960800 1.960800 1.960800 1.142800 1.150200 1.163700
3 3.921600 3.921600 3.921600 1.285600 1.300500 1.327300
4 5.882400 5.882400 5.882400 1.449500 1.472900 1.515200
5 9.803900 9.803900 9.803900 1.914800 1.962400 2.048400
6 13.72600 13.72600 13.72600 2.581700 2.663900 2.812600
7 17.64700 17.64700 17.64700 3.469500 3.597900 3.830000
8 21.56900 21.56900 21.56900 4.595300 4.782200 5.120100
9 25.49000 25.49000 25.49000 5.974500 6.233200 6.700700
10 29.41200 29.41200 29.41200 7.621300 7.965600 8.587900
11 33.33300 33.33300 33.33300 9.548800 9.993300 10.79700
12 37.25500 37.25500 37.25500 11.76900 12.32900 13.34100
13 41.17600 41.17600 41.17600 14.29400 14.98500 16.23400
14 45.09800 45.09800 45.09800 17.13400 17.97300 19.48900
15 49.02000 49.02000 49.02000 20.29900 21.30300 23.11700
16 52.94100 52.94100 52.94100 23.80000 24.98600 27.12900
17 56.86300 56.86300 56.86300 27.64600 29.03200 31.53600
18 60.78400 60.78400 60.78400 31.84600 33.45000 36.34900
19 64.70600 64.70600 64.70600 36.40900 38.25000 41.57800
20 68.62700 68.62700 68.62700 41.34300 43.44000 47.23200
21 72.54900 72.54900 72.54900 46.65600 49.03000 53.32100
22 76.47100 76.47100 76.47100 52.35600 55.02700 59.85300
23 80.39200 80.39200 80.39200 58.45200 61.43900 66.83800
24 84.31400 84.31400 84.31400 64.94900 68.27500 74.28500
25 88.23500 88.23500 88.23500 71.85700 75.54100 82.20000
26 92.15700 92.15700 92.15700 79.18100 83.24600 90.59400
27 96.07800 96.07800 96.07800 86.92900 91.39700 99.47200
28 31.28150 40.89400 76.08020 18.37276 15.41437 53.89604
29 40.12970 62.94790 78.37870 29.11556 32.36746 59.99689
30 38.68330 67.68800 76.80270 30.54091 36.44294 58.22720
31 67.01110 68.04710 78.02530 42.20155 42.83376 60.58410
32 71.16160 81.32250 91.13330 56.37284 60.15739 86.20909
33 100.0000 29.62290 0.000000 42.27623 26.28417 2.450003
34 100.0000 38.60590 23.97240 45.00721 30.22220 7.591069
35 82.37940 24.24020 0.000000 27.24735 17.07377 1.680871
36 84.96900 100.0000 0.000000 64.01899 86.41114 12.52075
37 100.0000 100.0000 0.000000 76.40395 92.99078 12.96118
38 100.0000 100.0000 23.35290 77.24620 93.30546 17.31050
39 100.0000 100.0000 41.01620 78.97999 93.95323 26.26363
40 13.15790 0.000000 0.000000 0.773064 0.466515 0.252773
41 15.76580 0.000000 0.000000 0.990604 0.582085 0.260509
42 18.51850 0.000000 0.000000 1.270612 0.730842 0.270466
43 21.42860 0.000000 0.000000 1.624452 0.918823 0.283049
44 24.50980 0.000000 0.000000 2.058202 1.149257 0.298474
45 27.77780 0.000000 0.000000 2.579630 1.426271 0.317016
46 31.25000 0.000000 0.000000 3.248084 1.781393 0.340787
47 34.94620 0.000000 0.000000 4.068352 2.217169 0.369957
48 38.88890 0.000000 0.000000 5.003039 2.713731 0.403195
49 43.10350 0.000000 0.000000 6.190362 3.344507 0.445418
50 47.61910 0.000000 0.000000 7.640709 4.115018 0.496993
51 52.46910 0.000000 0.000000 9.468616 5.086112 0.561995
52 57.69230 0.000000 0.000000 11.60576 6.221489 0.637994
53 63.33330 0.000000 0.000000 14.16821 7.582816 0.729118
54 69.44440 0.000000 0.000000 17.39317 9.296108 0.843800
55 76.08700 0.000000 0.000000 21.18853 11.31243 0.978767
56 83.33330 0.000000 0.000000 26.10233 13.92293 1.153507
57 82.52630 51.11080 33.97810 35.50447 30.32480 12.64115
58 100.0000 76.66610 68.42610 67.62838 63.29416 48.78539
59 100.0000 89.97880 82.01410 80.55082 82.25776 72.09943
60 0.000000 0.000000 18.51850 0.670924 0.326704 3.032088
61 0.000000 0.000000 21.42860 0.842241 0.390711 3.916754
62 46.98710 28.76060 64.06380 16.76713 11.43907 36.57942
63 59.59400 31.87750 71.25760 24.16526 15.89067 46.40534
64 59.77500 45.91760 79.26620 29.99286 23.43848 59.62989
65 0.000000 15.76580 0.000000 0.948963 1.728111 0.482615
66 0.000000 18.51850 0.000000 1.214961 2.248034 0.564541
67 0.000000 21.42860 0.000000 1.543866 2.890917 0.665842
68 0.000000 24.50980 0.000000 1.953076 3.690766 0.791877
69 0.000000 27.77780 0.000000 2.458626 4.678923 0.947584
70 0.000000 31.25000 0.000000 3.074902 5.883507 1.137394
71 0.000000 34.94620 0.000000 3.811996 7.324242 1.364415
72 0.000000 38.88890 0.000000 4.687859 9.036219 1.634177
73 0.000000 43.10350 0.000000 5.755768 11.12357 1.963087
74 0.000000 47.61910 0.000000 7.134720 13.81889 2.387798
75 0.000000 52.46910 0.000000 8.820206 17.11337 2.906919
76 0.000000 57.69230 0.000000 10.84506 21.07118 3.530564
77 0.000000 63.33330 0.000000 13.33118 25.93060 4.296278
78 0.000000 69.44440 0.000000 16.29973 31.73298 5.210577
79 0.000000 76.08700 0.000000 19.86334 38.69847 6.308152
80 28.71160 80.94680 0.000000 25.37280 45.73953 7.291525
81 39.06740 100.0000 23.28940 42.66253 74.93323 16.05828
82 59.58600 100.0000 45.68350 52.41737 79.73993 28.62552
83 0.000000 0.000000 1.938000 0.155339 0.134074 0.369659
84 0.000000 0.000000 3.968300 0.189046 0.146667 0.543718
85 0.000000 0.000000 6.097600 0.227794 0.161144 0.743810
86 0.000000 0.000000 8.333300 0.279892 0.180609 1.012836
87 0.000000 0.000000 10.68380 0.350602 0.207027 1.377977
88 0.000000 0.000000 13.15790 0.438458 0.239852 1.831658
89 0.000000 18.11530 68.39880 9.100630 5.128994 41.48581
90 21.55770 29.73280 76.72520 14.57069 9.975377 54.09752
91 96.99450 96.99450 96.99450 89.02806 93.68335 102.4174
92 100.0000 100.0000 100.0000 95.16420 99.99989 109.8374
93 0.000000 0.000000 24.50980 1.051659 0.468953 4.998170
94 0.000000 0.000000 27.77780 1.293231 0.559208 6.245624
95 0.000000 0.000000 31.25000 1.593761 0.671490 7.797533
96 0.000000 0.000000 34.94620 1.968913 0.811653 9.734786
97 0.000000 0.000000 38.88890 2.427738 0.983077 12.10411
98 0.000000 0.000000 43.10350 2.984678 1.191158 14.98010
99 0.000000 0.000000 47.61910 3.645399 1.438014 18.39200
100 0.000000 0.000000 57.69230 5.577211 2.159768 28.36770
101 0.000000 0.000000 63.33330 6.799316 2.616365 34.67854
102 0.000000 0.000000 69.44440 8.324655 3.186255 42.55525
103 0.000000 0.000000 76.08700 10.20021 3.886989 52.24042
104 0.000000 0.000000 83.33330 12.48529 4.740731 64.04037
105 0.000000 33.84300 100.0000 22.34406 13.88734 98.17035
106 0.000000 46.00370 100.0000 25.37039 19.80266 99.10244
107 100.0000 44.94920 68.94200 53.85343 36.15950 45.18750
108 100.0000 44.12250 83.14970 57.83814 37.26232 66.94948
109 1.938000 1.938000 1.938000 0.281380 0.287512 0.390693
110 2.604200 2.604200 2.604200 0.342842 0.352158 0.457258
111 3.280800 3.280800 3.280800 0.402307 0.415133 0.522094
112 3.968300 3.968300 3.968300 0.462999 0.478514 0.589119
113 4.666700 4.666700 4.666700 0.527711 0.545844 0.660986
114 5.376300 5.376300 5.376300 0.591246 0.611843 0.732217
115 6.097600 6.097600 6.097600 0.664053 0.686247 0.815469
116 6.830600 6.830600 6.830600 0.740110 0.763472 0.903969
117 7.575800 7.575800 7.575800 0.822361 0.846873 1.000824
118 8.333300 8.333300 8.333300 0.919183 0.946867 1.117227
119 9.103600 9.103600 9.103600 1.021329 1.052297 1.241441
120 9.887000 9.887000 9.887000 1.133772 1.169844 1.378978
121 10.68380 10.68380 10.68380 1.255324 1.298010 1.526971
122 11.49420 11.49420 11.49420 1.386550 1.437520 1.685959
123 12.31880 12.31880 12.31880 1.531312 1.593068 1.858646
124 13.15790 13.15790 13.15790 1.685196 1.758965 2.039981
125 14.01180 14.01180 14.01180 1.852603 1.939706 2.231500
126 14.88100 14.88100 14.88100 2.030859 2.132300 2.434707
127 15.76580 15.76580 15.76580 2.225233 2.340888 2.650778
128 16.66670 16.66670 16.66670 2.432479 2.562586 2.880406
129 17.58410 17.58410 17.58410 2.658164 2.802074 3.134658
130 18.51850 18.51850 18.51850 2.899969 3.057664 3.407408
131 19.47040 19.47040 19.47040 3.164462 3.335251 3.714731
132 20.44020 20.44020 20.44020 3.446352 3.630497 4.043288
133 21.42860 21.42860 21.42860 3.754030 3.952534 4.405958
134 22.43590 22.43590 22.43590 4.081574 4.295761 4.790229
135 23.46280 23.46280 23.46280 4.432161 4.665143 5.198226
136 24.50980 24.50980 24.50980 4.806409 5.061059 5.628833
137 25.57760 25.57760 25.57760 5.204543 5.484862 6.079932
138 26.66670 26.66670 26.66670 5.626339 5.935707 6.552322
139 27.77780 27.77780 27.77780 6.074959 6.416484 7.050537
140 28.91160 28.91160 28.91160 6.563838 6.935858 7.592168
141 30.06870 30.06870 30.06870 7.089700 7.490955 8.177073
142 31.25000 31.25000 31.25000 7.660219 8.088474 8.816028
143 32.45610 32.45610 32.45610 8.270441 8.724191 9.505320
144 33.68790 33.68790 33.68790 8.916181 9.396940 10.23934
145 34.94620 34.94620 34.94620 9.592733 10.10515 11.00947
146 36.23190 36.23190 36.23190 10.30312 10.85114 11.83384
147 37.54580 37.54580 37.54580 11.05735 11.64263 12.72101
148 38.88890 38.88890 38.88890 11.86211 12.48511 13.68180
149 40.26220 40.26220 40.26220 12.73158 13.39063 14.71153
150 41.66670 41.66670 41.66670 13.66744 14.36312 15.79247
151 43.10350 43.10350 43.10350 14.67428 15.41132 16.92892
152 44.57360 44.57360 44.57360 15.75814 16.54971 18.12820
153 46.07840 46.07840 46.07840 16.91711 17.78537 19.41496
154 47.61910 47.61910 47.61910 18.16430 19.12401 20.81711
155 49.19680 49.19680 49.19680 19.51392 20.55978 22.34261
156 50.81300 50.81300 50.81300 20.97122 22.08855 24.00309
157 52.46910 52.46910 52.46910 22.53181 23.70869 25.81179
158 54.16670 54.16670 54.16670 24.18477 25.42460 27.77137
159 55.90720 55.90720 55.90720 25.92697 27.24926 29.87035
160 57.69230 57.69230 57.69230 27.77150 29.20452 32.07657
161 59.52380 59.52380 59.52380 29.73433 31.29972 34.37055
162 61.40350 61.40350 61.40350 31.81843 33.52414 36.73958
163 63.33330 63.33330 63.33330 34.04218 35.88187 39.24425
164 65.31530 65.31530 65.31530 36.44875 38.41779 41.98920
165 67.35160 67.35160 67.35160 39.03959 41.13587 44.99401
166 69.44440 69.44440 69.44440 41.76103 43.96743 48.14994
167 71.59620 71.59620 71.59620 44.60934 46.93064 51.46493
168 73.80950 73.80950 73.80950 47.65812 50.14190 55.10882
169 76.08700 76.08700 76.08700 50.99555 53.64997 59.06765
170 78.43140 78.43140 78.43140 54.63970 57.40629 63.18373
171 80.84580 80.84580 80.84580 58.52965 61.44556 67.60129
172 83.33330 83.33330 83.33330 62.65328 65.82956 72.41565
173 85.89740 85.89740 85.89740 67.12140 70.59963 77.49470
174 88.54170 88.54170 88.54170 72.03412 75.81374 83.03922
175 91.26980 91.26980 91.26980 77.40213 81.50032 89.17533
176 94.08600 94.08600 94.08600 83.13224 87.54723 95.59241
177 100.0000 0.000000 32.38980 41.20524 21.69794 9.776702
178 100.0000 0.000000 45.16150 42.77323 22.28376 17.87368
179 91.26980 0.000000 0.000000 32.17346 17.14828 1.369402
180 100.0000 0.000000 0.000000 39.62849 21.10884 1.634510
181 100.0000 0.000000 17.75280 40.13288 21.29729 4.239138
182 100.0000 22.71230 30.68470 42.61908 24.72071 9.415907
183 100.0000 39.75700 51.83390 48.64499 32.01491 25.04450
184 18.88350 27.77800 0.000000 3.642186 5.307754 0.989682
185 32.34640 32.79880 0.000000 6.730563 8.251963 1.348997
186 46.69860 53.16780 35.86270 18.22259 22.16484 13.26332
187 49.34880 56.55630 64.38330 25.41679 27.05793 39.38235
188 58.68580 56.49050 71.34310 30.94939 29.67816 48.71374
189 79.31990 52.21870 81.83210 43.85158 33.72703 64.92666
190 100.0000 60.10890 86.93730 64.96518 49.16008 75.38843
191 100.0000 62.33620 100.0000 71.13574 53.03346 102.4367
192 13.66450 0.000000 10.50350 1.029013 0.568365 1.371982
193 21.48480 6.693300 12.87260 2.159886 1.481336 1.900544
194 0.000000 0.000000 15.76580 0.542194 0.278609 2.367341
195 10.23120 6.775800 21.78670 1.545127 1.090122 4.123911
196 12.87330 35.19490 34.12930 6.242527 8.413956 10.46277
197 34.07220 44.10490 48.44880 13.42964 15.02552 21.03774
198 47.75610 47.15130 73.31130 23.78540 20.98658 50.36016
199 100.0000 76.45810 87.84730 73.48600 65.29427 79.61220
200 100.0000 86.31870 87.52720 79.69585 77.61691 80.95729
201 100.0000 90.90290 100.0000 88.11361 86.21868 107.6658
202 0.000000 8.333300 0.000000 0.427998 0.709824 0.322160
203 21.48510 9.309000 0.000000 1.980498 1.604232 0.390695
204 33.38930 13.19240 0.000000 4.321608 3.212359 0.543693
205 52.69380 82.62360 0.000000 33.27753 51.49404 7.870263
206 81.66410 100.0000 43.27930 64.64540 86.28985 27.31483
207 0.000000 0.000000 52.46910 4.499512 1.757123 22.80257
208 24.35670 0.000000 54.31380 6.774125 2.907595 24.76827
209 27.15190 0.000000 76.25190 12.59555 5.151816 52.57682
210 47.90710 18.90550 85.76430 22.04171 11.29319 68.88977
211 47.80520 23.36970 100.0000 28.12906 14.41303 97.88844
212 0.000000 89.38080 100.0000 47.43415 62.92884 105.8980
213 29.14680 89.72320 100.0000 50.39712 64.87853 106.0752
214 0.000000 0.000000 0.000000 0.128264 0.123958 0.229843
215 34.59530 68.01990 0.000000 19.45710 32.41089 5.131554
216 72.00010 69.88250 44.44650 38.24838 43.22263 21.65321
217 75.13610 78.52880 56.54400 46.95923 54.28614 34.34599
218 81.37380 77.82920 67.78410 53.30093 56.66831 47.60100
219 38.95830 49.63190 0.000000 12.71176 17.75577 2.772553
220 42.81200 53.97380 44.09780 18.33954 22.48644 18.74789
221 51.01330 60.67670 54.74750 25.72177 30.04874 29.17122
222 100.0000 64.84510 57.03910 58.84945 50.28390 33.33763
223 100.0000 89.60350 61.20510 74.54751 79.55708 42.50482
224 100.0000 100.0000 69.43480 84.59785 96.05214 55.27370
225 0.000000 57.22310 61.80420 16.98125 23.05546 36.16420
226 0.000000 63.16940 79.26250 24.28711 29.90435 61.23888
227 0.000000 75.83920 82.57250 31.82320 42.94245 68.75697
228 0.000000 33.23860 82.32600 15.48167 11.13125 63.32389
229 86.26340 40.08580 100.0000 51.80835 31.52203 99.59739
230 100.0000 46.94340 100.0000 65.17217 41.37696 100.6000
231 55.65570 0.000000 46.49220 14.10640 7.023220 17.86291
232 61.97800 0.000000 61.96190 19.88023 9.613903 33.57656
233 64.28320 0.000000 79.73500 25.82125 12.01135 58.47168
234 65.51090 38.44010 100.0000 38.48685 23.88524 99.01655
235 0.000000 57.43850 100.0000 29.49958 27.87364 100.3742
236 0.000000 69.23220 100.0000 34.95559 38.53804 102.0546
237 0.000000 79.28650 100.0000 40.48766 49.35112 103.7585
238 0.000000 100.0000 100.0000 55.66398 79.01501 108.4327
239 41.14570 61.90360 14.80030 18.53518 27.70991 6.222260
240 29.45930 100.0000 0.000000 39.66131 73.47089 11.65457
241 51.48480 100.0000 0.000000 45.85042 76.75891 11.87466
242 68.85940 100.0000 0.000000 53.84515 81.00619 12.15896
243 84.42830 100.0000 25.51960 64.63316 86.58042 17.65034
244 0.000000 83.23780 65.05820 31.33408 49.93143 44.20390
245 0.000000 100.0000 72.82040 46.00988 75.40809 58.57981
246 31.44190 100.0000 77.64480 50.60354 77.62256 66.09398
247 88.00960 100.0000 89.29520 80.76842 93.03138 87.22442
248 0.000000 22.70190 12.17820 1.978917 3.307792 2.131242
249 19.59820 61.80650 25.61130 14.90679 25.62141 9.305299
250 29.81700 64.15160 38.71420 18.81552 29.02637 16.27522
251 58.62830 70.49850 44.70870 31.78085 40.21983 21.69817
252 37.52290 55.92210 64.27410 21.55249 24.64699 39.04413
253 57.02940 68.61900 66.41240 34.51071 39.66366 43.77422
254 30.31540 52.11580 39.95110 14.05614 19.33029 15.55007
255 40.71810 78.52530 39.10610 28.96200 45.17564 18.94999
256 40.67270 76.39110 57.55720 30.80399 43.90314 34.54135
257 67.79490 87.99980 74.76300 53.66344 66.18708 59.23601
258 0.000000 32.37600 44.67860 6.366558 7.455131 17.08535
259 0.000000 31.74310 56.56220 8.376759 8.012628 28.06030
260 0.000000 13.72460 53.07620 5.264857 3.065329 23.61494
261 51.21240 15.95560 52.99850 14.27895 8.128773 23.90893
262 68.45770 15.51530 59.09530 23.39714 12.71569 30.76150
263 15.70430 38.98080 21.86760 6.308847 9.811460 5.505378
264 26.46080 39.54470 28.68790 8.316596 10.99142 8.157987
265 46.79030 39.70850 100.0000 30.88147 20.27344 98.82814
266 31.60630 0.000000 100.0000 22.08398 8.830696 97.21969
267 30.15180 79.79030 100.0000 43.68643 51.48432 103.9553
268 54.89290 100.0000 100.0000 65.98790 84.49969 108.7998
269 83.12640 40.05950 0.000000 30.80231 23.31065 2.639561
270 84.86570 54.04310 0.000000 36.44162 32.61226 4.047021
271 85.97680 62.21810 16.29310 41.11588 39.89795 7.383949
272 100.0000 65.36900 34.79570 55.61745 49.47640 15.41923
273 100.0000 74.98390 50.84990 62.79824 59.96617 28.52186
274 64.12910 18.75960 0.000000 15.67717 9.967118 1.085701
275 64.31110 24.95320 21.47070 17.26262 11.80305 5.029315
276 69.51550 25.82790 32.68140 21.05939 13.86651 9.761064
277 0.000000 91.26980 0.000000 30.14337 58.79198 9.474350
278 0.000000 100.0000 44.40300 39.94006 73.14032 27.23584
279 0.000000 100.0000 59.41380 42.72154 74.17952 41.59914
280 26.97220 100.0000 60.47310 45.26382 75.49458 42.84609
281 0.000000 63.86050 53.89740 18.22930 28.14662 28.40411
282 45.12390 75.31030 74.00700 35.56472 44.91529 55.20544
283 48.12080 77.39130 100.0000 47.05623 51.25470 103.6885
284 66.55150 87.32860 100.0000 61.58421 68.25297 105.9814
285 73.65960 100.0000 100.0000 75.27633 89.43426 109.1302
286 100.0000 100.0000 100.0000 95.16420 99.99989 109.8374
287 0.000000 50.00600 45.26140 11.10821 16.59082 18.95250
288 13.98220 56.69330 56.09680 16.25274 22.55298 29.81592
289 67.21130 57.21490 58.28580 32.26498 31.28949 32.82864
290 52.18150 0.000000 14.08620 9.698757 5.153888 2.342776
291 67.86790 0.000000 13.61320 16.85361 8.957850 2.503563
292 75.92930 0.000000 26.11570 22.12903 11.64817 6.344457
293 100.0000 0.000000 69.75130 47.90457 24.20091 44.37144
294 100.0000 0.000000 83.31030 51.97782 25.72274 65.40532
295 100.0000 25.58860 84.33060 54.30283 29.72832 67.77667
296 46.44320 39.12810 0.000000 11.86848 12.93199 1.905029
297 50.78740 47.96930 26.32940 16.97796 19.04875 8.183023
298 53.39510 83.80030 29.83400 35.69288 53.69633 15.02059
299 0.000000 49.33310 19.24590 8.298198 15.17183 5.575588
300 0.000000 49.65050 33.39750 9.504674 15.79640 11.27186
301 0.000000 100.0000 86.77060 50.42697 77.05838 81.38927
302 26.30010 100.0000 90.22280 53.91997 78.71145 88.10492
303 30.80580 100.0000 100.0000 58.69139 80.62335 108.5404
304 100.0000 21.57900 14.58440 41.42777 24.04813 3.962833
305 100.0000 40.81490 38.50600 46.90840 31.77831 14.81081
306 0.000000 10.68380 0.000000 0.557067 0.962104 0.361913
307 0.000000 13.15790 0.000000 0.730202 1.300516 0.415237
308 24.78820 16.60410 20.27690 3.639440 3.165567 3.891295
309 25.47100 18.92660 74.58380 12.95493 7.029620 50.32897
310 0.000000 9.707100 37.69130 2.650831 1.652778 11.45522
311 55.59830 19.40760 40.21160 14.39336 8.995328 13.72601
312 55.05480 43.16190 66.58440 23.62077 19.46178 40.85221
313 82.08700 0.000000 38.07540 27.46591 14.30078 12.47626
314 100.0000 0.000000 57.20740 44.97420 23.10608 29.23928
315 100.0000 27.17420 56.98690 47.15864 27.45056 29.68255
316 26.74570 0.000000 22.68310 3.204656 1.632747 4.424328
317 35.22330 14.47210 22.99780 5.658367 3.940870 4.814075
318 43.35380 0.000000 27.47490 7.409774 3.812349 6.343828
319 59.44200 0.000000 27.69830 13.51638 7.053838 6.648959
320 78.21600 0.000000 100.0000 41.38090 19.08238 97.90591
321 100.0000 0.000000 100.0000 58.38874 28.11796 98.51072
322 100.0000 26.15050 100.0000 60.45860 32.16375 99.14823
323 0.000000 100.0000 0.000000 36.90373 72.00590 11.55651
324 0.000000 100.0000 25.46530 37.89576 72.37653 16.67924
325 31.24280 100.0000 38.87460 42.31970 74.52097 23.53233
326 39.54930 100.0000 52.29260 46.28727 76.30728 34.13198
327 59.11800 100.0000 79.68800 60.15458 82.59823 69.63513
328 0.000000 0.000000 91.26980 15.34182 5.807977 78.79126
329 0.000000 0.000000 100.0000 18.88852 7.133075 97.10605
330 0.000000 19.52040 100.0000 20.08287 9.467571 97.47391
331 47.55600 53.37610 100.0000 35.40282 28.74943 100.1515
332 21.14110 0.000000 36.03790 3.547108 1.631238 10.40398
333 26.22140 9.483700 46.29980 5.993366 3.227419 17.52038
334 0.000000 11.02600 29.19940 1.858864 1.481448 6.983001
335 0.000000 35.80580 28.78920 5.241537 8.147044 7.859709
336 0.000000 40.80560 44.34830 8.182673 11.07907 17.41702
337 0.000000 55.56790 81.75680 21.81411 23.80740 64.35696
338 33.24220 57.90630 90.73870 29.49947 28.74377 81.18788
339 57.42820 0.000000 100.0000 30.25529 13.17179 97.51027
340 62.86860 19.32640 100.0000 33.87396 16.76376 97.95850
341 67.10700 65.57290 100.0000 49.13941 43.50637 102.0677
342 85.01870 65.70150 100.0000 60.36545 49.55971 102.4840
343 64.47960 42.80550 0.000000 20.28761 18.72711 2.457527
344 76.36170 65.39430 17.52630 36.03988 39.30297 7.899300
345 54.31810 51.91970 0.000000 18.71400 22.08883 3.205022
346 68.60170 54.85520 0.000000 26.50793 27.77387 3.777790
347 80.99140 75.48550 10.64970 44.14487 51.07198 8.212047
348 62.64860 69.87530 33.79340 31.93904 40.07412 14.64467
349 75.19820 82.36590 39.52490 46.56977 57.93603 20.50501
350 0.000000 44.32820 65.26910 13.22933 14.46136 38.88028
351 0.000000 44.01250 79.81190 17.21415 15.80829 59.89323
352 0.000000 85.76140 81.85610 37.86832 55.13541 69.46075
353 100.0000 49.26860 0.000000 47.19349 35.89552 3.964494
354 100.0000 67.85250 0.000000 55.01425 51.18211 6.373252
355 100.0000 74.28650 24.78530 59.27842 58.02603 12.26574
356 100.0000 83.08380 42.92260 66.48603 69.12775 23.65814
357 100.0000 85.38670 68.13470 73.09810 74.10546 50.10118
358 0.636100 0.636100 0.636100 0.154595 0.152063 0.257653
359 1.282100 1.282100 1.282100 0.208678 0.209891 0.313493
360 0.000000 1.938000 0.000000 0.189019 0.242712 0.248556
361 0.000000 3.968300 0.000000 0.259156 0.379802 0.270158
362 0.000000 6.097600 0.000000 0.334351 0.526780 0.293317
363 14.05170 12.75030 0.000000 1.413853 1.619561 0.431098
364 23.19450 16.59780 31.93370 4.294201 3.372336 8.476551
365 35.05250 24.38850 42.79830 8.715431 6.814817 15.46452
366 53.27630 29.31330 42.49170 15.16362 11.36523 15.69405
367 66.14270 30.57040 51.77160 22.66002 15.43991 23.52885
368 70.32940 43.92540 62.66070 30.26563 23.44522 36.33062
369 0.000000 7.592700 11.71160 0.649937 0.736593 1.640693
370 34.22070 26.30690 14.85820 6.373186 6.362768 2.952575
371 61.76420 37.09120 25.47850 18.55457 15.66004 7.107407
372 37.37530 24.24010 0.000000 6.418784 6.008369 0.940183
373 43.29800 32.87620 45.37840 12.68838 10.93818 17.85349
374 66.58520 49.69400 69.60630 31.78779 26.62197 45.70626
375 74.05270 62.70440 69.26910 41.02914 38.94947 47.00410
376 38.79950 0.000000 15.31550 5.375288 2.849206 2.442628
377 37.25460 0.000000 35.67380 6.523264 3.218730 10.30229
378 39.88640 0.000000 49.54800 9.100453 4.285697 20.22449
379 72.49810 9.831300 52.18500 23.78789 12.55102 23.30896
380 0.000000 0.000000 0.000000 0.128264 0.123958 0.229843
381 3.968300 0.000000 0.000000 0.271324 0.199961 0.234931
382 22.71750 39.99620 0.000000 6.624561 10.44389 1.775547
383 23.97320 55.05450 0.000000 11.63490 19.98128 3.269727
384 50.62380 64.17740 0.000000 22.32975 31.26963 4.723165
385 67.58610 67.50470 0.000000 31.58681 38.49065 5.493177
386 84.74350 68.59640 0.000000 42.83972 45.24148 6.041221
387 100.0000 83.23310 0.000000 63.75464 68.26623 9.065250
388 100.0000 100.0000 55.89120 81.47078 94.88382 39.12584
389 0.000000 20.32440 16.65260 1.864484 2.802603 2.960655
390 0.000000 20.25560 27.35220 2.536799 3.041479 6.470240
391 0.000000 20.90930 36.96700 3.546580 3.539795 11.31287
392 0.000000 48.03260 59.95840 13.20650 16.30649 33.06902
393 33.45970 47.96850 74.24020 20.37415 19.51854 51.70278
394 82.64800 75.87100 100.0000 64.01165 59.01916 104.0535
395 100.0000 78.50070 100.0000 79.52167 69.42474 105.0196
396 12.22270 18.40790 0.000000 1.781238 2.532500 0.581544
397 18.93680 25.38020 17.24080 3.750355 4.752167 3.350237
398 21.10300 26.00890 39.62140 6.023224 5.793703 13.27006
399 51.09770 35.38950 40.54330 15.21244 13.11834 14.68688
400 68.61040 41.44030 39.23880 24.46376 20.06590 14.52821
401 100.0000 54.88350 63.72670 55.98083 42.38112 39.50522
402 100.0000 71.31720 73.68250 66.09379 58.04829 55.21218
403 6.097600 0.000000 0.000000 0.358434 0.246239 0.238028
404 8.333300 0.000000 0.000000 0.467821 0.304351 0.241918
405 10.68380 0.000000 0.000000 0.604183 0.376795 0.246768
406 0.000000 83.33330 0.000000 24.32219 47.41381 7.681456
407 0.000000 82.68660 48.02090 27.46958 47.90368 26.04140
