Apple/MacBook Pro 13' (2013 Late)/MacBookPro11,1 #1 2020-05-26 15-23 0.3127x 0.329y sRGB M-S 1xCurve+MTX/MacBookPro11,1 #1 2020-05-26 15-23 0.3127x 0.329y sRGB M-S 1xCurve+MTX.cal
CAL    

DESCRIPTOR "Argyll Device Calibration Curves"
ORIGINATOR "Argyll dispcal"
CREATED "Tue May 26 15:31:03 2020"
DEVICE_CLASS "DISPLAY"
COLOR_REP "RGB"
VIDEO_LUT_CALIBRATION_POSSIBLE "YES"
TV_OUTPUT_ENCODING "NO"
DEVICE_TYPE "n"
TARGET_WHITE_XYZ "329.023233 346.174108 377.003595"
TARGET_GAMMA "sRGB"
DEGREE_OF_BLACK_OUTPUT_OFFSET "1.0"
BLACK_POINT_CORRECTION "0.0"
BLACK_NEUTRAL_BLEND_RATE "4.0"
BLACK_POINT_HACK "YES"
QUALITY "medium"

BEGIN_ARGYLL_DISPCAL_ARGS
-v2 -d1 -c1 -yn -P0.501639344262,0.176923076923,1.49553571429 -F -qm -m -w0.3127,0.329 -gs -f1.0 -k0 -A4.0 -b
END_ARGYLL_DISPCAL_ARGS


NUMBER_OF_FIELDS 4
BEGIN_DATA_FORMAT
RGB_I RGB_R RGB_G RGB_B
END_DATA_FORMAT

NUMBER_OF_SETS 256
BEGIN_DATA
0.00000000 0.00000000 0.00000000 0.00000000
0.00392157 0.01828200 0.01862460 0.01849480
0.00784314 0.03273250 0.03327680 0.03288020
0.01176470 0.04435790 0.04495030 0.04432560
0.01568630 0.05376590 0.05424810 0.05357040
0.01960780 0.06158180 0.06190500 0.06118840
0.02352940 0.06826520 0.06842670 0.06763740
0.02745100 0.07415220 0.07415620 0.07326130
0.03137250 0.07946200 0.07931920 0.07827910
0.03529410 0.08433840 0.08407340 0.08285270
0.03921570 0.08890260 0.08853930 0.08710630
0.04313730 0.09323400 0.09279110 0.09112220
0.04705880 0.09737960 0.09686290 0.09494460
0.05098040 0.10138700 0.10080700 0.09863320
0.05490200 0.10526500 0.10462500 0.10220800
0.05882350 0.10902700 0.10833400 0.10568700
0.06274510 0.11270100 0.11196000 0.10910900
0.06666670 0.11628500 0.11549600 0.11247800
0.07058820 0.11978500 0.11894800 0.11580600
0.07450980 0.12324700 0.12235500 0.11913200
0.07843140 0.12667400 0.12571700 0.12245900
0.08235290 0.13005300 0.12902000 0.12577700
0.08627450 0.13338200 0.13226300 0.12908000
0.09019610 0.13668500 0.13547900 0.13239500
0.09411760 0.13999000 0.13869500 0.13573900
0.09803920 0.14329900 0.14191500 0.13912000
0.10196100 0.14661000 0.14514100 0.14253300
0.10588200 0.14991700 0.14836700 0.14596400
0.10980400 0.15322100 0.15159700 0.14940700
0.11372500 0.15653100 0.15484800 0.15287500
0.11764700 0.15986100 0.15813600 0.15637400
0.12156900 0.16321900 0.16146500 0.15990300
0.12549000 0.16660700 0.16484200 0.16346400
0.12941200 0.17002400 0.16826500 0.16704400
0.13333300 0.17344500 0.17170600 0.17060700
0.13725500 0.17686300 0.17515700 0.17414700
0.14117600 0.18027900 0.17862100 0.17767300
0.14509800 0.18369200 0.18209300 0.18118000
0.14902000 0.18708600 0.18556000 0.18465500
0.15294100 0.19048500 0.18904100 0.18812700
0.15686300 0.19390300 0.19254400 0.19160100
0.16078400 0.19733900 0.19606500 0.19507600
0.16470600 0.20079400 0.19960200 0.19856000
0.16862700 0.20427100 0.20315600 0.20204100
0.17254900 0.20774300 0.20669400 0.20549800
0.17647100 0.21120900 0.21021700 0.20893100
0.18039200 0.21466700 0.21372100 0.21235300
0.18431400 0.21813300 0.21722600 0.21577600
0.18823500 0.22161600 0.22073800 0.21919800
0.19215700 0.22511300 0.22425100 0.22261100
0.19607800 0.22860200 0.22773800 0.22598700
0.20000000 0.23206700 0.23119700 0.22934700
0.20392200 0.23552400 0.23464100 0.23269400
0.20784300 0.23899500 0.23809000 0.23604800
0.21176500 0.24248800 0.24155600 0.23941300
0.21568600 0.24600600 0.24503600 0.24278800
0.21960800 0.24954900 0.24853700 0.24619300
0.22352900 0.25313900 0.25208100 0.24963200
0.22745100 0.25675100 0.25563500 0.25306300
0.23137300 0.26035000 0.25917300 0.25647800
0.23529400 0.26393500 0.26269000 0.25988000
0.23921600 0.26750700 0.26619100 0.26326700
0.24313700 0.27106400 0.26967700 0.26664400
0.24705900 0.27462800 0.27317300 0.27003900
0.25098000 0.27822200 0.27669100 0.27345800
0.25490200 0.28185600 0.28024000 0.27689800
0.25882400 0.28552900 0.28381400 0.28035800
0.26274500 0.28923000 0.28740800 0.28382700
0.26666700 0.29292900 0.29098700 0.28727100
0.27058800 0.29659100 0.29452400 0.29067600
0.27451000 0.30023300 0.29804700 0.29407000
0.27843100 0.30387600 0.30157100 0.29746900
0.28235300 0.30751700 0.30509100 0.30087200
0.28627500 0.31114700 0.30860100 0.30426700
0.29019600 0.31475000 0.31209100 0.30763600
0.29411800 0.31834000 0.31557100 0.31098900
0.29803900 0.32193100 0.31905700 0.31434300
0.30196100 0.32553500 0.32255900 0.31771000
0.30588200 0.32915000 0.32607700 0.32109100
0.30980400 0.33278700 0.32962100 0.32449500
0.31372500 0.33647700 0.33322500 0.32795800
0.31764700 0.34019700 0.33686500 0.33146800
0.32156900 0.34391300 0.34050800 0.33498600
0.32549000 0.34762200 0.34414700 0.33850500
0.32941200 0.35132500 0.34778100 0.34202900
0.33333300 0.35502600 0.35141200 0.34555700
0.33725500 0.35872400 0.35503500 0.34908100
0.34117600 0.36243700 0.35866900 0.35261300
0.34509800 0.36615500 0.36230900 0.35615800
0.34902000 0.36984000 0.36592200 0.35969500
0.35294100 0.37348600 0.36949100 0.36319000
0.35686300 0.37713500 0.37305500 0.36665700
0.36078400 0.38078600 0.37662000 0.37012500
0.36470600 0.38443100 0.38017600 0.37358400
0.36862700 0.38808400 0.38372700 0.37703800
0.37254900 0.39175700 0.38729600 0.38051200
0.37647100 0.39545800 0.39089200 0.38401100
0.38039200 0.39918500 0.39451200 0.38753600
0.38431400 0.40293400 0.39815700 0.39108600
0.38823500 0.40666000 0.40180300 0.39465400
0.39215700 0.41031800 0.40539200 0.39818200
0.39607800 0.41390900 0.40891600 0.40164700
0.40000000 0.41745000 0.41238600 0.40506100
0.40392200 0.42097400 0.41583800 0.40844500
0.40784300 0.42448800 0.41929100 0.41183600
0.41176500 0.42802400 0.42275400 0.41523600
0.41568600 0.43159800 0.42626100 0.41867800
0.41960800 0.43520100 0.42981200 0.42216400
0.42352900 0.43882900 0.43339700 0.42568300
0.42745100 0.44249400 0.43702300 0.42923200
0.43137300 0.44618900 0.44069100 0.43282300
0.43529400 0.44987400 0.44438100 0.43645100
0.43921600 0.45353600 0.44805000 0.44007500
0.44313700 0.45720700 0.45171300 0.44368000
0.44705900 0.46090200 0.45539800 0.44729800
0.45098000 0.46461100 0.45910100 0.45093900
0.45490200 0.46831600 0.46280300 0.45458900
0.45882400 0.47203300 0.46650900 0.45823000
0.46274500 0.47575800 0.47022200 0.46187700
0.46666700 0.47949300 0.47394100 0.46552100
0.47058800 0.48324100 0.47766800 0.46916400
0.47451000 0.48701500 0.48141200 0.47281300
0.47843100 0.49082100 0.48518100 0.47648000
0.48235300 0.49467400 0.48899000 0.48017700
0.48627500 0.49860300 0.49285000 0.48391500
0.49019600 0.50264500 0.49681100 0.48771000
0.49411800 0.50671700 0.50084700 0.49161700
0.49803900 0.51077900 0.50487000 0.49555000
0.50196100 0.51483000 0.50887600 0.49946500
0.50588200 0.51886900 0.51286300 0.50336100
0.50980400 0.52288600 0.51682800 0.50723700
0.51372500 0.52687100 0.52075900 0.51108200
0.51764700 0.53082600 0.52465400 0.51488600
0.52156900 0.53475500 0.52851600 0.51864800
0.52549000 0.53865200 0.53235100 0.52237700
0.52941200 0.54253200 0.53616100 0.52607000
0.53333300 0.54640100 0.53996600 0.52974300
0.53725500 0.55022700 0.54375500 0.53341600
0.54117600 0.55399900 0.54749300 0.53706700
0.54509800 0.55773800 0.55119100 0.54066300
0.54902000 0.56146600 0.55488100 0.54422300
0.55294100 0.56519900 0.55857500 0.54779000
0.55686300 0.56895100 0.56229400 0.55137400
0.56078400 0.57271300 0.56603500 0.55499100
0.56470600 0.57645800 0.56978700 0.55863800
0.56862700 0.58014300 0.57349400 0.56229600
0.57254900 0.58377200 0.57714300 0.56591800
0.57647100 0.58737800 0.58076000 0.56949800
0.58039200 0.59096200 0.58437000 0.57306700
0.58431400 0.59451800 0.58796200 0.57663900
0.58823500 0.59804700 0.59153900 0.58020300
0.59215700 0.60156800 0.59511400 0.58375800
0.59607800 0.60508400 0.59869700 0.58732100
0.60000000 0.60858700 0.60227100 0.59089400
0.60392200 0.61207400 0.60583100 0.59446400
0.60784300 0.61555000 0.60937800 0.59803000
0.61176500 0.61900200 0.61291100 0.60159000
0.61568600 0.62242600 0.61642000 0.60512700
0.61960800 0.62584000 0.61992300 0.60862700
0.62352900 0.62927100 0.62345000 0.61210800
0.62745100 0.63272000 0.62699700 0.61560100
0.63137300 0.63618100 0.63055500 0.61910500
0.63529400 0.63968200 0.63414200 0.62262200
0.63921600 0.64324000 0.63777900 0.62618400
0.64313700 0.64688100 0.64149000 0.62980700
0.64705900 0.65061800 0.64529300 0.63351400
0.65098000 0.65446400 0.64920400 0.63732200
0.65490200 0.65842300 0.65321900 0.64123400
0.65882400 0.66249600 0.65733800 0.64524900
0.66274500 0.66668700 0.66156200 0.64936800
0.66666700 0.67089300 0.66578800 0.65358100
0.67058800 0.67501000 0.66991300 0.65774200
0.67451000 0.67903600 0.67392900 0.66179000
0.67843100 0.68296600 0.67782700 0.66572100
0.68235300 0.68679500 0.68161100 0.66953700
0.68627500 0.69054100 0.68530400 0.67324500
0.69019600 0.69423100 0.68893700 0.67686700
0.69411800 0.69788400 0.69253000 0.68044100
0.69803900 0.70151000 0.69609400 0.68397800
0.70196100 0.70512700 0.69964700 0.68751200
0.70588200 0.70873400 0.70317800 0.69105400
0.70980400 0.71232600 0.70668400 0.69459800
0.71372500 0.71594300 0.71020200 0.69815800
0.71764700 0.71958500 0.71373900 0.70175300
0.72156900 0.72325700 0.71730400 0.70537500
0.72549000 0.72697000 0.72090400 0.70902900
0.72941200 0.73069800 0.72451700 0.71270500
0.73333300 0.73442100 0.72811500 0.71636000
0.73725500 0.73815600 0.73171400 0.71999500
0.74117600 0.74190500 0.73531300 0.72362300
0.74509800 0.74567100 0.73891600 0.72723900
0.74902000 0.74948500 0.74254600 0.73084400
0.75294100 0.75335000 0.74622600 0.73447200
0.75686300 0.75723200 0.74992400 0.73811600
0.76078400 0.76113200 0.75363800 0.74175800
0.76470600 0.76504400 0.75736500 0.74540000
0.76862700 0.76896800 0.76110400 0.74904300
0.77254900 0.77288400 0.76484700 0.75269500
0.77647100 0.77677700 0.76857900 0.75633000
0.78039200 0.78066700 0.77230800 0.75994100
0.78431400 0.78457000 0.77606300 0.76356900
0.78823500 0.78849500 0.77984300 0.76723300
0.79215700 0.79246300 0.78367200 0.77094400
0.79607800 0.79647000 0.78755900 0.77472000
0.80000000 0.80051200 0.79149600 0.77855900
0.80392200 0.80453500 0.79546700 0.78245500
0.80784300 0.80848400 0.79939600 0.78635600
0.81176500 0.81236400 0.80327100 0.79021100
0.81568600 0.81619200 0.80709600 0.79401800
0.81960800 0.81999500 0.81089200 0.79778500
0.82352900 0.82380400 0.81469600 0.80153000
0.82745100 0.82761300 0.81851100 0.80528500
0.83137300 0.83142600 0.82232900 0.80904400
0.83529400 0.83525400 0.82616100 0.81280700
0.83921600 0.83910100 0.83001800 0.81658100
0.84313700 0.84296100 0.83389000 0.82035400
0.84705900 0.84682800 0.83776600 0.82412100
0.85098000 0.85072500 0.84165600 0.82787800
0.85490200 0.85466000 0.84558500 0.83165700
0.85882400 0.85862700 0.84955300 0.83546800
0.86274500 0.86256200 0.85352700 0.83931100
0.86666700 0.86644300 0.85745200 0.84313200
0.87058800 0.87028700 0.86133300 0.84690800
0.87451000 0.87410000 0.86518900 0.85065100
0.87843100 0.87791200 0.86902700 0.85437200
0.88235300 0.88174200 0.87288000 0.85809600
0.88627500 0.88560200 0.87676100 0.86184800
0.89019600 0.88949400 0.88067900 0.86563800
0.89411800 0.89337800 0.88460600 0.86947400
0.89803900 0.89723700 0.88849900 0.87331200
0.90196100 0.90108100 0.89236300 0.87713300
0.90588200 0.90493400 0.89622200 0.88094800
0.90980400 0.90880600 0.90009200 0.88479600
0.91372500 0.91266900 0.90396200 0.88868400
0.91764700 0.91650300 0.90779500 0.89257300
0.92156900 0.92033800 0.91161100 0.89644100
0.92549000 0.92418200 0.91544000 0.90032800
0.92941200 0.92801200 0.91926300 0.90423800
0.93333300 0.93183800 0.92307800 0.90814400
0.93725500 0.93566600 0.92689900 0.91206500
0.94117600 0.93949500 0.93072500 0.91599800
0.94509800 0.94333800 0.93457300 0.91994800
0.94902000 0.94719700 0.93844000 0.92391800
0.95294100 0.95107500 0.94233200 0.92790100
0.95686300 0.95497500 0.94624900 0.93189600
0.96078400 0.95889200 0.95019300 0.93590600
0.96470600 0.96282800 0.95416200 0.93993600
0.96862700 0.96678500 0.95815700 0.94398700
0.97254900 0.97076100 0.96217200 0.94805600
0.97647100 0.97475300 0.96620300 0.95213900
0.98039200 0.97876200 0.97025000 0.95623800
0.98431400 0.98278700 0.97431400 0.96035300
0.98823500 0.98682900 0.97839300 0.96448400
0.99215700 0.99088800 0.98249000 0.96863000
0.99607800 0.99496400 0.98660300 0.97279200
1.00000000 0.99905700 0.99073200 0.97696900
END_DATA
CAL    

DESCRIPTOR "Argyll Calibration options and model"
ORIGINATOR "Argyll dispcal"
CREATED "Tue May 26 15:31:03 202"

NUMBER_OF_FIELDS 3
BEGIN_DATA_FORMAT
R_P G_P B_P
END_DATA_FORMAT

NUMBER_OF_SETS 32
BEGIN_DATA
0.000188643 0.000726752 0.001640740
0.999811000 0.999273000 0.998359000
1.676000000 1.616247000 1.889811000
0.624544000 0.514506000 0.290944000
0.095271700 0.158254000 0.209545000
0.149545000 0.120518000 0.156759000
0.129356000 0.158771000 0.132457000
0.075937200 0.101957000 0.114164000
0.058516300 0.094135400 0.102488000
0.074356800 0.051772900 0.089313000
0.071024200 0.073596600 0.082985900
0.063407800 0.082169700 0.076482400
0.057257900 0.069097200 0.064902700
0.046910900 0.046657300 0.068618800
0.053286100 0.063711100 0.061745600
0.048550100 0.057521100 0.052554200
0.046087400 0.051242600 0.050994300
0.044351300 0.051647800 0.052802000
0.041943200 0.049341100 0.045461100
0.036900400 0.045802200 0.048556900
0.034721400 0.047065000 0.034810000
0.033973400 0.042931400 0.043274500
0.031948200 0.041923200 0.039236300
0.030573900 0.037176800 0.029370800
0.028171500 0.036792900 0.039042800
0.026708300 0.034198700 0.032676500
0.024979900 0.034834800 0.031237900
0.023005800 0.036159600 0.032315700
0.020609500 0.031190000 0.025856600
0.019103600 0.031247000 0.021468300
0.018704900 0.032236600 0.022754400
0.017881000 0.029116900 0.027756700
END_DATA
