Apple/MacBook Pro 13' (2013 Late)/MacBookPro11,1 #1 2020-05-26 15-23 0.3127x 0.329y sRGB M-S 1xCurve+MTX/MacBookPro11,1 #1 2020-05-26 15-23 0.3127x 0.329y sRGB M-S 1xCurve+MTX.ti3
CTI3   

DESCRIPTOR "Argyll Calibration Target chart information 3"
ORIGINATOR "Argyll dispread"
CREATED "Tue May 26 15:31:53 2020"
DEVICE_CLASS "DISPLAY"
SINGLE_DIM_STEPS "25"
COMP_GREY_STEPS "73"
DARK_REGION_EMPHASIS "1.6"
COLOR_REP "RGB_XYZ"
TARGET_INSTRUMENT "X-Rite i1 DisplayPro, ColorMunki Display"
DISPLAY_TYPE_REFRESH "NO"
DISPLAY_TYPE_BASE_ID "1"
INSTRUMENT_TYPE_SPECTRAL "NO"
LUMINANCE_XYZ_CDM2 "328.960389 345.554802 380.011882"
NORMALIZED_TO_Y_100 "YES"
VIDEO_LUT_CALIBRATION_POSSIBLE "YES"

BEGIN_ARGYLL_COLPROF_ARGS
-v -qh -aS -C "No copyright. Created with DisplayCAL 3.8.9.3 and ArgyllCMS 2.1.2" -M "MacBookPro11,1" -A "Apple Computer Inc"
END_ARGYLL_COLPROF_ARGS

OBSERVER "1931_2"
USE_BLACK_POINT_COMPENSATION "YES"
BLACK_POINT_CORRECTION "0.0"
HIRES_B2A "YES"
HIRES_B2A_SIZE "-1"
SMOOTH_B2A "YES"
PATCH_SEQUENCE "OPTIMIZE_DISPLAY_RESPONSE_DELAY"

NUMBER_OF_FIELDS 7
BEGIN_DATA_FORMAT
SAMPLE_ID RGB_R RGB_G RGB_B XYZ_X XYZ_Y XYZ_Z
END_DATA_FORMAT

NUMBER_OF_SETS 825
BEGIN_DATA
1 100.0000 100.0000 100.0000 95.19775 100.0000 109.9715
2 1.960800 1.960800 1.960800 0.288149 0.294467 0.398887
3 3.921600 3.921600 3.921600 0.449623 0.467488 0.575883
4 5.882400 5.882400 5.882400 0.614077 0.633516 0.749650
5 9.803900 9.803900 9.803900 1.101623 1.130027 1.342014
6 13.72600 13.72600 13.72600 1.786312 1.871818 2.174667
7 17.64700 17.64700 17.64700 2.656677 2.807586 3.106443
8 21.56900 21.56900 21.56900 3.789579 3.985720 4.455236
9 25.49000 25.49000 25.49000 5.175451 5.448068 6.063353
10 29.41200 29.41200 29.41200 6.757803 7.155669 7.793814
11 33.33300 33.33300 33.33300 8.750393 9.216544 10.04539
12 37.25500 37.25500 37.25500 10.88075 11.46145 12.48047
13 41.17600 41.17600 41.17600 13.31265 13.99893 15.45515
14 45.09800 45.09800 45.09800 16.15438 16.93790 18.54028
15 49.02000 49.02000 49.02000 19.32077 20.39920 22.12410
16 52.94100 52.94100 52.94100 23.01667 24.19848 26.31034
17 56.86300 56.86300 56.86300 26.90803 28.26341 31.10289
18 60.78400 60.78400 60.78400 31.13509 32.81055 36.00839
19 64.70600 64.70600 64.70600 35.65616 37.58821 41.02324
20 68.62700 68.62700 68.62700 40.76155 42.95040 47.02872
21 72.54900 72.54900 72.54900 45.88033 48.22093 52.86749
22 76.47100 76.47100 76.47100 51.53089 54.27981 59.86608
23 80.39200 80.39200 80.39200 57.85048 60.64506 66.63964
24 84.31400 84.31400 84.31400 64.28955 67.59583 74.46595
25 88.23500 88.23500 88.23500 71.37764 75.10946 82.18182
26 92.15700 92.15700 92.15700 79.15561 83.34238 91.32885
27 96.07800 96.07800 96.07800 87.22364 91.83260 100.2008
28 31.28150 40.89400 76.08020 18.46288 15.53124 53.79349
29 40.12970 62.94790 78.37870 29.17809 32.44836 59.57859
30 38.68330 67.68800 76.80270 30.68843 36.62529 57.75577
31 67.01110 68.04710 78.02530 42.24116 43.04821 60.32688
32 71.16160 81.32250 91.13330 56.23128 60.02011 85.69687
33 100.0000 29.62290 0.000000 41.93142 26.10129 2.311001
34 100.0000 38.60590 23.97240 44.83942 30.26620 7.604490
35 82.37940 24.24020 0.000000 26.64367 16.73137 1.544976
36 84.96900 100.0000 0.000000 63.63214 85.86851 12.26659
37 100.0000 100.0000 0.000000 75.97581 92.52734 12.73967
38 100.0000 100.0000 23.35290 77.01568 93.01014 17.46165
39 100.0000 100.0000 41.01620 78.88792 93.76590 26.96025
40 13.15790 0.000000 0.000000 0.752005 0.455470 0.249248
41 15.76580 0.000000 0.000000 0.975854 0.574663 0.256408
42 18.51850 0.000000 0.000000 1.224496 0.706468 0.264067
43 21.42860 0.000000 0.000000 1.579481 0.895108 0.275238
44 24.50980 0.000000 0.000000 1.905866 1.068779 0.285448
45 27.77780 0.000000 0.000000 2.525669 1.398318 0.305106
46 31.25000 0.000000 0.000000 3.152565 1.731337 0.325346
47 34.94620 0.000000 0.000000 3.829711 2.091021 0.346534
48 38.88890 0.000000 0.000000 4.845188 2.631994 0.378478
49 43.10350 0.000000 0.000000 5.985051 3.235858 0.410341
50 47.61910 0.000000 0.000000 7.236242 3.903485 0.454986
51 52.46910 0.000000 0.000000 9.196909 4.943058 0.516176
52 57.69230 0.000000 0.000000 11.24531 6.033807 0.582672
53 63.33330 0.000000 0.000000 13.79763 7.388690 0.663897
54 69.44440 0.000000 0.000000 16.84864 9.011805 0.762464
55 76.08700 0.000000 0.000000 20.56231 10.98440 0.881614
56 83.33330 0.000000 0.000000 25.61912 13.67232 1.047465
57 82.52630 51.11080 33.97810 35.05153 30.04536 12.81065
58 100.0000 76.66610 68.42610 67.56152 63.28629 49.00524
59 100.0000 89.97880 82.01410 80.35238 81.93474 72.33184
60 0.000000 0.000000 18.51850 0.652273 0.328135 2.934973
61 0.000000 0.000000 21.42860 0.832951 0.397632 3.866495
62 46.98710 28.76060 64.06380 16.60609 11.40473 36.09841
63 59.59400 31.87750 71.25760 24.25292 15.99341 46.45306
64 59.77500 45.91760 79.26620 30.05766 23.61118 59.25166
65 0.000000 15.76580 0.000000 0.902670 1.629997 0.456389
66 0.000000 18.51850 0.000000 1.136909 2.087197 0.526200
67 0.000000 21.42860 0.000000 1.512242 2.818019 0.637057
68 0.000000 24.50980 0.000000 1.840678 3.458000 0.733402
69 0.000000 27.77780 0.000000 2.363086 4.491248 0.890461
70 0.000000 31.25000 0.000000 2.932528 5.603130 1.059172
71 0.000000 34.94620 0.000000 3.597369 6.876382 1.254651
72 0.000000 38.88890 0.000000 4.542940 8.722294 1.533675
73 0.000000 43.10350 0.000000 5.538179 10.67647 1.831862
74 0.000000 47.61910 0.000000 6.867347 13.22296 2.220400
75 0.000000 52.46910 0.000000 8.560546 16.57048 2.734214
76 0.000000 57.69230 0.000000 10.51134 20.39222 3.315488
77 0.000000 63.33330 0.000000 12.99481 25.23932 4.064132
78 0.000000 69.44440 0.000000 15.97883 31.04677 4.957679
79 0.000000 76.08700 0.000000 19.45870 37.84809 6.010007
80 28.71160 80.94680 0.000000 24.92557 44.77414 6.954899
81 39.06740 100.0000 23.28940 42.59849 74.57415 15.97332
82 59.58600 100.0000 45.68350 52.53349 79.52882 28.93900
83 0.000000 0.000000 1.938000 0.155831 0.134960 0.376250
84 0.000000 0.000000 3.968300 0.185775 0.146635 0.529752
85 0.000000 0.000000 6.097600 0.222248 0.160952 0.717928
86 0.000000 0.000000 8.333300 0.261432 0.176508 0.920647
87 0.000000 0.000000 10.68380 0.343298 0.208415 1.338617
88 0.000000 0.000000 13.15790 0.436334 0.244750 1.822179
89 0.000000 18.11530 68.39880 8.986813 5.134786 40.83935
90 21.55770 29.73280 76.72520 14.50059 9.970268 53.65065
91 96.99450 96.99450 96.99450 88.74410 93.37751 102.0393
92 100.0000 100.0000 100.0000 95.18355 99.99057 110.0266
93 0.000000 0.000000 24.50980 0.998910 0.461334 4.721786
94 0.000000 0.000000 27.77780 1.271186 0.566114 6.126150
95 0.000000 0.000000 31.25000 1.586044 0.687004 7.745756
96 0.000000 0.000000 34.94620 1.917964 0.814510 9.457682
97 0.000000 0.000000 38.88890 2.387242 0.994581 11.88712
98 0.000000 0.000000 43.10350 2.877219 1.181227 14.41264
99 0.000000 0.000000 47.61910 3.495173 1.419841 17.59705
100 0.000000 0.000000 57.69230 5.398057 2.146172 27.42467
101 0.000000 0.000000 63.33330 6.697187 2.638460 34.12275
102 0.000000 0.000000 69.44440 8.229065 3.222440 42.02875
103 0.000000 0.000000 76.08700 10.07861 3.922513 51.58176
104 0.000000 0.000000 83.33330 12.43655 4.795734 63.71478
105 0.000000 33.84300 100.0000 22.29393 13.87635 97.75995
106 0.000000 46.00370 100.0000 25.30440 19.72731 98.69218
107 100.0000 44.94920 68.94200 53.94838 36.51537 45.90375
108 100.0000 44.12250 83.14970 57.95651 37.71327 67.31153
109 1.938000 1.938000 1.938000 0.288051 0.294362 0.399204
110 2.604200 2.604200 2.604200 0.365776 0.369833 0.469663
111 3.280800 3.280800 3.280800 0.397103 0.404009 0.505596
112 3.968300 3.968300 3.968300 0.449336 0.467307 0.576148
113 4.666700 4.666700 4.666700 0.522018 0.543877 0.665422
114 5.376300 5.376300 5.376300 0.574391 0.591199 0.706615
115 6.097600 6.097600 6.097600 0.637770 0.667168 0.793917
116 6.830600 6.830600 6.830600 0.682060 0.713687 0.844583
117 7.575800 7.575800 7.575800 0.764590 0.779926 0.953274
118 8.333300 8.333300 8.333300 0.843570 0.884130 1.027421
119 9.103600 9.103600 9.103600 0.982185 1.030773 1.183826
120 9.887000 9.887000 9.887000 1.100724 1.129304 1.341207
121 10.68380 10.68380 10.68380 1.215477 1.270152 1.504371
122 11.49420 11.49420 11.49420 1.357676 1.428718 1.620611
123 12.31880 12.31880 12.31880 1.492776 1.541878 1.799401
124 13.15790 13.15790 13.15790 1.696454 1.776803 2.070145
125 14.01180 14.01180 14.01180 1.863053 1.964234 2.187513
126 14.88100 14.88100 14.88100 2.053934 2.166570 2.405244
127 15.76580 15.76580 15.76580 2.206139 2.295485 2.608158
128 16.66670 16.66670 16.66670 2.462245 2.584140 2.975582
129 17.58410 17.58410 17.58410 2.654356 2.805850 3.107291
130 18.51850 18.51850 18.51850 2.835840 2.955751 3.363054
131 19.47040 19.47040 19.47040 3.150150 3.302107 3.787060
132 20.44020 20.44020 20.44020 3.372371 3.552963 3.949769
133 21.42860 21.42860 21.42860 3.765572 3.976188 4.457456
134 22.43590 22.43590 22.43590 4.033843 4.200602 4.769680
135 23.46280 23.46280 23.46280 4.372917 4.609758 5.147111
136 24.50980 24.50980 24.50980 4.634672 4.895210 5.461383
137 25.57760 25.57760 25.57760 5.151789 5.439438 6.069967
138 26.66670 26.66670 26.66670 5.581280 5.845035 6.473625
139 27.77780 27.77780 27.77780 6.106854 6.415422 7.108172
140 28.91160 28.91160 28.91160 6.562180 6.953239 7.576622
141 30.06870 30.06870 30.06870 7.066848 7.403930 8.248560
142 31.25000 31.25000 31.25000 7.694746 8.059554 8.992461
143 32.45610 32.45610 32.45610 8.288266 8.735399 9.531400
144 33.68790 33.68790 33.68790 8.950631 9.401105 10.31577
145 34.94620 34.94620 34.94620 9.408352 9.887369 11.00338
146 36.23190 36.23190 36.23190 10.10104 10.61465 11.60081
147 37.54580 37.54580 37.54580 11.14033 11.75504 12.81402
148 38.88890 38.88890 38.88890 11.95554 12.55028 13.85986
149 40.26220 40.26220 40.26220 12.77666 13.46474 14.79763
150 41.66670 41.66670 41.66670 13.59857 14.30286 15.78909
151 43.10350 43.10350 43.10350 14.64879 15.37281 16.78096
152 44.57360 44.57360 44.57360 15.87461 16.64043 18.21344
153 46.07840 46.07840 46.07840 16.64812 17.53880 19.37165
154 47.61910 47.61910 47.61910 17.93908 18.94209 20.53043
155 49.19680 49.19680 49.19680 19.31978 20.41566 22.18399
156 50.81300 50.81300 50.81300 21.16450 22.28916 24.00217
157 52.46910 52.46910 52.46910 22.61254 23.78624 25.93009
158 54.16670 54.16670 54.16670 24.08059 25.38166 27.85935
159 55.90720 55.90720 55.90720 26.22749 27.67022 30.28485
160 57.69230 57.69230 57.69230 27.73071 29.18023 31.82716
161 59.52380 59.52380 59.52380 29.94998 31.48010 34.47174
162 61.40350 61.40350 61.40350 31.94843 33.51468 37.11523
163 63.33330 63.33330 63.33330 34.18039 36.00694 39.43286
164 65.31530 65.31530 65.31530 36.65362 38.66529 42.46456
165 67.35160 67.35160 67.35160 39.06276 41.20254 45.33021
166 69.44440 69.44440 69.44440 41.82256 44.12491 48.47195
167 71.59620 71.59620 71.59620 44.79138 47.07415 51.83094
168 73.80950 73.80950 73.80950 47.41445 49.95066 55.13900
169 76.08700 76.08700 76.08700 50.94698 53.67029 59.32727
170 78.43140 78.43140 78.43140 54.35479 57.11076 62.96278
171 80.84580 80.84580 80.84580 58.53284 61.36974 67.59022
172 83.33330 83.33330 83.33330 62.93135 66.12769 72.99264
173 85.89740 85.89740 85.89740 67.11337 70.53734 78.06253
174 88.54170 88.54170 88.54170 72.10197 75.90242 83.19114
175 91.26980 91.26980 91.26980 77.71731 81.78952 89.63886
176 94.08600 94.08600 94.08600 83.21840 87.53040 96.25087
177 100.0000 0.000000 32.38980 40.85507 21.53798 9.893717
178 100.0000 0.000000 45.16150 42.42689 22.14028 17.95476
179 91.26980 0.000000 0.000000 31.76269 16.94750 1.258252
180 100.0000 0.000000 0.000000 39.17442 20.88053 1.527773
181 100.0000 0.000000 17.75280 39.72725 21.09718 4.147674
182 100.0000 22.71230 30.68470 42.35742 24.63789 9.579169
183 100.0000 39.75700 51.83390 48.47645 32.02343 25.17796
184 18.88350 27.77800 0.000000 3.569240 5.162863 0.936863
185 32.34640 32.79880 0.000000 6.572607 8.092578 1.280343
186 46.69860 53.16780 35.86270 18.09505 22.14997 13.04731
187 49.34880 56.55630 64.38330 25.31049 26.92586 39.14094
188 58.68580 56.49050 71.34310 31.12457 29.76847 48.72432
189 79.31990 52.21870 81.83210 43.68204 33.80838 65.15434
190 100.0000 60.10890 86.93730 65.04551 49.50718 75.65089
191 100.0000 62.33620 100.0000 71.24906 53.36054 102.4045
192 13.66450 0.000000 10.50350 1.011347 0.563168 1.376574
193 21.48480 6.693300 12.87260 2.132611 1.459886 1.905621
194 0.000000 0.000000 15.76580 0.526751 0.279483 2.286894
195 10.23120 6.775800 21.78670 1.542057 1.079977 4.160869
196 12.87330 35.19490 34.12930 6.212560 8.264318 10.43212
197 34.07220 44.10490 48.44880 13.41591 14.87613 21.13626
198 47.75610 47.15130 73.31130 23.79257 21.04297 50.28476
199 100.0000 76.45810 87.84730 73.59279 65.65012 79.80622
200 100.0000 86.31870 87.52720 79.56577 77.56381 81.01500
201 100.0000 90.90290 100.0000 88.12281 86.25668 107.7039
202 0.000000 8.333300 0.000000 0.404630 0.661758 0.310444
203 21.48510 9.309000 0.000000 1.926656 1.554104 0.374528
204 33.38930 13.19240 0.000000 4.213798 3.155521 0.518888
205 52.69380 82.62360 0.000000 32.83241 50.79599 7.562787
206 81.66410 100.0000 43.27930 64.44241 85.93216 27.43453
207 0.000000 0.000000 52.46910 4.409577 1.767178 22.31867
208 24.35670 0.000000 54.31380 6.693851 2.911310 24.77784
209 27.15190 0.000000 76.25190 12.48625 5.185076 52.00613
210 47.90710 18.90550 85.76430 22.09172 11.36520 69.34223
211 47.80520 23.36970 100.0000 28.25850 14.57525 97.73547
212 0.000000 89.38080 100.0000 47.17841 62.43776 105.5100
213 29.14680 89.72320 100.0000 50.42779 64.74976 105.8841
214 0.000000 0.000000 0.000000 0.127986 0.123657 0.229902
215 34.59530 68.01990 0.000000 19.03089 31.62864 4.862488
216 72.00010 69.88250 44.44650 38.26471 43.24377 21.61786
217 75.13610 78.52880 56.54400 46.70085 53.79404 34.53549
218 81.37380 77.82920 67.78410 53.27354 56.22436 47.95015
219 38.95830 49.63190 0.000000 12.57052 17.51512 2.641075
220 42.81200 53.97380 44.09780 18.36215 22.55111 18.60470
221 51.01330 60.67670 54.74750 25.90831 30.18676 29.50706
222 100.0000 64.84510 57.03910 58.73054 50.30985 33.68800
223 100.0000 89.60350 61.20510 74.23858 79.02721 43.06291
224 100.0000 100.0000 69.43480 84.55329 95.89222 56.38790
225 0.000000 57.22310 61.80420 16.78951 22.77082 35.68161
226 0.000000 63.16940 79.26250 23.96587 29.45779 60.54301
227 0.000000 75.83920 82.57250 31.64583 42.52257 68.72969
228 0.000000 33.23860 82.32600 15.45902 11.20801 63.00634
229 86.26340 40.08580 100.0000 51.90454 31.78268 99.47788
230 100.0000 46.94340 100.0000 65.37806 41.90708 100.6519
231 55.65570 0.000000 46.49220 13.92345 6.959884 18.02562
232 61.97800 0.000000 61.96190 19.58923 9.524630 33.05134
233 64.28320 0.000000 79.73500 25.49787 11.94552 57.75045
234 65.51090 38.44010 100.0000 38.68517 24.23698 98.89330
235 0.000000 57.43850 100.0000 29.39637 27.68455 100.0282
236 0.000000 69.23220 100.0000 35.07405 38.76016 101.7224
237 0.000000 79.28650 100.0000 40.25422 48.86657 103.4080
238 0.000000 100.0000 100.0000 55.44397 78.59292 108.2949
239 41.14570 61.90360 14.80030 18.24917 27.17488 6.049635
240 29.45930 100.0000 0.000000 39.31124 72.82302 11.48395
241 51.48480 100.0000 0.000000 45.53527 76.14903 11.66508
242 68.85940 100.0000 0.000000 53.50471 80.41980 11.94494
243 84.42830 100.0000 25.51960 64.22498 86.06660 17.81558
244 0.000000 83.23780 65.05820 30.97223 49.20676 44.04851
245 0.000000 100.0000 72.82040 45.77558 74.93776 58.77376
246 31.44190 100.0000 77.64480 50.51598 77.35299 66.16649
247 88.00960 100.0000 89.29520 80.62665 92.82519 87.74490
248 0.000000 22.70190 12.17820 1.912802 3.178999 2.066758
249 19.59820 61.80650 25.61130 14.69321 25.17930 9.182334
250 29.81700 64.15160 38.71420 18.86652 28.96571 16.50488
251 58.62830 70.49850 44.70870 32.04984 40.44142 21.77582
252 37.52290 55.92210 64.27410 21.81445 25.04853 38.99787
253 57.02940 68.61900 66.41240 34.53937 39.72595 43.83465
254 30.31540 52.11580 39.95110 14.01929 19.24167 15.53566
255 40.71810 78.52530 39.10610 28.69516 44.52239 18.92584
256 40.67270 76.39110 57.55720 30.81568 43.85724 34.44648
257 67.79490 87.99980 74.76300 53.54870 65.78471 59.71102
258 0.000000 32.37600 44.67860 6.290418 7.387206 16.82961
259 0.000000 31.74310 56.56220 8.270193 7.897257 27.75237
260 0.000000 13.72460 53.07620 5.181702 3.073931 23.15378
261 51.21240 15.95560 52.99850 14.33752 8.228311 23.87032
262 68.45770 15.51530 59.09530 23.31835 12.76112 30.73880
263 15.70430 38.98080 21.86760 6.292783 9.710389 5.513221
264 26.46080 39.54470 28.68790 8.263782 10.87602 8.218100
265 46.79030 39.70850 100.0000 30.92737 20.38731 98.67227
266 31.60630 0.000000 100.0000 22.09705 8.831062 96.90823
267 30.15180 79.79030 100.0000 43.68942 51.23499 103.7252
268 54.89290 100.0000 100.0000 66.15866 84.37136 108.8881
269 83.12640 40.05950 0.000000 30.21421 22.88645 2.462649
270 84.86570 54.04310 0.000000 35.82770 32.21707 3.834069
271 85.97680 62.21810 16.29310 40.66845 39.50207 7.296928
272 100.0000 65.36900 34.79570 55.57630 49.64934 15.79601
273 100.0000 74.98390 50.84990 62.65929 59.89171 28.89415
274 64.12910 18.75960 0.000000 15.36912 9.756039 1.000102
275 64.31110 24.95320 21.47070 17.07958 11.74013 5.070138
276 69.51550 25.82790 32.68140 20.79356 13.80465 9.720280
277 0.000000 91.26980 0.000000 29.77208 58.03805 9.202773
278 0.000000 100.0000 44.40300 39.61473 72.54501 27.20432
279 0.000000 100.0000 59.41380 42.46831 73.66048 41.80871
280 26.97220 100.0000 60.47310 45.21301 75.16377 43.16692
281 0.000000 63.86050 53.89740 18.01139 27.75650 28.04707
282 45.12390 75.31030 74.00700 35.69046 44.88603 55.45319
283 48.12080 77.39130 100.0000 47.08371 50.93827 103.5033
284 66.55150 87.32860 100.0000 61.89564 68.50925 105.9369
285 73.65960 100.0000 100.0000 75.35370 89.28068 109.2699
286 100.0000 100.0000 100.0000 95.09020 99.89666 110.0814
287 0.000000 50.00600 45.26140 11.00216 16.43663 18.61452
288 13.98220 56.69330 56.09680 16.29928 22.54113 29.85554
289 67.21130 57.21490 58.28580 32.07108 31.23269 32.95021
290 52.18150 0.000000 14.08620 9.430286 5.021846 2.250028
291 67.86790 0.000000 13.61320 16.38003 8.713963 2.483570
292 75.92930 0.000000 26.11570 21.70350 11.44214 6.258444
293 100.0000 0.000000 69.75130 47.66193 24.13585 44.96692
294 100.0000 0.000000 83.31030 51.63903 25.62459 65.22512
295 100.0000 25.58860 84.33060 54.24330 29.89748 68.22695
296 46.44320 39.12810 0.000000 11.40764 12.50435 1.779262
297 50.78740 47.96930 26.32940 16.95018 18.92142 8.057960
298 53.39510 83.80030 29.83400 35.60519 53.39254 14.95440
299 0.000000 49.33310 19.24590 8.158359 14.87134 5.482347
300 0.000000 49.65050 33.39750 9.395689 15.58063 11.10678
301 0.000000 100.0000 86.77060 50.11329 76.58530 80.95403
302 26.30010 100.0000 90.22280 53.87476 78.45963 88.18764
303 30.80580 100.0000 100.0000 58.78160 80.44841 108.6600
304 100.0000 21.57900 14.58440 41.08686 23.93990 3.877159
305 100.0000 40.81490 38.50600 46.79867 31.86784 15.19149
306 0.000000 10.68380 0.000000 0.542196 0.928760 0.351370
307 0.000000 13.15790 0.000000 0.724684 1.283499 0.404714
308 24.78820 16.60410 20.27690 3.545791 3.090593 3.854639
309 25.47100 18.92660 74.58380 12.92153 7.030251 50.16057
310 0.000000 9.707100 37.69130 2.605293 1.646124 11.23477
311 55.59830 19.40760 40.21160 14.26783 8.900813 13.87317
312 55.05480 43.16190 66.58440 23.54300 19.47735 41.13271
313 82.08700 0.000000 38.07540 27.07798 14.12775 12.50014
314 100.0000 0.000000 57.20740 44.58155 22.95462 29.09995
315 100.0000 27.17420 56.98690 46.93699 27.41363 30.01881
316 26.74570 0.000000 22.68310 3.119131 1.602914 4.291847
317 35.22330 14.47210 22.99780 5.548815 3.921764 4.796718
318 43.35380 0.000000 27.47490 7.311725 3.779087 6.272807
319 59.44200 0.000000 27.69830 13.45095 7.033446 6.689481
320 78.21600 0.000000 100.0000 40.96120 18.84778 97.66799
321 100.0000 0.000000 100.0000 58.10981 27.96336 98.38385
322 100.0000 26.15050 100.0000 60.40363 32.28002 99.19126
323 0.000000 100.0000 0.000000 36.48905 71.23434 11.38175
324 0.000000 100.0000 25.46530 37.58303 71.74700 16.71749
325 31.24280 100.0000 38.87460 42.26270 74.15131 23.94597
326 39.54930 100.0000 52.29260 46.30331 76.01020 34.30990
327 59.11800 100.0000 79.68800 60.32672 82.47541 69.78734
328 0.000000 0.000000 91.26980 15.28579 5.847031 78.42816
329 0.000000 0.000000 100.0000 18.82455 7.097063 96.70915
330 0.000000 19.52040 100.0000 20.04331 9.451031 97.17004
331 47.55600 53.37610 100.0000 35.64927 29.08775 100.0662
332 21.14110 0.000000 36.03790 3.470073 1.619667 10.16753
333 26.22140 9.483700 46.29980 5.984122 3.231298 17.58942
334 0.000000 11.02600 29.19940 1.816307 1.483861 6.725871
335 0.000000 35.80580 28.78920 5.076683 7.831532 7.747476
336 0.000000 40.80560 44.34830 8.046173 10.88267 17.13647
337 0.000000 55.56790 81.75680 21.79562 23.96755 63.72880
338 33.24220 57.90630 90.73870 29.66564 29.00106 80.79718
339 57.42820 0.000000 100.0000 30.20975 13.12997 97.29636
340 62.86860 19.32640 100.0000 33.99577 16.83132 97.85063
341 67.10700 65.57290 100.0000 49.33547 43.75931 102.0283
342 85.01870 65.70150 100.0000 60.67181 50.03584 102.5104
343 64.47960 42.80550 0.000000 19.75569 18.22797 2.291175
344 76.36170 65.39430 17.52630 35.77535 39.10222 7.786529
345 54.31810 51.91970 0.000000 18.31769 21.57284 3.017143
346 68.60170 54.85520 0.000000 26.20197 27.55129 3.604697
347 80.99140 75.48550 10.64970 43.91581 50.58698 7.957150
348 62.64860 69.87530 33.79340 32.05761 40.09034 14.73014
349 75.19820 82.36590 39.52490 46.30038 57.50337 20.57963
350 0.000000 44.32820 65.26910 13.07691 14.29160 38.45578
351 0.000000 44.01250 79.81190 17.12347 15.66139 59.70088
352 0.000000 85.76140 81.85610 37.70079 54.79814 69.39333
353 100.0000 49.26860 0.000000 46.82920 35.78770 3.805235
354 100.0000 67.85250 0.000000 54.53680 50.80323 6.116762
355 100.0000 74.28650 24.78530 58.93101 57.69036 12.19499
356 100.0000 83.08380 42.92260 66.24161 68.97513 23.65725
357 100.0000 85.38670 68.13470 73.10406 74.16338 50.97315
358 0.636100 0.636100 0.636100 0.178409 0.176509 0.287078
359 1.282100 1.282100 1.282100 0.218367 0.220747 0.321965
360 0.000000 1.938000 0.000000 0.190131 0.244961 0.247747
361 0.000000 3.968300 0.000000 0.252743 0.367749 0.266221
362 0.000000 6.097600 0.000000 0.326344 0.509530 0.287706
363 14.05170 12.75030 0.000000 1.408466 1.620057 0.421438
364 23.19450 16.59780 31.93370 4.224947 3.320712 8.516629
365 35.05250 24.38850 42.79830 8.502331 6.692331 15.18918
366 53.27630 29.31330 42.49170 15.12636 11.42243 15.38734
367 66.14270 30.57040 51.77160 22.48101 15.35807 23.48059
368 70.32940 43.92540 62.66070 30.06115 23.40161 36.42419
369 0.000000 7.592700 11.71160 0.615085 0.680250 1.589463
370 34.22070 26.30690 14.85820 6.241053 6.194511 2.897030
371 61.76420 37.09120 25.47850 18.40668 15.65011 7.168276
372 37.37530 24.24010 0.000000 6.221349 5.837012 0.883498
373 43.29800 32.87620 45.37840 12.68711 10.98836 18.11222
374 66.58520 49.69400 69.60630 31.82049 26.80856 45.85908
375 74.05270 62.70440 69.26910 40.95413 38.82476 47.62621
376 38.79950 0.000000 15.31550 5.279218 2.808992 2.389133
377 37.25460 0.000000 35.67380 6.384426 3.173820 10.05697
378 39.88640 0.000000 49.54800 9.065376 4.314893 19.92539
379 72.49810 9.831300 52.18500 23.56714 12.47939 23.25062
380 0.000000 0.000000 0.000000 0.127911 0.123591 0.229939
381 3.968300 0.000000 0.000000 0.258856 0.193572 0.234425
382 22.71750 39.99620 0.000000 6.465148 10.16679 1.677943
383 23.97320 55.05450 0.000000 11.37606 19.55376 3.111066
384 50.62380 64.17740 0.000000 21.94019 30.81230 4.513109
385 67.58610 67.50470 0.000000 30.87223 37.72463 5.212333
386 84.74350 68.59640 0.000000 42.28879 44.77072 5.773688
387 100.0000 83.23310 0.000000 63.12262 67.54688 8.726707
388 100.0000 100.0000 55.89120 81.34219 94.63721 40.35670
389 0.000000 20.32440 16.65260 1.822012 2.727225 2.886072
390 0.000000 20.25560 27.35220 2.508802 2.999645 6.406709
391 0.000000 20.90930 36.96700 3.458431 3.450485 11.03205
392 0.000000 48.03260 59.95840 13.01762 15.99593 32.76560
393 33.45970 47.96850 74.24020 20.38914 19.54947 51.57666
394 82.64800 75.87100 100.0000 64.09316 59.14202 104.0410
395 100.0000 78.50070 100.0000 79.51047 69.48188 105.1339
396 12.22270 18.40790 0.000000 1.721560 2.414629 0.549140
397 18.93680 25.38020 17.24080 3.754550 4.757716 3.306029
398 21.10300 26.00890 39.62140 6.002159 5.784033 13.17725
