Apple/MacBook Pro 13' (2013 Late)/Color LCD #1 2018-12-06 10-26 0.3127x 0.329y sRGB F-S XYZLUT+MTX/Color LCD #1 2018-12-06 10-26 0.3127x 0.329y sRGB F-S XYZLUT+MTX.ti3
CTI3   

DESCRIPTOR "Argyll Calibration Target chart information 3"
ORIGINATOR "Argyll dispread"
CREATED "Thu Dec 06 10:38:20 2018"
DEVICE_CLASS "DISPLAY"
SINGLE_DIM_STEPS "17"
COMP_GREY_STEPS "49"
DARK_REGION_EMPHASIS "1.6"
COLOR_REP "RGB_XYZ"
TARGET_INSTRUMENT "X-Rite i1 DisplayPro, ColorMunki Display"
DISPLAY_TYPE_REFRESH "NO"
DISPLAY_TYPE_BASE_ID "1"
INSTRUMENT_TYPE_SPECTRAL "NO"
LUMINANCE_XYZ_CDM2 "37.077382 39.092509 42.375028"
NORMALIZED_TO_Y_100 "YES"
VIDEO_LUT_CALIBRATION_POSSIBLE "YES"

BEGIN_ARGYLL_COLPROF_ARGS
-v -qh -aX -bn -C "No copyright. Created with DisplayCAL 3.7.1.3 and ArgyllCMS 2.0.1" -M "Color LCD" -A "Apple Computer Inc"
END_ARGYLL_COLPROF_ARGS

OBSERVER "1931_2"
USE_BLACK_POINT_COMPENSATION "NO"
BLACK_POINT_CORRECTION "0.0"
HIRES_B2A "YES"
HIRES_B2A_SIZE "-1"
SMOOTH_B2A "YES"
PATCH_SEQUENCE "OPTIMIZE_DISPLAY_RESPONSE_DELAY"

NUMBER_OF_FIELDS 7
BEGIN_DATA_FORMAT
SAMPLE_ID RGB_R RGB_G RGB_B XYZ_X XYZ_Y XYZ_Z
END_DATA_FORMAT

NUMBER_OF_SETS 417
BEGIN_DATA
1 100.0000 100.0000 100.0000 94.84524 100.0000 108.3968
2 1.960800 1.960800 1.960800 0.205460 0.208436 0.310818
3 3.921600 3.921600 3.921600 0.401731 0.417571 0.512391
4 5.882400 5.882400 5.882400 0.578135 0.604236 0.705780
5 9.803900 9.803900 9.803900 1.068657 1.099698 1.281615
6 13.72600 13.72600 13.72600 1.755825 1.855749 2.052402
7 17.64700 17.64700 17.64700 2.613255 2.754881 3.017379
8 21.56900 21.56900 21.56900 3.699273 3.893628 4.250848
9 25.49000 25.49000 25.49000 5.078913 5.335084 5.928250
10 29.41200 29.41200 29.41200 6.749391 7.064575 7.770869
11 33.33300 33.33300 33.33300 8.709039 9.163505 10.08587
12 37.25500 37.25500 37.25500 10.84555 11.42491 12.53987
13 41.17600 41.17600 41.17600 13.47454 14.19280 15.51592
14 45.09800 45.09800 45.09800 16.14465 17.01624 18.51441
15 49.02000 49.02000 49.02000 19.05728 20.14566 21.71104
16 52.94100 52.94100 52.94100 22.45178 23.55233 25.91458
17 56.86300 56.86300 56.86300 26.59469 27.91693 30.54334
18 60.78400 60.78400 60.78400 30.98307 32.57979 35.43906
19 64.70600 64.70600 64.70600 35.54105 37.25553 40.85182
20 68.62700 68.62700 68.62700 40.58925 42.52972 46.58942
21 72.54900 72.54900 72.54900 45.69275 47.75855 52.28651
22 76.47100 76.47100 76.47100 51.43432 53.93718 59.00390
23 80.39200 80.39200 80.39200 57.67962 60.58849 66.25731
24 84.31400 84.31400 84.31400 64.30526 67.70847 73.46533
25 88.23500 88.23500 88.23500 71.33985 75.21878 81.84055
26 92.15700 92.15700 92.15700 78.83034 82.90238 90.20831
27 96.07800 96.07800 96.07800 86.74083 91.54233 98.65575
28 0.000000 33.69920 36.29640 5.416638 7.380493 11.30463
29 10.62830 38.28100 46.87270 8.381920 10.27192 19.07097
30 56.29250 38.47240 64.89440 22.44468 17.45708 37.83998
31 69.79310 51.67880 70.54940 34.53469 29.22947 46.64899
32 44.94700 13.52420 14.26840 7.498342 4.863060 2.319650
33 61.16420 13.55620 17.49270 13.91326 8.304335 3.310888
34 70.53330 15.80030 40.29360 21.12917 12.07850 14.11637
35 88.39700 23.77870 85.27780 43.85776 24.17471 67.82818
36 100.0000 41.58210 84.69670 57.23052 36.51933 68.92353
37 70.04420 0.000000 62.84960 23.90714 11.89251 33.90001
38 69.86910 83.71670 75.79000 51.93885 60.54454 59.12087
39 0.000000 75.90140 66.29860 26.60132 40.22334 43.28952
40 35.18730 77.95380 81.30930 36.55985 46.96467 66.26350
41 67.70150 96.37480 86.43320 64.09578 80.20037 79.43372
42 85.26860 100.0000 86.66860 77.56027 91.39796 81.71648
43 58.33020 66.62790 0.000000 25.56340 33.65155 4.562754
44 76.42430 82.83420 0.000000 44.50824 56.70861 7.480831
45 85.77620 89.08880 23.03420 56.65871 69.69159 13.66170
46 14.91980 10.93020 28.94020 2.607143 1.921816 6.774220
47 17.55500 13.18990 43.94410 4.696972 3.056392 15.43557
48 91.68290 18.28080 49.68310 36.84819 20.61682 21.61282
49 100.0000 32.03110 51.59840 46.45120 28.74585 24.57112
50 31.25000 0.000000 0.000000 3.032404 1.660283 0.291934
51 36.88520 0.000000 0.000000 4.154737 2.254587 0.325167
52 57.82370 0.000000 75.66610 20.96522 9.886705 50.88595
53 64.57990 36.55890 85.47920 32.06941 21.21072 68.77346
54 85.86700 41.22900 84.99170 45.87286 30.39115 68.90695
55 100.0000 68.19160 84.47390 67.47876 56.21437 71.38290
56 0.000000 2.941200 0.000000 0.191296 0.253354 0.233950
57 0.000000 13.15790 0.000000 0.703558 1.245822 0.377250
58 0.000000 18.40670 16.36350 1.543804 2.216482 2.706821
59 62.39340 100.0000 21.93290 51.23137 78.75164 15.38971
60 84.69180 100.0000 36.65480 65.65716 86.38694 23.01415
61 100.0000 100.0000 100.0000 94.94809 100.0033 108.8814
62 0.000000 31.25000 0.000000 2.872204 5.448759 0.985213
63 0.000000 36.88520 0.000000 3.947990 7.534397 1.293244
64 0.000000 81.67560 0.000000 22.51935 43.30529 6.563539
65 0.000000 87.20930 0.000000 26.27957 50.75055 7.691187
66 52.55810 86.89350 69.46370 44.32671 60.07375 50.33152
67 0.000000 0.000000 2.941200 0.152364 0.129633 0.389735
68 0.000000 0.000000 6.097600 0.206754 0.152148 0.671078
69 0.000000 0.000000 9.493700 0.280566 0.182279 1.052269
70 0.000000 0.000000 13.15790 0.405335 0.233398 1.697084
71 0.000000 0.000000 17.12330 0.553309 0.293638 2.450912
72 0.000000 0.000000 21.42860 0.775661 0.383056 3.595039
73 0.000000 0.000000 26.11940 1.078230 0.504974 5.160579
74 0.000000 0.000000 31.25000 1.527596 0.685327 7.479375
75 0.000000 0.000000 36.88520 2.065989 0.902017 10.28652
76 0.000000 0.000000 43.10350 2.871303 1.225161 14.42674
77 0.000000 0.000000 50.00000 3.844035 1.614751 19.45661
78 0.000000 0.000000 57.69230 5.278070 2.186889 26.90562
79 0.000000 0.000000 66.32650 7.224858 2.963867 36.98511
80 0.000000 0.000000 76.08700 9.848084 3.999191 50.51378
81 0.000000 0.000000 87.20930 13.41510 5.380340 68.98070
82 29.58280 21.58910 100.0000 23.13057 11.78849 96.64285
83 32.01180 75.30880 100.0000 41.55913 46.55217 101.9938
84 1.938000 1.938000 1.938000 0.205047 0.208122 0.311062
85 2.941200 2.941200 2.941200 0.304943 0.313097 0.418032
86 3.968300 3.968300 3.968300 0.401558 0.417477 0.512779
87 5.020100 5.020100 5.020100 0.504869 0.525528 0.628391
88 6.097600 6.097600 6.097600 0.602664 0.616240 0.743901
89 7.201600 7.201600 7.201600 0.671462 0.696334 0.847557
90 8.333300 8.333300 8.333300 0.813895 0.852871 0.984975
91 9.493700 9.493700 9.493700 0.994634 1.023404 1.195683
92 10.68380 10.68380 10.68380 1.176439 1.230069 1.434750
93 11.90480 11.90480 11.90480 1.400522 1.473897 1.622063
94 13.15790 13.15790 13.15790 1.677877 1.763985 1.973461
95 14.44440 14.44440 14.44440 1.925357 2.033127 2.232510
96 15.76580 15.76580 15.76580 2.126232 2.227523 2.528284
97 17.12330 17.12330 17.12330 2.504334 2.644123 2.874914
98 18.51850 18.51850 18.51850 2.786359 2.900424 3.262690
99 19.95310 19.95310 19.95310 3.214698 3.364116 3.793341
100 21.42860 21.42860 21.42860 3.698546 3.893038 4.253133
101 22.94690 22.94690 22.94690 4.209393 4.381777 4.890561
102 24.50980 24.50980 24.50980 4.673550 4.881309 5.406206
103 26.11940 26.11940 26.11940 5.368364 5.676799 6.142285
104 27.77780 27.77780 27.77780 6.085905 6.428658 6.938541
105 29.48720 29.48720 29.48720 6.751320 7.063748 7.777172
106 31.25000 31.25000 31.25000 7.658533 8.053638 8.904206
107 33.06880 33.06880 33.06880 8.498036 8.967716 9.848163
108 34.94620 34.94620 34.94620 9.474119 9.932291 10.88096
109 36.88520 36.88520 36.88520 10.57230 11.14206 12.27353
110 38.88890 38.88890 38.88890 11.85061 12.47016 13.68910
111 40.96050 40.96050 40.96050 13.20077 13.92642 15.23296
112 43.10350 43.10350 43.10350 14.68363 15.42727 17.12781
113 45.32160 45.32160 45.32160 16.40786 17.32557 18.89890
114 47.61910 47.61910 47.61910 17.90419 18.73984 20.61509
115 50.00000 50.00000 50.00000 20.12729 21.23702 23.05593
116 52.46910 52.46910 52.46910 22.07338 23.16940 25.56059
117 55.03140 55.03140 55.03140 24.53446 25.77732 28.23312
118 57.69230 57.69230 57.69230 27.47839 28.84660 31.60205
119 60.45750 60.45750 60.45750 30.54236 32.07586 35.06671
120 63.33330 63.33330 63.33330 33.67987 35.25069 38.67142
121 66.32650 66.32650 66.32650 37.44394 39.24395 43.11533
122 69.44440 69.44440 69.44440 41.63052 43.66299 47.42989
123 72.69500 72.69500 72.69500 45.68188 47.75820 52.23531
124 76.08700 76.08700 76.08700 50.84891 53.27332 58.46289
125 79.62960 79.62960 79.62960 56.07506 59.16746 64.20940
126 83.33330 83.33330 83.33330 62.22131 65.32916 71.05780
127 87.20930 87.20930 87.20930 69.29331 73.02924 79.22944
128 91.26980 91.26980 91.26980 77.16067 81.10214 88.61326
129 100.0000 34.20770 0.000000 42.24617 27.48600 2.331811
130 100.0000 35.10330 22.00570 43.33293 28.36305 6.493121
131 66.32650 0.000000 0.000000 15.00942 8.009716 0.623832
132 75.02780 0.000000 19.48310 20.46271 10.82507 3.873706
133 83.42410 17.37640 33.64540 28.39682 16.26500 10.47353
134 89.93640 20.53730 71.85680 40.45764 22.25191 46.73205
135 84.18970 0.000000 83.21720 38.33379 18.76260 63.27770
136 41.63670 48.31160 37.03570 14.95081 17.74043 13.24847
137 58.02350 48.75870 38.46870 21.09965 21.22525 14.56528
138 74.59480 88.32680 41.71960 50.50275 65.36823 23.26231
139 100.0000 100.0000 52.01680 80.16614 94.00571 35.65992
140 0.000000 66.32650 0.000000 13.85164 26.75367 4.113151
141 0.000000 76.08700 0.000000 18.94815 36.64331 5.569968
142 24.53180 85.31300 17.91290 27.87526 50.52352 10.26240
143 43.29550 86.68960 38.25260 34.84033 55.33176 20.07650
144 58.74660 87.39430 55.83460 44.03391 60.79695 34.62213
145 100.0000 0.000000 55.75320 43.73568 22.58723 27.24382
146 100.0000 25.92750 68.43920 49.15053 28.09315 43.65285
147 100.0000 50.92540 68.93840 55.40680 40.21196 46.27207
148 67.65310 26.84940 31.62820 20.04177 13.54069 9.424750
149 86.99000 34.58010 37.72560 34.29763 23.08956 13.65265
150 77.86580 43.70990 36.11380 29.88741 23.88931 13.03831
151 76.86780 43.64180 46.25450 30.79822 24.22549 19.99990
152 92.82250 53.72910 58.36040 47.78765 37.55819 33.01398
153 60.76430 19.43240 87.06170 27.62214 14.62568 70.60932
154 82.11680 27.58750 100.0000 46.10648 25.36321 97.67906
155 85.33780 72.65660 100.0000 64.16197 56.69906 102.3048
156 100.0000 84.69800 100.0000 83.47301 77.77054 105.2803
157 15.24550 63.60280 29.25850 15.05568 25.88325 10.69352
158 37.56430 69.57690 40.22920 23.09703 34.24598 18.14370
159 19.66710 66.16190 47.95880 19.11712 29.69168 22.74515
160 37.71690 82.78860 55.00120 33.14587 50.25677 32.30518
161 44.79580 82.94670 76.90800 40.85511 54.16785 60.33533
162 69.80840 82.71700 87.39220 55.55773 61.28724 78.58470
163 0.000000 53.42190 44.53180 11.66392 17.84989 18.27604
164 0.000000 64.99520 100.0000 32.52736 34.26712 99.98093
165 0.000000 81.99830 100.0000 41.83949 52.39804 102.5739
166 0.000000 100.0000 100.0000 55.36927 78.54766 107.1816
167 83.92110 42.89750 0.000000 31.32240 24.41056 2.482910
168 91.57890 43.02390 32.05860 39.22004 28.79605 11.32108
169 100.0000 67.56550 66.54070 61.68829 53.21806 45.16714
170 34.67670 0.000000 76.89480 13.94335 6.121039 52.34459
171 43.19300 0.000000 100.0000 24.69639 10.49147 96.16347
172 56.60760 32.13060 100.0000 33.05814 19.65805 97.29661
173 31.45400 20.69610 81.31190 16.19570 9.021534 60.25483
174 47.74740 41.40210 87.14520 26.68202 19.97148 71.71086
175 0.000000 52.71610 56.87290 13.51540 18.24701 28.99595
176 13.97720 61.52300 58.09140 18.50502 26.31175 31.86962
177 22.75040 62.94730 68.12840 22.53980 29.04233 44.47125
178 0.000000 57.65020 74.54400 19.93927 24.07414 51.73702
179 0.000000 73.98680 77.96680 28.51019 39.32303 58.81258
180 16.83260 82.26360 78.59660 34.98083 50.08062 61.62455
181 17.77700 86.23340 42.63470 30.03273 52.19178 22.71676
182 17.37250 88.26640 60.32230 34.62826 56.25079 39.24710
183 15.66300 37.06320 14.98470 5.430273 8.643142 3.330826
184 41.16850 39.52990 64.39190 17.37572 15.23686 37.23645
185 80.35620 47.95300 61.15170 37.10885 29.02965 34.98264
186 0.000000 0.000000 0.000000 0.119630 0.115801 0.213863
187 0.957900 0.957900 0.957900 0.136167 0.134342 0.230935
188 18.92920 12.15260 20.65600 2.467382 1.996493 3.845219
189 29.27290 23.05660 38.51200 6.722178 5.560164 12.40412
190 31.56920 36.62900 47.43300 10.83897 10.99970 19.50766
191 0.000000 100.0000 68.97380 44.47545 74.24423 52.79336
192 0.000000 100.0000 85.81780 49.62078 76.38619 78.56647
193 49.03980 100.0000 86.40460 58.46031 81.06414 80.15290
194 61.75810 24.23300 0.000000 14.55894 10.20781 1.053201
195 75.41470 27.13760 16.11240 22.98170 15.32917 3.703629
196 88.93330 77.05520 15.40060 50.03367 54.52139 8.902110
197 0.000000 19.18560 74.31790 10.56283 6.008018 48.80342
198 0.000000 27.63420 100.0000 21.00086 11.87402 96.65256
199 0.000000 48.37720 100.0000 25.90033 21.41596 97.92177
200 18.80790 15.78530 60.64290 8.076155 4.702703 31.22661
201 21.14980 49.30290 61.04740 15.25128 17.95548 33.92460
202 49.57290 50.68740 63.78600 22.97032 22.60556 37.90356
203 56.76030 64.16820 73.29420 33.76768 35.77386 51.91268
204 88.44340 73.79710 77.18890 58.33426 55.37698 59.68452
205 88.87230 79.13080 88.80350 65.90196 63.75959 80.78482
206 100.0000 84.51080 84.72720 77.37396 75.11134 75.07512
207 100.0000 100.0000 86.56760 89.44493 97.77052 82.50008
208 100.0000 100.0000 100.0000 94.94809 100.0033 108.8814
209 74.90970 52.39990 46.67430 32.30847 28.80254 21.16326
210 76.30390 57.41380 59.86330 37.64826 34.05176 34.63700
211 89.27120 72.83880 65.78140 55.36303 53.60314 44.47369
212 57.91840 83.49110 18.75320 36.05301 52.96664 10.43530
213 57.11420 88.72850 89.94840 53.99006 66.23142 84.08885
214 60.63650 88.50720 100.0000 60.08234 68.92887 105.0034
215 81.41760 100.0000 100.0000 80.74139 92.27660 107.9966
216 0.000000 34.41100 22.97660 4.318638 7.044724 5.258704
217 0.000000 51.67440 25.72430 9.159408 16.15253 7.533407
218 12.56450 51.65040 34.66680 10.69632 17.05458 11.80584
219 30.76910 54.12860 28.59010 13.29782 19.57003 9.299985
220 36.49010 57.93400 42.40000 17.80673 24.08757 17.91351
221 38.27350 57.48020 52.60670 19.80509 24.81826 25.97614
222 53.97580 61.01900 52.05110 26.32295 30.46991 26.30356
223 34.16010 43.28480 21.72970 10.12517 13.20055 5.590861
224 45.17990 56.16180 25.20020 17.47293 22.98237 8.271946
225 57.20150 56.09300 35.61880 22.98955 25.88079 13.55114
226 70.57240 62.06100 56.31940 35.63457 35.92009 31.16025
227 15.84100 11.01420 0.000000 1.362799 1.392412 0.357685
228 28.23380 17.22340 0.000000 3.481538 3.192133 0.537342
229 48.74830 33.20720 9.761400 11.12521 10.59675 2.359350
230 100.0000 100.0000 0.000000 75.39435 91.68726 12.02675
231 100.0000 100.0000 29.74660 77.22496 92.60996 19.83094
232 0.000000 0.000000 0.000000 0.119773 0.116044 0.213881
233 9.493700 0.000000 0.000000 0.480234 0.307732 0.224398
234 13.15790 0.000000 0.000000 0.730202 0.440720 0.231214
235 17.12330 0.000000 0.000000 1.057029 0.613829 0.240523
236 34.97430 0.000000 15.41190 4.231857 2.251865 2.280237
237 52.20840 15.46090 27.65770 10.80823 6.713651 6.707155
238 0.000000 100.0000 0.000000 36.30739 70.70388 10.80698
239 0.000000 100.0000 29.38120 37.87856 71.42963 17.76861
240 38.69960 100.0000 32.73130 43.47107 74.51572 19.90459
241 35.27070 56.97970 0.000000 13.84859 21.35637 3.128157
242 56.39460 67.80450 45.54920 29.12623 36.30420 21.71533
243 39.64190 35.99440 0.000000 8.782272 10.02033 1.413161
244 60.53120 37.73040 0.000000 16.50024 14.66668 1.724235
245 67.50160 40.19370 17.54520 21.44565 18.24614 4.659637
246 87.17700 42.42540 17.47640 34.38858 25.98242 5.237976
247 24.90610 11.66740 14.26360 2.903673 2.271793 2.140284
248 26.25420 22.45810 14.17790 4.111221 4.317731 2.444530
249 43.73260 29.18890 18.56020 9.264516 8.382744 3.873463
250 58.52730 37.56420 31.17030 17.37308 15.11302 9.458367
251 85.95450 67.65090 44.33360 45.81261 45.35304 21.62296
252 100.0000 80.15610 49.84880 64.97306 65.16253 28.53286
253 47.85210 46.72620 14.87540 14.44194 16.84047 4.247318
254 59.89180 47.14270 25.34730 20.11807 20.08651 7.759420
255 73.13530 66.04790 50.30640 37.29668 39.31543 25.48354
256 25.28430 70.11790 21.57860 18.97122 32.74002 8.584546
257 32.06540 70.68540 61.02910 26.14715 36.37926 36.83619
258 0.000000 0.000000 100.0000 18.59584 7.249773 95.78981
259 71.97470 0.000000 100.0000 37.31224 17.17061 96.57342
260 100.0000 100.0000 100.0000 94.94809 100.0033 108.8814
261 12.98100 22.00360 11.97120 2.432223 3.339864 1.977842
262 23.94850 31.13330 17.27430 5.241904 6.733938 3.466031
263 25.49740 38.78430 29.40580 8.014598 10.50612 8.333074
264 29.05990 41.30960 41.75120 10.68608 12.69185 15.63100
265 0.000000 17.12330 0.000000 1.010906 1.840994 0.462257
266 0.000000 21.42860 0.000000 1.438138 2.670748 0.582245
267 20.67250 23.98150 0.000000 3.092407 3.994683 0.708983
268 34.27010 32.28960 11.13170 7.076525 8.081523 2.379761
269 39.38120 68.88100 13.85600 20.89426 32.94084 6.485977
270 53.37230 73.96450 34.57370 29.63563 41.13217 15.24238
271 0.000000 16.23400 37.80870 3.017176 2.534196 11.22396
272 16.77070 25.06420 40.78700 5.503747 5.282978 13.91250
273 17.94750 46.73830 39.34950 10.10424 14.28505 14.32180
274 16.66600 46.56450 47.31950 11.06951 14.68090 20.11030
275 41.01830 53.23270 60.24210 20.44477 22.48179 33.76981
276 41.61160 53.31670 76.59820 24.75468 24.33031 54.90054
277 47.18850 65.53910 86.05080 34.65589 36.56316 72.04389
278 29.13460 61.77640 75.25480 25.10245 29.66303 53.96621
279 46.35750 69.04280 76.86670 33.19007 38.58824 57.77989
280 87.78780 56.67940 10.28060 39.45722 35.33305 5.032004
281 100.0000 57.03360 25.82260 50.17898 41.16903 9.821912
282 100.0000 62.74760 45.94260 55.24961 47.05192 22.71619
283 78.87430 53.74300 33.98810 33.41142 30.18330 13.01933
284 89.65070 63.61570 52.64710 48.07059 43.52237 28.02488
285 0.000000 50.00000 0.000000 7.509065 14.43437 2.304070
286 0.000000 57.69230 0.000000 10.17795 19.60919 3.057328
287 41.37670 77.05330 0.000000 25.27221 41.01818 5.943818
288 39.65960 100.0000 55.20360 46.92531 76.00732 37.07323
289 65.85700 100.0000 74.03870 61.97611 83.49585 60.83283
290 0.000000 26.11940 0.000000 2.065203 3.881898 0.758321
291 16.63270 26.53350 32.92870 4.800203 5.374809 9.338817
292 0.000000 0.000000 0.000000 0.119912 0.116086 0.213988
293 17.59950 0.000000 14.96530 1.478074 0.793273 2.100423
294 23.66800 0.000000 33.05280 3.471156 1.691147 8.558206
295 27.58800 31.78940 78.28220 16.19043 11.60083 55.53289
296 32.07780 41.44070 100.0000 27.64911 19.76595 97.86730
297 31.81590 58.80860 100.0000 33.37950 31.07859 99.42817
298 82.02550 50.81110 100.0000 52.21076 37.11871 99.24166
299 100.0000 62.44930 100.0000 70.77539 53.34484 101.1750
300 95.52850 95.52850 95.52850 85.75436 90.59767 97.68268
301 54.96330 49.45220 0.000000 17.28882 19.57332 2.560791
302 71.73160 59.11300 19.62160 30.02655 31.65363 7.159290
303 95.64320 19.35830 12.02010 36.42240 20.95798 2.965955
304 100.0000 0.000000 0.000000 38.54502 20.48520 1.320845
305 100.0000 0.000000 20.12670 39.28790 20.79824 4.663308
306 100.0000 26.10910 33.35660 42.73057 25.56349 11.24506
307 100.0000 49.25790 47.16820 50.15946 37.16268 22.16517
308 2.941200 0.000000 0.000000 0.194596 0.156332 0.216497
309 6.097600 0.000000 0.000000 0.321341 0.223517 0.220001
310 12.35660 32.71230 59.10050 9.535437 8.891512 30.26137
311 18.94020 44.09350 64.92890 14.26115 15.03487 38.17410
312 17.00960 86.55470 70.74010 35.73098 55.13587 51.35156
313 36.25600 100.0000 72.77200 50.24071 77.28665 58.59693
314 43.67690 100.0000 0.000000 42.63820 74.21018 11.03269
315 75.13150 100.0000 0.000000 56.89085 81.82910 11.43607
316 26.88180 39.21780 0.000000 6.889753 10.05333 1.546002
317 53.56610 42.62470 43.27820 18.16139 17.20052 17.27732
318 43.10350 0.000000 0.000000 5.721689 3.086229 0.368405
319 57.69230 0.000000 0.000000 10.85621 5.808472 0.508554
320 50.00000 0.000000 0.000000 7.872575 4.226700 0.425932
321 53.86080 0.000000 0.000000 9.169350 4.913418 0.461736
322 55.66460 0.000000 21.67990 10.85073 5.720746 4.065707
323 60.86130 0.000000 39.07290 14.82884 7.617345 12.64173
324 86.03620 0.000000 57.21130 32.57178 16.63887 28.27163
325 100.0000 0.000000 77.46180 49.04368 24.69965 54.76442
326 100.0000 0.000000 100.0000 57.54038 27.88473 97.54656
327 100.0000 34.95780 100.0000 61.74669 35.74567 98.58660
328 43.97140 20.90410 0.000000 7.369248 5.751903 0.734341
329 55.86930 24.47110 14.24870 12.42655 9.085250 2.773156
330 57.61740 34.40950 40.11860 17.40026 14.01177 14.48608
331 35.76900 13.97530 38.71790 7.090934 4.505409 12.40231
332 43.09590 22.63010 54.36350 12.32675 8.183083 25.09963
333 83.21620 25.27600 56.22760 32.53385 19.40561 27.82501
334 91.01480 41.59620 68.40250 44.82868 30.41761 43.77841
335 80.56870 0.000000 37.80860 25.49583 13.29731 12.07269
336 100.0000 0.000000 38.82590 41.05752 21.51449 13.55345
337 76.08700 0.000000 0.000000 20.42188 10.87845 0.776669
338 83.84560 24.66980 0.000000 27.57271 17.21060 1.436513
339 100.0000 58.39840 0.000000 49.66027 41.68026 4.413568
340 100.0000 79.30730 0.000000 60.18732 62.01013 7.431187
341 41.20130 37.34730 26.35040 10.77972 11.52072 6.916493
342 45.23190 37.20280 51.93390 15.17258 13.51970 23.32453
343 60.86160 45.21210 54.73750 23.97751 21.05144 27.40130
344 68.05570 75.58840 62.87940 42.73343 48.96354 40.31286
345 0.000000 73.36760 28.46860 18.79586 34.47356 11.50679
346 0.000000 74.08680 48.87800 21.72132 36.43813 24.20415
347 0.000000 100.0000 50.43300 40.71282 72.60335 31.69784
348 66.98140 100.0000 50.58520 57.07028 81.59943 32.95475
349 85.45040 100.0000 66.40610 71.89307 89.09982 51.01062
350 87.20930 0.000000 0.000000 27.98860 14.88908 0.997615
351 86.80510 15.16490 20.82130 29.37829 16.63910 4.843070
352 87.12360 36.32350 51.58170 36.89057 24.89357 24.34513
353 90.73610 55.49850 80.65670 52.66250 40.64329 63.59182
354 67.11120 59.68200 68.67610 35.69749 34.13089 45.36222
355 68.05600 62.34880 84.11740 42.01502 38.53161 68.66510
356 68.42330 74.44160 88.16330 49.84242 50.93118 78.57205
357 79.93470 60.99080 0.000000 34.96956 35.39771 4.234956
358 88.55450 61.45830 28.03550 42.85670 40.05818 10.92329
359 88.85670 63.87220 72.94590 52.51203 45.69363 52.39789
360 88.75930 68.21980 86.63960 58.78506 51.52191 75.11295
361 13.36050 69.99370 88.37640 30.97830 37.44389 76.95992
362 11.26650 84.41130 90.88980 40.35197 54.41329 84.98124
363 28.15670 89.00210 100.0000 49.82314 63.94799 104.5904
364 0.000000 23.84780 57.26800 6.981051 5.427933 27.35479
365 27.67440 27.56430 57.52540 10.26572 8.060999 28.55055
366 51.44530 72.59610 57.67620 31.59661 40.63915 33.60142
367 24.34770 53.99720 14.05430 11.29293 18.52646 4.571632
368 51.92430 57.39330 12.82860 19.34868 24.70508 4.941571
369 69.90040 73.12200 24.02440 35.82524 43.70643 10.46348
370 100.0000 77.90700 28.32240 60.96737 61.49970 14.02202
371 30.47390 0.000000 54.96500 7.671855 3.518346 24.53316
372 49.53610 13.96560 63.30640 15.26555 8.302149 34.49843
373 68.26140 24.48550 69.14740 26.57965 15.68964 42.98439
374 48.18800 0.000000 48.68550 11.12322 5.496878 18.82546
375 63.49170 16.48470 51.84660 19.19305 10.95602 22.59017
376 72.66200 37.80290 65.42860 30.53527 21.50158 39.30745
377 46.62660 28.36740 71.69760 18.35674 12.07985 45.98540
378 53.27290 52.29090 82.95040 30.32838 26.53301 65.58323
379 58.88200 55.95770 100.0000 41.23547 33.72344 99.83861
380 26.29370 97.20610 86.50610 50.51124 73.73438 79.89923
381 43.78720 100.0000 100.0000 62.28483 82.41996 107.6271
382 0.000000 0.000000 0.000000 0.119936 0.116091 0.213954
383 13.98190 30.37120 26.75350 4.567415 6.101153 6.419334
384 88.48110 84.07150 63.50210 61.02065 66.09149 43.58763
385 88.91260 83.89330 75.21190 64.38430 67.65944 59.25163
386 28.76460 11.83760 25.62730 4.209356 2.888928 5.513118
387 37.51430 19.43670 27.18300 6.830525 5.184216 6.323710
388 39.27340 29.12990 27.30800 8.620393 7.982359 6.919617
389 39.96190 29.38120 38.25780 10.11835 8.770466 12.84875
390 71.67790 68.18580 37.82570 35.93244 40.39787 16.74563
391 89.74510 81.43120 42.32160 56.28947 61.96806 22.86656
