Apple/MacBook Pro 13' (2013 Late)/Color LCD #1 2018-12-06 10-26 0.3127x 0.329y sRGB F-S XYZLUT+MTX/Color LCD #1 2018-12-06 10-26 0.3127x 0.329y sRGB F-S XYZLUT+MTX.ti1
CTI1   

DESCRIPTOR "Argyll Calibration Target chart information 1"
ORIGINATOR "Argyll targen"
CREATED "Thu Dec 06 10:10:10 2018"
SINGLE_DIM_STEPS "17"
COMP_GREY_STEPS "49"
DARK_REGION_EMPHASIS "1.6"
COLOR_REP "RGB"
TARGET_INSTRUMENT "X-Rite i1 DisplayPro, ColorMunki Display"
DISPLAY_TYPE_REFRESH "NO"
DISPLAY_TYPE_BASE_ID "1"
INSTRUMENT_TYPE_SPECTRAL "NO"
NORMALIZED_TO_Y_100 "YES"
VIDEO_LUT_CALIBRATION_POSSIBLE "YES"
OBSERVER "1931_2"
USE_BLACK_POINT_COMPENSATION "NO"
BLACK_POINT_CORRECTION "0.0"
HIRES_B2A "YES"
HIRES_B2A_SIZE "-1"
SMOOTH_B2A "YES"
PATCH_SEQUENCE "OPTIMIZE_DISPLAY_RESPONSE_DELAY"

NUMBER_OF_FIELDS 7
BEGIN_DATA_FORMAT
SAMPLE_ID RGB_R RGB_G RGB_B XYZ_X XYZ_Y XYZ_Z
END_DATA_FORMAT

NUMBER_OF_SETS 417
BEGIN_DATA
1 100.0000 100.0000 100.0000 95.09937 100.0000 108.2867
2 1.960800 1.960800 1.960800 0.512245 0.561115 0.656247
3 3.921600 3.921600 3.921600 0.708230 0.759836 0.905372
4 5.882400 5.882400 5.882400 0.842377 0.903967 1.080691
5 9.803900 9.803900 9.803900 1.276508 1.356656 1.591575
6 13.72600 13.72600 13.72600 1.978329 2.080044 2.481405
7 17.64700 17.64700 17.64700 2.834789 2.976971 3.384152
8 21.56900 21.56900 21.56900 3.925253 4.172813 4.654357
9 25.49000 25.49000 25.49000 5.359347 5.631459 6.272999
10 29.41200 29.41200 29.41200 6.918533 7.317139 7.941349
11 33.33300 33.33300 33.33300 8.971816 9.485933 10.16863
12 37.25500 37.25500 37.25500 11.27935 11.85208 12.67035
13 41.17600 41.17600 41.17600 13.63601 14.39471 15.54968
14 45.09800 45.09800 45.09800 16.46215 17.31220 18.72960
15 49.02000 49.02000 49.02000 19.65458 20.52496 22.68609
16 52.94100 52.94100 52.94100 23.11679 24.21645 26.75183
17 56.86300 56.86300 56.86300 27.26953 28.83147 30.90025
18 60.78400 60.78400 60.78400 31.36196 32.90070 35.63805
19 64.70600 64.70600 64.70600 36.02084 37.96908 41.10396
20 68.62700 68.62700 68.62700 40.60482 42.28537 46.57810
21 72.54900 72.54900 72.54900 45.77725 47.92319 52.27934
22 76.47100 76.47100 76.47100 51.63468 54.37380 59.08818
23 80.39200 80.39200 80.39200 57.57435 60.17949 66.34032
24 84.31400 84.31400 84.31400 64.18849 67.46906 73.53333
25 88.23500 88.23500 88.23500 71.32536 74.88042 81.76338
26 92.15700 92.15700 92.15700 79.01967 83.30767 90.60978
27 96.07800 96.07800 96.07800 86.57738 91.08698 98.89418
28 0.000000 33.69920 36.29640 5.851078 7.996153 11.62659
29 10.62830 38.28100 46.87270 8.860387 10.75590 20.10032
30 56.29250 38.47240 64.89440 23.06960 17.68446 39.34726
31 69.79310 51.67880 70.54940 34.97690 29.46172 48.36503
32 44.94700 13.52420 14.26840 7.934617 5.152524 2.619988
33 61.16420 13.55620 17.49270 14.40452 8.474456 3.582156
34 70.53330 15.80030 40.29360 21.38966 12.10744 14.43688
35 88.39700 23.77870 85.27780 45.04832 24.34512 71.44112
36 100.0000 41.58210 84.69670 58.08495 36.35898 71.60138
37 70.04420 0.000000 62.84960 24.69148 12.17647 36.19915
38 69.86910 83.71670 75.79000 51.56283 60.44732 57.73400
39 0.000000 75.90140 66.29860 26.99725 41.19545 42.89367
40 35.18730 77.95380 81.30930 36.93907 47.83406 66.47477
41 67.70150 96.37480 86.43320 64.31665 80.46280 79.55219
42 85.26860 100.0000 86.66860 77.56807 91.73133 81.28256
43 58.33020 66.62790 0.000000 26.02010 34.43666 3.318555
44 76.42430 82.83420 0.000000 44.04858 56.50932 5.016300
45 85.77620 89.08880 23.03420 56.28249 69.74464 10.53173
46 14.91980 10.93020 28.94020 2.921591 2.200768 7.483677
47 17.55500 13.18990 43.94410 5.184653 3.424245 16.72975
48 91.68290 18.28080 49.68310 36.94680 20.22891 23.10815
49 100.0000 32.03110 51.59840 46.74157 28.22974 25.32687
50 31.25000 0.000000 0.000000 3.491809 2.039462 0.658749
51 36.88520 0.000000 0.000000 4.760296 2.693836 0.681480
52 57.82370 0.000000 75.66610 21.90363 10.34480 53.55376
53 64.57990 36.55890 85.47920 33.09865 21.68895 72.57998
54 85.86700 41.22900 84.99170 46.70399 30.27684 71.97894
55 100.0000 68.19160 84.47390 67.59717 55.70151 72.42113
56 0.000000 2.941200 0.000000 0.494256 0.589049 0.609152
57 0.000000 13.15790 0.000000 1.004035 1.606056 0.699597
58 0.000000 18.40670 16.36350 1.828578 2.537013 3.053659
59 62.39340 100.0000 21.93290 50.38165 78.93499 11.20312
60 84.69180 100.0000 36.65480 64.85630 86.23729 18.26399
61 100.0000 100.0000 100.0000 94.90389 100.1383 108.2891
62 0.000000 31.25000 0.000000 3.164002 5.917835 1.085342
63 0.000000 36.88520 0.000000 4.334830 8.254737 1.294036
64 0.000000 81.67560 0.000000 22.55072 44.64741 4.552899
65 0.000000 87.20930 0.000000 26.26609 52.01878 5.201201
66 52.55810 86.89350 69.46370 44.21784 60.64673 48.96893
67 0.000000 0.000000 2.941200 0.452669 0.470251 0.714629
68 0.000000 0.000000 6.097600 0.521516 0.498248 1.042525
69 0.000000 0.000000 9.493700 0.611520 0.534555 1.514090
70 0.000000 0.000000 13.15790 0.748086 0.589115 2.197709
71 0.000000 0.000000 17.12330 0.939322 0.666200 3.163322
72 0.000000 0.000000 21.42860 1.168973 0.758270 4.318464
73 0.000000 0.000000 26.11940 1.533957 0.905446 6.154881
74 0.000000 0.000000 31.25000 2.007569 1.096076 8.546464
75 0.000000 0.000000 36.88520 2.554312 1.317662 11.30977
76 0.000000 0.000000 43.10350 3.425481 1.667252 15.69612
77 0.000000 0.000000 50.00000 4.619175 2.146626 21.67471
78 0.000000 0.000000 57.69230 6.128121 2.755596 29.32943
79 0.000000 0.000000 66.32650 8.156726 3.567669 39.56006
80 0.000000 0.000000 76.08700 10.95726 4.689098 53.60710
81 0.000000 0.000000 87.20930 15.17076 6.373473 74.85303
82 29.58280 21.58910 100.0000 24.34961 12.53185 101.0813
83 32.01180 75.30880 100.0000 41.99333 46.97195 104.1321
84 1.938000 1.938000 1.938000 0.510613 0.559503 0.654772
85 2.941200 2.941200 2.941200 0.592361 0.635444 0.727474
86 3.968300 3.968300 3.968300 0.705930 0.757729 0.902205
87 5.020100 5.020100 5.020100 0.770260 0.826428 0.981172
88 6.097600 6.097600 6.097600 0.862584 0.911900 1.078361
89 7.201600 7.201600 7.201600 0.939987 0.993153 1.167296
90 8.333300 8.333300 8.333300 1.083038 1.152992 1.362672
91 9.493700 9.493700 9.493700 1.232993 1.333031 1.584616
92 10.68380 10.68380 10.68380 1.392180 1.470322 1.700548
93 11.90480 11.90480 11.90480 1.610423 1.700830 1.944040
94 13.15790 13.15790 13.15790 1.896011 2.036666 2.326195
95 14.44440 14.44440 14.44440 2.114431 2.214518 2.483313
96 15.76580 15.76580 15.76580 2.320020 2.512426 2.768338
97 17.12330 17.12330 17.12330 2.721111 2.841242 3.360727
98 18.51850 18.51850 18.51850 3.008303 3.131334 3.527841
99 19.95310 19.95310 19.95310 3.493512 3.695271 4.191491
100 21.42860 21.42860 21.42860 3.913524 4.158467 4.636630
101 22.94690 22.94690 22.94690 4.482917 4.766337 5.323760
102 24.50980 24.50980 24.50980 4.806397 5.075247 5.688060
103 26.11940 26.11940 26.11940 5.608675 5.846323 6.622008
104 27.77780 27.77780 27.77780 6.269154 6.675471 7.257656
105 29.48720 29.48720 29.48720 6.898205 7.293670 7.913229
106 31.25000 31.25000 31.25000 7.907011 8.246575 9.229052
107 33.06880 33.06880 33.06880 8.689737 9.180978 9.840380
108 34.94620 34.94620 34.94620 9.789566 10.33365 11.32417
109 36.88520 36.88520 36.88520 10.96461 11.52662 12.29931
110 38.88890 38.88890 38.88890 12.00588 12.66086 13.68324
111 40.96050 40.96050 40.96050 13.27777 13.99690 15.14956
112 43.10350 43.10350 43.10350 15.09896 15.86720 17.06230
113 45.32160 45.32160 45.32160 16.81241 17.63749 19.14640
114 47.61910 47.61910 47.61910 18.23072 19.10887 20.84836
115 50.00000 50.00000 50.00000 20.57116 21.63065 23.56124
116 52.46910 52.46910 52.46910 22.64218 23.73474 26.18821
117 55.03140 55.03140 55.03140 24.80192 25.97445 28.70948
118 57.69230 57.69230 57.69230 27.79995 29.32536 31.92961
119 60.45750 60.45750 60.45750 30.60691 32.23717 35.01719
120 63.33330 63.33330 63.33330 34.07032 35.73348 38.87938
121 66.32650 66.32650 66.32650 37.91565 39.71772 42.96000
122 69.44440 69.44440 69.44440 41.65095 43.47738 47.35668
123 72.69500 72.69500 72.69500 45.49540 47.79479 52.28625
124 76.08700 76.08700 76.08700 50.53096 53.02319 58.06571
125 79.62960 79.62960 79.62960 56.15654 58.91063 64.42496
126 83.33330 83.33330 83.33330 61.98536 65.08731 71.45140
127 87.20930 87.20930 87.20930 69.58416 73.01252 80.85295
128 91.26980 91.26980 91.26980 77.18978 81.43689 89.28152
129 100.0000 34.20770 0.000000 42.38340 26.97326 1.890229
130 100.0000 35.10330 22.00570 43.54968 28.01315 6.030414
131 66.32650 0.000000 0.000000 15.81603 8.399103 0.876412
132 75.02780 0.000000 19.48310 20.96793 10.98330 4.234096
133 83.42410 17.37640 33.64540 28.43869 15.96802 10.52157
134 89.93640 20.53730 71.85680 40.95981 22.14942 48.27724
135 84.18970 0.000000 83.21720 39.38891 19.05047 67.38187
136 41.63670 48.31160 37.03570 15.13078 18.12330 12.87085
137 58.02350 48.75870 38.46870 21.25632 21.49018 14.03092
138 74.59480 88.32680 41.71960 49.90011 64.92063 20.12914
139 100.0000 100.0000 52.01680 79.66158 93.62972 31.58164
140 0.000000 66.32650 0.000000 14.23784 28.03963 3.068796
141 0.000000 76.08700 0.000000 18.99589 37.55099 3.911291
142 24.53180 85.31300 17.91290 27.59895 51.13607 7.664647
143 43.29550 86.68960 38.25260 34.55346 55.92328 17.17634
144 58.74660 87.39430 55.83460 43.67202 60.78486 32.72131
145 100.0000 0.000000 55.75320 44.50071 22.57591 29.00790
146 100.0000 25.92750 68.43920 49.62747 27.73872 45.07739
147 100.0000 50.92540 68.93840 55.60047 39.70464 46.14616
148 67.65310 26.84940 31.62820 20.29998 13.46233 9.695858
149 86.99000 34.58010 37.72560 34.09169 22.68402 13.48731
150 77.86580 43.70990 36.11380 30.07243 23.68128 12.73417
151 76.86780 43.64180 46.25450 30.69286 23.85479 20.22472
152 92.82250 53.72910 58.36040 48.01819 37.38495 32.79857
153 60.76430 19.43240 87.06170 29.10754 15.22652 75.91695
154 82.11680 27.58750 100.0000 46.77727 25.27841 101.9665
155 85.33780 72.65660 100.0000 64.64810 56.59581 104.6660
156 100.0000 84.69800 100.0000 83.60715 77.29542 106.4156
157 15.24550 63.60280 29.25850 15.26456 26.85102 9.663112
158 37.56430 69.57690 40.22920 22.85855 34.34912 16.63204
159 19.66710 66.16190 47.95880 19.41257 30.55869 22.25839
160 37.71690 82.78860 55.00120 33.09268 50.58015 30.96171
161 44.79580 82.94670 76.90800 41.22530 54.65643 60.10314
162 69.80840 82.71700 87.39220 55.49425 61.15279 79.95222
163 0.000000 53.42190 44.53180 12.25987 18.98072 18.31235
164 0.000000 64.99520 100.0000 34.02041 35.91887 102.9698
165 0.000000 81.99830 100.0000 42.84663 53.91264 104.5737
166 0.000000 100.0000 100.0000 56.13932 80.02340 106.9691
167 83.92110 42.89750 0.000000 31.42126 24.28167 2.005722
168 91.57890 43.02390 32.05860 38.93459 28.28690 10.67452
169 100.0000 67.56550 66.54070 61.72430 52.56853 44.81465
170 34.67670 0.000000 76.89480 15.04746 6.724087 55.84519
171 43.19300 0.000000 100.0000 26.29306 11.47443 101.0454
172 56.60760 32.13060 100.0000 34.12870 20.01674 101.7139
173 31.45400 20.69610 81.31190 17.10627 9.509760 63.10004
174 47.74740 41.40210 87.14520 27.98586 20.68421 76.49867
175 0.000000 52.71610 56.87290 14.26933 19.33751 29.83267
176 13.97720 61.52300 58.09140 18.91050 27.08829 32.19492
177 22.75040 62.94730 68.12840 22.99997 29.88498 44.89750
178 0.000000 57.65020 74.54400 21.09881 25.43195 53.94679
179 0.000000 73.98680 77.96680 29.53480 40.70783 60.21840
180 16.83260 82.26360 78.59660 35.46922 50.81180 62.01073
181 17.77700 86.23340 42.63470 29.78007 52.84359 20.01345
182 17.37250 88.26640 60.32230 34.22747 56.66424 37.20615
183 15.66300 37.06320 14.98470 5.581603 9.046472 3.223807
184 41.16850 39.52990 64.39190 17.82098 15.48497 38.57274
185 80.35620 47.95300 61.15170 37.30051 28.88810 35.66887
186 0.000000 0.000000 0.000000 0.433925 0.461002 0.599962
187 0.957900 0.957900 0.957900 0.432801 0.460645 0.596344
188 18.92920 12.15260 20.65600 2.717898 2.286676 4.310885
189 29.27290 23.05660 38.51200 6.994537 5.904034 12.76577
190 31.56920 36.62900 47.43300 11.24311 11.50304 20.20481
191 0.000000 100.0000 68.97380 44.59306 75.21057 49.36060
192 0.000000 100.0000 85.81780 50.39877 77.61804 78.31835
193 49.03980 100.0000 86.40460 58.63114 81.89804 79.86907
194 61.75810 24.23300 0.000000 15.16665 10.50067 1.129347
195 75.41470 27.13760 16.11240 22.90355 15.02808 3.522332
196 88.93330 77.05520 15.40060 49.57683 54.17503 6.632299
197 0.000000 19.18560 74.31790 11.72471 6.712630 52.25626
198 0.000000 27.63420 100.0000 22.46519 12.74882 100.9797
199 0.000000 48.37720 100.0000 27.36852 22.60731 101.8327
200 18.80790 15.78530 60.64290 8.717493 5.143567 33.13390
201 21.14980 49.30290 61.04740 15.68419 18.43871 34.88012
202 49.57290 50.68740 63.78600 23.54281 23.08334 39.25501
203 56.76030 64.16820 73.29420 34.57273 36.63953 52.78654
204 88.44340 73.79710 77.18890 58.27056 55.19919 60.72540
205 88.87230 79.13080 88.80350 66.21587 63.77816 82.15079
206 100.0000 84.51080 84.72720 77.49247 74.73338 75.07860
207 100.0000 100.0000 86.56760 89.72797 98.00064 81.79627
208 100.0000 100.0000 100.0000 94.93717 100.1393 108.4459
209 74.90970 52.39990 46.67430 32.52080 28.92054 21.06975
210 76.30390 57.41380 59.86330 37.83682 34.17612 34.55678
211 89.27120 72.83880 65.78140 55.26946 53.29730 43.44090
212 57.91840 83.49110 18.75320 35.84272 53.23622 7.919864
213 57.11420 88.72850 89.94840 54.48479 66.96590 85.28432
214 60.63650 88.50720 100.0000 60.47257 69.61445 106.1231
215 81.41760 100.0000 100.0000 80.46291 92.56214 108.0143
216 0.000000 34.41100 22.97660 4.731122 7.669375 5.550102
217 0.000000 51.67440 25.72430 9.626638 17.12856 7.420115
218 12.56450 51.65040 34.66680 11.01436 17.77573 11.67828
219 30.76910 54.12860 28.59010 13.57383 20.27398 8.830825
220 36.49010 57.93400 42.40000 18.15340 24.86744 17.16195
221 38.27350 57.48020 52.60670 20.34644 25.57157 26.37960
222 53.97580 61.01900 52.05110 26.68805 30.90704 26.35778
223 34.16010 43.28480 21.72970 10.37715 13.62759 5.421108
224 45.17990 56.16180 25.20020 17.85740 23.81618 7.601033
225 57.20150 56.09300 35.61880 23.25553 26.52429 12.91544
226 70.57240 62.06100 56.31940 35.80957 36.13519 30.92689
227 15.84100 11.01420 0.000000 1.566677 1.636212 0.684340
228 28.23380 17.22340 0.000000 3.674237 3.372817 0.793754
229 48.74830 33.20720 9.761400 11.57025 10.92939 2.242618
230 100.0000 100.0000 0.000000 74.73320 91.39521 7.681220
231 100.0000 100.0000 29.74660 76.40303 92.34219 14.96501
232 0.000000 0.000000 0.000000 0.433897 0.460428 0.599257
233 9.493700 0.000000 0.000000 0.726829 0.611879 0.603725
234 13.15790 0.000000 0.000000 0.994644 0.749941 0.609644
235 17.12330 0.000000 0.000000 1.348337 0.933636 0.615993
236 34.97430 0.000000 15.41190 4.584583 2.559381 2.701497
237 52.20840 15.46090 27.65770 11.22072 6.943661 7.135400
238 0.000000 100.0000 0.000000 35.90226 71.42278 6.971928
239 0.000000 100.0000 29.38120 37.44767 72.36574 13.66950
240 38.69960 100.0000 32.73130 42.67875 74.85641 15.42014
241 35.27070 56.97970 0.000000 14.39739 22.51419 2.464430
242 56.39460 67.80450 45.54920 29.32388 36.59025 20.73210
243 39.64190 35.99440 0.000000 9.239635 10.61631 1.373483
244 60.53120 37.73040 0.000000 16.73677 14.77817 1.540124
245 67.50160 40.19370 17.54520 21.65020 18.30100 4.365728
246 87.17700 42.42540 17.47640 34.06756 25.46707 4.688557
247 24.90610 11.66740 14.26360 3.143968 2.480836 2.475493
248 26.25420 22.45810 14.17790 4.356495 4.581546 2.657630
249 43.73260 29.18890 18.56020 9.547443 8.628413 3.899678
250 58.52730 37.56420 31.17030 17.51834 15.10201 9.399904
251 85.95450 67.65090 44.33360 45.62375 45.00954 20.40591
252 100.0000 80.15610 49.84880 64.46150 64.24245 26.91261
253 47.85210 46.72620 14.87540 14.62032 17.13114 3.771081
254 59.89180 47.14270 25.34730 20.14502 20.14236 7.311422
255 73.13530 66.04790 50.30640 37.37522 39.45974 24.94958
256 25.28430 70.11790 21.57860 18.79997 33.05392 7.187531
257 32.06540 70.68540 61.02910 26.24501 36.76780 36.53492
258 0.000000 0.000000 100.0000 20.27822 8.376954 100.6121
259 71.97470 0.000000 100.0000 38.72719 17.88617 101.4592
260 100.0000 100.0000 100.0000 95.13764 100.0012 108.4670
261 12.98100 22.00360 11.97120 2.609457 3.609196 2.224986
262 23.94850 31.13330 17.27430 5.436927 7.060693 3.711720
263 25.49740 38.78430 29.40580 8.146005 10.75701 8.205362
264 29.05990 41.30960 41.75120 10.81353 12.89391 15.73884
265 0.000000 17.12330 0.000000 1.267318 2.127156 0.743988
266 0.000000 21.42860 0.000000 1.744720 3.087882 0.829885
267 20.67250 23.98150 0.000000 3.352249 4.317204 0.906895
268 34.27010 32.28960 11.13170 7.245858 8.264044 2.217407
269 39.38120 68.88100 13.85600 20.64212 32.96419 5.124068
270 53.37230 73.96450 34.57370 29.60550 41.59144 13.68369
271 0.000000 16.23400 37.80870 3.439243 2.886746 12.03853
272 16.77070 25.06420 40.78700 5.775727 5.576299 14.34995
273 17.94750 46.73830 39.34950 10.33697 14.76066 14.17165
274 16.66600 46.56450 47.31950 11.39473 15.19136 20.47327
275 41.01830 53.23270 60.24210 20.87690 23.09385 34.27199
276 41.61160 53.31670 76.59820 25.45672 25.00908 56.67399
277 47.18850 65.53910 86.05080 35.71874 37.22605 75.02091
278 29.13460 61.77640 75.25480 25.65578 30.41289 55.40203
279 46.35750 69.04280 76.86670 33.47048 38.63086 58.71319
280 87.78780 56.67940 10.28060 39.57083 35.53255 3.977232
281 100.0000 57.03360 25.82260 50.41826 41.11430 8.747057
282 100.0000 62.74760 45.94260 54.92935 46.50224 21.56563
283 78.87430 53.74300 33.98810 33.35966 30.18984 12.10610
284 89.65070 63.61570 52.64710 48.04770 43.44143 27.59947
285 0.000000 50.00000 0.000000 7.875789 15.33351 1.932608
286 0.000000 57.69230 0.000000 10.61744 20.82255 2.416591
287 41.37670 77.05330 0.000000 25.11500 41.47296 4.110923
288 39.65960 100.0000 55.20360 46.51596 76.66158 33.75819
289 65.85700 100.0000 74.03870 61.62532 83.97323 58.40898
290 0.000000 26.11940 0.000000 2.312961 4.216107 0.930661
291 16.63270 26.53350 32.92870 4.920095 5.524093 9.474121
292 0.000000 0.000000 0.000000 0.432370 0.459643 0.598187
293 17.59950 0.000000 14.96530 1.771585 1.109962 2.496439
294 23.66800 0.000000 33.05280 3.773729 1.993977 9.170608
295 27.58800 31.78940 78.28220 16.99926 11.99723 58.65482
296 32.07780 41.44070 100.0000 28.76532 20.52100 101.9465
297 31.81590 58.80860 100.0000 34.50605 32.08210 102.9610
298 82.02550 50.81110 100.0000 52.69536 36.98028 103.0914
299 100.0000 62.44930 100.0000 71.76039 53.50132 104.3721
300 95.52850 95.52850 95.52850 85.90389 90.21173 98.65515
301 54.96330 49.45220 0.000000 17.56205 19.88768 2.057777
302 71.73160 59.11300 19.62160 30.40866 32.05827 6.147281
303 95.64320 19.35830 12.02010 36.43229 20.55247 2.835011
304 100.0000 0.000000 0.000000 38.99784 20.36227 1.308726
305 100.0000 0.000000 20.12670 39.68206 20.63640 4.777541
306 100.0000 26.10910 33.35660 42.79374 24.94752 10.77048
307 100.0000 49.25790 47.16820 50.14594 36.47139 21.87994
308 2.941200 0.000000 0.000000 0.500272 0.494765 0.600157
309 6.097600 0.000000 0.000000 0.603732 0.548594 0.599257
310 12.35660 32.71230 59.10050 10.10867 9.288855 31.84210
311 18.94020 44.09350 64.92890 14.74548 15.39600 39.67278
312 17.00960 86.55470 70.74010 36.27788 56.02184 50.72463
313 36.25600 100.0000 72.77200 49.93613 78.03377 55.83521
314 43.67690 100.0000 0.000000 42.10244 74.61376 7.082279
315 75.13150 100.0000 0.000000 56.12861 81.82213 7.331064
316 26.88180 39.21780 0.000000 7.046384 10.40169 1.432396
317 53.56610 42.62470 43.27820 18.46931 17.39359 17.10057
318 43.10350 0.000000 0.000000 6.390731 3.535114 0.708323
319 57.69230 0.000000 0.000000 11.40608 6.122913 0.797515
320 50.00000 0.000000 0.000000 8.530435 4.640247 0.746008
321 53.86080 0.000000 0.000000 9.890265 5.340957 0.770684
322 55.66460 0.000000 21.67990 11.34405 6.005814 4.583038
323 60.86130 0.000000 39.07290 15.47087 7.940991 13.39179
324 86.03620 0.000000 57.21130 33.30559 16.76104 30.05596
325 100.0000 0.000000 77.46180 50.41242 24.93325 58.84016
326 100.0000 0.000000 100.0000 59.00330 28.32346 102.1916
327 100.0000 34.95780 100.0000 62.73153 35.65801 102.7344
328 43.97140 20.90410 0.000000 7.803930 6.047438 0.926239
329 55.86930 24.47110 14.24870 12.70979 9.211925 2.863738
330 57.61740 34.40950 40.11860 17.59878 14.13042 14.66303
331 35.76900 13.97530 38.71790 7.465488 4.743334 12.92409
332 43.09590 22.63010 54.36350 13.06676 8.647333 26.69750
333 83.21620 25.27600 56.22760 32.83398 19.21508 29.31002
334 91.01480 41.59620 68.40250 44.98341 30.12446 44.67751
335 80.56870 0.000000 37.80860 25.95151 13.36813 12.69745
336 100.0000 0.000000 38.82590 41.46297 21.34936 13.78968
337 76.08700 0.000000 0.000000 20.81131 10.97587 0.963726
338 83.84560 24.66980 0.000000 27.75611 17.07467 1.367865
339 100.0000 58.39840 0.000000 49.65063 41.44167 3.187689
340 100.0000 79.30730 0.000000 59.90125 61.73100 4.997849
341 41.20130 37.34730 26.35040 10.99074 11.76524 7.055706
342 45.23190 37.20280 51.93390 15.64691 13.82394 24.41487
343 60.86160 45.21210 54.73750 24.40037 21.16411 28.22631
344 68.05570 75.58840 62.87940 42.56859 48.83538 39.45809
345 0.000000 73.36760 28.46860 18.98053 35.48168 10.13099
346 0.000000 74.08680 48.87800 22.23007 37.61485 23.93902
347 0.000000 100.0000 50.43300 40.50893 73.50229 28.43307
348 66.98140 100.0000 50.58520 56.37583 81.79350 29.22003
349 85.45040 100.0000 66.40610 71.37674 89.12709 47.23491
350 87.20930 0.000000 0.000000 28.17618 14.77654 1.096633
351 86.80510 15.16490 20.82130 29.39203 16.37533 4.910058
352 87.12360 36.32350 51.58170 36.90781 24.64001 25.06876
353 90.73610 55.49850 80.65670 53.35745 40.73604 65.68127
354 67.11120 59.68200 68.67610 36.05005 34.53440 45.94186
355 68.05600 62.34880 84.11740 42.97111 39.31542 71.33726
356 68.42330 74.44160 88.16330 49.77774 50.75503 80.00668
357 79.93470 60.99080 0.000000 35.13657 35.49334 3.088903
358 88.55450 61.45830 28.03550 42.75822 39.75452 9.562787
359 88.85670 63.87220 72.94590 52.76614 45.68378 52.69998
360 88.75930 68.21980 86.63960 58.99866 51.12598 77.81243
361 13.36050 69.99370 88.37640 31.59824 37.98208 78.88189
362 11.26650 84.41130 90.88980 41.33162 55.49080 86.86888
363 28.15670 89.00210 100.0000 50.32598 64.93249 105.9557
364 0.000000 23.84780 57.26800 7.664705 5.966009 29.10498
365 27.67440 27.56430 57.52540 10.64724 8.242964 30.03166
366 51.44530 72.59610 57.67620 31.95765 41.13437 32.96167
367 24.34770 53.99720 14.05430 11.36893 19.15500 3.963432
368 51.92430 57.39330 12.82860 19.73628 25.31133 4.072630
369 69.90040 73.12200 24.02440 35.53083 43.71765 8.598187
370 100.0000 77.90700 28.32240 60.54711 60.97507 11.46314
371 30.47390 0.000000 54.96500 8.462031 4.012590 26.75008
372 49.53610 13.96560 63.30640 15.97905 8.616586 36.52228
373 68.26140 24.48550 69.14740 27.08350 15.73574 44.26342
374 48.18800 0.000000 48.68550 11.90224 5.924146 20.82204
375 63.49170 16.48470 51.84660 19.82258 11.13691 24.08292
376 72.66200 37.80290 65.42860 30.67025 21.24755 40.11717
377 46.62660 28.36740 71.69760 19.03071 12.48084 47.67623
378 53.27290 52.29090 82.95040 31.26263 27.07542 68.37526
379 58.88200 55.95770 100.0000 42.26264 34.51353 103.1727
380 26.29370 97.20610 86.50610 50.81407 74.66328 80.18111
381 43.78720 100.0000 100.0000 62.75066 83.33255 107.5908
382 0.000000 0.000000 0.000000 0.431898 0.459021 0.597364
383 13.98190 30.37120 26.75350 4.794619 6.420708 6.639091
384 88.48110 84.07150 63.50210 60.80729 65.93913 42.24267
385 88.91260 83.89330 75.21190 64.28329 67.33857 58.45787
386 28.76460 11.83760 25.62730 4.378020 3.043438 5.971894
387 37.51430 19.43670 27.18300 7.155915 5.438784 6.687335
388 39.27340 29.12990 27.30800 8.869535 8.212391 7.119931
389 39.96190 29.38120 38.25780 10.34409 8.957748 12.96081
390 71.67790 68.18580 37.82570 35.89440 40.37705 15.16108
391 89.74510 81.43120 42.32160 55.82600 61.69764 19.95683
392 100.0000 83.81770 69.23920 71.51276 71.36213 49.66065
393 0.000000 43.10350 0.000000 5.830730 11.25229 1.565009
394 0.000000 43.93180 72.47350 15.54945 15.62042 49.22730
395 19.67710 45.68540 82.29160 20.67416 18.62532 66.59727
