Apple/MacBook Pro 13' (2013 Late)/Color LCD #1 2018-12-06 10-26 0.3127x 0.329y sRGB F-S XYZLUT+MTX/Color LCD #1 2018-12-06 10-26 0.3127x 0.329y sRGB F-S XYZLUT+MTX.cal
CAL    

DESCRIPTOR "Argyll Device Calibration Curves"
ORIGINATOR "Argyll dispcal"
CREATED "Thu Dec 06 10:38:19 2018"
DEVICE_CLASS "DISPLAY"
COLOR_REP "RGB"
VIDEO_LUT_CALIBRATION_POSSIBLE "YES"
TV_OUTPUT_ENCODING "NO"
DEVICE_TYPE "n"
TARGET_WHITE_XYZ "37.072805 39.005286 42.479009"
TARGET_GAMMA "sRGB"
DEGREE_OF_BLACK_OUTPUT_OFFSET "1.0"
BLACK_POINT_CORRECTION "0.0"
BLACK_NEUTRAL_BLEND_RATE "4.0"
BLACK_POINT_HACK "YES"
QUALITY "low"

BEGIN_ARGYLL_DISPCAL_ARGS
-v2 -d1 -c1 -yn -P0.463114754098,0.411538461538,1.49720670391 -ql -m -w0.3127,0.329 -gs -f1.0 -k0 -A4.0 -b
END_ARGYLL_DISPCAL_ARGS


NUMBER_OF_FIELDS 4
BEGIN_DATA_FORMAT
RGB_I RGB_R RGB_G RGB_B
END_DATA_FORMAT

NUMBER_OF_SETS 256
BEGIN_DATA
0.00000000 0.00000000 0.00000000 0.00000000
0.00392157 0.02022760 0.01925420 0.01858230
0.00784314 0.03446140 0.03349750 0.03266170
0.01176470 0.04506650 0.04448010 0.04374870
0.01568630 0.05345450 0.05327320 0.05278870
0.01960780 0.06045670 0.06058090 0.06038220
0.02352940 0.06656950 0.06687190 0.06694290
0.02745100 0.07206490 0.07244810 0.07273580
0.03137250 0.07712670 0.07750210 0.07793970
0.03529410 0.08186140 0.08216680 0.08271280
0.03921570 0.08633570 0.08652840 0.08716090
0.04313730 0.09059530 0.09065010 0.09135010
0.04705880 0.09467500 0.09459110 0.09535380
0.05098040 0.09862220 0.09839640 0.09920850
0.05490200 0.10246800 0.10210800 0.10297100
0.05882350 0.10621800 0.10572900 0.10665100
0.06274510 0.10990100 0.10928500 0.11028100
0.06666670 0.11351300 0.11278000 0.11387100
0.07058820 0.11704400 0.11621300 0.11742100
0.07450980 0.12053000 0.11961400 0.12095700
0.07843140 0.12398000 0.12300200 0.12448600
0.08235290 0.12739600 0.12637600 0.12800800
0.08627450 0.13076800 0.12972400 0.13151500
0.09019610 0.13411200 0.13304800 0.13501400
0.09411760 0.13745500 0.13637900 0.13853200
0.09803920 0.14079900 0.13971700 0.14206800
0.10196100 0.14414100 0.14306000 0.14561900
0.10588200 0.14746400 0.14639500 0.14916600
0.10980400 0.15076100 0.14971300 0.15270700
0.11372500 0.15404300 0.15301900 0.15624400
0.11764700 0.15732900 0.15633300 0.15978400
0.12156900 0.16062800 0.15966000 0.16333900
0.12549000 0.16393900 0.16300500 0.16691500
0.12941200 0.16726700 0.16636700 0.17050800
0.13333300 0.17060400 0.16974000 0.17409800
0.13725500 0.17393700 0.17310400 0.17768500
0.14117600 0.17727400 0.17646300 0.18128400
0.14509800 0.18062700 0.17983000 0.18489900
0.14902000 0.18398900 0.18320200 0.18850300
0.15294100 0.18736500 0.18657300 0.19212000
0.15686300 0.19077400 0.18997100 0.19576100
0.16078400 0.19421600 0.19340100 0.19942600
0.16470600 0.19769100 0.19686300 0.20312100
0.16862700 0.20121400 0.20036600 0.20682600
0.17254900 0.20475200 0.20389600 0.21050500
0.17647100 0.20828800 0.20742200 0.21415300
0.18039200 0.21182000 0.21094200 0.21777300
0.18431400 0.21536400 0.21446100 0.22137100
0.18823500 0.21893900 0.21799400 0.22494600
0.19215700 0.22254200 0.22154000 0.22849000
0.19607800 0.22614200 0.22509000 0.23198200
0.20000000 0.22972300 0.22861600 0.23544800
0.20392200 0.23330900 0.23213800 0.23890200
0.20784300 0.23691300 0.23567800 0.24236000
0.21176500 0.24053500 0.23924000 0.24583200
0.21568600 0.24417400 0.24282300 0.24931900
0.21960800 0.24783600 0.24642700 0.25284100
0.22352900 0.25154100 0.25007200 0.25639500
0.22745100 0.25525200 0.25374400 0.25994700
0.23137300 0.25893800 0.25739600 0.26349600
0.23529400 0.26260000 0.26102500 0.26705400
0.23921600 0.26624900 0.26464300 0.27062000
0.24313700 0.26987200 0.26824400 0.27420200
0.24705900 0.27349500 0.27184300 0.27782700
0.25098000 0.27712200 0.27546100 0.28149300
0.25490200 0.28077400 0.27910500 0.28519700
0.25882400 0.28445300 0.28277800 0.28893100
0.26274500 0.28812400 0.28647100 0.29264800
0.26666700 0.29174200 0.29014500 0.29631700
0.27058800 0.29531400 0.29377200 0.29996200
0.27451000 0.29888100 0.29738000 0.30362900
0.27843100 0.30245900 0.30100400 0.30732300
0.28235300 0.30605100 0.30464200 0.31103300
0.28627500 0.30963400 0.30828200 0.31472800
0.29019600 0.31321700 0.31190700 0.31841300
0.29411800 0.31679500 0.31553000 0.32208300
0.29803900 0.32037900 0.31914800 0.32576300
0.30196100 0.32397400 0.32277400 0.32945500
0.30588200 0.32758200 0.32640800 0.33317100
0.30980400 0.33123400 0.33006600 0.33694600
0.31372500 0.33493400 0.33377700 0.34075400
0.31764700 0.33863800 0.33750800 0.34455500
0.32156900 0.34231800 0.34121900 0.34834600
0.32549000 0.34597100 0.34490800 0.35212900
0.32941200 0.34959900 0.34857600 0.35590600
0.33333300 0.35319600 0.35222800 0.35967100
0.33725500 0.35676900 0.35586100 0.36343800
0.34117600 0.36034300 0.35949800 0.36720000
0.34509800 0.36390500 0.36313300 0.37092000
0.34902000 0.36743100 0.36673300 0.37461700
0.35294100 0.37095800 0.37031800 0.37832400
0.35686300 0.37451600 0.37392900 0.38204100
0.36078400 0.37809500 0.37755600 0.38577100
0.36470600 0.38169600 0.38120100 0.38955000
0.36862700 0.38534200 0.38489300 0.39338900
0.37254900 0.38905200 0.38864400 0.39728800
0.37647100 0.39284300 0.39245800 0.40125100
0.38039200 0.39671700 0.39633600 0.40523100
0.38431400 0.40061100 0.40024000 0.40915900
0.38823500 0.40444800 0.40409100 0.41301000
0.39215700 0.40821400 0.40785700 0.41679800
0.39607800 0.41193500 0.41155200 0.42054800
0.40000000 0.41563900 0.41520000 0.42426100
0.40392200 0.41932700 0.41881400 0.42793000
0.40784300 0.42299800 0.42238600 0.43159200
0.41176500 0.42669100 0.42595600 0.43524300
0.41568600 0.43038700 0.42951600 0.43888700
0.41960800 0.43408000 0.43305900 0.44253500
0.42352900 0.43778500 0.43659900 0.44619000
0.42745100 0.44151300 0.44015100 0.44983500
0.43137300 0.44522900 0.44370800 0.45344500
0.43529400 0.44890700 0.44723500 0.45703700
0.43921600 0.45256600 0.45073900 0.46064300
0.44313700 0.45623000 0.45425700 0.46426300
0.44705900 0.45989700 0.45779800 0.46786300
0.45098000 0.46354100 0.46134000 0.47145200
0.45490200 0.46717900 0.46487900 0.47502400
0.45882400 0.47079500 0.46842200 0.47858600
0.46274500 0.47439600 0.47196300 0.48214100
0.46666700 0.47798300 0.47551200 0.48569000
0.47058800 0.48155300 0.47906400 0.48922800
0.47451000 0.48510700 0.48262000 0.49276600
0.47843100 0.48865600 0.48618500 0.49631000
0.48235300 0.49220500 0.48976800 0.49988600
0.48627500 0.49580300 0.49339300 0.50354700
0.49019600 0.49948800 0.49711200 0.50724400
0.49411800 0.50319000 0.50087900 0.51095100
0.49803900 0.50690200 0.50464500 0.51466800
0.50196100 0.51062600 0.50841100 0.51839500
0.50588200 0.51436200 0.51217600 0.52213500
0.50980400 0.51811400 0.51594100 0.52588700
0.51372500 0.52188300 0.51970600 0.52965000
0.51764700 0.52566000 0.52347200 0.53341500
0.52156900 0.52946200 0.52723100 0.53718300
0.52549000 0.53327000 0.53098900 0.54094400
0.52941200 0.53710100 0.53473100 0.54473600
0.53333300 0.54096900 0.53848600 0.54856100
0.53725500 0.54484100 0.54225900 0.55237400
0.54117600 0.54871000 0.54601100 0.55617700
0.54509800 0.55260900 0.54974600 0.56000300
0.54902000 0.55653500 0.55349600 0.56386000
0.55294100 0.56049200 0.55726400 0.56776300
0.55686300 0.56450400 0.56106700 0.57171800
0.56078400 0.56855900 0.56491500 0.57569500
0.56470600 0.57256500 0.56879500 0.57962700
0.56862700 0.57651700 0.57263900 0.58352300
0.57254900 0.58044600 0.57644100 0.58741800
0.57647100 0.58436800 0.58022700 0.59132200
0.58039200 0.58826500 0.58401400 0.59522700
0.58431400 0.59213600 0.58778800 0.59913300
0.58823500 0.59601100 0.59154600 0.60307000
0.59215700 0.59987800 0.59530800 0.60700700
0.59607800 0.60371900 0.59907500 0.61093800
0.60000000 0.60753400 0.60282700 0.61486700
0.60392200 0.61133700 0.60656600 0.61878700
0.60784300 0.61509900 0.61029600 0.62266000
0.61176500 0.61881700 0.61399300 0.62648200
0.61568600 0.62252100 0.61764500 0.63027800
0.61960800 0.62622700 0.62126300 0.63405900
0.62352900 0.62992400 0.62487700 0.63781500
0.62745100 0.63362400 0.62848400 0.64157800
0.63137300 0.63734300 0.63208300 0.64537200
0.63529400 0.64111100 0.63570900 0.64921800
0.63921600 0.64496400 0.63937500 0.65313400
0.64313700 0.64893000 0.64310800 0.65712800
0.64705900 0.65303100 0.64693000 0.66120600
0.65098000 0.65727700 0.65085200 0.66537300
0.65490200 0.66166500 0.65488000 0.66962200
0.65882400 0.66601400 0.65901800 0.67382800
0.66274500 0.67021000 0.66323600 0.67789300
0.66666700 0.67425300 0.66736000 0.68181500
0.67058800 0.67815800 0.67135100 0.68560300
0.67451000 0.68195800 0.67521600 0.68927900
0.67843100 0.68568200 0.67896400 0.69286300
0.68235300 0.68935600 0.68261900 0.69638100
0.68627500 0.69298600 0.68620800 0.69985700
0.69019600 0.69660800 0.68976200 0.70332600
0.69411800 0.70022900 0.69329300 0.70681200
0.69803900 0.70383400 0.69684100 0.71030900
0.70196100 0.70744000 0.70040900 0.71381700
0.70588200 0.71107300 0.70398600 0.71737400
0.70980400 0.71471600 0.70760900 0.72097700
0.71372500 0.71837600 0.71128400 0.72462700
0.71764700 0.72206400 0.71500100 0.72833000
0.72156900 0.72574400 0.71876500 0.73205800
0.72549000 0.72942500 0.72257000 0.73579100
0.72941200 0.73311000 0.72637900 0.73953900
0.73333300 0.73679300 0.73020300 0.74328800
0.73725500 0.74047700 0.73404000 0.74703200
0.74117600 0.74418800 0.73788200 0.75079400
0.74509800 0.74790300 0.74174100 0.75458600
0.74902000 0.75161000 0.74563300 0.75838700
0.75294100 0.75530900 0.74951900 0.76219600
0.75686300 0.75900100 0.75339500 0.76600400
0.76078400 0.76270600 0.75726200 0.76981800
0.76470600 0.76640100 0.76113100 0.77363400
0.76862700 0.77008300 0.76499900 0.77742000
0.77254900 0.77377500 0.76883700 0.78118900
0.77647100 0.77747700 0.77266000 0.78497500
0.78039200 0.78120500 0.77649400 0.78878800
0.78431400 0.78499400 0.78034700 0.79265000
0.78823500 0.78887100 0.78425400 0.79658700
0.79215700 0.79284100 0.78823600 0.80061000
0.79607800 0.79680400 0.79230000 0.80467100
0.80000000 0.80069300 0.79637800 0.80866900
0.80392200 0.80451700 0.80037400 0.81260500
0.80784300 0.80829800 0.80428700 0.81649000
0.81176500 0.81205700 0.80813600 0.82033700
0.81568600 0.81581700 0.81194500 0.82418600
0.81960800 0.81956200 0.81575200 0.82804300
0.82352900 0.82328300 0.81954900 0.83189700
0.82745100 0.82698800 0.82332500 0.83575200
0.83137300 0.83070100 0.82708600 0.83962100
0.83529400 0.83442400 0.83084500 0.84349500
0.83921600 0.83814700 0.83460400 0.84735600
0.84313700 0.84188300 0.83835200 0.85122100
0.84705900 0.84565000 0.84211100 0.85511600
0.85098000 0.84945700 0.84590000 0.85904400
0.85490200 0.85324900 0.84972500 0.86295200
0.85882400 0.85697200 0.85353400 0.86679400
0.86274500 0.86064000 0.85728300 0.87058000
0.86666700 0.86427100 0.86098200 0.87432500
0.87058800 0.86786500 0.86464800 0.87804400
0.87451000 0.87145400 0.86829100 0.88176400
0.87843100 0.87504800 0.87194400 0.88549300
0.88235300 0.87866400 0.87561000 0.88924400
0.88627500 0.88230300 0.87930300 0.89300000
0.89019600 0.88591000 0.88301000 0.89673300
0.89411800 0.88948500 0.88669400 0.90045800
0.89803900 0.89304400 0.89036500 0.90421500
0.90196100 0.89662200 0.89405000 0.90803200
0.90588200 0.90023000 0.89777700 0.91190200
0.90980400 0.90384400 0.90154400 0.91578200
0.91372500 0.90744500 0.90531200 0.91967000
0.91764700 0.91105000 0.90907500 0.92358600
0.92156900 0.91467500 0.91285700 0.92750900
0.92549000 0.91829900 0.91665400 0.93140800
0.92941200 0.92192100 0.92044000 0.93530400
0.93333300 0.92557400 0.92423900 0.93918200
0.93725500 0.92924100 0.92804600 0.94304500
0.94117600 0.93293300 0.93186300 0.94688600
0.94509800 0.93663900 0.93569500 0.95069900
0.94902000 0.94036400 0.93953600 0.95447000
0.95294100 0.94410200 0.94337700 0.95820000
0.95686300 0.94785400 0.94722100 0.96189300
0.96078400 0.95162200 0.95107300 0.96556100
0.96470600 0.95540700 0.95493400 0.96920700
0.96862700 0.95920500 0.95880200 0.97283500
0.97254900 0.96301600 0.96267700 0.97644500
0.97647100 0.96683700 0.96655900 0.98003800
0.98039200 0.97067100 0.97044700 0.98361400
0.98431400 0.97451600 0.97434100 0.98717200
0.98823500 0.97837300 0.97824200 0.99071300
0.99215700 0.98224200 0.98215000 0.99423800
0.99607800 0.98612200 0.98606500 0.99774600
1.00000000 0.99001500 0.98998600 1.00000000
END_DATA
CAL    

DESCRIPTOR "Argyll Calibration options and model"
ORIGINATOR "Argyll dispcal"
CREATED "Thu Dec 06 10:38:19 201"

NUMBER_OF_FIELDS 3
BEGIN_DATA_FORMAT
R_P G_P B_P
END_DATA_FORMAT

NUMBER_OF_SETS 32
BEGIN_DATA
-0.000395426 0.000335357 0.001309730
1.000395000 0.999665000 0.998690000
2.023387000 1.818505000 1.937950000
0.464526000 0.527675000 0.509927000
0.184918000 0.127516000 0.116728000
0.090250700 0.140178000 0.147664000
0.096441900 0.123814000 0.131218000
0.104000000 0.108580000 0.129860000
0.046845600 0.063677000 0.066950700
0.032522600 0.053419600 0.049103300
0.051953100 0.050894100 0.045680800
0.060114300 0.051059600 0.042025000
0.047213600 0.047947000 0.042629000
0.036080000 0.053222300 0.045725700
0.035381300 0.032874100 0.034712800
0.028776500 0.047984700 0.038134700
0.029463200 0.038272500 0.036606000
0.028282200 0.038765600 0.039295900
0.030646400 0.033766100 0.029901500
0.031736200 0.034998300 0.032087300
0.018359300 0.028482500 0.023618800
0.024688400 0.030677300 0.027205000
0.020404400 0.032826000 0.027230400
0.015975100 0.030408800 0.022475800
0.019164300 0.029110100 0.022900900
0.018389500 0.028596700 0.023233000
0.018851600 0.027094900 0.020948100
0.018208200 0.026435300 0.019836000
0.015684000 0.026197200 0.018652500
0.014702600 0.025372500 0.019684400
0.014628700 0.025355000 0.020475400
0.013725900 0.025063200 0.018382600
END_DATA
