KOIOS/K2721UG/K2721UG #1 2023-02-11 22-36 0.3127x 0.329y sRGB F-S XYZLUT+MTX ColorMunki Design_Phot/K2721UG #1 2023-02-11 22-36 0.3127x 0.329y sRGB F-S XYZLUT+MTX ColorMunki Design_Phot.ti1
CTI1   

DESCRIPTOR "Argyll Calibration Target chart information 1"
ORIGINATOR "Argyll targen"
CREATED "Sat Feb 11 22:54:56 2023"
APPROX_WHITE_POINT "94.722075 98.532990 110.450693"
COLOR_REP "RGB"
ACCURATE_EXPECTED_VALUES "true"
DARK_REGION_EMPHASIS "1.6"
WHITE_COLOR_PATCHES "4"
BLACK_COLOR_PATCHES "4"
SINGLE_DIM_STEPS "21"
COMP_GREY_STEPS "61"
OFPS_PATCHES "435"

NUMBER_OF_FIELDS 7
BEGIN_DATA_FORMAT
SAMPLE_ID RGB_R RGB_G RGB_B XYZ_X XYZ_Y XYZ_Z
END_DATA_FORMAT

NUMBER_OF_SETS 588
BEGIN_DATA
1 100.0000 100.0000 100.0000 94.72208 98.53299 110.4507
2 1.960800 1.960800 1.960800 1.142800 1.150200 1.163700
3 3.921600 3.921600 3.921600 1.285600 1.300500 1.327300
4 5.882400 5.882400 5.882400 1.449500 1.472900 1.515200
5 9.803900 9.803900 9.803900 1.914800 1.962400 2.048400
6 13.72600 13.72600 13.72600 2.581700 2.663900 2.812600
7 17.64700 17.64700 17.64700 3.469500 3.597900 3.830000
8 21.56900 21.56900 21.56900 4.595300 4.782200 5.120100
9 25.49000 25.49000 25.49000 5.974500 6.233200 6.700700
10 29.41200 29.41200 29.41200 7.621300 7.965600 8.587900
11 33.33300 33.33300 33.33300 9.548800 9.993300 10.79700
12 37.25500 37.25500 37.25500 11.76900 12.32900 13.34100
13 41.17600 41.17600 41.17600 14.29400 14.98500 16.23400
14 45.09800 45.09800 45.09800 17.13400 17.97300 19.48900
15 49.02000 49.02000 49.02000 20.29900 21.30300 23.11700
16 52.94100 52.94100 52.94100 23.80000 24.98600 27.12900
17 56.86300 56.86300 56.86300 27.64600 29.03200 31.53600
18 60.78400 60.78400 60.78400 31.84600 33.45000 36.34900
19 64.70600 64.70600 64.70600 36.40900 38.25000 41.57800
20 68.62700 68.62700 68.62700 41.34300 43.44000 47.23200
21 72.54900 72.54900 72.54900 46.65600 49.03000 53.32100
22 76.47100 76.47100 76.47100 52.35600 55.02700 59.85300
23 80.39200 80.39200 80.39200 58.45200 61.43900 66.83800
24 84.31400 84.31400 84.31400 64.94900 68.27500 74.28500
25 88.23500 88.23500 88.23500 71.85700 75.54100 82.20000
26 92.15700 92.15700 92.15700 79.18100 83.24600 90.59400
27 96.07800 96.07800 96.07800 86.92900 91.39700 99.47200
28 68.47840 55.48250 58.57870 33.93665 30.63903 33.19769
29 68.65190 85.33680 69.90230 48.99288 62.68613 50.73631
30 0.000000 51.46120 38.72900 8.778742 16.99223 14.17914
31 0.000000 72.61810 55.52490 19.00475 37.01708 30.41066
32 52.15140 76.75290 56.48150 31.96904 46.63142 31.99333
33 75.73250 81.02800 59.45110 49.13034 58.74064 36.13003
34 27.34560 28.33240 0.000000 4.782479 6.055353 0.560758
35 74.96340 74.84810 0.000000 39.60371 49.21921 3.236631
36 100.0000 83.21780 0.000000 66.19152 69.75542 4.333953
37 100.0000 100.0000 51.23770 79.27526 93.54032 29.22403
38 10.20410 0.000000 0.000000 0.611971 0.337873 0.198559
39 13.15790 0.000000 0.000000 0.882618 0.463362 0.203367
40 16.30430 0.000000 0.000000 1.233787 0.626188 0.209605
41 19.66290 0.000000 0.000000 1.663660 0.825506 0.217241
42 23.25580 0.000000 0.000000 2.217516 1.082311 0.227080
43 27.10840 0.000000 0.000000 2.949270 1.421601 0.240079
44 31.25000 0.000000 0.000000 3.912255 1.868106 0.257185
45 35.71430 0.000000 0.000000 5.098672 2.418209 0.278260
46 43.24940 0.000000 0.000000 7.486734 3.525475 0.320681
47 45.77470 0.000000 0.000000 8.396879 3.947479 0.336849
48 51.47060 0.000000 0.000000 10.82749 5.074473 0.380025
49 57.69230 0.000000 0.000000 14.01108 6.550603 0.436578
50 64.51610 0.000000 0.000000 17.88744 8.347941 0.505436
51 72.03390 0.000000 0.000000 23.06100 10.74675 0.597338
52 80.35710 0.000000 0.000000 29.35923 13.66704 0.709218
53 89.62260 0.000000 0.000000 37.26127 17.33095 0.849588
54 100.0000 0.000000 100.0000 67.68968 28.64670 105.6034
55 100.0000 32.91660 100.0000 70.14774 35.00147 106.0442
56 31.45810 45.09040 79.67560 20.61414 17.78658 64.20110
57 30.45750 47.26420 100.0000 28.74729 21.51502 105.7435
58 35.72450 59.52950 100.0000 33.64083 31.21969 106.3966
59 100.0000 0.000000 30.57090 49.31267 22.70695 8.968400
60 100.0000 0.000000 44.62540 51.08963 23.28129 18.31246
61 100.0000 46.96100 48.03120 56.74119 36.59108 22.24724
62 44.67360 35.53880 0.000000 10.86783 11.20465 0.846100
63 58.11460 36.56410 0.000000 17.28251 14.53291 0.987003
64 76.87510 59.38840 0.000000 35.13450 34.60993 2.202606
65 81.22530 100.0000 0.000000 57.09609 83.87996 5.569022
66 100.0000 100.0000 0.000000 74.83674 92.10572 5.884162
67 100.0000 100.0000 28.56610 76.14736 92.52933 12.77602
68 0.000000 51.47060 0.000000 6.333234 16.20756 1.306594
69 0.000000 57.69230 0.000000 8.178070 20.97697 1.637399
70 0.000000 64.51610 0.000000 10.46160 26.88054 2.046869
71 100.0000 70.54070 0.000000 60.59162 55.27813 3.329813
72 100.0000 72.28710 28.45320 62.59163 57.50834 10.29063
73 25.70230 8.193500 15.90840 3.308093 1.977002 2.534245
74 58.95860 13.26220 41.70230 17.96967 8.897858 15.51226
75 62.35860 14.75720 58.54720 23.03868 10.99507 31.85522
76 73.52860 0.000000 100.0000 43.96220 17.64504 105.1819
77 100.0000 52.96570 100.0000 74.33772 45.83375 106.7955
78 0.000000 0.000000 10.20410 0.311121 0.169228 1.280901
79 0.000000 0.000000 13.15790 0.411851 0.201786 1.810588
80 0.000000 0.000000 16.30430 0.553274 0.247496 2.554256
81 0.000000 0.000000 19.66290 0.741278 0.308262 3.542874
82 0.000000 0.000000 23.25580 0.974892 0.383770 4.771326
83 0.000000 0.000000 27.10840 1.280083 0.482413 6.376166
84 0.000000 0.000000 31.25000 1.681795 0.612253 8.488558
85 0.000000 0.000000 35.71430 2.177219 0.772382 11.09373
86 0.000000 0.000000 40.54050 2.792623 0.971291 14.32982
87 0.000000 0.000000 45.77470 3.575910 1.224462 18.44871
88 0.000000 0.000000 51.47060 4.585223 1.550689 23.75616
89 0.000000 0.000000 57.69230 5.858401 1.962201 30.45113
90 0.000000 0.000000 64.51610 7.517860 2.498565 39.17735
91 0.000000 0.000000 72.03390 9.589399 3.168121 50.07048
92 0.000000 0.000000 80.35710 12.33570 4.055770 64.51182
93 0.000000 0.000000 89.62260 15.64198 5.124414 81.89780
94 0.000000 34.38560 100.0000 22.68199 13.49176 105.2390
95 44.00060 38.62770 100.0000 31.02892 18.85467 105.5009
96 73.23990 43.68720 100.0000 48.11262 28.79461 105.9581
97 2.336400 2.336400 2.336400 0.223754 0.229509 0.331523
98 3.144700 3.144700 3.144700 0.290583 0.301005 0.404805
99 3.968300 3.968300 3.968300 0.365919 0.381888 0.488724
100 4.807700 4.807700 4.807700 0.448389 0.469977 0.580235
101 5.663400 5.663400 5.663400 0.536981 0.564226 0.680609
102 6.535900 6.535900 6.535900 0.632631 0.664079 0.791297
103 7.425700 7.425700 7.425700 0.733998 0.769810 0.909315
104 8.333300 8.333300 8.333300 0.847525 0.885227 1.043404
105 9.259300 9.259300 9.259300 0.969525 1.008630 1.186119
106 10.20410 10.20410 10.20410 1.106504 1.146895 1.341393
107 11.16840 11.16840 11.16840 1.256050 1.296895 1.507928
108 12.15280 12.15280 12.15280 1.427781 1.470019 1.696729
109 13.15790 13.15790 13.15790 1.615072 1.659621 1.900488
110 14.18440 14.18440 14.18440 1.824100 1.873147 2.134969
111 15.23300 15.23300 15.23300 2.051073 2.106549 2.393460
112 16.30430 16.30430 16.30430 2.299524 2.364171 2.684798
113 17.39930 17.39930 17.39930 2.567887 2.643920 3.005193
114 18.51850 18.51850 18.51850 2.856304 2.945890 3.353031
115 19.66290 19.66290 19.66290 3.168819 3.274238 3.726134
116 20.83330 20.83330 20.83330 3.507412 3.630983 4.127535
117 22.03070 22.03070 22.03070 3.877770 4.023769 4.556990
118 23.25580 23.25580 23.25580 4.285261 4.457036 5.023414
119 24.50980 24.50980 24.50980 4.731228 4.931343 5.532156
120 25.79360 25.79360 25.79360 5.220666 5.450261 6.092997
121 27.10840 27.10840 27.10840 5.754485 6.012529 6.718766
122 28.45530 28.45530 28.45530 6.340103 6.629463 7.404263
123 29.83540 29.83540 29.83540 6.982872 7.309159 8.150715
124 31.25000 31.25000 31.25000 7.688810 8.061521 8.950407
125 32.70040 32.70040 32.70040 8.442227 8.867418 9.802941
126 34.18800 34.18800 34.18800 9.239265 9.717345 10.71937
127 35.71430 35.71430 35.71430 10.08106 10.60837 11.70404
128 37.28070 37.28070 37.28070 10.97799 11.54447 12.75978
129 38.88890 38.88890 38.88890 11.95436 12.55322 13.89465
130 40.54050 40.54050 40.54050 13.00667 13.63678 15.11506
131 42.23740 42.23740 42.23740 14.12533 14.79979 16.42780
132 43.98150 43.98150 43.98150 15.33431 16.07111 17.86410
133 45.77470 45.77470 45.77470 16.66947 17.47981 19.45679
134 47.61910 47.61910 47.61910 18.15264 19.04595 21.20658
135 49.51690 49.51690 49.51690 19.77592 20.76198 23.07972
136 51.47060 51.47060 51.47060 21.53880 22.62843 25.06372
137 53.48260 53.48260 53.48260 23.47015 24.67339 27.20367
138 55.55560 55.55560 55.55560 25.58302 26.90653 29.55921
139 57.69230 57.69230 57.69230 27.84041 29.28548 32.14605
140 59.89580 59.89580 59.89580 30.23056 31.79980 34.96035
141 62.16930 62.16930 62.16930 32.79955 34.50326 38.01540
142 64.51610 64.51610 64.51610 35.65975 37.52275 41.35060
143 66.93990 66.93990 66.93990 38.88638 40.94608 44.99327
144 69.44440 69.44440 69.44440 42.35630 44.63773 48.81530
145 72.03390 72.03390 72.03390 45.93287 48.41941 52.87860
146 74.71260 74.71260 74.71260 49.68578 52.32692 57.47480
147 77.48540 77.48540 77.48540 53.91513 56.68992 62.62703
148 80.35710 80.35710 80.35710 58.59887 61.58983 68.08120
149 83.33330 83.33330 83.33330 63.44567 66.73946 73.71737
150 86.41970 86.41970 86.41970 68.65107 72.13338 79.75483
151 89.62260 89.62260 89.62260 74.29724 77.93045 86.41268
152 92.94870 92.94870 92.94870 80.63636 84.57004 93.51023
153 96.40520 96.40520 96.40520 87.73883 92.06938 101.3757
154 0.000000 100.0000 32.15450 28.80874 70.52910 13.83305
155 0.000000 100.0000 55.50560 32.41466 71.69460 32.79468
156 26.60080 100.0000 69.52000 38.65353 74.09619 51.23261
157 86.79820 100.0000 100.0000 81.65026 92.47202 110.2185
158 0.000000 2.336400 0.000000 0.139036 0.193823 0.195887
159 0.000000 4.807700 0.000000 0.206240 0.367563 0.207938
160 0.000000 7.425700 0.000000 0.289068 0.581698 0.222790
161 0.000000 10.20410 0.000000 0.390562 0.844086 0.240989
162 0.000000 13.15790 0.000000 0.527753 1.198765 0.265590
163 15.61940 19.06850 0.000000 1.972537 2.707657 0.355140
164 25.06980 29.82930 38.51230 6.952145 7.154632 13.31478
165 29.35080 0.000000 17.06940 3.934616 1.809701 2.823721
166 56.04670 0.000000 45.93570 16.63465 7.275628 18.82043
167 74.86540 0.000000 61.73110 31.72021 13.82001 35.89052
168 73.54370 0.000000 77.83370 35.45550 14.89700 60.39511
169 17.35630 0.000000 27.61790 2.584089 1.080623 6.638656
170 35.21300 0.000000 35.15420 6.968429 3.003168 10.83336
171 44.51620 49.94150 63.11360 20.80252 21.06079 38.44750
172 44.06140 71.91450 85.51960 35.11679 42.66610 76.39295
173 0.000000 75.21600 81.17970 27.28743 42.07372 68.62193
174 0.000000 84.07630 100.0000 38.78556 55.12398 108.1266
175 0.000000 100.0000 100.0000 47.02131 76.41571 109.6033
176 10.10070 24.63620 55.77350 7.281566 5.528838 28.49503
177 60.75400 29.13460 64.15740 24.87888 14.57315 39.29845
178 100.0000 46.73120 66.64910 60.81623 37.78415 43.95431
179 100.0000 62.37760 68.42320 65.87098 49.75366 47.32706
180 100.0000 87.48160 71.00520 77.42788 78.01453 53.02998
181 100.0000 100.0000 70.89140 83.99522 95.06589 54.04382
182 15.95240 68.16760 79.39420 24.90943 34.99457 64.92713
183 23.64390 90.81090 100.0000 44.28868 64.72452 108.7611
184 42.11680 100.0000 100.0000 54.01947 79.66052 109.7277
185 40.54050 0.000000 0.000000 6.580103 3.105100 0.304576
186 40.81640 15.75050 9.415300 7.434428 4.704285 1.377631
187 0.764500 0.764500 0.764500 0.121392 0.121050 0.212278
188 0.000000 0.000000 0.000000 0.103575 0.102146 0.189528
189 0.000000 23.55180 31.28890 2.912803 3.785623 8.729790
190 50.17840 66.34980 31.25630 22.88451 33.93435 10.65734
191 100.0000 100.0000 100.0000 94.72208 98.53299 110.4507
192 25.87010 44.37620 31.79390 8.825510 13.44641 9.637400
193 45.26880 76.19560 34.40110 25.21264 43.47862 13.13742
194 0.000000 0.000000 100.0000 19.98891 6.529416 104.7561
195 0.000000 20.30870 100.0000 20.90980 8.910155 104.9212
196 0.000000 46.92320 100.0000 25.05629 19.63001 105.6647
197 0.000000 58.06290 100.0000 28.17858 27.70200 106.2246
198 0.000000 68.41200 100.0000 31.90294 37.33050 106.8924
199 25.54600 17.35580 35.94960 5.427400 3.739135 11.41012
200 83.50260 21.05480 35.61210 34.94249 18.05850 11.77177
201 100.0000 27.14650 35.17780 51.44819 27.09197 11.90181
202 100.0000 0.000000 0.000000 47.80434 22.21943 1.036873
203 100.0000 0.000000 16.17940 48.24775 22.36274 3.368506
204 100.0000 0.000000 62.36310 54.66583 24.43718 37.11783
205 0.000000 13.89290 29.73550 1.993414 1.765417 7.764074
206 0.000000 14.10860 46.07970 4.104121 2.475430 18.80075
207 0.000000 27.16640 49.68840 5.895514 5.674498 22.33775
208 0.000000 28.50380 69.94920 10.80397 7.646214 47.28380
209 0.000000 49.53150 72.27400 15.37552 17.96676 51.46749
210 65.70470 56.66550 75.56820 37.02202 32.18511 57.64325
211 100.0000 56.05360 82.96150 68.49079 46.02316 71.38088
212 100.0000 72.62690 100.0000 81.31162 63.86322 108.0460
213 0.000000 45.77470 0.000000 4.903834 12.51216 1.050283
214 27.65760 55.66040 0.000000 10.51253 20.72936 1.577594
215 49.67490 62.56750 0.000000 19.66429 29.65688 2.096838
216 60.56540 100.0000 0.000000 42.59613 77.15681 5.311448
217 60.66300 100.0000 27.36040 43.84892 77.56929 11.61715
218 82.59760 100.0000 53.10990 62.98594 85.93766 30.79437
219 67.55520 69.98380 26.36240 33.60776 42.12801 8.639096
220 100.0000 85.49830 27.22940 68.46998 72.96016 10.77294
221 100.0000 85.37010 50.83710 71.58673 73.82999 27.47116
222 100.0000 88.08900 85.97410 82.70718 80.39003 79.28859
223 0.000000 0.000000 0.000000 0.103575 0.102146 0.189528
224 4.807700 0.000000 0.000000 0.275506 0.181864 0.192583
225 7.425700 0.000000 0.000000 0.419015 0.248405 0.195132
226 19.97420 15.87810 23.88710 3.210754 2.660835 5.140789
227 27.84080 50.32200 76.71310 20.01003 20.35313 59.06633
228 60.36820 56.18070 100.0000 42.94651 33.31133 106.3926
229 64.18490 71.21940 100.0000 50.62298 48.43754 107.4098
230 0.000000 27.10840 0.000000 1.732281 4.312807 0.481578
231 0.000000 31.25000 0.000000 2.301909 5.785454 0.583721
232 0.000000 35.71430 0.000000 3.012324 7.622075 0.711108
233 0.000000 40.54050 0.000000 3.841098 9.764686 0.859719
234 0.000000 55.68580 25.98040 8.638058 19.72507 7.201043
235 14.57470 59.56250 37.76720 12.02398 23.68529 13.98568
236 28.21400 70.64470 71.12130 25.23901 37.67916 51.04820
237 86.41090 100.0000 74.26680 71.59161 89.17249 59.13129
238 100.0000 100.0000 87.24720 89.47611 96.83741 82.86493
239 26.64400 0.000000 50.21320 7.105441 2.751582 22.59381
240 42.04870 0.000000 100.0000 26.96407 9.763565 104.8800
241 58.93970 22.70950 100.0000 35.70634 16.23881 105.2197
242 58.88350 79.39690 100.0000 51.08327 56.05712 107.9819
243 100.0000 100.0000 100.0000 94.72208 98.53299 110.4507
244 0.000000 16.30430 0.000000 0.719614 1.694778 0.299993
245 0.000000 18.89040 14.54240 1.274626 2.302650 2.256409
246 0.000000 31.13190 29.56920 3.691968 6.193970 7.984858
247 0.000000 36.49370 49.33120 7.230795 9.272859 22.24872
248 49.67920 38.54200 57.98350 19.21296 15.31973 31.57890
249 89.27810 59.68640 72.62360 55.31496 42.81127 53.21256
250 32.75660 22.33210 0.000000 5.406218 4.903554 0.462112
251 34.42900 76.51370 0.000000 19.97118 41.61501 3.002007
252 33.14920 100.0000 43.44180 34.54247 72.98672 21.43228
253 43.27670 100.0000 59.20040 40.62739 75.38738 37.23881
254 69.00960 100.0000 67.82960 56.30333 82.34498 49.11488
255 0.000000 54.52790 64.66150 14.66117 20.87961 40.65229
256 0.000000 67.32450 86.20640 25.82809 34.35399 77.22258
257 0.000000 0.000000 2.336400 0.129169 0.110418 0.324114
258 0.000000 0.000000 4.807700 0.173794 0.124842 0.558771
259 0.000000 0.000000 7.425700 0.233065 0.143999 0.870450
260 15.09950 0.000000 13.15490 1.401553 0.660694 1.827556
261 27.93150 37.51810 21.99380 7.115313 10.04624 4.945733
262 35.24110 49.07980 50.21310 14.81925 18.20826 23.63530
263 59.89270 61.21470 49.43700 28.50629 32.21311 23.72236
264 0.000000 19.66290 0.000000 0.971031 2.344761 0.345075
265 0.000000 23.25580 0.000000 1.300003 3.195247 0.404065
266 0.000000 80.35710 0.000000 17.11109 44.07132 3.239215
267 0.000000 89.62260 0.000000 21.60115 55.67938 4.044347
268 0.000000 100.0000 0.000000 27.13597 69.98844 5.036818
269 35.15980 100.0000 0.000000 31.97847 72.23374 5.122839
270 43.13020 45.94110 16.91040 12.76461 16.16900 3.716885
271 73.97440 47.91130 27.85350 30.93444 25.48143 8.111686
272 100.0000 58.62300 26.25800 57.27246 44.20299 8.334943
273 100.0000 71.87650 49.51810 65.25184 57.99453 25.11819
274 1.543200 1.543200 1.543200 0.164770 0.166956 0.263462
275 0.000000 10.69930 15.44530 0.817899 1.027309 2.386863
276 38.61690 31.94570 27.38430 9.463711 9.163592 7.022763
277 26.00520 11.73100 0.000000 3.078741 2.230452 0.299397
278 44.41290 20.31700 0.000000 8.814405 6.096298 0.493146
279 62.54740 23.08390 0.000000 17.86231 10.83738 0.695436
280 66.81850 26.51650 32.15330 22.65356 13.62730 9.607558
281 100.0000 51.53840 36.44030 56.21330 39.07091 13.52013
282 100.0000 26.85970 0.000000 49.40299 26.35238 1.323533
283 100.0000 44.11380 0.000000 52.24098 33.68939 1.832425
284 100.0000 58.11310 0.000000 56.00974 43.43267 2.508216
285 0.000000 72.03390 0.000000 13.48963 34.70883 2.589837
286 0.000000 74.36430 25.86820 15.49338 37.46928 8.382462
287 0.000000 85.40240 77.48570 30.78542 53.97731 62.82676
288 0.000000 100.0000 77.11450 38.25765 73.58315 63.51988
289 51.55430 100.0000 75.07680 48.33536 78.35209 60.10777
290 68.48760 100.0000 100.0000 67.51161 85.91639 109.9673
291 0.000000 17.13090 70.62470 9.860219 4.779365 48.07329
292 38.21600 26.82180 84.50810 21.08004 11.29267 72.37272
293 82.03220 72.77960 100.0000 64.27669 56.09315 107.7532
294 85.08630 86.23820 100.0000 72.94321 73.15804 108.9006
295 100.0000 88.00350 100.0000 88.37635 82.12751 109.3128
296 46.82410 0.000000 15.57530 9.219938 4.270993 2.519806
297 50.05670 0.000000 29.38610 11.56878 5.222967 7.677542
298 54.08480 0.000000 82.86710 25.19885 9.899949 69.21949
299 0.000000 43.62530 45.85530 7.924637 12.43701 19.29614
300 30.58850 56.87890 54.26670 16.58994 23.63478 28.07101
301 100.0000 62.40810 53.85410 62.34506 48.63757 28.73326
302 72.06620 0.000000 29.85450 24.51984 11.22142 8.150958
303 100.0000 0.000000 80.35820 60.03683 26.17317 65.36111
304 100.0000 31.97390 79.71430 62.12821 32.07288 64.62936
305 40.42090 24.73450 31.75190 9.523959 7.111782 9.119671
306 70.36240 31.92650 46.43510 27.79732 17.32347 19.83003
307 73.50730 64.30360 48.75580 38.33007 39.07486 23.43230
308 72.80280 100.0000 86.53880 64.99394 85.52238 81.06585
309 20.00190 84.25840 85.25190 34.50978 54.16436 76.77756
310 25.34380 100.0000 87.45400 44.34562 75.90106 82.46670
311 15.95160 29.66820 30.06150 4.613386 6.157116 8.222357
312 26.28660 36.19750 39.00270 8.252847 9.869783 13.83356
313 31.15320 52.10310 69.37310 19.02686 21.23586 47.33982
314 38.65170 63.30830 69.35300 24.61382 31.27717 47.97747
315 20.13660 24.66590 16.57780 3.539084 4.484658 2.897731
316 45.66930 58.15390 15.06980 16.96472 25.30113 3.857483
317 55.61240 74.92830 20.60880 28.15534 43.88334 6.686135
318 65.77990 76.77850 37.87960 36.39933 49.15187 15.57184
319 74.97840 85.02880 79.76240 56.38204 65.35848 67.35011
320 86.09650 10.15030 24.54040 35.35978 16.91807 5.919930
321 85.02340 2.986700 39.84420 35.81886 16.40661 14.43202
322 88.44000 28.70330 51.77890 42.56474 23.04065 25.02759
323 87.55660 36.21910 65.30960 46.02044 26.66671 41.45035
324 77.19870 0.000000 46.31450 30.34387 13.62325 19.39565
325 86.02660 13.46290 91.49760 50.74600 22.23580 86.35793
326 37.56520 7.611600 64.57050 13.25322 5.562538 39.38510
327 43.34450 16.41460 87.54680 22.89400 9.920365 78.00115
328 55.39260 37.36940 89.57910 31.49566 19.22755 82.60576
329 17.92110 6.289700 41.15300 4.354354 1.998575 14.82242
330 21.43800 18.88790 47.12830 6.429578 4.223820 19.83277
331 37.02940 24.93050 49.73830 11.01311 7.492720 22.43390
332 37.85340 37.27710 50.53290 13.19606 12.28436 23.51733
333 59.79710 47.01040 58.75310 26.22778 22.16814 32.89727
334 30.56770 21.06660 23.13590 5.590241 4.619430 4.968466
335 30.69840 25.44070 35.95500 7.307690 6.186165 11.56683
336 42.93310 30.02330 43.10120 12.44676 9.673218 16.73015
337 56.98790 36.10590 46.38700 20.18243 15.21615 19.76010
338 61.63490 84.21560 51.41040 39.49507 57.75908 27.36499
339 15.12810 88.12760 21.64280 22.60618 54.44707 7.934467
340 35.59060 100.0000 25.85560 33.16562 72.63409 10.74474
341 62.60730 100.0000 48.23840 47.64746 78.95160 25.82454
342 0.000000 0.000000 0.000000 0.103575 0.102146 0.189528
343 6.826800 11.68850 21.35870 1.478964 1.379991 4.167143
344 9.198600 26.49020 39.72230 4.668856 5.154467 14.03586
345 14.47700 58.70940 62.07080 16.20548 24.42086 37.41040
346 72.80380 74.56930 63.69190 45.18616 50.55360 41.04630
347 46.83750 89.12880 30.59810 31.56878 59.55524 12.10003
348 82.16250 89.90720 76.13450 63.24430 73.78288 61.34525
349 100.0000 100.0000 100.0000 94.72208 98.53299 110.4507
350 8.493400 29.20410 18.92330 2.981601 5.384981 3.659304
351 22.45840 34.44940 27.76690 6.022685 8.408698 7.207330
352 39.72660 47.69780 34.52650 13.50174 17.19050 11.41628
353 21.08040 31.90680 9.598600 4.356396 6.924818 1.629059
354 63.31690 43.90070 18.03070 22.07592 19.53249 4.131997
355 84.94460 67.16260 40.85270 47.23749 45.75985 17.18478
356 91.05330 72.58220 57.33100 57.87509 54.95473 33.15090
357 32.45810 34.50530 25.00540 7.936984 9.348503 6.013190
358 43.66660 34.36570 36.82540 12.52816 11.25972 12.41471
359 45.73380 39.94660 47.47480 15.77373 14.54056 20.77194
360 47.10330 58.12860 63.23610 24.21105 27.70429 39.05830
361 49.35860 58.14660 82.75250 31.13321 30.08790 70.44602
362 20.50720 35.58680 50.76870 9.023502 9.754536 23.62397
363 75.35180 37.69370 68.30560 37.04462 22.91080 45.61835
364 91.19390 61.16410 86.41270 62.25153 46.38830 77.89323
365 55.38880 18.82540 8.953800 13.76154 8.108807 1.456631
366 65.49960 51.00900 11.39480 24.88050 24.50820 2.900655
367 79.12860 56.25910 22.64460 36.81683 33.19662 6.419124
368 90.26780 58.55440 35.37320 48.22899 39.83307 13.04890
369 55.25520 35.32160 34.26380 17.47095 13.92496 10.94068
370 74.26300 41.10070 36.87280 30.64098 22.09993 12.95281
371 86.42440 61.92530 52.29830 48.47470 41.90194 26.87562
372 88.35370 67.43250 67.03040 55.71910 49.17271 45.45293
373 87.64600 33.73200 32.63450 39.79598 23.75524 10.34897
374 86.39950 40.81040 48.49420 42.10727 27.05912 22.20779
375 89.94170 42.62850 82.52770 54.65655 32.34412 69.80251
376 10.26950 4.283800 14.77300 1.080216 0.687291 2.190309
377 12.49140 42.52990 59.90630 11.19425 13.09280 33.88287
378 34.54780 42.54400 64.75250 16.37172 15.32911 40.32599
379 34.42190 80.36460 89.51170 37.25151 51.24092 84.80682
380 53.29010 100.0000 88.69510 53.92773 80.27823 85.08991
381 88.04610 100.0000 89.42490 78.33451 91.55580 86.98090
382 35.97400 88.08350 12.79760 26.19190 56.12943 5.544514
383 62.12850 88.75410 19.59930 38.13423 62.32297 7.588874
384 14.28610 40.47010 18.42000 5.292070 10.33065 3.842947
385 32.19170 56.80650 19.19500 12.56231 22.33955 4.866275
386 84.01950 77.42870 17.24270 48.45538 55.61451 6.189075
387 84.69040 89.12640 28.73390 55.46089 70.65656 11.55785
388 15.62280 47.69130 13.46250 6.726637 14.27247 2.835511
389 40.44360 70.77130 13.26800 19.73999 36.48788 4.257389
390 85.96020 89.58630 10.03660 55.67093 71.40852 5.707704
391 89.92570 56.20610 12.77610 45.44536 37.23816 3.764176
392 15.98880 11.00340 0.000000 1.515735 1.435241 0.266265
393 39.66970 12.05470 21.74650 7.431316 4.173764 4.408067
394 52.56670 23.48380 30.27650 14.05197 8.950192 8.382461
395 71.40530 0.000000 16.31280 23.07639 10.69067 2.956569
396 100.0000 40.64500 18.19460 52.11285 32.10995 4.612095
397 74.90820 25.71280 12.29350 26.78584 15.54016 2.349065
398 78.02930 24.67620 73.07780 38.59640 19.43053 52.45462
399 81.85200 67.18020 81.20360 54.49525 47.76520 68.62102
