KOIOS/K2721UG/K2721UG #1 2023-02-11 22-36 0.3127x 0.329y sRGB F-S XYZLUT+MTX ColorMunki Design_Phot/K2721UG #1 2023-02-11 22-36 0.3127x 0.329y sRGB F-S XYZLUT+MTX ColorMunki Design_Phot.cal
CAL    

DESCRIPTOR "Argyll Device Calibration Curves"
ORIGINATOR "Argyll dispcal"
CREATED "Sat Feb 11 22:52:14 2023"
DEVICE_CLASS "DISPLAY"
COLOR_REP "RGB"
VIDEO_LUT_CALIBRATION_POSSIBLE "YES"
TV_OUTPUT_ENCODING "NO"
DEVICE_TYPE "l"
TARGET_WHITE_XYZ "246.769009 259.632248 282.754512"
TARGET_GAMMA "sRGB"
DEGREE_OF_BLACK_OUTPUT_OFFSET "1.0"
BLACK_POINT_CORRECTION "0.0"
BLACK_NEUTRAL_BLEND_RATE "4.0"
BLACK_POINT_HACK "YES"
QUALITY "low"

BEGIN_ARGYLL_DISPCAL_ARGS
-v2 -d1 -c1 -yl -P0.466419638722,0.405010438413,2.61430793157 -F -H -Ib -ql -m -w0.3127,0.329 -gs -f1.0 -k0 -A4.0 -b
END_ARGYLL_DISPCAL_ARGS


NUMBER_OF_FIELDS 4
BEGIN_DATA_FORMAT
RGB_I RGB_R RGB_G RGB_B
END_DATA_FORMAT

NUMBER_OF_SETS 256
BEGIN_DATA
0.00000000 0.00000000 0.00000000 0.00000000
0.00392157 0.00862310 0.00883995 0.00963520
0.00784314 0.01648510 0.01678760 0.01827150
0.01176470 0.02368240 0.02397160 0.02605650
0.01568630 0.03029590 0.03049700 0.03311030
0.01960780 0.03638310 0.03644280 0.03952300
0.02352940 0.04196610 0.04188160 0.04537690
0.02745100 0.04711360 0.04689180 0.05077190
0.03137250 0.05189300 0.05153240 0.05578210
0.03529410 0.05636150 0.05587310 0.06046910
0.03921570 0.06058320 0.05998600 0.06490520
0.04313730 0.06461820 0.06392230 0.06914970
0.04705880 0.06851880 0.06772300 0.07325060
0.05098040 0.07232800 0.07142230 0.07724140
0.05490200 0.07607450 0.07504230 0.08114730
0.05882350 0.07977590 0.07859860 0.08498770
0.06274510 0.08344820 0.08210790 0.08877730
0.06666670 0.08709500 0.08557850 0.09252180
0.07058820 0.09071780 0.08901710 0.09622290
0.07450980 0.09431640 0.09242710 0.09988490
0.07843140 0.09789970 0.09581800 0.10351800
0.08235290 0.10146100 0.09918540 0.10711900
0.08627450 0.10499500 0.10252700 0.11069400
0.09019610 0.10851300 0.10585500 0.11425600
0.09411760 0.11200600 0.10916200 0.11779900
0.09803920 0.11546400 0.11244200 0.12131500
0.10196100 0.11889200 0.11569500 0.12481500
0.10588200 0.12229500 0.11893400 0.12830300
0.10980400 0.12566200 0.12214900 0.13177000
0.11372500 0.12899400 0.12534100 0.13522000
0.11764700 0.13228300 0.12850500 0.13864600
0.12156900 0.13555500 0.13165300 0.14207100
0.12549000 0.13882400 0.13480500 0.14550500
0.12941200 0.14208200 0.13795000 0.14893800
0.13333300 0.14532800 0.14108000 0.15236600
0.13725500 0.14856100 0.14419400 0.15578800
0.14117600 0.15177100 0.14728500 0.15918900
0.14509800 0.15496400 0.15034900 0.16256700
0.14902000 0.15815200 0.15340300 0.16593900
0.15294100 0.16133900 0.15645800 0.16930900
0.15686300 0.16451200 0.15951000 0.17266700
0.16078400 0.16766400 0.16255000 0.17600600
0.16470600 0.17080300 0.16557900 0.17932700
0.16862700 0.17392800 0.16860900 0.18264000
0.17254900 0.17703200 0.17163900 0.18593400
0.17647100 0.18011600 0.17465900 0.18920600
0.18039200 0.18319200 0.17767900 0.19246700
0.18431400 0.18626900 0.18071000 0.19573000
0.18823500 0.18935800 0.18376300 0.19901000
0.19215700 0.19246900 0.18684100 0.20231500
0.19607800 0.19560300 0.18995300 0.20564400
0.20000000 0.19876300 0.19309500 0.20899200
0.20392200 0.20195300 0.19626900 0.21236400
0.20784300 0.20517800 0.19947300 0.21576400
0.21176500 0.20845300 0.20272200 0.21920800
0.21568600 0.21177800 0.20602100 0.22270300
0.21960800 0.21513300 0.20936100 0.22622900
0.22352900 0.21851000 0.21271100 0.22977200
0.22745100 0.22192900 0.21607900 0.23334900
0.23137300 0.22539000 0.21947600 0.23696400
0.23529400 0.22888200 0.22288800 0.24060100
0.23921600 0.23241500 0.22631100 0.24427400
0.24313700 0.23599600 0.22976200 0.24799300
0.24705900 0.23962600 0.23324400 0.25176500
0.25098000 0.24327200 0.23675400 0.25556700
0.25490200 0.24692800 0.24026600 0.25938300
0.25882400 0.25059300 0.24378200 0.26321200
0.26274500 0.25427100 0.24730500 0.26704800
0.26666700 0.25795200 0.25084100 0.27088500
0.27058800 0.26163200 0.25438400 0.27471800
0.27451000 0.26531600 0.25794300 0.27855900
0.27843100 0.26902100 0.26153200 0.28242000
0.28235300 0.27274800 0.26516400 0.28630400
0.28627500 0.27647100 0.26883200 0.29019100
0.29019600 0.28016400 0.27249000 0.29404300
0.29411800 0.28384300 0.27613900 0.29786700
0.29803900 0.28751800 0.27979400 0.30167900
0.30196100 0.29119600 0.28346400 0.30549000
0.30588200 0.29487200 0.28714800 0.30930400
0.30980400 0.29853500 0.29083100 0.31310300
0.31372500 0.30219700 0.29451500 0.31689600
0.31764700 0.30585800 0.29819800 0.32068800
0.32156900 0.30951600 0.30188000 0.32448600
0.32549000 0.31317400 0.30556200 0.32829600
0.32941200 0.31684000 0.30925100 0.33212100
0.33333300 0.32053200 0.31296100 0.33598400
0.33725500 0.32423100 0.31667800 0.33987900
0.34117600 0.32793100 0.32037800 0.34378700
0.34509800 0.33163700 0.32406400 0.34771000
0.34902000 0.33534500 0.32773700 0.35164700
0.35294100 0.33904500 0.33138800 0.35558900
0.35686300 0.34274900 0.33501200 0.35952800
0.36078400 0.34646400 0.33862600 0.36348000
0.36470600 0.35017600 0.34222000 0.36743000
0.36862700 0.35388200 0.34578300 0.37136000
0.37254900 0.35759500 0.34932300 0.37527300
0.37647100 0.36131300 0.35285200 0.37918600
0.38039200 0.36502300 0.35636700 0.38309000
0.38431400 0.36873800 0.35987100 0.38698800
0.38823500 0.37247700 0.36338300 0.39089800
0.39215700 0.37624500 0.36691800 0.39483900
0.39607800 0.38004000 0.37047900 0.39881800
0.40000000 0.38383400 0.37406200 0.40282400
0.40392200 0.38758600 0.37763300 0.40679600
0.40784300 0.39129900 0.38117700 0.41072400
0.41176500 0.39499600 0.38470400 0.41462800
0.41568600 0.39870000 0.38823800 0.41853400
0.41960800 0.40241700 0.39180000 0.42246200
0.42352900 0.40614500 0.39538600 0.42641300
0.42745100 0.40990800 0.39901200 0.43041400
0.43137300 0.41369900 0.40268400 0.43446000
0.43529400 0.41752100 0.40639200 0.43854200
0.43921600 0.42139700 0.41014500 0.44267700
0.44313700 0.42530600 0.41395300 0.44685600
0.44705900 0.42921800 0.41777900 0.45103900
0.45098000 0.43313100 0.42160300 0.45522200
0.45490200 0.43704800 0.42543100 0.45941900
0.45882400 0.44096500 0.42927400 0.46362600
0.46274500 0.44487100 0.43311900 0.46782000
0.46666700 0.44878200 0.43696000 0.47201800
0.47058800 0.45268800 0.44080400 0.47620700
0.47451000 0.45659200 0.44464000 0.48038200
0.47843100 0.46049300 0.44847400 0.48455300
0.48235300 0.46440000 0.45231400 0.48872800
0.48627500 0.46831100 0.45616100 0.49290500
0.49019600 0.47222800 0.46001600 0.49708600
0.49411800 0.47617200 0.46388400 0.50129000
0.49803900 0.48012900 0.46779600 0.50551900
0.50196100 0.48406700 0.47170900 0.50972900
0.50588200 0.48798500 0.47561400 0.51391600
0.50980400 0.49188300 0.47950900 0.51808200
0.51372500 0.49575400 0.48339300 0.52222100
0.51764700 0.49959900 0.48726000 0.52632200
0.52156900 0.50341400 0.49110500 0.53038800
0.52549000 0.50721200 0.49492800 0.53443600
0.52941200 0.51098200 0.49874000 0.53845600
0.53333300 0.51473300 0.50253600 0.54246100
0.53725500 0.51847600 0.50633600 0.54645800
0.54117600 0.52219800 0.51013400 0.55042500
0.54509800 0.52589700 0.51391500 0.55435800
0.54902000 0.52958500 0.51768300 0.55827300
0.55294100 0.53327100 0.52145500 0.56217800
0.55686300 0.53697100 0.52523400 0.56609000
0.56078400 0.54069500 0.52903900 0.57002600
0.56470600 0.54443200 0.53286400 0.57397000
0.56862700 0.54813700 0.53666200 0.57787600
0.57254900 0.55180600 0.54041600 0.58174000
0.57647100 0.55544800 0.54414200 0.58557600
0.58039200 0.55907500 0.54785800 0.58939400
0.58431400 0.56267000 0.55154500 0.59317800
0.58823500 0.56623400 0.55519600 0.59692800
0.59215700 0.56977400 0.55881700 0.60065000
0.59607800 0.57332300 0.56243100 0.60437200
0.60000000 0.57688400 0.56603800 0.60809500
0.60392200 0.58045400 0.56963900 0.61181600
0.60784300 0.58403900 0.57324600 0.61554000
0.61176500 0.58763000 0.57684300 0.61925100
0.61568600 0.59122600 0.58042600 0.62294400
0.61960800 0.59484200 0.58401000 0.62663200
0.62352900 0.59847400 0.58759800 0.63032100
0.62745100 0.60211700 0.59118300 0.63401100
0.63137300 0.60576200 0.59476600 0.63770000
0.63529400 0.60941100 0.59835400 0.64139500
0.63921600 0.61307600 0.60196500 0.64510800
0.64313700 0.61678100 0.60562300 0.64885700
0.64705900 0.62053700 0.60934100 0.65266400
0.65098000 0.62434300 0.61312000 0.65654000
0.65490200 0.62819200 0.61696000 0.66048800
0.65882400 0.63208400 0.62085800 0.66450900
0.66274500 0.63597700 0.62472300 0.66858100
0.66666700 0.63978500 0.62850300 0.67259800
0.67058800 0.64350500 0.63219700 0.67654400
0.67451000 0.64713700 0.63580800 0.68042000
0.67843100 0.65068900 0.63935000 0.68423100
0.68235300 0.65417900 0.64284400 0.68798800
0.68627500 0.65763400 0.64630900 0.69171100
0.69019600 0.66107700 0.64975900 0.69542200
0.69411800 0.66451100 0.65319500 0.69912300
0.69803900 0.66794300 0.65662400 0.70281900
0.70196100 0.67137100 0.66003600 0.70651800
0.70588200 0.67478400 0.66342400 0.71020400
0.70980400 0.67818400 0.66680100 0.71387700
0.71372500 0.68158900 0.67016900 0.71755100
0.71764700 0.68499900 0.67353000 0.72122600
0.72156900 0.68842000 0.67689300 0.72490700
0.72549000 0.69184600 0.68024400 0.72859500
0.72941200 0.69526400 0.68358200 0.73227100
0.73333300 0.69868300 0.68691900 0.73594500
0.73725500 0.70211200 0.69025100 0.73963100
0.74117600 0.70554900 0.69357400 0.74333400
0.74509800 0.70899400 0.69688800 0.74705500
0.74902000 0.71246200 0.70020700 0.75081500
0.75294100 0.71593800 0.70352000 0.75459200
0.75686300 0.71941000 0.70682700 0.75837900
0.76078400 0.72288300 0.71013000 0.76217600
0.76470600 0.72636200 0.71343700 0.76598600
0.76862700 0.72985600 0.71675800 0.76982100
0.77254900 0.73335700 0.72007500 0.77366100
0.77647100 0.73686100 0.72339000 0.77750500
0.78039200 0.74037900 0.72671100 0.78136900
0.78431400 0.74391800 0.73004100 0.78525200
0.78823500 0.74748200 0.73339000 0.78916400
0.79215700 0.75109400 0.73677500 0.79311700
0.79607800 0.75476200 0.74020200 0.79711200
0.80000000 0.75848200 0.74367100 0.80114000
0.80392200 0.76221700 0.74715500 0.80513800
0.80784300 0.76593700 0.75063000 0.80909600
0.81176500 0.76964000 0.75409600 0.81302000
0.81568600 0.77333900 0.75756000 0.81693200
0.81960800 0.77705300 0.76103400 0.82084100
0.82352900 0.78078400 0.76452500 0.82475200
0.82745100 0.78451800 0.76803100 0.82864900
0.83137300 0.78825000 0.77153800 0.83254000
0.83529400 0.79199300 0.77505200 0.83643400
0.83921600 0.79574800 0.77858800 0.84033200
0.84313700 0.79951100 0.78214400 0.84423100
0.84705900 0.80328000 0.78571800 0.84813800
0.85098000 0.80707200 0.78931100 0.85207000
0.85490200 0.81089400 0.79293700 0.85603200
0.85882400 0.81473800 0.79660200 0.85999600
0.86274500 0.81855800 0.80027900 0.86392100
0.86666700 0.82234200 0.80392800 0.86781400
0.87058800 0.82611500 0.80755600 0.87169500
0.87451000 0.82988400 0.81117700 0.87556400
0.87843100 0.83365400 0.81479700 0.87943100
0.88235300 0.83742300 0.81842500 0.88330200
0.88627500 0.84120500 0.82206600 0.88719600
0.89019600 0.84499600 0.82573900 0.89110200
0.89411800 0.84876200 0.82942800 0.89498900
0.89803900 0.85250200 0.83310000 0.89886000
0.90196100 0.85623000 0.83676400 0.90272500
0.90588200 0.85995400 0.84043200 0.90659400
0.90980400 0.86367500 0.84410800 0.91046600
0.91372500 0.86737900 0.84778600 0.91432000
0.91764700 0.87106800 0.85144900 0.91816800
0.92156900 0.87475700 0.85510900 0.92202800
0.92549000 0.87844400 0.85878000 0.92588600
0.92941200 0.88211800 0.86244600 0.92973300
0.93333300 0.88579900 0.86611200 0.93358500
0.93725500 0.88947100 0.86978900 0.93742800
0.94117600 0.89314700 0.87347200 0.94127500
0.94509800 0.89682400 0.87716800 0.94511800
0.94902000 0.90050300 0.88086800 0.94896100
0.95294100 0.90418100 0.88457500 0.95280500
0.95686300 0.90785600 0.88828700 0.95665000
0.96078400 0.91153200 0.89200500 0.96049300
0.96470600 0.91520800 0.89573100 0.96433500
0.96862700 0.91888100 0.89946300 0.96817600
0.97254900 0.92254900 0.90319900 0.97201500
0.97647100 0.92621300 0.90693700 0.97585300
0.98039200 0.92987300 0.91067900 0.97968800
0.98431400 0.93352800 0.91442300 0.98352100
0.98823500 0.93717900 0.91817100 0.98735200
0.99215700 0.94082500 0.92192200 0.99118200
0.99607800 0.94446700 0.92567600 0.99500900
1.00000000 0.94810400 0.92943300 0.99883400
END_DATA
CAL    

DESCRIPTOR "Argyll Calibration options and model"
ORIGINATOR "Argyll dispcal"
CREATED "Sat Feb 11 22:52:14 202"

NUMBER_OF_FIELDS 3
BEGIN_DATA_FORMAT
R_P G_P B_P
END_DATA_FORMAT

NUMBER_OF_SETS 32
BEGIN_DATA
0.000118174 0.000418245 0.001372910
0.999882000 0.999582000 0.998627000
1.865891000 1.674312000 1.652022000
0.459199000 0.535415000 0.504591000
0.151376000 0.130449000 0.123518000
0.075199900 0.079891200 0.114235000
0.109063000 0.093690700 0.084261100
0.051096600 0.101322000 0.087527300
0.058730200 0.049668300 0.067037300
0.085627700 0.070235100 0.064828300
0.051023300 0.050948600 0.063671000
0.047853100 0.048240400 0.055733400
0.044281300 0.048678600 0.059146600
0.043820900 0.057523300 0.046848400
0.039976200 0.042742300 0.038232300
0.038342700 0.042218000 0.051703700
0.037578800 0.039985100 0.042009400
0.036524800 0.038495600 0.037433500
0.035126300 0.038633400 0.040459400
0.033271700 0.036019800 0.034900700
0.031731400 0.036085100 0.033796700
0.029844300 0.034877200 0.029530700
0.026950200 0.034131300 0.030301600
0.025019500 0.032283200 0.025502100
0.024298400 0.030666700 0.023930300
0.023978400 0.029477800 0.024870000
0.023100800 0.028909700 0.023258100
0.021570300 0.027300700 0.022431000
0.020969900 0.025865200 0.021829900
0.020453600 0.026530300 0.021567500
0.020473600 0.026632400 0.020946500
0.016660500 0.026571200 0.020005300
END_DATA
