KOIOS/K2721UG/K2721UG #1 2023-02-11 22-36 0.3127x 0.329y sRGB F-S XYZLUT+MTX ColorMunki Design_Phot/K2721UG #1 2023-02-11 22-36 0.3127x 0.329y sRGB F-S XYZLUT+MTX ColorMunki Design_Phot.ti3
CTI3   

DESCRIPTOR "Argyll Calibration Target chart information 3"
ORIGINATOR "Argyll dispread"
CREATED "Sat Feb 11 22:55:05 2023"
DEVICE_CLASS "DISPLAY"
SINGLE_DIM_STEPS "21"
COMP_GREY_STEPS "61"
DARK_REGION_EMPHASIS "1.6"
COLOR_REP "RGB_XYZ"
TARGET_INSTRUMENT "X-Rite ColorMunki"
DISPLAY_TYPE_REFRESH "YES"
INSTRUMENT_TYPE_SPECTRAL "YES"
SPECTRAL_BANDS "106"
SPECTRAL_START_NM "380.0"
SPECTRAL_END_NM "730.0"
LUMINANCE_XYZ_CDM2 "246.744850 258.959087 287.257294"
NORMALIZED_TO_Y_100 "YES"
VIDEO_LUT_CALIBRATION_POSSIBLE "YES"

BEGIN_ARGYLL_COLPROF_ARGS
-v -qh -aX -bn -C "No copyright. Created with DisplayCAL 3.8.9.3 and ArgyllCMS 2.1.2" -M "KOIOS K2721UG"
END_ARGYLL_COLPROF_ARGS

OBSERVER "1931_2"
USE_BLACK_POINT_COMPENSATION "NO"
BLACK_POINT_CORRECTION "0.0"
HIRES_B2A "YES"
HIRES_B2A_SIZE "-1"
SMOOTH_B2A "YES"
PATCH_SEQUENCE "OPTIMIZE_DISPLAY_RESPONSE_DELAY"

NUMBER_OF_FIELDS 113
BEGIN_DATA_FORMAT
SAMPLE_ID RGB_R RGB_G RGB_B XYZ_X XYZ_Y XYZ_Z SPEC_380 SPEC_383 SPEC_387 SPEC_390 SPEC_393 SPEC_397 SPEC_400 SPEC_403 SPEC_407 SPEC_410 SPEC_413 SPEC_417 SPEC_420 SPEC_423 SPEC_427 SPEC_430 SPEC_433 SPEC_437 SPEC_440 SPEC_443 SPEC_447 SPEC_450 SPEC_453 SPEC_457 SPEC_460 SPEC_463 SPEC_467 SPEC_470 SPEC_473 SPEC_477 SPEC_480 SPEC_483 SPEC_487 SPEC_490 SPEC_493 SPEC_497 SPEC_500 SPEC_503 SPEC_507 SPEC_510 SPEC_513 SPEC_517 SPEC_520 SPEC_523 SPEC_527 SPEC_530 SPEC_533 SPEC_537 SPEC_540 SPEC_543 SPEC_547 SPEC_550 SPEC_553 SPEC_557 SPEC_560 SPEC_563 SPEC_567 SPEC_570 SPEC_573 SPEC_577 SPEC_580 SPEC_583 SPEC_587 SPEC_590 SPEC_593 SPEC_597 SPEC_600 SPEC_603 SPEC_607 SPEC_610 SPEC_613 SPEC_617 SPEC_620 SPEC_623 SPEC_627 SPEC_630 SPEC_633 SPEC_637 SPEC_640 SPEC_643 SPEC_647 SPEC_650 SPEC_653 SPEC_657 SPEC_660 SPEC_663 SPEC_667 SPEC_670 SPEC_673 SPEC_677 SPEC_680 SPEC_683 SPEC_687 SPEC_690 SPEC_693 SPEC_697 SPEC_700 SPEC_703 SPEC_707 SPEC_710 SPEC_713 SPEC_717 SPEC_720 SPEC_723 SPEC_727 SPEC_730
END_DATA_FORMAT

NUMBER_OF_SETS 588
BEGIN_DATA
1 100.0000000000 100.0000000000 100.0000000000 95.28333000000 100.0000000000 110.9277000000 0.004721890000 0.004721890000 0.004721890000 0.004721890000 0.004721890000 0.004721890000 0.004721950000 0.006321840000 0.008591300000 0.014094900000 0.027079700000 0.053875900000 0.104974000000 0.193550000000 0.339702000000 0.574268000000 0.958269000000 1.546909000000 2.317191000000 3.075266000000 3.490172000000 3.376078000000 2.888195000000 2.344567000000 1.892161000000 1.496365000000 1.135651000000 0.836470000000 0.625728000000 0.493163000000 0.408777000000 0.349799000000 0.309253000000 0.295537000000 0.321691000000 0.397183000000 0.526437000000 0.701208000000 0.910981000000 1.155872000000 1.407889000000 1.619614000000 1.768090000000 1.926568000000 2.162227000000 2.400177000000 2.550169000000 2.594750000000 2.529073000000 2.368054000000 2.160884000000 1.952937000000 1.757550000000 1.566244000000 1.369610000000 1.166919000000 0.948595000000 0.717460000000 0.510821000000 0.368932000000 0.297636000000 0.285648000000 0.317492000000 0.370540000000 0.432849000000 0.502996000000 0.586579000000 0.753897000000 1.131388000000 1.671149000000 1.912403000000 1.652742000000 1.351334000000 1.592828000000 2.654897000000 4.028690000000 4.153055000000 2.860263000000 1.508143000000 0.926357000000 0.874603000000 0.770592000000 0.560731000000 0.401813000000 0.315033000000 0.267337000000 0.244780000000 0.232513000000 0.212836000000 0.188057000000 0.168155000000 0.154934000000 0.145345000000 0.136885000000 0.127740000000 0.117650000000 0.106662000000 0.095698900000 0.085183900000 0.075431800000 0.066931900000 0.059541900000 0.053576600000 0.048350500000 0.042668100000 0.036606300000
2 1.960800000000 1.960800000000 1.960800000000 0.197100000000 0.200619000000 0.302211000000 0.000003090850 0.000003090850 0.000003090850 0.000003090850 0.000003090850 0.000003090850 0.000003088710 -0.000062854200 0.000053961300 0.000030176200 0.000086987400 0.000136851000 0.000296345000 0.000676907000 0.001164890000 0.001799720000 0.002901360000 0.004610670000 0.006745170000 0.008740820000 0.009669180000 0.009165790000 0.007720150000 0.006166340000 0.004913200000 0.003799540000 0.002858960000 0.002157330000 0.001637380000 0.001232010000 0.000990926000 0.000892652000 0.000783681000 0.000701133000 0.000774062000 0.000990223000 0.001271120000 0.001625870000 0.002032260000 0.002530410000 0.003055290000 0.003469050000 0.003780920000 0.004096450000 0.004532180000 0.004916880000 0.005180490000 0.005201850000 0.005004990000 0.004675020000 0.004255250000 0.003819360000 0.003454870000 0.003075940000 0.002661740000 0.002278180000 0.001832580000 0.001363640000 0.001004680000 0.000763222000 0.000639630000 0.000618568000 0.000658472000 0.000759964000 0.000897517000 0.000995835000 0.001166720000 0.001488460000 0.002134720000 0.003098700000 0.003503190000 0.003005380000 0.002451360000 0.002884020000 0.004747910000 0.007192720000 0.007431730000 0.005102860000 0.002682580000 0.001659420000 0.001554090000 0.001340990000 0.000990082000 0.000738630000 0.000556211000 0.000478731000 0.000487823000 0.000466283000 0.000373764000 0.000249895000 0.000260607000 0.000275916000 0.000269186000 0.000255555000 0.000225446000 0.000261706000 0.000211185000 0.000186079000 0.000141382000 0.000118602000 0.000166135000 0.000183509000 0.000116579000 0.000118028000 0.000141756000 0.000146801000
3 3.921600000000 3.921600000000 3.921600000000 0.361779000000 0.378581000000 0.481745000000 -0.000010058400 -0.000010058400 -0.000010058400 -0.000010058400 -0.000010058400 -0.000010058400 -0.000010060900 -0.000087917300 0.000060656900 0.000056163500 0.000055995000 0.000206309000 0.000463822000 0.000942624000 0.001689590000 0.002721170000 0.004429980000 0.007073930000 0.010464800000 0.013709000000 0.015292500000 0.014615800000 0.012426200000 0.009966980000 0.007953350000 0.006215980000 0.004690330000 0.003517630000 0.002671520000 0.002044100000 0.001668130000 0.001475380000 0.001297990000 0.001171240000 0.001277730000 0.001617750000 0.002137390000 0.002859010000 0.003659880000 0.004600610000 0.005574830000 0.006374970000 0.006944340000 0.007537090000 0.008428130000 0.009274590000 0.009817270000 0.009903750000 0.009579120000 0.008958310000 0.008159620000 0.007348830000 0.006621660000 0.005906200000 0.005149120000 0.004372910000 0.003534520000 0.002670640000 0.001914110000 0.001406640000 0.001153010000 0.001110820000 0.001216980000 0.001396390000 0.001616410000 0.001840370000 0.002186170000 0.002793720000 0.004108800000 0.006014110000 0.006844360000 0.005883550000 0.004794350000 0.005636010000 0.009355880000 0.014188400000 0.014671700000 0.010110700000 0.005335770000 0.003264010000 0.003065320000 0.002687210000 0.001966970000 0.001453670000 0.001117470000 0.000948811000 0.000910923000 0.000857498000 0.000750541000 0.000610724000 0.000547852000 0.000529701000 0.000519033000 0.000501305000 0.000450357000 0.000461560000 0.000391939000 0.000338115000 0.000284593000 0.000257234000 0.000279991000 0.000265943000 0.000189690000 0.000197924000 0.000232893000 0.000238200000
4 5.882400000000 5.882400000000 5.882400000000 0.557459000000 0.589695000000 0.694715000000 -0.000046429300 -0.000046429300 -0.000046429300 -0.000046429300 -0.000046429300 -0.000046429300 -0.000046430500 -0.000085663100 0.000008971370 0.000005960720 0.000109262000 0.000277844000 0.000669363000 0.001365930000 0.002321060000 0.003787880000 0.006253850000 0.010010100000 0.014838700000 0.019534200000 0.021931600000 0.021050000000 0.017962900000 0.014500900000 0.011614200000 0.009100180000 0.006884240000 0.005118600000 0.003860610000 0.003002340000 0.002501360000 0.002203700000 0.001933110000 0.001793620000 0.001962230000 0.002421140000 0.003211990000 0.004303530000 0.005544240000 0.007023990000 0.008588690000 0.009817980000 0.010712400000 0.011650400000 0.013012300000 0.014353300000 0.015228600000 0.015455300000 0.014998300000 0.014012800000 0.012764200000 0.011533500000 0.010404900000 0.009264360000 0.008059550000 0.006846580000 0.005586180000 0.004223610000 0.003019930000 0.002197900000 0.001801290000 0.001724550000 0.001865810000 0.002184290000 0.002540060000 0.002882400000 0.003409200000 0.004352630000 0.006419230000 0.009463830000 0.010794600000 0.009296680000 0.007583520000 0.008917760000 0.014813800000 0.022497400000 0.023264900000 0.016014600000 0.008460480000 0.005183890000 0.004863030000 0.004276520000 0.003126060000 0.002280580000 0.001769820000 0.001497950000 0.001433150000 0.001378730000 0.001208730000 0.000979037000 0.000868775000 0.000813947000 0.000797829000 0.000765042000 0.000717385000 0.000695939000 0.000609327000 0.000546003000 0.000459440000 0.000406184000 0.000437193000 0.000391434000 0.000294908000 0.000296787000 0.000317643000 0.000302206000
5 9.803900000000 9.803900000000 9.803900000000 1.023941000000 1.062170000000 1.263941000000 -0.000041468900 -0.000041468900 -0.000041468900 -0.000041468900 -0.000041468900 -0.000041468900 -0.000041470500 -0.000092408700 0.000124019000 0.000075450300 0.000145939000 0.000435546000 0.001072200000 0.002229890000 0.004000840000 0.006647920000 0.011110100000 0.017931600000 0.026736300000 0.035362600000 0.039987000000 0.038607800000 0.032885300000 0.026493800000 0.021370700000 0.016863400000 0.012787100000 0.009512220000 0.007156960000 0.005599580000 0.004607340000 0.003959260000 0.003453230000 0.003247640000 0.003579050000 0.004425630000 0.005778570000 0.007649490000 0.009879770000 0.012450200000 0.015178700000 0.017420400000 0.018984300000 0.020576400000 0.023039400000 0.025542400000 0.027058300000 0.027449100000 0.026708900000 0.024979900000 0.022757600000 0.020507600000 0.018509500000 0.016526900000 0.014402100000 0.012234800000 0.009950510000 0.007542050000 0.005365000000 0.003863420000 0.003166960000 0.003082430000 0.003434000000 0.004006880000 0.004651570000 0.005328840000 0.006248820000 0.008053300000 0.011997300000 0.017679300000 0.020244800000 0.017457200000 0.014268900000 0.016804800000 0.027941500000 0.042407600000 0.043827200000 0.030203900000 0.015953700000 0.009779570000 0.009196930000 0.008088590000 0.005939980000 0.004282370000 0.003268370000 0.002780150000 0.002599740000 0.002495440000 0.002298290000 0.001982230000 0.001753290000 0.001619790000 0.001552400000 0.001484330000 0.001373760000 0.001318640000 0.001165880000 0.001024740000 0.000860322000 0.000762487000 0.000727905000 0.000689997000 0.000577578000 0.000555960000 0.000502065000 0.000459360000
6 13.72600000000 13.72600000000 13.72600000000 1.718715000000 1.759170000000 1.989142000000 0.000227866000 0.000227866000 0.000227866000 0.000227866000 0.000227866000 0.000227866000 0.000227866000 0.000236158000 0.000397716000 0.000337900000 0.000535013000 0.001102690000 0.002009740000 0.003589160000 0.006219940000 0.010411500000 0.017340500000 0.027875300000 0.041736100000 0.055377000000 0.062616700000 0.060471400000 0.051759300000 0.041902200000 0.033750200000 0.026687300000 0.020284900000 0.015032500000 0.011264600000 0.008832200000 0.007317090000 0.006309070000 0.005559820000 0.005265180000 0.005681800000 0.007017930000 0.009292130000 0.012375900000 0.015987800000 0.020205800000 0.024604100000 0.028251100000 0.030797900000 0.033452200000 0.037462600000 0.041490400000 0.044131200000 0.044877200000 0.043637600000 0.040819400000 0.037239600000 0.033621500000 0.030256500000 0.026960200000 0.023567300000 0.020106200000 0.016371800000 0.012431800000 0.008888130000 0.006462490000 0.005275060000 0.005119310000 0.005755380000 0.006727790000 0.007878730000 0.009196100000 0.010783200000 0.013870000000 0.020809000000 0.030834500000 0.035349000000 0.030573600000 0.025029400000 0.029447700000 0.048881600000 0.074283500000 0.076780200000 0.052978300000 0.027975700000 0.017171500000 0.016180000000 0.014239800000 0.010376900000 0.007498790000 0.005850610000 0.004965140000 0.004630560000 0.004423920000 0.003970210000 0.003406630000 0.003104850000 0.002863930000 0.002730670000 0.002597840000 0.002392630000 0.002234380000 0.001999620000 0.001804080000 0.001583990000 0.001397870000 0.001282750000 0.001212460000 0.001038730000 0.000934943000 0.000901168000 0.000837034000
7 17.64700000000 17.64700000000 17.64700000000 2.631886000000 2.710509000000 3.082673000000 0.000170279000 0.000170279000 0.000170279000 0.000170279000 0.000170279000 0.000170279000 0.000170281000 0.000213524000 0.000383616000 0.000533889000 0.000823774000 0.001464780000 0.002842970000 0.005404170000 0.009558230000 0.016063300000 0.026704500000 0.043035100000 0.064461900000 0.085662100000 0.097082700000 0.093857800000 0.080357600000 0.065155600000 0.052633900000 0.041632500000 0.031577200000 0.023281300000 0.017431600000 0.013685600000 0.011319000000 0.009730220000 0.008581020000 0.008127010000 0.008826650000 0.010886500000 0.014378500000 0.019098300000 0.024690600000 0.031232300000 0.037992900000 0.043628100000 0.047532500000 0.051680200000 0.057981500000 0.064361900000 0.068431300000 0.069583000000 0.067731200000 0.063343000000 0.057713400000 0.052088200000 0.046900200000 0.041830200000 0.036541900000 0.031118400000 0.025322100000 0.019181400000 0.013707400000 0.009937300000 0.008106270000 0.007839400000 0.008711140000 0.010213500000 0.012034700000 0.014008300000 0.016379900000 0.021076700000 0.031620200000 0.046783600000 0.053586300000 0.046345100000 0.037913000000 0.044567200000 0.074096900000 0.112581000000 0.116356000000 0.080297100000 0.042390600000 0.025987200000 0.024485500000 0.021554200000 0.015741700000 0.011320900000 0.008841140000 0.007498080000 0.006954230000 0.006580150000 0.005903840000 0.005198980000 0.004726200000 0.004350730000 0.004112140000 0.003878030000 0.003567400000 0.003331920000 0.003043150000 0.002767980000 0.002448570000 0.002165260000 0.002004820000 0.001768590000 0.001551870000 0.001423180000 0.001320940000 0.001167130000
8 21.56900000000 21.56900000000 21.56900000000 3.713663000000 3.846491000000 4.389232000000 0.000006209390 0.000006209390 0.000006209390 0.000006209390 0.000006209390 0.000006209390 0.000006210140 0.000026839000 0.000216967000 0.000485334000 0.001018750000 0.002040140000 0.004063970000 0.007691530000 0.013514100000 0.022739700000 0.037890900000 0.061183600000 0.091749100000 0.121923000000 0.138145000000 0.133591000000 0.114520000000 0.092965100000 0.075051900000 0.059356600000 0.045119100000 0.033320300000 0.024894800000 0.019477600000 0.016120700000 0.013830700000 0.012142700000 0.011572600000 0.012588600000 0.015488800000 0.020381600000 0.027069300000 0.035118500000 0.044453600000 0.054046700000 0.062147800000 0.067776100000 0.073707200000 0.082639900000 0.091720800000 0.097496100000 0.099086100000 0.096527000000 0.090367200000 0.082377300000 0.074358500000 0.066930700000 0.059661000000 0.052217100000 0.044522900000 0.036159000000 0.027318500000 0.019463300000 0.014072800000 0.011407000000 0.011035700000 0.012297300000 0.014383500000 0.016903000000 0.019631700000 0.022892200000 0.029423400000 0.044204400000 0.065434200000 0.074987500000 0.064874200000 0.053022700000 0.062354000000 0.103706000000 0.157542000000 0.162782000000 0.112235000000 0.059171700000 0.036266400000 0.034227100000 0.030156100000 0.022002500000 0.015871400000 0.012417200000 0.010488800000 0.009604440000 0.009151080000 0.008321140000 0.007248940000 0.006499750000 0.006042310000 0.005671350000 0.005310620000 0.004941230000 0.004589510000 0.004138640000 0.003727850000 0.003315320000 0.002921760000 0.002633590000 0.002345310000 0.002048650000 0.001889320000 0.001732380000 0.001528750000
9 25.49000000000 25.49000000000 25.49000000000 5.092580000000 5.322919000000 5.918668000000 0.000119172000 0.000119172000 0.000119172000 0.000119172000 0.000119172000 0.000119172000 0.000119173000 0.000165852000 0.000377111000 0.000742151000 0.001418870000 0.002721340000 0.005445260000 0.010322300000 0.018119900000 0.030555600000 0.050909500000 0.082226900000 0.123401000000 0.164045000000 0.185917000000 0.179895000000 0.154300000000 0.125362000000 0.101322000000 0.080133200000 0.060859800000 0.044865600000 0.033535000000 0.026374200000 0.021912100000 0.018776200000 0.016567600000 0.015813500000 0.017202700000 0.021214700000 0.028052900000 0.037369100000 0.048502800000 0.061511500000 0.074910000000 0.086100900000 0.093867900000 0.102136000000 0.114688000000 0.127421000000 0.135510000000 0.137834000000 0.134303000000 0.125672000000 0.114550000000 0.103389000000 0.093088300000 0.083033200000 0.072666900000 0.061951700000 0.050335100000 0.038055900000 0.027096400000 0.019579400000 0.015852100000 0.015255400000 0.016947100000 0.019812200000 0.023234000000 0.026965500000 0.031453400000 0.040443200000 0.060646900000 0.089728400000 0.102799000000 0.088942100000 0.072691200000 0.085472900000 0.142202000000 0.215977000000 0.223045000000 0.153847000000 0.081134200000 0.049741700000 0.046907300000 0.041327700000 0.030109600000 0.021687800000 0.016976800000 0.014390000000 0.013156800000 0.012513800000 0.011412700000 0.009969640000 0.008931990000 0.008280660000 0.007809180000 0.007314550000 0.006803470000 0.006299860000 0.005692390000 0.005151990000 0.004585910000 0.004060230000 0.003649960000 0.003237980000 0.002798390000 0.002522640000 0.002268690000 0.001948240000
10 29.41200000000 29.41200000000 29.41200000000 6.761839000000 7.065267000000 7.927869000000 0.000176805000 0.000176805000 0.000176805000 0.000176805000 0.000176805000 0.000176805000 0.000176804000 0.000159724000 0.000574624000 0.000976650000 0.001784120000 0.003681700000 0.007273200000 0.013656300000 0.024075200000 0.040793100000 0.068184400000 0.110151000000 0.165283000000 0.219751000000 0.249154000000 0.241170000000 0.206838000000 0.167926000000 0.135697000000 0.107509000000 0.081738900000 0.060273200000 0.045068400000 0.035356800000 0.029274400000 0.025094400000 0.022136100000 0.021081100000 0.022928600000 0.028264100000 0.037319400000 0.049688300000 0.064543700000 0.081800000000 0.099516800000 0.114390000000 0.124780000000 0.135746000000 0.152256000000 0.169139000000 0.179906000000 0.183041000000 0.178328000000 0.166896000000 0.152148000000 0.137350000000 0.123573000000 0.110212000000 0.096466900000 0.082243800000 0.066891800000 0.050546700000 0.035968300000 0.026015900000 0.021062100000 0.020230300000 0.022520400000 0.026341200000 0.030762800000 0.035702600000 0.041628600000 0.053427800000 0.080197500000 0.118737000000 0.136031000000 0.117636000000 0.096170100000 0.113103000000 0.188173000000 0.285548000000 0.294784000000 0.203334000000 0.107361000000 0.065915900000 0.062181000000 0.054757500000 0.039892300000 0.028671400000 0.022482300000 0.019043900000 0.017449300000 0.016571300000 0.015128000000 0.013272900000 0.011900100000 0.010955900000 0.010293600000 0.009736880000 0.009098390000 0.008376570000 0.007552610000 0.006813300000 0.006049860000 0.005359810000 0.004824690000 0.004319600000 0.003823980000 0.003451110000 0.003106480000 0.002685410000
11 33.33300000000 33.33300000000 33.33300000000 8.812208000000 9.269609000000 10.19091000000 0.000201706000 0.000201706000 0.000201706000 0.000201706000 0.000201706000 0.000201706000 0.000201717000 0.000524923000 0.000871862000 0.001263170000 0.002298590000 0.004686060000 0.009386890000 0.017552700000 0.030943300000 0.052355900000 0.087444300000 0.141309000000 0.212106000000 0.282099000000 0.320076000000 0.309807000000 0.265564000000 0.215676000000 0.174291000000 0.138016000000 0.104898000000 0.077402100000 0.057978000000 0.045654900000 0.037833800000 0.032417200000 0.028708300000 0.027369000000 0.029851200000 0.036946000000 0.048894100000 0.065075700000 0.084484200000 0.107210000000 0.130626000000 0.150188000000 0.163854000000 0.178421000000 0.200316000000 0.222595000000 0.236805000000 0.240928000000 0.234694000000 0.219599000000 0.200212000000 0.180799000000 0.162789000000 0.145229000000 0.127118000000 0.108393000000 0.088119000000 0.066612500000 0.047377700000 0.034220000000 0.027668700000 0.026562000000 0.029469400000 0.034327200000 0.040132600000 0.046622500000 0.054320200000 0.069728100000 0.104637000000 0.154825000000 0.177421000000 0.153453000000 0.125304000000 0.147433000000 0.245368000000 0.372301000000 0.384350000000 0.265148000000 0.139929000000 0.085826000000 0.080962000000 0.071347200000 0.051981500000 0.037380800000 0.029315800000 0.024813700000 0.022740000000 0.021640900000 0.019823800000 0.017368000000 0.015424400000 0.014242000000 0.013438500000 0.012684700000 0.011844400000 0.010929100000 0.009935150000 0.008914460000 0.007904170000 0.007034360000 0.006236060000 0.005539230000 0.004940100000 0.004430080000 0.003980310000 0.003511780000
12 37.25500000000 37.25500000000 37.25500000000 10.94618000000 11.52708000000 12.74505000000 0.000339946000 0.000339946000 0.000339946000 0.000339946000 0.000339946000 0.000339946000 0.000339950000 0.000453685000 0.000925776000 0.001625170000 0.003080150000 0.005980820000 0.011851100000 0.021994300000 0.038661700000 0.065397600000 0.109322000000 0.176834000000 0.265328000000 0.352818000000 0.400601000000 0.387703000000 0.332121000000 0.269857000000 0.218056000000 0.172526000000 0.131052000000 0.096696000000 0.072485100000 0.057017400000 0.047238600000 0.040502100000 0.035800000000 0.034182800000 0.037222800000 0.045971000000 0.060913400000 0.081175000000 0.105402000000 0.133681000000 0.162732000000 0.187022000000 0.204012000000 0.222237000000 0.249373000000 0.277050000000 0.294626000000 0.299893000000 0.292275000000 0.273466000000 0.249447000000 0.225377000000 0.202780000000 0.180858000000 0.158245000000 0.134814000000 0.109589000000 0.082892500000 0.059016800000 0.042606000000 0.034358600000 0.032929600000 0.036530700000 0.042594800000 0.049797200000 0.057804400000 0.067312000000 0.086355800000 0.129496000000 0.191541000000 0.219508000000 0.189831000000 0.155066000000 0.182331000000 0.303451000000 0.460646000000 0.475412000000 0.327910000000 0.173003000000 0.106128000000 0.100152000000 0.088231600000 0.064271100000 0.046187300000 0.036240000000 0.030759700000 0.028124100000 0.026599900000 0.024287000000 0.021398700000 0.019154900000 0.017709700000 0.016682700000 0.015646400000 0.014616600000 0.013592100000 0.012374300000 0.011037200000 0.009762030000 0.008683750000 0.007778100000 0.006933670000 0.006125350000 0.005494860000 0.004922240000 0.004236390000
13 41.17600000000 41.17600000000 41.17600000000 13.44397000000 14.07147000000 15.60002000000 0.000458515000 0.000458515000 0.000458515000 0.000458515000 0.000458515000 0.000458515000 0.000458519000 0.000561715000 0.001142800000 0.001917300000 0.003531960000 0.007504130000 0.014488000000 0.026931600000 0.047200800000 0.079914700000 0.133771000000 0.216386000000 0.324734000000 0.431930000000 0.490590000000 0.474931000000 0.406760000000 0.330447000000 0.267142000000 0.211421000000 0.160644000000 0.118413000000 0.088590400000 0.069704100000 0.057637300000 0.049362200000 0.043637100000 0.041665100000 0.045342800000 0.055921100000 0.074015300000 0.098611900000 0.128111000000 0.162512000000 0.197875000000 0.227521000000 0.248206000000 0.270166000000 0.303221000000 0.336939000000 0.358368000000 0.364813000000 0.355347000000 0.332483000000 0.303207000000 0.273822000000 0.246524000000 0.219881000000 0.192439000000 0.163983000000 0.133244000000 0.100679000000 0.071622400000 0.051757900000 0.041763200000 0.040250200000 0.044901300000 0.052329000000 0.061147300000 0.071134700000 0.082970700000 0.106586000000 0.160013000000 0.236740000000 0.271345000000 0.234721000000 0.191670000000 0.225647000000 0.375561000000 0.569911000000 0.588287000000 0.405800000000 0.214060000000 0.131200000000 0.123817000000 0.109210000000 0.079543900000 0.057146800000 0.044797700000 0.037924000000 0.034681200000 0.032900500000 0.030003400000 0.026430200000 0.023729200000 0.021985900000 0.020618300000 0.019359200000 0.017997600000 0.016586100000 0.015180000000 0.013761000000 0.012158000000 0.010716400000 0.009555590000 0.008555370000 0.007624080000 0.006794460000 0.005985860000 0.005143870000
