Apple/MacBook Pro 13' (2013 Late)/Color LCD #1 2018-10-02 14-24 0.3127x 0.329y sRGB F-S XYZLUT+MTX/Color LCD #1 2018-10-02 14-24 0.3127x 0.329y sRGB F-S XYZLUT+MTX.cal
CAL    

DESCRIPTOR "Argyll Device Calibration Curves"
ORIGINATOR "Argyll dispcal"
CREATED "Tue Oct 02 14:31:06 2018"
DEVICE_CLASS "DISPLAY"
COLOR_REP "RGB"
VIDEO_LUT_CALIBRATION_POSSIBLE "YES"
TV_OUTPUT_ENCODING "NO"
DEVICE_TYPE "n"
TARGET_WHITE_XYZ "127.006082 133.626482 145.526956"
TARGET_GAMMA "sRGB"
DEGREE_OF_BLACK_OUTPUT_OFFSET "1.0"
BLACK_POINT_CORRECTION "0.0"
BLACK_NEUTRAL_BLEND_RATE "4.0"
BLACK_POINT_HACK "YES"
QUALITY "low"

BEGIN_ARGYLL_DISPCAL_ARGS
-v2 -d1 -c1 -yn -P0.499589827728,0.498069498069,1.49832402235 -ql -m -w0.3127,0.329 -gs -f1.0 -k0 -A4.0 -b
END_ARGYLL_DISPCAL_ARGS


NUMBER_OF_FIELDS 4
BEGIN_DATA_FORMAT
RGB_I RGB_R RGB_G RGB_B
END_DATA_FORMAT

NUMBER_OF_SETS 256
BEGIN_DATA
0.00000000 0.00000000 0.00000000 0.00000000
0.00392157 0.01116870 0.01137480 0.01085170
0.00784314 0.02016430 0.02050530 0.01964980
0.01176470 0.02756470 0.02799600 0.02692690
0.01568630 0.03376020 0.03425440 0.03304630
0.01960780 0.03904540 0.03960790 0.03828400
0.02352940 0.04370370 0.04433020 0.04290210
0.02745100 0.04791790 0.04859340 0.04707040
0.03137250 0.05178550 0.05250040 0.05088540
0.03529410 0.05540590 0.05613480 0.05443550
0.03921570 0.05883590 0.05954890 0.05778030
0.04313730 0.06212000 0.06280470 0.06097300
0.04705880 0.06529910 0.06593600 0.06405880
0.05098040 0.06839120 0.06896650 0.06705910
0.05490200 0.07143200 0.07192180 0.07001180
0.05882350 0.07442890 0.07481260 0.07291860
0.06274510 0.07738850 0.07764110 0.07577940
0.06666670 0.08029840 0.08039790 0.07858510
0.07058820 0.08314680 0.08308400 0.08132720
0.07450980 0.08593880 0.08571880 0.08401530
0.07843140 0.08870560 0.08832670 0.08667650
0.08235290 0.09145040 0.09089710 0.08931300
0.08627450 0.09416470 0.09343030 0.09191710
0.09019610 0.09685440 0.09593400 0.09449590
0.09411760 0.09952200 0.09840870 0.09705250
0.09803920 0.10215800 0.10085000 0.09957910
0.10196100 0.10475900 0.10326400 0.10207200
0.10588200 0.10733100 0.10566200 0.10454500
0.10980400 0.10987600 0.10804600 0.10700600
0.11372500 0.11239500 0.11041800 0.10945400
0.11764700 0.11489000 0.11277800 0.11188800
0.12156900 0.11736900 0.11513800 0.11431300
0.12549000 0.11985900 0.11752200 0.11675200
0.12941200 0.12237000 0.11993700 0.11921400
0.13333300 0.12489400 0.12237300 0.12169500
0.13725500 0.12741600 0.12481200 0.12417100
0.14117600 0.12994500 0.12725900 0.12664800
0.14509800 0.13248200 0.12971800 0.12913500
0.14902000 0.13502900 0.13219000 0.13162900
0.15294100 0.13759600 0.13468400 0.13414100
0.15686300 0.14018200 0.13720200 0.13667200
0.16078400 0.14277200 0.13973400 0.13921100
0.16470600 0.14534200 0.14225500 0.14173000
0.16862700 0.14789100 0.14476200 0.14422300
0.17254900 0.15042600 0.14725800 0.14669700
0.17647100 0.15294300 0.14974500 0.14915100
0.18039200 0.15543000 0.15221800 0.15157900
0.18431400 0.15791200 0.15469900 0.15400100
0.18823500 0.16039100 0.15718200 0.15641900
0.19215700 0.16286600 0.15966400 0.15883100
0.19607800 0.16534500 0.16215300 0.16124400
0.20000000 0.16783500 0.16465500 0.16367000
0.20392200 0.17033200 0.16717000 0.16610700
0.20784300 0.17282900 0.16968900 0.16854700
0.21176500 0.17532700 0.17221700 0.17098900
0.21568600 0.17783400 0.17476100 0.17344400
0.21960800 0.18034500 0.17731000 0.17591200
0.22352900 0.18282500 0.17983100 0.17835800
0.22745100 0.18528600 0.18233900 0.18078800
0.23137300 0.18773500 0.18484100 0.18321400
0.23529400 0.19018100 0.18734100 0.18564200
0.23921600 0.19262700 0.18984000 0.18807700
0.24313700 0.19507600 0.19234300 0.19051900
0.24705900 0.19753400 0.19485500 0.19297900
0.25098000 0.20000000 0.19737200 0.19545400
0.25490200 0.20247000 0.19989300 0.19794200
0.25882400 0.20494700 0.20241600 0.20044300
0.26274500 0.20742600 0.20493200 0.20295100
0.26666700 0.20990100 0.20745400 0.20547000
0.27058800 0.21238300 0.20998500 0.20800400
0.27451000 0.21487800 0.21253400 0.21056400
0.27843100 0.21739200 0.21509600 0.21315500
0.28235300 0.21991400 0.21764800 0.21575700
0.28627500 0.22242300 0.22018600 0.21834800
0.29019600 0.22492500 0.22272900 0.22094000
0.29411800 0.22743200 0.22528200 0.22353600
0.29803900 0.22994100 0.22784600 0.22613500
0.30196100 0.23245200 0.23041000 0.22872600
0.30588200 0.23495600 0.23296300 0.23129800
0.30980400 0.23744000 0.23550100 0.23383700
0.31372500 0.23990500 0.23805600 0.23635100
0.31764700 0.24238400 0.24063900 0.23887400
0.32156900 0.24488200 0.24325100 0.24141800
0.32549000 0.24740800 0.24586500 0.24397600
0.32941200 0.24993400 0.24846800 0.24652200
0.33333300 0.25245000 0.25106300 0.24905500
0.33725500 0.25495900 0.25364800 0.25157400
0.34117600 0.25745900 0.25623300 0.25408000
0.34509800 0.25995700 0.25881100 0.25657700
0.34902000 0.26246000 0.26137800 0.25905700
0.35294100 0.26496000 0.26396000 0.26152900
0.35686300 0.26747700 0.26655900 0.26401400
0.36078400 0.27003100 0.26918400 0.26652100
0.36470600 0.27262800 0.27184900 0.26906500
0.36862700 0.27528100 0.27455900 0.27165600
0.37254900 0.27800600 0.27730000 0.27429500
0.37647100 0.28080000 0.28005200 0.27695600
0.38039200 0.28363600 0.28280700 0.27962700
0.38431400 0.28650400 0.28556700 0.28230100
0.38823500 0.28940700 0.28833300 0.28498600
0.39215700 0.29235000 0.29110100 0.28767800
0.39607800 0.29532400 0.29387400 0.29037100
0.40000000 0.29832200 0.29666000 0.29306900
0.40392200 0.30135800 0.29944200 0.29578300
0.40784300 0.30441600 0.30223100 0.29849700
0.41176500 0.30748600 0.30503400 0.30122600
0.41568600 0.31057800 0.30784200 0.30396900
0.41960800 0.31367200 0.31065600 0.30671600
0.42352900 0.31676600 0.31347500 0.30946800
0.42745100 0.31986100 0.31630100 0.31223100
0.43137300 0.32295800 0.31914100 0.31500300
0.43529400 0.32606600 0.32202800 0.31779400
0.43921600 0.32920800 0.32494900 0.32063500
0.44313700 0.33235600 0.32788100 0.32351400
0.44705900 0.33549300 0.33082300 0.32641500
0.45098000 0.33862100 0.33377900 0.32933900
0.45490200 0.34174900 0.33674500 0.33229100
0.45882400 0.34487800 0.33972500 0.33526900
0.46274500 0.34801200 0.34271500 0.33827600
0.46666700 0.35115500 0.34573500 0.34130500
0.47058800 0.35433500 0.34880100 0.34437000
0.47451000 0.35753900 0.35187100 0.34748700
0.47843100 0.36071100 0.35492000 0.35061400
0.48235300 0.36387600 0.35796700 0.35372600
0.48627500 0.36704900 0.36104200 0.35684300
0.49019600 0.37023700 0.36412000 0.35999400
0.49411800 0.37342500 0.36719400 0.36315000
0.49803900 0.37662400 0.37027400 0.36629900
0.50196100 0.37984400 0.37337700 0.36944900
0.50588200 0.38309500 0.37651000 0.37260300
0.50980400 0.38640400 0.37969700 0.37577900
0.51372500 0.38979200 0.38294700 0.37901300
0.51764700 0.39324100 0.38624100 0.38231700
0.52156900 0.39669100 0.38952400 0.38565700
0.52549000 0.40014400 0.39280000 0.38899300
0.52941200 0.40362700 0.39609900 0.39233500
0.53333300 0.40716800 0.39944500 0.39571400
0.53725500 0.41077400 0.40285100 0.39915900
0.54117600 0.41443400 0.40631300 0.40268100
0.54509800 0.41814200 0.40982400 0.40627000
0.54902000 0.42188300 0.41338300 0.40993400
0.55294100 0.42560100 0.41693500 0.41362700
0.55686300 0.42928500 0.42047400 0.41730400
0.56078400 0.43297700 0.42403900 0.42096700
0.56470600 0.43669600 0.42766400 0.42466200
0.56862700 0.44038500 0.43130200 0.42837900
0.57254900 0.44404100 0.43492700 0.43205100
0.57647100 0.44769100 0.43856200 0.43568300
0.58039200 0.45138500 0.44224900 0.43931900
0.58431400 0.45510000 0.44597700 0.44297600
0.58823500 0.45882500 0.44972900 0.44663500
0.59215700 0.46256700 0.45351400 0.45031900
0.59607800 0.46633100 0.45732500 0.45401900
0.60000000 0.47016000 0.46119500 0.45774900
0.60392200 0.47406600 0.46513200 0.46154500
0.60784300 0.47806000 0.46914500 0.46542000
0.61176500 0.48214600 0.47323600 0.46938300
0.61568600 0.48632200 0.47740300 0.47343700
0.61960800 0.49055800 0.48161500 0.47757200
0.62352900 0.49483000 0.48585800 0.48175100
0.62745100 0.49916400 0.49014300 0.48596500
0.63137300 0.50357000 0.49447100 0.49024500
0.63529400 0.50804500 0.49884000 0.49459200
0.63921600 0.51258200 0.50324600 0.49899700
0.64313700 0.51714000 0.50765900 0.50343600
0.64705900 0.52167800 0.51205900 0.50785700
0.65098000 0.52619300 0.51643800 0.51227000
0.65490200 0.53069800 0.52081200 0.51667100
0.65882400 0.53517800 0.52517100 0.52106600
0.66274500 0.53951600 0.52939200 0.52536700
0.66666700 0.54374100 0.53349200 0.52951800
0.67058800 0.54789500 0.53752700 0.53356900
0.67451000 0.55197600 0.54150400 0.53755500
0.67843100 0.55604100 0.54548200 0.54149600
0.68235300 0.56011400 0.54949100 0.54546100
0.68627500 0.56413100 0.55347100 0.54942400
0.69019600 0.56810100 0.55741000 0.55333100
0.69411800 0.57206900 0.56133600 0.55720900
0.69803900 0.57603300 0.56525800 0.56108000
0.70196100 0.57997800 0.56916300 0.56493200
0.70588200 0.58390700 0.57306200 0.56875500
0.70980400 0.58782000 0.57695100 0.57254700
0.71372500 0.59172200 0.58083500 0.57631300
0.71764700 0.59561200 0.58471000 0.58005700
0.72156900 0.59949100 0.58857500 0.58378000
0.72549000 0.60335800 0.59242500 0.58748200
0.72941200 0.60716400 0.59622300 0.59115700
0.73333300 0.61090300 0.59996500 0.59477800
0.73725500 0.61457900 0.60366400 0.59834900
0.74117600 0.61822000 0.60733100 0.60187700
0.74509800 0.62180800 0.61095600 0.60537100
0.74902000 0.62533800 0.61454400 0.60881600
0.75294100 0.62884800 0.61812400 0.61222200
0.75686300 0.63234700 0.62171600 0.61562000
0.76078400 0.63586900 0.62535300 0.61902300
0.76470600 0.63945100 0.62907400 0.62246300
0.76862700 0.64314000 0.63290200 0.62598400
0.77254900 0.64694600 0.63683000 0.62962600
0.77647100 0.65082800 0.64078600 0.63338900
0.78039200 0.65470400 0.64467400 0.63722000
0.78431400 0.65852200 0.64847800 0.64103900
0.78823500 0.66228300 0.65220200 0.64481400
0.79215700 0.66599800 0.65588800 0.64854400
0.79607800 0.66972900 0.65960800 0.65225500
0.80000000 0.67355700 0.66343900 0.65601000
0.80392200 0.67755300 0.66743600 0.65989100
0.80784300 0.68174200 0.67160400 0.66396100
0.81176500 0.68609900 0.67593500 0.66821800
0.81568600 0.69061300 0.68043800 0.67263600
0.81960800 0.69528500 0.68511700 0.67721100
0.82352900 0.70010600 0.68989900 0.68191900
0.82745100 0.70497500 0.69472300 0.68670100
0.83137300 0.70984900 0.69954500 0.69146000
0.83529400 0.71466000 0.70423300 0.69618200
0.83921600 0.71933200 0.70878400 0.70076200
0.84313700 0.72387900 0.71318500 0.70518700
0.84705900 0.72828200 0.71743600 0.70946400
0.85098000 0.73254300 0.72154700 0.71360100
0.85490200 0.73667700 0.72551300 0.71760500
0.85882400 0.74066700 0.72928600 0.72149300
0.86274500 0.74448400 0.73290000 0.72523700
0.86666700 0.74822100 0.73647000 0.72882600
0.87058800 0.75196900 0.74002900 0.73236900
0.87451000 0.75570600 0.74355800 0.73593200
0.87843100 0.75942300 0.74707200 0.73949600
0.88235300 0.76312000 0.75057900 0.74307000
0.88627500 0.76680900 0.75411200 0.74664900
0.89019600 0.77050900 0.75770100 0.75025900
0.89411800 0.77426800 0.76137800 0.75391600
0.89803900 0.77810900 0.76514200 0.75765900
0.90196100 0.78202700 0.76898000 0.76149000
0.90588200 0.78596000 0.77281300 0.76540200
0.90980400 0.78986400 0.77662600 0.76932700
0.91372500 0.79375700 0.78043300 0.77323200
0.91764700 0.79766400 0.78427000 0.77713200
0.92156900 0.80162100 0.78818100 0.78106100
0.92549000 0.80569800 0.79221000 0.78507200
0.92941200 0.80991400 0.79636700 0.78923000
0.93333300 0.81431300 0.80070400 0.79355400
0.93725500 0.81902100 0.80534200 0.79812600
0.94117600 0.82413200 0.81035100 0.80310100
0.94509800 0.82969100 0.81579700 0.80856700
0.94902000 0.83580100 0.82181300 0.81459000
0.95294100 0.84252100 0.82838300 0.82130600
0.95686300 0.84981800 0.83557500 0.82864000
0.96078400 0.85789600 0.84362800 0.83674800
0.96470600 0.86676300 0.85247100 0.84568000
0.96862700 0.87635000 0.86194600 0.85532900
0.97254900 0.88683900 0.87221000 0.86568900
0.97647100 0.89800300 0.88289300 0.87669400
0.98039200 0.90948900 0.89382800 0.88796900
0.98431400 0.92140700 0.90522200 0.89974800
0.98823500 0.93397200 0.91731000 0.91226900
0.99215700 0.94730300 0.93022300 0.92567600
0.99607800 0.96150000 0.94393800 0.93996600
1.00000000 0.97673800 0.95859500 0.95533700
END_DATA
CAL    

DESCRIPTOR "Argyll Calibration options and model"
ORIGINATOR "Argyll dispcal"
CREATED "Tue Oct 02 14:31:06 201"

NUMBER_OF_FIELDS 3
BEGIN_DATA_FORMAT
R_P G_P B_P
END_DATA_FORMAT

NUMBER_OF_SETS 32
BEGIN_DATA
5.629e-0500 0.000393541 0.001062370
0.999944000 0.999606000 0.998938000
1.417714000 1.335714000 1.316899000
0.258229000 0.299751000 0.315964000
0.095214600 0.070235700 0.100511000
0.121534000 0.154157000 0.126683000
0.124434000 0.100734000 0.110547000
0.104228000 0.103246000 0.092006600
0.096468700 0.108912000 0.102352000
0.084399700 0.092067000 0.084690700
0.104406000 0.072787300 0.085276700
0.077502000 0.084474100 0.081990000
0.066328300 0.070164600 0.074503500
0.058841700 0.076114200 0.069005100
0.060621500 0.064007400 0.069568100
0.057346100 0.050201600 0.064822600
0.054466300 0.059712800 0.061205400
0.046508500 0.048026900 0.054153700
0.038882900 0.049397000 0.045231000
0.042434100 0.048831000 0.050476300
0.038755500 0.048813900 0.042375100
0.038157800 0.048320300 0.046786100
0.040694000 0.050673600 0.045653300
0.034748700 0.042631500 0.038519900
0.028915300 0.036585300 0.037201900
0.027231700 0.033775900 0.033618900
0.023244300 0.032357700 0.030514600
0.021430100 0.033478700 0.029283500
0.021396200 0.031313500 0.028995000
0.020925200 0.033667200 0.028873600
0.024458100 0.036657100 0.030501500
0.022472300 0.034277200 0.026919900
END_DATA