Apple/MacBook Pro 13' (2013 Late)/Color LCD #1 2018-10-02 14-24 0.3127x 0.329y sRGB F-S XYZLUT+MTX/Color LCD #1 2018-10-02 14-24 0.3127x 0.329y sRGB F-S XYZLUT+MTX.ti1
CTI1   

DESCRIPTOR "Argyll Calibration Target chart information 1"
ORIGINATOR "Argyll targen"
CREATED "Tue Oct 02 14:08:15 2018"
SINGLE_DIM_STEPS "17"
COMP_GREY_STEPS "49"
DARK_REGION_EMPHASIS "1.6"
COLOR_REP "RGB"
TARGET_INSTRUMENT "X-Rite i1 DisplayPro, ColorMunki Display"
DISPLAY_TYPE_REFRESH "NO"
DISPLAY_TYPE_BASE_ID "1"
INSTRUMENT_TYPE_SPECTRAL "NO"
NORMALIZED_TO_Y_100 "YES"
VIDEO_LUT_CALIBRATION_POSSIBLE "YES"
OBSERVER "1931_2"
USE_BLACK_POINT_COMPENSATION "NO"
BLACK_POINT_CORRECTION "0.0"
HIRES_B2A "YES"
HIRES_B2A_SIZE "-1"
SMOOTH_B2A "YES"
PATCH_SEQUENCE "OPTIMIZE_DISPLAY_RESPONSE_DELAY"

NUMBER_OF_FIELDS 7
BEGIN_DATA_FORMAT
SAMPLE_ID RGB_R RGB_G RGB_B XYZ_X XYZ_Y XYZ_Z
END_DATA_FORMAT

NUMBER_OF_SETS 417
BEGIN_DATA
1 100.0000 100.0000 100.0000 94.70526 100.0000 111.3275
2 1.960800 1.960800 1.960800 0.142297 0.143229 0.243236
3 3.921600 3.921600 3.921600 0.207247 0.211150 0.319617
4 5.882400 5.882400 5.882400 0.369221 0.380522 0.497219
5 9.803900 9.803900 9.803900 0.704981 0.736560 0.879066
6 13.72600 13.72600 13.72600 1.376690 1.454938 1.665139
7 17.64700 17.64700 17.64700 2.079989 2.192981 2.514389
8 21.56900 21.56900 21.56900 3.120457 3.304968 3.643988
9 25.49000 25.49000 25.49000 4.440699 4.658881 5.250709
10 29.41200 29.41200 29.41200 5.957333 6.245137 6.799695
11 33.33300 33.33300 33.33300 7.965151 8.304955 9.059076
12 37.25500 37.25500 37.25500 10.14286 10.65702 11.67069
13 41.17600 41.17600 41.17600 13.00267 13.67786 14.99269
14 45.09800 45.09800 45.09800 16.13421 17.05081 18.38149
15 49.02000 49.02000 49.02000 19.67656 20.69256 22.47842
16 52.94100 52.94100 52.94100 23.21925 24.42897 26.87728
17 56.86300 56.86300 56.86300 27.17840 28.76856 31.59258
18 60.78400 60.78400 60.78400 31.99485 33.68347 36.80728
19 64.70600 64.70600 64.70600 36.75394 38.75408 42.37281
20 68.62700 68.62700 68.62700 41.55869 43.75006 47.66737
21 72.54900 72.54900 72.54900 45.23490 47.34047 52.06243
22 76.47100 76.47100 76.47100 48.30757 50.76500 55.60375
23 80.39200 80.39200 80.39200 50.91032 53.47803 58.33355
24 84.31400 84.31400 84.31400 53.94492 56.13185 64.09324
25 88.23500 88.23500 88.23500 65.66669 68.56534 76.39325
26 92.15700 92.15700 92.15700 77.38975 80.75161 90.04501
27 96.07800 96.07800 96.07800 89.34154 94.16380 102.3197
28 0.000000 21.78480 60.78090 6.376420 4.025300 28.09582
29 0.000000 49.83410 62.15210 11.42931 13.56682 30.52024
30 23.70550 57.62710 63.31840 14.42237 18.11250 30.75286
31 22.30600 93.43480 63.38100 33.30040 56.08607 33.46351
32 48.58790 100.0000 73.78500 48.24818 78.29083 45.28306
33 15.46740 28.60580 17.43440 2.629362 3.826294 2.328990
34 88.17110 28.47180 79.59910 31.69964 17.35079 43.81331
35 100.0000 36.62730 85.25850 47.92651 27.06762 48.58227
36 6.097600 0.000000 0.000000 0.195113 0.158698 0.220682
37 9.493700 0.000000 0.000000 0.292555 0.204458 0.198167
38 13.15790 0.000000 0.000000 0.493339 0.310896 0.204082
39 17.12330 0.000000 0.000000 0.784069 0.465243 0.212569
40 21.42860 0.000000 0.000000 1.143654 0.656684 0.223228
41 26.11940 0.000000 0.000000 1.767721 0.988732 0.240303
42 28.81590 0.000000 0.000000 2.051179 1.139407 0.248618
43 31.25000 0.000000 0.000000 2.484021 1.369443 0.261210
44 36.88520 0.000000 0.000000 3.527119 1.923805 0.293165
45 43.10350 0.000000 0.000000 5.209084 2.818643 0.341708
46 50.00000 0.000000 0.000000 7.238444 3.898398 0.401688
47 57.69230 0.000000 0.000000 9.737288 5.227276 0.476405
48 66.32650 0.000000 0.000000 13.81576 7.395171 0.597877
49 81.33330 0.000000 56.00090 21.57804 11.11832 16.12839
50 81.54140 0.000000 78.92440 26.91296 13.22221 43.33750
51 87.82020 32.68410 97.49280 34.03414 18.01305 71.78569
52 100.0000 32.37070 100.0000 51.64729 26.93367 87.55601
53 91.91020 16.05980 89.34310 32.45354 16.38561 51.49247
54 0.000000 0.000000 0.000000 0.141468 0.140204 0.256089
55 0.000000 2.941200 0.000000 0.121253 0.134666 0.196870
56 0.000000 6.097600 0.000000 0.202312 0.288762 0.219572
57 0.000000 9.493700 0.000000 0.299682 0.481586 0.248722
58 0.000000 17.12330 0.000000 0.752063 1.362266 0.379712
59 0.000000 21.42860 0.000000 1.096225 2.032693 0.480589
60 0.000000 26.11940 0.000000 1.643278 3.099833 0.641578
61 0.000000 31.25000 0.000000 2.336942 4.449807 0.847196
62 0.000000 53.98730 0.000000 8.158534 15.79739 2.569698
63 0.000000 57.69230 0.000000 9.278435 17.99527 2.900778
64 35.20060 58.47340 0.000000 12.44762 20.27408 3.106889
65 36.96930 87.99300 0.000000 20.72323 37.76059 5.843104
66 68.91760 91.66490 9.566200 31.92234 46.71595 7.136179
67 84.75120 91.27210 49.59530 46.86171 58.05590 20.00740
68 67.39800 72.31170 17.27430 29.50686 37.51717 6.701620
69 79.76210 72.07760 36.93900 39.16918 43.14004 11.82311
70 94.62400 88.11460 46.29360 57.90621 64.13931 18.92053
71 100.0000 89.60550 64.60720 72.01611 70.28198 34.58592
72 0.000000 0.000000 6.097600 0.165051 0.146259 0.394944
73 0.000000 0.000000 26.11940 0.838704 0.398213 3.969380
74 0.000000 0.000000 31.25000 1.237772 0.555623 6.043886
75 0.000000 0.000000 36.88520 1.664099 0.724463 8.267910
76 0.000000 0.000000 43.10350 2.455723 1.037397 12.37222
77 0.000000 0.000000 50.00000 3.562753 1.474951 18.09384
78 0.000000 0.000000 57.69230 4.807127 1.964433 24.56703
79 0.000000 0.000000 66.32650 6.669359 2.696715 34.20140
80 0.000000 0.000000 76.08700 8.357263 3.358543 42.93819
81 0.000000 0.000000 100.0000 18.42860 7.108872 95.20285
82 30.87620 25.01390 100.0000 20.56399 9.366136 95.60138
83 30.94590 74.28790 100.0000 32.38749 32.47335 98.95489
84 1.938000 1.938000 1.938000 0.124346 0.125372 0.213499
85 2.941200 2.941200 2.941200 0.142036 0.145073 0.235245
86 3.968300 3.968300 3.968300 0.181633 0.184825 0.279829
87 5.020100 5.020100 5.020100 0.265146 0.274036 0.375762
88 6.097600 6.097600 6.097600 0.350277 0.364935 0.462965
89 7.201600 7.201600 7.201600 0.386990 0.396827 0.558830
90 8.333300 8.333300 8.333300 0.476378 0.493655 0.633073
91 9.493700 9.493700 9.493700 0.597666 0.634143 0.769019
92 10.68380 10.68380 10.68380 0.724256 0.780625 0.946008
93 11.90480 11.90480 11.90480 0.895103 0.964615 1.158761
94 13.15790 13.15790 13.15790 1.077939 1.139725 1.300707
95 14.44440 14.44440 14.44440 1.286341 1.364406 1.536824
96 15.76580 15.76580 15.76580 1.503567 1.598406 1.784436
97 17.12330 17.12330 17.12330 1.809355 1.915614 2.125049
98 18.51850 18.51850 18.51850 2.056700 2.177121 2.418349
99 19.95310 19.95310 19.95310 2.308651 2.412541 2.615004
100 21.42860 21.42860 21.42860 2.731723 2.893913 3.190154
101 22.94690 22.94690 22.94690 3.145539 3.295486 3.725691
102 24.50980 24.50980 24.50980 3.505300 3.673308 4.154515
103 26.11940 26.11940 26.11940 4.258786 4.482515 4.924694
104 27.77780 27.77780 27.77780 4.832108 5.093301 5.589725
105 29.48720 29.48720 29.48720 5.216769 5.467173 5.955715
106 31.25000 31.25000 31.25000 6.113904 6.450900 7.096724
107 33.06880 33.06880 33.06880 6.779711 7.171598 7.748049
108 34.94620 34.94620 34.94620 7.645064 8.029139 8.784187
109 36.88520 36.88520 36.88520 8.712336 9.249960 9.781552
110 38.88890 38.88890 38.88890 9.845460 10.28177 11.25009
111 40.96050 40.96050 40.96050 11.01606 11.53738 12.58683
112 43.10350 43.10350 43.10350 12.76765 13.38581 14.54746
113 45.32160 45.32160 45.32160 14.32984 15.02426 16.45177
114 87.32750 68.80000 46.89030 32.20457 31.34351 12.74455
115 100.0000 100.0000 100.0000 83.02232 87.62288 97.53413
116 45.69850 58.21860 89.37980 19.94653 17.78845 55.61383
117 65.83240 72.49110 100.0000 38.84722 34.42058 96.92253
118 88.98290 72.05600 99.78760 52.32315 42.40423 98.42361
119 100.0000 76.13300 100.0000 76.27379 58.90397 110.5256
120 30.65520 0.000000 63.92650 7.787659 3.410679 30.40969
121 54.18070 25.00050 74.62850 17.46790 9.671059 47.79654
122 67.46510 14.99100 85.21650 22.31056 10.92999 53.10097
123 69.91790 35.40760 100.0000 31.52942 16.46495 95.94622
124 57.76580 56.94430 78.69670 22.96883 20.37991 48.54980
125 58.00910 74.52970 83.48320 31.46558 35.87533 55.01599
126 73.11860 75.03110 88.05430 39.22164 39.06893 60.38128
127 73.73150 87.90670 88.10180 53.51242 59.75143 73.61439
128 0.000000 37.83340 23.65370 3.133480 5.262909 3.358662
129 0.000000 37.81830 39.45250 4.184992 5.710136 8.736624
130 13.84630 45.12130 40.04890 6.505502 9.589244 9.811114
131 0.000000 57.08000 45.14860 10.13772 16.38464 13.43398
132 27.48070 60.96460 51.21120 15.49266 22.81302 20.18289
133 46.36110 65.04050 69.02990 24.23944 29.07805 41.64234
134 43.32090 76.08800 69.17980 26.49061 36.62284 38.65695
135 57.64940 84.04530 82.83260 35.43847 44.28023 54.83449
136 87.99530 93.44870 83.50960 54.15430 61.13434 54.58435
137 95.52850 95.52850 95.52850 67.88542 71.36941 78.02096
138 14.77310 12.80040 2.800100 0.942931 1.023282 0.347375
139 25.12210 18.64630 14.13620 2.628028 2.500357 1.736956
140 37.78360 42.81250 20.15470 9.014505 11.59371 4.021639
141 51.48940 56.20780 25.66670 17.20833 21.68967 6.677628
142 64.42110 68.93370 42.28520 28.62745 35.25874 13.94424
143 63.88620 82.57160 53.56420 30.45624 41.32317 19.90906
144 0.000000 82.46280 72.99910 24.77919 37.61283 41.11308
145 36.23480 90.60350 86.27340 31.31670 44.37425 53.52288
146 53.59340 100.0000 100.0000 53.54968 71.88103 96.14734
147 0.000000 35.97650 100.0000 18.18007 9.635031 86.59741
148 33.43830 42.66290 100.0000 22.71833 13.42681 96.02992
149 34.99190 56.78370 100.0000 28.30949 21.13770 106.2987
150 0.000000 24.16680 20.71000 1.320903 1.930237 2.189676
151 0.000000 25.62500 36.89740 2.285160 2.553183 6.444400
152 0.000000 36.95990 60.79090 7.494267 6.902292 26.22584
153 0.000000 40.57230 83.83390 11.82632 8.464025 49.13400
154 19.03140 53.03810 86.98710 15.14970 13.47338 52.37191
155 26.77290 73.58950 90.80990 27.54599 32.74163 68.59963
156 72.07440 34.18030 42.03540 21.94297 14.46419 10.36000
157 87.89950 36.98830 54.73900 31.68692 19.77598 18.40125
158 67.02220 18.74540 13.74020 15.40908 9.082713 1.661381
159 68.15240 18.06980 25.67900 16.03154 9.265001 3.647277
160 65.00930 40.35860 27.36780 17.51892 13.96554 5.204380
161 75.62480 53.14420 30.29330 23.68929 20.46086 6.026078
162 89.12730 63.71090 31.20950 29.56469 26.79974 6.430112
163 90.04530 64.28290 16.14610 29.72742 27.30817 4.003275
164 56.91130 55.11960 0.000000 17.69686 21.02779 2.899517
165 83.80060 64.53130 0.000000 35.40434 34.57564 4.234906
166 83.33330 83.33330 83.33330 57.57610 60.53771 66.19073
167 87.20930 87.20930 87.20930 62.10128 65.29102 70.80484
168 91.26980 91.26980 91.26980 67.89753 71.36980 78.07805
169 0.000000 50.00000 0.000000 5.739081 11.06702 1.883739
170 0.000000 76.08700 0.000000 18.21837 35.42467 5.267476
171 0.000000 87.20930 0.000000 19.48276 38.05855 6.001427
172 61.30780 100.0000 0.000000 42.65301 73.09012 11.20681
173 62.54040 95.00170 32.69250 34.06066 53.55370 11.74591
174 55.41620 88.80710 100.0000 46.66477 51.22813 110.0629
175 46.94740 0.000000 82.47170 15.87565 6.987342 57.26261
176 47.11530 0.000000 100.0000 25.33505 10.37948 110.0960
177 81.80980 0.000000 100.0000 40.89166 18.62990 110.7832
178 100.0000 0.000000 100.0000 64.93410 31.77656 112.9960
179 84.33260 73.72540 18.86820 38.66576 42.52920 6.935273
180 100.0000 84.91090 34.73800 69.32082 67.05395 13.35931
181 100.0000 88.85320 87.46540 83.06765 76.90856 70.31647
182 32.16360 0.000000 43.58120 3.646485 1.766582 9.266886
183 39.46170 15.51610 56.30160 6.403049 3.507161 17.28712
184 55.04120 19.87100 56.36020 10.57865 6.064653 17.87888
185 64.51620 35.81240 69.41220 22.02032 13.93537 38.78236
186 77.04710 50.97940 68.81360 28.67064 21.32530 33.84426
187 71.78940 44.54480 0.000000 19.92540 15.83227 1.752775
188 84.32660 52.72970 17.18320 25.47447 20.51340 3.290000
189 83.65490 100.0000 60.20270 58.57736 82.60727 30.96998
190 84.53020 100.0000 87.78010 68.45515 89.50968 65.73675
191 0.000000 0.000000 87.20930 12.07258 4.816335 62.18687
192 0.000000 20.85960 87.30480 12.95035 6.259701 63.28062
193 0.000000 59.39990 86.85660 20.09048 20.33513 65.00299
194 0.000000 58.87110 100.0000 26.30353 20.29806 104.3490
195 22.21460 13.83530 44.80800 3.567751 2.109440 11.57350
196 46.35080 27.37110 50.10970 9.513725 6.652913 16.13023
197 62.08720 44.90750 51.03620 19.31026 16.23462 18.10090
198 70.18280 54.43260 51.97500 25.29554 22.50745 18.06564
199 84.11900 0.000000 36.45940 20.27989 10.71394 5.472289
200 86.63250 15.23520 47.28110 26.17101 14.11568 11.80797
201 0.000000 100.0000 0.000000 38.05485 74.42198 11.81018
202 0.000000 100.0000 39.13420 39.33980 75.00951 17.50750
203 52.25140 100.0000 52.13720 45.87009 78.37331 24.84421
204 18.84190 47.38260 15.73010 5.112965 8.730840 2.430305
205 41.52720 51.90660 38.58860 9.566101 12.26360 7.984209
206 52.46910 52.46910 52.46910 14.19108 14.89698 16.42387
207 27.97810 89.10400 27.65330 25.32945 46.84466 10.28966
208 45.06670 100.0000 27.02200 41.36455 75.40243 13.76229
209 84.65200 100.0000 27.93480 51.13035 75.00522 12.93808
210 27.68240 15.45810 80.09080 10.41202 4.810562 45.80959
211 52.13440 21.53360 93.65670 18.37369 8.933336 65.81062
212 57.46330 52.19430 96.07140 25.19155 18.02844 74.39921
213 17.13230 33.27000 46.94020 5.575946 5.814852 14.61394
214 17.67160 41.63110 49.73550 7.469160 8.873917 17.15225
215 19.70600 68.82040 64.78130 20.65044 30.10580 34.72600
216 33.72090 78.14470 83.88420 26.48237 34.74553 53.54012
217 49.79080 90.10700 94.37830 35.55989 45.11282 67.10592
218 37.40360 25.00420 17.24660 5.484025 4.917511 2.464381
219 49.65200 30.25580 16.53610 9.774906 8.080585 2.601473
220 64.33890 54.47270 18.53900 20.94487 21.44313 4.356202
221 63.97380 82.37190 34.45100 28.60231 40.54042 10.40151
222 62.52980 93.30230 48.88530 35.63182 53.60449 19.14905
223 100.0000 100.0000 54.57390 79.53205 95.11532 27.14642
224 100.0000 100.0000 76.84860 84.22071 97.04186 51.60485
225 19.40660 0.000000 25.75110 1.462825 0.748623 3.444324
226 34.52590 0.000000 27.87920 4.103914 2.110061 4.993799
227 51.14670 0.000000 41.50980 9.695439 4.924782 11.23395
228 55.79170 0.000000 60.66440 14.22780 6.867413 28.78705
229 77.55080 14.26460 63.59820 22.95412 11.96557 25.12321
230 89.47140 57.06340 65.57560 31.50551 24.21936 25.60439
231 93.39590 73.18800 81.64030 43.53399 39.23568 44.99570
232 47.61910 47.61910 47.61910 15.94708 16.80593 18.39468
233 50.00000 50.00000 50.00000 18.22228 19.27090 21.20139
234 89.11280 73.85840 63.65570 37.96786 37.52274 25.63647
235 100.0000 74.35740 69.82370 49.97290 42.17704 30.00156
236 0.000000 36.88520 0.000000 3.326294 6.387800 1.141528
237 28.61380 38.74110 0.000000 5.706400 8.188829 1.309582
238 39.07340 59.77870 77.95010 19.06156 19.72018 47.38408
239 58.08500 77.16510 94.96610 32.81380 35.27767 70.08755
240 88.31730 85.96570 100.0000 58.08855 53.66119 104.0302
241 10.92910 19.78850 12.87040 1.219848 1.699087 1.270812
242 22.62880 31.79400 12.59270 3.510529 4.892177 1.726885
243 28.71600 40.83820 33.05050 7.564579 9.779773 8.006681
244 35.92920 55.00920 53.81060 15.96433 20.02996 24.20195
245 63.33330 63.33330 63.33330 30.77305 32.51970 35.59075
246 66.32650 66.32650 66.32650 34.05512 35.78140 39.17343
247 84.53960 65.80650 66.48410 33.88709 30.76326 29.43344
248 57.85260 0.000000 18.72170 10.35952 5.510656 2.288960
249 59.76980 0.000000 32.94330 11.89754 6.230329 6.078756
250 66.37590 17.25350 48.60380 17.24118 9.634431 14.34957
251 92.84520 19.31190 62.56560 27.52710 14.78319 20.44963
252 38.06770 32.58480 58.52680 10.69129 8.232025 26.81074
253 38.11730 43.58460 65.47040 13.61462 11.93875 35.33116
254 88.41260 51.77390 88.07860 35.00503 23.41426 52.73384
255 100.0000 53.65870 100.0000 55.01931 33.17495 88.78909
256 100.0000 89.89540 100.0000 68.53841 59.60397 92.95900
257 0.000000 0.000000 0.000000 0.107171 0.104967 0.191997
258 0.000000 0.000000 2.941200 0.113228 0.107606 0.230006
259 0.000000 15.96330 38.85690 2.524922 1.964422 9.879028
260 17.37730 25.13150 48.97170 5.423352 4.407934 17.64872
261 90.77430 82.56320 91.12340 49.06085 47.37893 61.67717
262 100.0000 100.0000 90.32840 81.17885 90.86849 65.10711
263 89.41630 46.77790 0.858800 28.96765 21.55325 2.268754
264 94.39830 46.96120 19.19110 36.39720 25.19428 3.894829
265 100.0000 52.46060 60.34830 53.29106 35.28813 24.02065
266 46.77370 15.13960 21.37960 5.426748 3.389503 2.351329
267 92.37350 17.24970 24.48150 31.65109 17.47131 3.721564
268 76.08700 0.000000 0.000000 19.83411 10.60838 0.832553
269 100.0000 38.23520 0.000000 44.96140 27.11773 2.226458
270 100.0000 38.81150 24.42330 49.53336 29.92268 4.859372
271 100.0000 62.61680 28.45520 56.88270 43.46280 7.836903
272 100.0000 75.93890 51.76890 66.51661 58.79951 21.04862
273 43.67280 49.32990 7.841400 9.046478 11.90307 2.083545
274 46.07460 73.93010 17.67670 19.75065 32.06214 6.073207
275 0.000000 66.32650 0.000000 11.83768 22.98298 3.672814
276 24.77670 67.13590 18.90250 14.75984 26.58215 5.810423
277 45.34070 75.51620 37.79610 21.53601 34.42248 11.25161
278 58.05840 77.96870 65.19790 29.58722 39.13726 32.78732
279 80.73920 86.40600 64.58910 42.14720 49.01879 32.03117
280 88.41530 97.03950 73.35200 58.22058 71.51643 45.66693
281 0.000000 80.28780 32.35670 21.45620 40.25777 10.99821
282 24.08430 92.71610 47.19450 30.01552 53.94841 19.10706
283 0.000000 100.0000 60.90930 42.00682 76.05948 31.10359
284 0.000000 100.0000 84.90610 51.79674 84.55721 66.69301
285 45.82080 100.0000 89.71140 61.61585 94.48216 79.49361
286 86.86750 100.0000 100.0000 93.36581 110.0866 135.1130
287 100.0000 100.0000 100.0000 115.4988 122.0625 135.7622
288 36.50190 20.05860 0.000000 3.084268 2.557054 0.493029
289 56.91530 20.12820 34.83080 8.532676 5.277999 5.438709
290 85.78500 23.30250 37.59510 22.19865 12.68283 6.165851
291 100.0000 30.58540 38.63360 39.12401 22.80212 7.309762
292 100.0000 25.87330 53.43130 43.49869 24.11858 14.92459
293 100.0000 39.45380 69.45820 48.07789 28.13023 31.70384
294 41.10980 0.000000 20.37970 4.224049 2.251431 2.246845
295 94.87060 87.41220 18.42960 44.22529 49.29012 7.247190
296 84.23420 89.78590 0.000000 37.89891 48.23832 6.624904
297 86.20510 91.01410 33.46260 40.91520 50.85600 11.30417
298 59.49070 75.47200 0.000000 24.79359 36.46023 5.625797
299 76.08700 76.08700 76.08700 48.65985 51.16366 55.85059
300 79.62960 79.62960 79.62960 53.38915 56.16451 61.68384
301 91.26100 83.89690 79.73450 60.21308 61.06994 58.40511
302 100.0000 100.0000 100.0000 103.5656 109.4606 121.9689
303 23.03210 74.07340 42.66930 20.32547 35.40438 14.63134
304 37.65810 77.54830 57.66290 26.34329 40.92876 27.05064
305 52.24470 91.49280 76.46860 42.52213 60.04303 55.43313
306 84.06290 92.78260 100.0000 66.54977 67.81498 115.9364
307 86.46130 43.81180 27.41400 30.41759 21.19605 5.238633
308 100.0000 54.53290 45.22340 55.10846 37.95129 13.33755
309 55.39970 23.93580 0.000000 7.433853 5.198790 0.692189
310 70.38060 35.00510 13.77270 16.12702 11.24443 1.854646
311 69.44440 69.44440 69.44440 33.97244 36.41345 40.27474
312 72.69500 72.69500 72.69500 39.64788 41.48146 45.67401
313 0.000000 0.000000 9.493700 0.202620 0.144052 0.692227
314 0.000000 0.000000 13.15790 0.290556 0.179413 1.146700
315 0.000000 0.000000 17.12330 0.426841 0.234318 1.845981
316 0.000000 0.000000 21.42860 0.601751 0.303454 2.747676
317 14.71270 28.38140 30.30010 3.558508 4.379612 6.317335
318 33.63030 35.61560 49.01080 9.144840 8.592182 18.33171
319 55.03140 55.03140 55.03140 21.90803 23.00318 25.21663
320 57.69230 57.69230 57.69230 24.52696 25.95860 28.64095
321 76.65640 71.30370 57.02170 34.70043 37.30613 22.34599
322 90.38510 86.27390 59.83720 42.72609 47.26938 23.46670
323 95.64250 88.89070 75.45640 50.77153 52.12777 39.48660
324 23.96050 29.35590 82.55070 11.38242 6.490878 48.63357
325 47.84290 38.10630 85.25920 18.22574 11.56353 58.67187
326 75.43460 41.82510 89.97580 35.99998 22.05184 72.29260
327 78.93870 57.26080 100.0000 47.12698 31.44597 115.2291
328 9.486600 62.15390 78.14400 19.35421 22.50574 52.74046
329 13.64790 89.37010 90.88040 35.51532 50.05836 70.29875
330 25.81390 91.59590 100.0000 41.48471 49.95501 104.2219
331 11.21480 12.59930 24.86750 1.209817 1.041957 3.178088
332 26.47950 16.42180 34.62010 3.413145 2.462615 6.918983
333 26.10620 22.17100 62.27310 8.265910 4.970658 30.57005
334 27.94220 37.93030 73.90230 12.00559 8.783533 42.98624
335 21.36160 44.93900 66.13000 12.02563 11.70864 36.18054
336 21.52500 44.25390 92.49400 16.05136 11.23723 64.77692
337 0.000000 79.03550 86.84760 29.41837 39.44936 64.77378
338 0.000000 84.50230 100.0000 39.15625 44.05247 112.4167
339 0.000000 100.0000 100.0000 61.00974 86.44637 120.2668
340 0.000000 58.17880 59.78220 12.69814 17.66945 25.80930
341 60.45750 60.45750 60.45750 24.24212 25.57891 28.28716
342 73.23850 61.64680 72.88190 37.29939 32.70719 48.25233
343 76.76690 61.74860 87.01130 34.21151 27.41653 54.37063
344 92.40020 65.42300 87.74990 40.84788 32.57702 51.87582
345 0.000000 13.15790 0.000000 0.477912 0.828709 0.301025
346 0.000000 15.06610 20.34340 1.037733 1.234581 2.633112
347 33.96660 16.89380 27.96890 4.672581 3.327366 5.267470
348 2.941200 0.000000 0.000000 0.120365 0.112068 0.192747
349 21.30570 12.66920 20.88920 2.013676 1.562000 2.788904
350 43.46640 15.55970 38.46490 7.845317 4.780760 9.846261
351 49.80450 27.93910 39.51040 11.12090 8.185892 10.79197
352 68.06340 37.63020 53.72190 20.93579 14.41399 18.45265
353 37.22200 56.73640 27.77850 13.41350 20.03678 7.287402
354 47.60890 68.90460 48.91960 21.96955 31.55948 17.98578
355 74.69390 81.33050 71.09350 40.09117 45.46158 39.77349
356 32.16140 28.05760 12.52850 4.721646 5.115386 1.745835
357 31.64190 31.37680 22.90470 5.664359 6.279988 4.024007
358 58.83510 31.50620 30.02500 13.54273 9.936848 5.969037
359 81.59770 34.54030 63.84080 24.91447 15.04395 24.60580
360 93.27040 50.75840 77.35050 36.24599 24.66263 40.82337
361 0.000000 83.29850 55.41380 22.54464 39.05716 22.32995
362 17.81240 84.08690 64.33110 28.16027 45.25151 35.93454
363 18.69460 94.60610 84.85470 42.42315 64.43398 67.65308
364 83.64190 0.000000 21.55330 24.55741 13.07275 2.875098
365 100.0000 0.000000 61.12450 43.79426 22.83844 20.89480
366 100.0000 0.000000 80.69950 48.42110 24.65963 44.40183
367 36.62550 14.63060 12.14710 3.352332 2.350574 1.052176
368 50.54000 19.59720 14.37280 7.522111 5.057387 1.612033
369 90.44270 23.64400 12.48420 22.59018 12.97884 1.492115
370 82.54900 31.66750 0.000000 23.72004 14.83569 1.341144
371 83.86710 31.59910 26.72760 26.92479 16.66599 4.501269
372 0.000000 0.000000 0.000000 0.107765 0.106350 0.194927
373 0.957900 0.957900 0.957900 0.109039 0.106948 0.194054
374 0.000000 43.10350 0.000000 4.739731 9.140990 1.556911
375 0.000000 56.68950 27.83060 9.928044 18.00782 7.033824
376 46.19880 89.58830 54.14050 25.76700 41.29487 19.10390
377 64.11000 91.76790 67.10420 34.40874 47.56088 31.42311
378 68.10560 91.91270 84.68670 40.70502 50.37300 52.12199
379 45.47340 37.03420 0.000000 9.154490 9.482807 1.311416
380 56.76600 39.12000 9.181300 13.10510 11.76417 1.882988
381 56.19780 44.25700 37.28600 15.88165 15.03140 9.839811
382 22.39600 13.29820 0.000000 1.664987 1.470801 0.337077
383 21.97240 22.95930 0.000000 2.348699 2.916413 0.559200
384 20.47090 41.64360 23.85910 6.081219 9.423570 4.803491
385 22.25060 57.08830 38.04740 12.00485 19.34024 11.06118
386 53.59200 62.86080 53.63020 23.42491 28.57213 23.40387
387 27.94980 40.95320 42.24050 8.571534 10.19065 13.45090
388 37.07110 49.34880 58.74990 14.58780 15.81756 28.36241
389 52.62220 52.57000 62.29170 20.43329 20.00726 32.99830
390 36.41410 23.31960 25.01250 5.446708 4.517520 4.333734
391 49.14990 35.57140 36.52730 11.73301 10.20952 9.389247
392 77.54310 46.01640 41.89480 23.08107 17.22027 9.380849
393 88.12940 49.26870 52.64700 26.80458 19.34441 13.63279
394 91.16120 40.24090 41.95750 25.55902 16.57650 7.991276
395 92.03650 57.19220 41.96050 29.57487 23.58400 9.004025
