Apple/MacBook Pro 13' (2013 Late)/Color LCD #1 2018-10-02 14-24 0.3127x 0.329y sRGB F-S XYZLUT+MTX/Color LCD #1 2018-10-02 14-24 0.3127x 0.329y sRGB F-S XYZLUT+MTX.ti3
CTI3   

DESCRIPTOR "Argyll Calibration Target chart information 3"
ORIGINATOR "Argyll dispread"
CREATED "Tue Oct 02 14:31:08 2018"
DEVICE_CLASS "DISPLAY"
SINGLE_DIM_STEPS "17"
COMP_GREY_STEPS "49"
DARK_REGION_EMPHASIS "1.6"
COLOR_REP "RGB_XYZ"
TARGET_INSTRUMENT "X-Rite i1 DisplayPro, ColorMunki Display"
DISPLAY_TYPE_REFRESH "NO"
DISPLAY_TYPE_BASE_ID "1"
INSTRUMENT_TYPE_SPECTRAL "NO"
LUMINANCE_XYZ_CDM2 "121.890973 127.954949 139.304421"
NORMALIZED_TO_Y_100 "YES"
VIDEO_LUT_CALIBRATION_POSSIBLE "YES"

BEGIN_ARGYLL_COLPROF_ARGS
-v -qh -aX -bn -C "No copyright. Created with DisplayCAL 3.6.2.0 and ArgyllCMS 2.0.1" -M "Color LCD" -A "Apple Computer Inc"
END_ARGYLL_COLPROF_ARGS

OBSERVER "1931_2"
USE_BLACK_POINT_COMPENSATION "NO"
BLACK_POINT_CORRECTION "0.0"
HIRES_B2A "YES"
HIRES_B2A_SIZE "-1"
SMOOTH_B2A "YES"
PATCH_SEQUENCE "OPTIMIZE_DISPLAY_RESPONSE_DELAY"

NUMBER_OF_FIELDS 7
BEGIN_DATA_FORMAT
SAMPLE_ID RGB_R RGB_G RGB_B XYZ_X XYZ_Y XYZ_Z
END_DATA_FORMAT

NUMBER_OF_SETS 417
BEGIN_DATA
1 100.0000 100.0000 100.0000 95.26085 100.0000 108.8699
2 1.960800 1.960800 1.960800 0.186153 0.195084 0.287824
3 3.921600 3.921600 3.921600 0.379105 0.396508 0.468419
4 5.882400 5.882400 5.882400 0.562264 0.590943 0.701987
5 9.803900 9.803900 9.803900 1.071012 1.090337 1.255557
6 13.72600 13.72600 13.72600 1.736357 1.794498 2.005090
7 17.64700 17.64700 17.64700 2.669335 2.801421 3.118300
8 21.56900 21.56900 21.56900 3.818082 4.010109 4.484996
9 25.49000 25.49000 25.49000 5.295623 5.613343 6.153004
10 29.41200 29.41200 29.41200 6.976871 7.285493 8.104776
11 33.33300 33.33300 33.33300 8.898947 9.473530 10.22337
12 37.25500 37.25500 37.25500 11.04782 11.64176 13.05596
13 41.17600 41.17600 41.17600 13.96455 14.80662 16.40376
14 45.09800 45.09800 45.09800 16.93727 17.84916 19.70666
15 49.02000 49.02000 49.02000 20.40732 21.56568 23.74704
16 52.94100 52.94100 52.94100 24.05502 25.26960 27.53939
17 56.86300 56.86300 56.86300 28.13108 29.53923 32.51897
18 60.78400 60.78400 60.78400 32.85844 34.46947 37.87643
19 64.70600 64.70600 64.70600 38.18403 40.30738 43.98263
20 68.62700 68.62700 68.62700 42.40076 44.39039 48.88809
21 72.54900 72.54900 72.54900 46.46918 48.68399 53.50231
22 76.47100 76.47100 76.47100 50.26548 52.89613 57.82227
23 80.39200 80.39200 80.39200 53.22978 56.14461 60.95056
24 84.31400 84.31400 84.31400 56.93159 59.79268 65.11396
25 88.23500 88.23500 88.23500 60.72766 63.92299 69.87812
26 92.15700 92.15700 92.15700 65.95209 69.25421 75.68030
27 96.07800 96.07800 96.07800 75.10279 78.86856 86.84133
28 0.000000 21.78480 60.78090 7.803346 5.088931 33.90428
29 0.000000 49.83410 62.15210 13.79441 16.29918 37.26858
30 23.70550 57.62710 63.31840 19.30639 24.25038 40.28840
31 22.30600 93.43480 63.38100 31.30512 52.81020 31.37619
32 48.58790 100.0000 73.78500 47.26251 76.47626 45.34268
33 15.46740 28.60580 17.43440 3.962214 5.649930 3.472467
34 88.17110 28.47180 79.59910 35.35943 19.55220 46.79612
35 100.0000 36.62730 85.25850 51.64890 28.96501 52.05208
36 6.097600 0.000000 0.000000 0.306430 0.218797 0.236985
37 9.493700 0.000000 0.000000 0.476319 0.309361 0.242237
38 13.15790 0.000000 0.000000 0.736621 0.447592 0.250025
39 17.12330 0.000000 0.000000 1.119275 0.651372 0.261545
40 21.42860 0.000000 0.000000 1.614890 0.914966 0.276223
41 26.11940 0.000000 0.000000 2.374226 1.318508 0.299932
42 28.81590 0.000000 0.000000 2.673867 1.478062 0.308073
43 31.25000 0.000000 0.000000 3.248093 1.783001 0.326085
44 36.88520 0.000000 0.000000 4.351733 2.370300 0.359596
45 43.10350 0.000000 0.000000 6.159291 3.331130 0.413228
46 50.00000 0.000000 0.000000 8.783861 4.727093 0.492814
47 57.69230 0.000000 0.000000 11.83818 6.350921 0.586901
48 66.32650 0.000000 0.000000 16.30697 8.728478 0.722333
49 81.33330 0.000000 56.00090 25.88344 13.31920 19.46730
50 81.54140 0.000000 78.92440 31.94645 15.68997 50.79361
51 87.82020 32.68410 97.49280 40.86033 21.74600 84.62289
52 100.0000 32.37070 100.0000 60.20914 31.53831 97.85882
53 91.91020 16.05980 89.34310 39.67892 20.03318 63.52154
54 0.000000 0.000000 0.000000 0.126938 0.123539 0.231485
55 0.000000 2.941200 0.000000 0.188740 0.243551 0.249346
56 0.000000 6.097600 0.000000 0.297544 0.454904 0.282157
57 0.000000 9.493700 0.000000 0.463209 0.778022 0.331206
58 0.000000 17.12330 0.000000 1.029569 1.884871 0.498256
59 0.000000 21.42860 0.000000 1.500080 2.803691 0.639137
60 0.000000 26.11940 0.000000 2.147585 4.067906 0.830663
61 0.000000 31.25000 0.000000 2.946070 5.629728 1.070099
62 0.000000 53.98730 0.000000 9.679691 18.77541 3.086807
63 0.000000 57.69230 0.000000 11.01456 21.45934 3.495621
64 35.20060 58.47340 0.000000 14.92175 24.19748 3.741090
65 36.96930 87.99300 0.000000 25.45740 46.33463 7.230018
66 68.91760 91.66490 9.566200 37.63945 55.61006 8.589710
67 84.75120 91.27210 49.59530 49.90264 62.04772 20.26139
68 67.39800 72.31170 17.27430 34.35585 43.57186 7.898660
69 79.76210 72.07760 36.93900 38.74888 42.48952 12.55142
70 94.62400 88.11460 46.29360 53.37465 59.84035 17.45127
71 100.0000 89.60550 64.60720 65.81498 64.84026 30.90201
72 0.000000 0.000000 6.097600 0.213000 0.158482 0.674970
73 0.000000 0.000000 26.11940 1.137944 0.524762 5.459601
74 0.000000 0.000000 31.25000 1.593596 0.703685 7.831651
75 0.000000 0.000000 36.88520 2.196494 0.940347 10.94558
76 0.000000 0.000000 43.10350 3.033764 1.268106 15.29632
77 0.000000 0.000000 50.00000 4.165664 1.710654 21.16172
78 0.000000 0.000000 57.69230 5.755942 2.331747 29.40758
79 0.000000 0.000000 66.32650 7.934064 3.182770 40.70243
80 0.000000 0.000000 76.08700 10.02236 3.990076 51.52643
81 0.000000 0.000000 100.0000 18.65452 7.216037 96.30336
82 30.87620 25.01390 100.0000 22.38962 10.62475 102.6901
83 30.94590 74.28790 100.0000 38.29022 38.36731 116.2804
84 1.938000 1.938000 1.938000 0.210383 0.209807 0.349121
85 2.941200 2.941200 2.941200 0.244248 0.245198 0.383034
86 3.968300 3.968300 3.968300 0.357335 0.370036 0.456322
87 5.020100 5.020100 5.020100 0.456690 0.474008 0.612499
88 6.097600 6.097600 6.097600 0.569859 0.594134 0.740707
89 7.201600 7.201600 7.201600 0.680662 0.722112 0.796939
90 8.333300 8.333300 8.333300 0.837211 0.889925 0.965632
91 9.493700 9.493700 9.493700 0.991821 1.049463 1.179813
92 10.68380 10.68380 10.68380 1.215501 1.283772 1.445268
93 11.90480 11.90480 11.90480 1.382613 1.421118 1.612840
94 13.15790 13.15790 13.15790 1.658952 1.753042 2.003161
95 14.44440 14.44440 14.44440 1.928724 2.039120 2.309557
96 15.76580 15.76580 15.76580 2.188313 2.324304 2.522880
97 17.12330 17.12330 17.12330 2.558238 2.675543 3.000447
98 18.51850 18.51850 18.51850 2.822693 2.940625 3.245738
99 19.95310 19.95310 19.95310 3.293446 3.507468 3.723611
100 21.42860 21.42860 21.42860 3.816608 4.008186 4.488976
101 22.94690 22.94690 22.94690 4.452183 4.636272 5.043820
102 24.50980 24.50980 24.50980 4.795983 5.091114 5.580312
103 26.11940 26.11940 26.11940 5.606646 5.873600 6.365319
104 27.77780 27.77780 27.77780 6.190831 6.577508 7.210720
105 29.48720 29.48720 29.48720 6.976146 7.285567 8.115499
106 31.25000 31.25000 31.25000 7.825668 8.177942 9.124316
107 33.06880 33.06880 33.06880 8.508526 8.991676 10.16540
108 34.94620 34.94620 34.94620 9.806404 10.31169 11.55134
109 36.88520 36.88520 36.88520 10.88582 11.56355 12.79449
110 38.88890 38.88890 38.88890 12.21009 12.80130 14.08274
111 40.96050 40.96050 40.96050 13.56853 14.45734 15.77662
112 43.10350 43.10350 43.10350 15.32610 16.19653 17.86389
113 45.32160 45.32160 45.32160 17.38368 18.28189 20.12590
114 87.32750 68.80000 46.89030 38.43699 36.49930 14.99439
115 100.0000 100.0000 100.0000 96.33806 101.1929 110.2102
116 45.69850 58.21860 89.37980 23.37615 20.50391 66.15519
117 65.83240 72.49110 100.0000 45.92196 40.71959 112.9356
118 88.98290 72.05600 99.78760 63.58370 51.00005 116.8485
119 100.0000 76.13300 100.0000 91.89388 70.50520 128.9223
120 30.65520 0.000000 63.92650 9.633075 4.178873 36.83151
121 54.18070 25.00050 74.62850 17.81502 10.04599 46.90471
122 67.46510 14.99100 85.21650 27.68008 13.62626 67.75611
123 69.91790 35.40760 100.0000 38.89704 20.57206 117.1603
124 57.76580 56.94430 78.69670 27.13005 24.09720 56.65251
125 58.00910 74.52970 83.48320 38.35384 43.06984 68.68171
126 73.11860 75.03110 88.05430 42.88072 42.76752 68.75592
127 73.73150 87.90670 88.10180 51.29027 58.83817 70.38260
128 0.000000 37.83340 23.65370 5.189733 8.701267 5.851622
129 0.000000 37.81830 39.45250 6.858058 9.389511 14.42802
130 13.84630 45.12130 40.04890 9.789266 14.09182 15.28956
131 0.000000 57.08000 45.14860 13.99174 22.53233 18.92218
132 27.48070 60.96460 51.21120 18.99114 27.61080 25.00011
133 46.36110 65.04050 69.02990 28.71495 34.19707 48.92612
134 43.32090 76.08800 69.17980 31.52825 43.41751 45.47341
135 57.64940 84.04530 82.83260 41.09409 52.04503 62.84958
136 87.99530 93.44870 83.50960 60.58888 67.91764 60.88730
137 95.52850 95.52850 95.52850 73.60493 77.24381 85.20315
138 14.77310 12.80040 2.800100 1.526006 1.666118 0.540586
139 25.12210 18.64630 14.13620 3.737733 3.641563 2.415327
140 37.78360 42.81250 20.15470 10.99435 13.95582 5.331502
141 51.48940 56.20780 25.66670 20.45388 25.71091 8.325596
142 64.42110 68.93370 42.28520 33.65571 41.14289 17.30144
143 63.88620 82.57160 53.56420 36.41096 49.81690 23.64840
144 0.000000 82.46280 72.99910 29.28201 44.83565 47.31390
145 36.23480 90.60350 86.27340 38.15458 53.74456 65.29951
146 53.59340 100.0000 100.0000 61.17588 82.15730 108.4973
147 0.000000 35.97650 100.0000 20.60349 10.89792 97.07805
148 33.43830 42.66290 100.0000 23.98293 14.08609 100.4960
149 34.99190 56.78370 100.0000 28.94826 21.53525 107.5260
150 0.000000 24.16680 20.71000 2.170208 3.227950 3.572473
151 0.000000 25.62500 36.89740 3.053060 3.491515 8.367233
152 0.000000 36.95990 60.79090 9.437225 8.802470 32.30790
153 0.000000 40.57230 83.83390 16.09514 11.51055 66.85806
154 19.03140 53.03810 86.98710 21.60723 18.77495 75.21326
155 26.77290 73.58950 90.80990 34.47434 40.54424 86.37315
156 72.07440 34.18030 42.03540 23.11844 15.79007 12.14280
157 87.89950 36.98830 54.73900 36.93278 23.08690 20.80333
158 67.02220 18.74540 13.74020 18.16989 10.91661 2.279687
159 68.15240 18.06980 25.67900 19.17008 11.22619 4.891429
160 65.00930 40.35860 27.36780 21.03259 17.00402 6.626358
161 75.62480 53.14420 30.29330 28.11692 24.53439 7.751177
162 89.12730 63.71090 31.20950 35.57758 31.54620 8.227560
163 90.04530 64.28290 16.14610 41.02705 36.63779 5.769868
164 56.91130 55.11960 0.000000 20.93676 24.83089 3.428985
165 83.80060 64.53130 0.000000 42.16452 40.56177 4.981587
166 83.33330 83.33330 83.33330 69.47580 73.22124 80.59442
167 87.20930 87.20930 87.20930 76.80325 80.63012 88.33018
168 91.26980 91.26980 91.26980 83.19488 87.09032 95.47020
169 0.000000 50.00000 0.000000 6.327699 12.27591 2.131260
170 0.000000 76.08700 0.000000 21.17105 41.22490 6.584921
171 0.000000 87.20930 0.000000 29.22716 57.05699 8.967294
172 61.30780 100.0000 0.000000 52.70476 89.98276 13.83658
173 62.54040 95.00170 32.69250 46.52061 73.46158 16.45525
174 55.41620 88.80710 100.0000 54.52340 61.42552 123.2518
175 46.94740 0.000000 82.47170 18.93986 8.262777 68.24524
176 47.11530 0.000000 100.0000 26.80670 11.00009 115.2535
177 81.80980 0.000000 100.0000 46.88769 21.41465 124.1815
178 100.0000 0.000000 100.0000 78.97091 38.27893 131.5490
179 84.33260 73.72540 18.86820 45.35205 48.83662 8.307088
180 100.0000 84.91090 34.73800 81.71935 79.83615 16.35943
181 100.0000 88.85320 87.46540 97.90684 90.94892 84.76471
182 32.16360 0.000000 43.58120 4.400867 2.128097 10.96191
183 39.46170 15.51610 56.30160 8.037646 4.547791 21.02587
184 55.04120 19.87100 56.36020 12.81761 7.535787 21.30265
185 64.51620 35.81240 69.41220 22.76364 15.01125 39.93175
186 77.04710 50.97940 68.81360 34.23967 25.77915 40.38275
187 71.78940 44.54480 0.000000 23.60636 19.11362 2.173541
188 84.32660 52.72970 17.18320 29.44431 23.39622 4.042830
189 83.65490 100.0000 60.20270 59.67731 83.50967 31.01253
190 84.53020 100.0000 87.78010 67.68250 86.83743 67.03775
191 0.000000 0.000000 87.20930 11.80083 4.751186 60.86913
192 0.000000 20.85960 87.30480 14.44747 7.189003 70.37526
193 0.000000 59.39990 86.85660 24.06772 24.07585 78.53226
194 0.000000 58.87110 100.0000 29.94011 23.53327 117.4956
195 22.21460 13.83530 44.80800 4.434113 2.753652 13.57301
196 46.35080 27.37110 50.10970 11.56648 8.356086 18.85786
197 62.08720 44.90750 51.03620 22.22273 18.81451 21.13137
198 70.18280 54.43260 51.97500 30.75477 27.42223 22.10824
199 84.11900 0.000000 36.45940 24.72750 13.05627 6.772480
200 86.63250 15.23520 47.28110 26.67117 14.55060 11.52219
201 0.000000 100.0000 0.000000 36.51837 71.35150 11.63472
202 0.000000 100.0000 39.13420 41.26570 78.67252 19.28384
203 52.25140 100.0000 52.13720 52.46952 89.47387 28.88528
204 18.84190 47.38260 15.73010 7.262760 11.18529 3.250592
205 41.52720 51.90660 38.58860 12.36521 15.59222 10.82758
206 52.46910 52.46910 52.46910 19.42469 20.34250 22.63915
207 27.97810 89.10400 27.65330 31.26451 57.64978 12.73701
208 45.06670 100.0000 27.02200 45.26206 82.41380 15.69041
209 84.65200 100.0000 27.93480 58.68897 84.59835 15.12184
210 27.68240 15.45810 80.09080 12.88382 6.133164 55.52887
211 52.13440 21.53360 93.65670 20.41611 10.14659 72.85861
212 57.46330 52.19430 96.07140 28.77767 20.44409 84.78581
213 17.13230 33.27000 46.94020 7.246355 7.672610 17.93088
214 17.67160 41.63110 49.73550 9.321374 11.11603 20.27902
215 19.70600 68.82040 64.78130 23.29047 33.46281 39.63963
216 33.72090 78.14470 83.88420 32.89829 42.52976 67.27081
217 49.79080 90.10700 94.37830 50.77650 64.82103 95.14624
218 37.40360 25.00420 17.24660 5.688731 5.192087 2.907143
219 49.65200 30.25580 16.53610 10.26659 8.595083 3.145527
220 64.33890 54.47270 18.53900 23.89064 24.57602 5.430509
221 63.97380 82.37190 34.45100 37.31181 53.24086 13.76097
222 62.52980 93.30230 48.88530 37.36188 56.64604 19.76302
223 100.0000 100.0000 54.57390 79.10857 93.62981 26.87111
224 100.0000 100.0000 76.84860 83.70332 95.47390 50.15445
225 19.40660 0.000000 25.75110 2.407922 1.197585 5.606974
226 34.52590 0.000000 27.87920 5.113788 2.614745 6.455959
227 51.14670 0.000000 41.50980 11.64154 5.893458 13.81058
228 55.79170 0.000000 60.66440 17.13735 8.253576 34.26028
229 77.55080 14.26460 63.59820 27.20711 14.36886 30.19883
230 89.47140 57.06340 65.57560 39.05344 29.73660 30.72145
231 93.39590 73.18800 81.64030 57.93653 51.31991 60.05488
232 47.61910 47.61910 47.61910 16.26934 17.26066 18.26248
233 50.00000 50.00000 50.00000 17.58785 18.50975 20.08117
234 89.11280 73.85840 63.65570 57.34799 55.58663 37.70820
235 100.0000 74.35740 69.82370 71.10962 59.28968 41.57014
236 0.000000 36.88520 0.000000 3.396059 6.490255 1.236937
237 28.61380 38.74110 0.000000 7.010774 10.05427 1.625077
238 39.07340 59.77870 77.95010 23.18549 24.02684 57.30576
239 58.08500 77.16510 94.96610 36.93324 39.87198 78.15534
240 88.31730 85.96570 100.0000 62.40258 58.87973 105.7110
241 10.92910 19.78850 12.87040 1.787683 2.402830 1.812651
242 22.62880 31.79400 12.59270 3.698072 5.037277 1.885261
243 28.71600 40.83820 33.05050 6.255745 7.999191 6.942300
244 35.92920 55.00920 53.81060 16.55996 20.64023 25.18472
245 63.33330 63.33330 63.33330 31.27725 32.85120 36.38817
246 66.32650 66.32650 66.32650 34.95883 36.58960 40.55340
247 84.53960 65.80650 66.48410 42.46063 37.91250 35.85660
248 57.85260 0.000000 18.72170 11.73449 6.233382 2.982034
249 59.76980 0.000000 32.94330 14.42183 7.524251 8.252342
250 66.37590 17.25350 48.60380 20.51142 11.61432 17.28525
251 92.84520 19.31190 62.56560 32.93455 17.82218 23.37029
252 38.06770 32.58480 58.52680 13.10227 10.15621 32.12607
253 38.11730 43.58460 65.47040 16.65144 14.96498 42.10381
254 88.41260 51.77390 88.07860 43.53272 28.84002 65.98699
255 100.0000 53.65870 100.0000 68.48593 41.30052 106.5108
256 100.0000 89.89540 100.0000 92.09155 81.38578 119.4480
257 0.000000 0.000000 0.000000 0.154981 0.150330 0.282614
258 0.000000 0.000000 2.941200 0.158763 0.139152 0.379841
259 0.000000 15.96330 38.85690 3.258859 2.619645 12.48762
260 17.37730 25.13150 48.97170 6.996381 5.849111 21.53899
261 90.77430 82.56320 91.12340 58.63733 56.70879 72.46234
262 100.0000 100.0000 90.32840 87.76515 97.09455 71.06168
263 89.41630 46.77790 0.858800 29.60149 21.09299 2.140500
264 94.39830 46.96120 19.19110 33.26009 23.09255 3.808410
265 100.0000 52.46060 60.34830 50.36011 33.17828 22.82142
266 46.77370 15.13960 21.37960 7.520370 4.876661 3.661814
267 92.37350 17.24970 24.48150 37.54451 20.91212 4.830577
268 76.08700 0.000000 0.000000 22.08865 11.81104 0.965611
269 100.0000 38.23520 0.000000 48.51885 29.37471 2.333293
270 100.0000 38.81150 24.42330 46.43592 28.20509 4.837492
271 100.0000 62.61680 28.45520 52.73281 40.10555 7.577909
272 100.0000 75.93890 51.76890 61.16863 53.57626 19.33635
273 43.67280 49.32990 7.841400 11.90193 15.71597 2.755089
274 46.07460 73.93010 17.67670 23.20760 37.65933 7.507783
275 0.000000 66.32650 0.000000 12.89974 25.13121 3.982050
276 24.77670 67.13590 18.90250 14.46878 25.71803 6.087678
277 45.34070 75.51620 37.79610 24.24074 38.42070 13.15338
278 58.05840 77.96870 65.19790 35.06479 46.01857 38.33380
279 80.73920 86.40600 64.58910 53.44939 63.56073 38.64444
280 88.41530 97.03950 73.35200 63.12855 76.91572 47.03825
281 0.000000 80.28780 32.35670 21.55800 40.45842 11.66051
282 24.08430 92.71610 47.19450 28.77072 51.40587 18.73226
283 0.000000 100.0000 60.90930 43.31617 78.56341 32.66490
284 0.000000 100.0000 84.90610 52.83771 86.19138 70.07592
285 45.82080 100.0000 89.71140 62.30434 94.48768 83.43785
286 86.86750 100.0000 100.0000 96.54451 113.0580 136.1013
287 100.0000 100.0000 100.0000 118.5375 124.3456 135.9547
288 36.50190 20.05860 0.000000 4.234840 3.664997 0.656942
289 56.91530 20.12820 34.83080 12.14498 7.690391 8.179633
290 85.78500 23.30250 37.59510 26.41330 15.24807 7.555343
291 100.0000 30.58540 38.63360 42.40469 24.37877 7.730744
292 100.0000 25.87330 53.43130 43.36615 24.21119 14.86399
293 100.0000 39.45380 69.45820 51.14157 30.09274 32.77045
294 41.10980 0.000000 20.37970 5.181368 2.751501 3.111189
295 94.87060 87.41220 18.42960 60.91407 68.75833 11.09781
296 84.23420 89.78590 0.000000 55.99318 71.20431 9.871965
297 86.20510 91.01410 33.46260 59.95482 74.66374 15.93710
298 59.49070 75.47200 0.000000 28.03628 40.77220 6.070742
299 76.08700 76.08700 76.08700 50.84110 53.53925 58.71543
300 79.62960 79.62960 79.62960 60.66029 63.77221 69.57957
301 91.26100 83.89690 79.73450 71.71503 73.08715 66.59650
302 100.0000 100.0000 100.0000 115.9421 121.6184 132.9780
303 23.03210 74.07340 42.66930 23.40961 40.23282 17.59416
304 37.65810 77.54830 57.66290 30.36371 46.99079 31.58985
305 52.24470 91.49280 76.46860 41.02407 58.59826 52.11839
306 84.06290 92.78260 100.0000 62.52743 64.37295 105.0587
307 86.46130 43.81180 27.41400 28.28032 19.84618 5.163971
308 100.0000 54.53290 45.22340 46.60189 31.85362 11.46395
309 55.39970 23.93580 0.000000 12.44725 8.922706 1.027789
310 70.38060 35.00510 13.77270 21.26031 15.17971 2.776817
311 69.44440 69.44440 69.44440 43.21944 45.46884 49.78485
312 72.69500 72.69500 72.69500 46.45560 48.71694 53.65160
313 0.000000 0.000000 9.493700 0.285163 0.187275 1.048104
314 0.000000 0.000000 13.15790 0.422790 0.242402 1.763367
315 0.000000 0.000000 17.12330 0.587912 0.307691 2.618791
316 0.000000 0.000000 21.42860 0.833933 0.404754 3.893591
317 14.71270 28.38140 30.30010 4.761998 5.765867 8.387011
318 33.63030 35.61560 49.01080 11.60206 11.11183 22.33185
319 55.03140 55.03140 55.03140 26.05038 27.29534 29.62433
320 57.69230 57.69230 57.69230 29.00808 30.47096 33.70941
321 76.65640 71.30370 57.02170 41.01554 43.94021 27.18895
322 90.38510 86.27390 59.83720 52.56591 58.51818 28.59369
323 95.64250 88.89070 75.45640 64.48981 67.43918 48.78903
324 23.96050 29.35590 82.55070 14.43361 8.365502 60.29549
325 47.84290 38.10630 85.25920 19.98558 12.91120 63.85158
326 75.43460 41.82510 89.97580 33.80253 20.74098 70.60401
327 78.93870 57.26080 100.0000 44.92384 30.26669 108.4680
328 9.486600 62.15390 78.14400 20.67269 23.92282 56.45129
329 13.64790 89.37010 90.88040 39.38779 55.12587 78.22559
330 25.81390 91.59590 100.0000 46.88020 57.81254 113.6538
331 11.21480 12.59930 24.86750 1.850082 1.610791 4.549412
332 26.47950 16.42180 34.62010 4.600332 3.402334 8.974630
333 26.10620 22.17100 62.27310 9.485654 5.906519 33.59523
334 27.94220 37.93030 73.90230 14.28118 10.82037 49.34818
335 21.36160 44.93900 66.13000 14.43694 14.06997 42.86527
336 21.52500 44.25390 92.49400 17.41387 12.16865 69.37388
337 0.000000 79.03550 86.84760 29.73231 39.48756 66.97106
338 0.000000 84.50230 100.0000 37.09209 43.10412 102.4169
339 0.000000 100.0000 100.0000 55.67180 79.44749 108.9815
340 0.000000 58.17880 59.78220 17.38953 24.20417 35.71264
341 60.45750 60.45750 60.45750 32.01047 33.66306 37.13322
342 73.23850 61.64680 72.88190 39.25277 34.68910 51.14964
343 76.76690 61.74860 87.01130 41.82056 33.62985 71.44058
344 92.40020 65.42300 87.74990 60.67798 47.39694 78.80979
345 0.000000 13.15790 0.000000 0.529267 0.871261 0.407977
346 0.000000 15.06610 20.34340 1.266299 1.517785 3.179466
347 33.96660 16.89380 27.96890 5.699222 4.225658 6.488883
348 2.941200 0.000000 0.000000 0.194536 0.159358 0.234158
349 21.30570 12.66920 20.88920 2.851000 2.295710 3.930680
350 43.46640 15.55970 38.46490 9.759029 6.105446 12.67588
351 49.80450 27.93910 39.51040 13.66111 10.30121 13.84868
352 68.06340 37.63020 53.72190 24.94151 17.48412 22.46430
353 37.22200 56.73640 27.77850 16.14866 23.87316 9.133440
354 47.60890 68.90460 48.91960 26.02352 36.93469 21.85834
355 74.69390 81.33050 71.09350 47.34640 54.45804 46.90226
356 32.16140 28.05760 12.52850 6.058105 6.617362 2.468467
357 31.64190 31.37680 22.90470 7.179274 7.924647 5.509574
358 58.83510 31.50620 30.02500 16.44143 12.25214 7.861244
359 81.59770 34.54030 63.84080 30.06067 18.46180 29.50994
360 93.27040 50.75840 77.35050 40.62388 27.16164 43.13032
361 0.000000 83.29850 55.41380 25.34425 44.04057 24.49473
362 17.81240 84.08690 64.33110 30.62449 49.87185 37.12972
363 18.69460 94.60610 84.85470 44.76956 67.20554 73.14786
364 83.64190 0.000000 21.55330 27.92877 14.85333 3.634750
365 100.0000 0.000000 61.12450 50.55897 26.36106 23.73584
366 100.0000 0.000000 80.69950 55.71324 28.38392 50.19784
367 36.62550 14.63060 12.14710 4.820618 3.526862 1.812372
368 50.54000 19.59720 14.37280 10.05231 6.885905 2.562425
369 90.44270 23.64400 12.48420 27.41412 15.86462 1.967097
370 82.54900 31.66750 0.000000 24.71222 16.19732 1.597895
371 83.86710 31.59910 26.72760 31.15491 19.72891 5.751193
372 0.000000 0.000000 0.000000 0.153876 0.149655 0.280397
373 0.957900 0.957900 0.957900 0.139882 0.136794 0.247352
374 0.000000 43.10350 0.000000 5.819555 11.25715 1.935454
375 0.000000 56.68950 27.83060 11.82526 21.42206 8.845968
376 46.19880 89.58830 54.14050 30.90163 49.85445 22.78043
377 64.11000 91.76790 67.10420 40.75960 56.74084 36.64456
378 68.10560 91.91270 84.68670 48.04762 60.02635 62.87735
379 45.47340 37.03420 0.000000 11.14159 10.82573 1.491360
380 56.76600 39.12000 9.181300 16.09813 14.07359 2.460458
381 56.19780 44.25700 37.28600 16.29204 15.43158 10.55501
382 22.39600 13.29820 0.000000 1.955297 1.804639 0.442523
383 21.97240 22.95930 0.000000 3.379403 4.136555 0.759514
384 20.47090 41.64360 23.85910 7.773614 11.71223 6.497667
385 22.25060 57.08830 38.04740 14.62965 23.16758 14.23818
386 53.59200 62.86080 53.63020 27.71220 33.70753 27.73083
387 27.94980 40.95320 42.24050 10.82105 12.93893 16.93089
388 37.07110 49.34880 58.74990 17.53587 18.92851 34.13650
389 52.62220 52.57000 62.29170 24.27944 23.72546 39.01531
390 36.41410 23.31960 25.01250 6.999584 5.983923 5.962966
391 49.14990 35.57140 36.52730 14.29382 12.83326 12.05991
