Dell/U2718Q/U2718Q 5DWRH79G0DCL #2 20230212000202 0.3127x 0.329y sRGB XYZLUT+MTX ColorMunki Desig/U2718Q 5DWRH79G0DCL #2 20230212000202 0.3127x 0.329y sRGB XYZLUT+MTX ColorMunki Desig.ti3
CTI3   

DESCRIPTOR "Argyll Calibration Target chart information 3"
ORIGINATOR "Argyll dispread"
CREATED "Sun Feb 12 00:16:04 2023"
DEVICE_CLASS "DISPLAY"
SINGLE_DIM_STEPS "5"
COMP_GREY_STEPS "52"
MULTI_DIM_STEPS "5"
COLOR_REP "RGB_XYZ"
TARGET_INSTRUMENT "X-Rite ColorMunki"
DISPLAY_TYPE_REFRESH "YES"
INSTRUMENT_TYPE_SPECTRAL "YES"
SPECTRAL_BANDS "106"
SPECTRAL_START_NM "380.0"
SPECTRAL_END_NM "730.0"
LUMINANCE_XYZ_CDM2 "195.115483 205.796925 223.471586"
NORMALIZED_TO_Y_100 "YES"
VIDEO_LUT_CALIBRATION_POSSIBLE "YES"

BEGIN_ARGYLL_COLPROF_ARGS
-v -qh -aX -bn -C "No copyright. Created with DisplayCAL 3.8.9.3 and ArgyllCMS 2.1.2" -M "DELL U2718Q" -A "Dell, Inc."
END_ARGYLL_COLPROF_ARGS

OBSERVER "1931_2"
USE_BLACK_POINT_COMPENSATION "NO"
BLACK_POINT_CORRECTION "0.0"
HIRES_B2A "YES"
HIRES_B2A_SIZE "-1"
SMOOTH_B2A "YES"
PATCH_SEQUENCE "OPTIMIZE_DISPLAY_RESPONSE_DELAY"

NUMBER_OF_FIELDS 113
BEGIN_DATA_FORMAT
SAMPLE_ID RGB_R RGB_G RGB_B XYZ_X XYZ_Y XYZ_Z SPEC_380 SPEC_383 SPEC_387 SPEC_390 SPEC_393 SPEC_397 SPEC_400 SPEC_403 SPEC_407 SPEC_410 SPEC_413 SPEC_417 SPEC_420 SPEC_423 SPEC_427 SPEC_430 SPEC_433 SPEC_437 SPEC_440 SPEC_443 SPEC_447 SPEC_450 SPEC_453 SPEC_457 SPEC_460 SPEC_463 SPEC_467 SPEC_470 SPEC_473 SPEC_477 SPEC_480 SPEC_483 SPEC_487 SPEC_490 SPEC_493 SPEC_497 SPEC_500 SPEC_503 SPEC_507 SPEC_510 SPEC_513 SPEC_517 SPEC_520 SPEC_523 SPEC_527 SPEC_530 SPEC_533 SPEC_537 SPEC_540 SPEC_543 SPEC_547 SPEC_550 SPEC_553 SPEC_557 SPEC_560 SPEC_563 SPEC_567 SPEC_570 SPEC_573 SPEC_577 SPEC_580 SPEC_583 SPEC_587 SPEC_590 SPEC_593 SPEC_597 SPEC_600 SPEC_603 SPEC_607 SPEC_610 SPEC_613 SPEC_617 SPEC_620 SPEC_623 SPEC_627 SPEC_630 SPEC_633 SPEC_637 SPEC_640 SPEC_643 SPEC_647 SPEC_650 SPEC_653 SPEC_657 SPEC_660 SPEC_663 SPEC_667 SPEC_670 SPEC_673 SPEC_677 SPEC_680 SPEC_683 SPEC_687 SPEC_690 SPEC_693 SPEC_697 SPEC_700 SPEC_703 SPEC_707 SPEC_710 SPEC_713 SPEC_717 SPEC_720 SPEC_723 SPEC_727 SPEC_730
END_DATA_FORMAT

NUMBER_OF_SETS 175
BEGIN_DATA
1 100.000000000 100.000000000 100.000000000 94.8097200000 100.000000000 108.588400000 0.00484977000 0.00484977000 0.00484977000 0.00484977000 0.00484977000 0.00484977000 0.00484981000 0.00613154000 0.00968981000 0.01652640000 0.03106070000 0.06009850000 0.11694300000 0.21878300000 0.39157800000 0.68386200000 1.17362200000 1.87759400000 2.64107200000 3.15360900000 3.17822300000 2.80847500000 2.33121400000 1.92310000000 1.57864800000 1.25381700000 0.96791500000 0.75132800000 0.61548200000 0.54912600000 0.53928700000 0.57995400000 0.66369400000 0.77993000000 0.91831500000 1.06554800000 1.21624400000 1.37011600000 1.51378200000 1.63893000000 1.72494600000 1.77355400000 1.80274100000 1.83493000000 1.86940200000 1.89913100000 1.91819700000 1.90233600000 1.83432900000 1.72386700000 1.59180800000 1.46120500000 1.34468700000 1.24234400000 1.16249800000 1.11420100000 1.08318500000 1.05095900000 1.01749200000 0.99550700000 0.99212800000 1.00525400000 1.03979400000 1.10303400000 1.18906600000 1.27938500000 1.35292600000 1.40810500000 1.45157100000 1.47974000000 1.48930100000 1.47881800000 1.44765000000 1.40556000000 1.35956900000 1.30862400000 1.24760800000 1.17851600000 1.10971500000 1.05370800000 0.99834000000 0.94536400000 0.89507300000 0.83250300000 0.76459100000 0.70269200000 0.64405300000 0.58729500000 0.53254800000 0.48198500000 0.43598700000 0.39423900000 0.35647100000 0.32214600000 0.29015900000 0.26018600000 0.23172700000 0.20508600000 0.18037200000 0.15750400000 0.13718000000 0.12056400000 0.10732000000 0.09575440000 0.08497800000 0.07517400000
2 100.000000000 100.000000000 75.0000000000 86.2863900000 96.6285200000 63.9434100000 0.00312285000 0.00312285000 0.00312285000 0.00312285000 0.00312285000 0.00312285000 0.00312288000 0.00379900000 0.00601713000 0.00993390000 0.01746540000 0.03369620000 0.06574860000 0.12270800000 0.21950600000 0.38288500000 0.65610600000 1.04921300000 1.47734000000 1.76672600000 1.78102300000 1.57318800000 1.30617100000 1.07782000000 0.88592800000 0.70602900000 0.54850700000 0.43238000000 0.36648500000 0.34561400000 0.36344000000 0.41759500000 0.50407100000 0.61708800000 0.75064000000 0.89477400000 1.04604800000 1.20428600000 1.35673800000 1.49497600000 1.59888100000 1.66720100000 1.71615300000 1.76564900000 1.81312400000 1.85239400000 1.87814400000 1.86773800000 1.80556600000 1.70064700000 1.57354000000 1.44742500000 1.33451400000 1.23488800000 1.15687900000 1.10999300000 1.07929200000 1.04737200000 1.01420900000 0.99262500000 0.98954400000 1.00284700000 1.03758800000 1.10092100000 1.18751500000 1.27793200000 1.35167700000 1.40699900000 1.45047700000 1.47862600000 1.48811700000 1.47740600000 1.44637500000 1.40397900000 1.35780700000 1.30673500000 1.24547200000 1.17636500000 1.10750900000 1.05083200000 0.99464700000 0.94086100000 0.88970900000 0.82652100000 0.75837200000 0.69655800000 0.63820400000 0.58178400000 0.52732800000 0.47705700000 0.43174800000 0.39056900000 0.35309800000 0.31897500000 0.28733900000 0.25737800000 0.22923700000 0.20315200000 0.17849300000 0.15576300000 0.13604900000 0.11978500000 0.10654400000 0.09518670000 0.08462120000 0.07471540000
3 100.000000000 100.000000000 100.000000000 94.8040800000 99.9889100000 108.576800000 0.00454166000 0.00454166000 0.00454166000 0.00454166000 0.00454166000 0.00454166000 0.00454172000 0.00627350000 0.00952435000 0.01660350000 0.03067020000 0.06026920000 0.11750200000 0.21855900000 0.39155100000 0.68432900000 1.17386500000 1.87698900000 2.64021700000 3.15294800000 3.17766900000 2.80787500000 2.33088100000 1.92344600000 1.57915000000 1.25397200000 0.96751600000 0.75086100000 0.61541900000 0.54928400000 0.53953300000 0.58007300000 0.66355500000 0.77977300000 0.91817400000 1.06504400000 1.21582400000 1.37010300000 1.51367100000 1.63853200000 1.72478600000 1.77316700000 1.80238600000 1.83481000000 1.86943200000 1.89917200000 1.91794800000 1.90166600000 1.83380400000 1.72385300000 1.59166000000 1.46082300000 1.34444400000 1.24230600000 1.16239500000 1.11409200000 1.08294100000 1.05083000000 1.01733000000 0.99521000000 0.99177100000 1.00509100000 1.03967700000 1.10278200000 1.18877500000 1.27912000000 1.35294600000 1.40826200000 1.45187100000 1.48000900000 1.48957400000 1.47893300000 1.44773500000 1.40560000000 1.35959800000 1.30860100000 1.24762900000 1.17868000000 1.10981200000 1.05391600000 0.99844100000 0.94526900000 0.89508700000 0.83235900000 0.76461900000 0.70259500000 0.64372200000 0.58718600000 0.53266300000 0.48199600000 0.43603800000 0.39438700000 0.35670800000 0.32223800000 0.29035800000 0.26038800000 0.23197500000 0.20536700000 0.18033900000 0.15748300000 0.13748400000 0.12083100000 0.10741000000 0.09604840000 0.08527900000 0.07551730000
4 100.000000000 100.000000000 100.000000000 94.8034700000 99.9826700000 108.578100000 0.00451165000 0.00451165000 0.00451165000 0.00451165000 0.00451165000 0.00451165000 0.00451170000 0.00599208000 0.00958467000 0.01660050000 0.03068370000 0.06060380000 0.11744300000 0.21849000000 0.39184500000 0.68436700000 1.17410900000 1.87710500000 2.63976400000 3.15229900000 3.17725600000 2.80836500000 2.33155800000 1.92341100000 1.57905700000 1.25394800000 0.96754500000 0.75096400000 0.61550700000 0.54930100000 0.53952200000 0.58021100000 0.66386200000 0.78005300000 0.91808600000 1.06488200000 1.21592300000 1.37008100000 1.51388700000 1.63842200000 1.72426100000 1.77323200000 1.80231900000 1.83438500000 1.86887300000 1.89884100000 1.91771300000 1.90155900000 1.83361200000 1.72357600000 1.59155200000 1.46084000000 1.34427100000 1.24220300000 1.16213700000 1.11375800000 1.08277200000 1.05085300000 1.01743200000 0.99516400000 0.99154100000 1.00512000000 1.03984300000 1.10296200000 1.18902100000 1.27908600000 1.35270700000 1.40810700000 1.45190400000 1.47995800000 1.48939300000 1.47889800000 1.44807100000 1.40570300000 1.35968200000 1.30871300000 1.24785000000 1.17880800000 1.10974500000 1.05399400000 0.99879200000 0.94540800000 0.89507800000 0.83241700000 0.76463200000 0.70288900000 0.64403400000 0.58719000000 0.53251800000 0.48175700000 0.43589600000 0.39423000000 0.35642700000 0.32239900000 0.29066100000 0.26040000000 0.23197500000 0.20557200000 0.18071600000 0.15763700000 0.13733700000 0.12068100000 0.10742000000 0.09593330000 0.08528440000 0.07546800000
5 0.00000000000 0.00000000000 0.00000000000 0.10706700000 0.10124500000 0.19439100000 -0.00009784030 -0.00009784030 -0.00009784030 -0.00009784030 -0.00009784030 -0.00009784030 -0.00009784260 -0.00016820200 -0.00011587900 -0.00004168370 0.00001521020 0.00001586520 0.00025065800 0.00054801000 0.00096263900 0.00155910000 0.00255524000 0.00390748000 0.00533773000 0.00625526000 0.00604297000 0.00509707000 0.00408072000 0.00318938000 0.00251229000 0.00194328000 0.00148451000 0.00116083000 0.00087719100 0.00069496200 0.00072059100 0.00080932600 0.00086704000 0.00096198400 0.00114684000 0.00133544000 0.00152217000 0.00164049000 0.00177126000 0.00191515000 0.00201279000 0.00199468000 0.00197938000 0.00202783000 0.00201055000 0.00193595000 0.00193543000 0.00186525000 0.00176077000 0.00168724000 0.00153225000 0.00135619000 0.00121369000 0.00116690000 0.00108970000 0.00102836000 0.00098081300 0.00095788600 0.00091346000 0.00089678600 0.00088733400 0.00089465100 0.00094451900 0.00106864000 0.00118024000 0.00126520000 0.00132199000 0.00137829000 0.00144579000 0.00144289000 0.00136816000 0.00136987000 0.00138242000 0.00133990000 0.00126904000 0.00125263000 0.00117223000 0.00107959000 0.00106271000 0.00101709000 0.00096120500 0.00085521300 0.00077159200 0.00075204700 0.00068666500 0.00063282300 0.00059897800 0.00050558300 0.00049213900 0.00047608700 0.00044575000 0.00039302800 0.00036632200 0.00028546300 0.00021412200 0.00019385700 0.00015335200 0.00015548800 0.00011680800 0.00011411100 0.00013874300 0.00017048200 0.00017547200 0.00015453900 0.00016262300 0.00015503600
6 25.0000000000 0.00000000000 0.00000000000 2.25011300000 1.23604800000 0.30877200000 -0.00002387470 -0.00002387470 -0.00002387470 -0.00002387470 -0.00002387470 -0.00002387470 -0.00002387610 -0.00006916680 -0.00000541994 0.00009108520 0.00022839900 0.00012607300 0.00055567200 0.00097158900 0.00144301000 0.00247165000 0.00410362000 0.00617012000 0.00832978000 0.00964752000 0.00934349000 0.00794209000 0.00631666000 0.00491622000 0.00392777000 0.00311790000 0.00240903000 0.00190365000 0.00151905000 0.00130407000 0.00132377000 0.00143341000 0.00152096000 0.00170251000 0.00206075000 0.00235793000 0.00254800000 0.00273731000 0.00301864000 0.00333053000 0.00343981000 0.00346698000 0.00347403000 0.00350107000 0.00353451000 0.00352938000 0.00346590000 0.00336169000 0.00321964000 0.00301834000 0.00272033000 0.00240320000 0.00220576000 0.00213798000 0.00209329000 0.00209651000 0.00226236000 0.00277013000 0.00387158000 0.00613103000 0.00974466000 0.01462680000 0.02089350000 0.02855380000 0.03715300000 0.04565670000 0.05311820000 0.05938160000 0.06467140000 0.06854250000 0.07085970000 0.07188010000 0.07130000000 0.06962050000 0.06761750000 0.06543350000 0.06275870000 0.05957750000 0.05618010000 0.05310110000 0.05007150000 0.04730930000 0.04471140000 0.04143020000 0.03799090000 0.03497070000 0.03214260000 0.02918610000 0.02623420000 0.02364200000 0.02148340000 0.01937350000 0.01744870000 0.01565350000 0.01403900000 0.01254070000 0.01105980000 0.00974870000 0.00851861000 0.00744744000 0.00645563000 0.00568435000 0.00505255000 0.00452995000 0.00405872000 0.00356024000
7 50.0000000000 0.00000000000 0.00000000000 9.30324400000 4.91010900000 0.55693600000 -0.00002938180 -0.00002938180 -0.00002938180 -0.00002938180 -0.00002938180 -0.00002938180 -0.00002938450 -0.00011781200 0.00001120190 0.00011960700 0.00024369700 0.00045290900 0.00099248700 0.00167085000 0.00280358000 0.00460392000 0.00752000000 0.01141940000 0.01523890000 0.01740800000 0.01676030000 0.01403450000 0.01098120000 0.00854324000 0.00677077000 0.00536853000 0.00419854000 0.00332906000 0.00277485000 0.00252147000 0.00259507000 0.00278754000 0.00301747000 0.00336138000 0.00378292000 0.00418256000 0.00459124000 0.00503916000 0.00547313000 0.00586015000 0.00611438000 0.00619942000 0.00627580000 0.00645443000 0.00656284000 0.00651296000 0.00639608000 0.00613081000 0.00568353000 0.00520422000 0.00471058000 0.00426008000 0.00395545000 0.00381905000 0.00380279000 0.00410607000 0.00508307000 0.00745402000 0.01262460000 0.02247870000 0.03810670000 0.05925030000 0.08625600000 0.11939800000 0.15644000000 0.19302100000 0.22471900000 0.25120200000 0.27373600000 0.29099000000 0.30170700000 0.30597600000 0.30351500000 0.29682400000 0.28858800000 0.27907200000 0.26721100000 0.25326900000 0.23852000000 0.22576300000 0.21328000000 0.20161500000 0.19062200000 0.17689100000 0.16207900000 0.14881600000 0.13631300000 0.12403700000 0.11212100000 0.10109600000 0.09133780000 0.08238640000 0.07431480000 0.06684910000 0.05992130000 0.05337530000 0.04723040000 0.04157300000 0.03630800000 0.03154590000 0.02738960000 0.02402770000 0.02132360000 0.01898970000 0.01681960000 0.01486550000
8 75.0000000000 0.00000000000 0.00000000000 22.0485600000 11.5895900000 1.08599100000 -0.00002922260 -0.00002922260 -0.00002922260 -0.00002922260 -0.00002922260 -0.00002922260 -0.00002922950 -0.00025100100 -0.00004307920 0.00028314500 0.00054343700 0.00104719000 0.00207394000 0.00343334000 0.00564088000 0.00903987000 0.01454150000 0.02196740000 0.02955870000 0.03377710000 0.03231270000 0.02698260000 0.02103770000 0.01633780000 0.01307290000 0.01046460000 0.00817767000 0.00663235000 0.00577331000 0.00535353000 0.00540614000 0.00571336000 0.00622356000 0.00698081000 0.00777308000 0.00865938000 0.00938733000 0.01009160000 0.01091930000 0.01153810000 0.01210110000 0.01240020000 0.01271860000 0.01304580000 0.01337650000 0.01337820000 0.01305980000 0.01246720000 0.01158160000 0.01053380000 0.00944949000 0.00853846000 0.00802156000 0.00779984000 0.00787304000 0.00874622000 0.01114930000 0.01683220000 0.02916240000 0.05266490000 0.08993670000 0.14050400000 0.20490700000 0.28391200000 0.37213900000 0.45867300000 0.53375800000 0.59651700000 0.65026900000 0.69180300000 0.71778000000 0.72774900000 0.72197500000 0.70640100000 0.68693800000 0.66415400000 0.63531300000 0.60131000000 0.56601100000 0.53623700000 0.50705900000 0.47942700000 0.45299400000 0.42038000000 0.38526000000 0.35355900000 0.32374600000 0.29467900000 0.26641700000 0.24046900000 0.21725200000 0.19604000000 0.17686400000 0.15916500000 0.14266800000 0.12705800000 0.11233400000 0.09877710000 0.08627540000 0.07492950000 0.06500920000 0.05697860000 0.05050740000 0.04491110000 0.03987870000 0.03526290000
9 100.000000000 0.00000000000 0.00000000000 42.8970800000 22.5813100000 2.04639100000 0.00028451500 0.00028451500 0.00028451500 0.00028451500 0.00028451500 0.00028451500 0.00028450800 0.00005901640 0.00033695700 0.00090390500 0.00110782000 0.00211798000 0.00369639000 0.00606467000 0.01020550000 0.01668440000 0.02716050000 0.04135070000 0.05570500000 0.06369370000 0.06096870000 0.05075250000 0.03948960000 0.03079310000 0.02441160000 0.01939060000 0.01552610000 0.01252510000 0.01084950000 0.01026450000 0.01026320000 0.01087680000 0.01201710000 0.01354760000 0.01511890000 0.01657650000 0.01806780000 0.01944060000 0.02098580000 0.02277210000 0.02404650000 0.02478420000 0.02545050000 0.02606200000 0.02655390000 0.02665140000 0.02634480000 0.02527770000 0.02358770000 0.02147980000 0.01941870000 0.01772110000 0.01653850000 0.01581580000 0.01589630000 0.01748410000 0.02211570000 0.03338100000 0.05757440000 0.10317100000 0.17530900000 0.27413900000 0.40057000000 0.55466800000 0.72526600000 0.89184400000 1.03680500000 1.15976800000 1.26524100000 1.34582800000 1.39607600000 1.41521100000 1.40477800000 1.37591700000 1.33813100000 1.29195000000 1.23375800000 1.16662400000 1.09862700000 1.04253200000 0.98660300000 0.93237200000 0.88067200000 0.81728700000 0.74925800000 0.68742700000 0.62925300000 0.57289300000 0.51853400000 0.46831500000 0.42285500000 0.38141300000 0.34386100000 0.30950600000 0.27734800000 0.24685200000 0.21830600000 0.19212900000 0.16785500000 0.14566700000 0.12635300000 0.11078200000 0.09825810000 0.08750450000 0.07773770000 0.06859370000
10 100.000000000 0.00000000000 25.0000000000 44.0292100000 23.0369700000 7.99204200000 0.00050952400 0.00050952400 0.00050952400 0.00050952400 0.00050952400 0.00050952400 0.00050952700 0.00059755100 0.00055194400 0.00159764000 0.00322040000 0.00532501000 0.00982375000 0.01851120000 0.03286950000 0.05620640000 0.09485380000 0.14994300000 0.20904200000 0.24763400000 0.24725700000 0.21577300000 0.17657400000 0.14412400000 0.11771300000 0.09331320000 0.07193080000 0.05538570000 0.04424490000 0.03763790000 0.03408060000 0.03291350000 0.03370680000 0.03557640000 0.03783610000 0.04000980000 0.04141740000 0.04244870000 0.04290880000 0.04265830000 0.04128130000 0.03936950000 0.03719430000 0.03561750000 0.03445230000 0.03313090000 0.03164770000 0.02986990000 0.02740410000 0.02462430000 0.02176810000 0.01948910000 0.01789080000 0.01684840000 0.01669560000 0.01818990000 0.02278730000 0.03373400000 0.05768620000 0.10335000000 0.17563800000 0.27450300000 0.40085200000 0.55490200000 0.72543500000 0.89197600000 1.03687500000 1.15960600000 1.26519600000 1.34604200000 1.39634800000 1.41547200000 1.40507300000 1.37621200000 1.33819100000 1.29204200000 1.23400000000 1.16685300000 1.09902000000 1.04304300000 0.98709200000 0.93295000000 0.88142300000 0.81812400000 0.75009700000 0.68820400000 0.62980100000 0.57351000000 0.51925500000 0.46897300000 0.42338100000 0.38192400000 0.34436700000 0.30985700000 0.27777600000 0.24734800000 0.21886700000 0.19240600000 0.16798200000 0.14582000000 0.12642600000 0.11089700000 0.09848220000 0.08763940000 0.07790320000 0.06881960000
11 100.000000000 25.0000000000 25.0000000000 46.0443700000 27.2564500000 8.53324800000 0.00025135300 0.00025135300 0.00025135300 0.00025135300 0.00025135300 0.00025135300 0.00025135500 0.00031848600 0.00071229200 0.00168821000 0.00301115000 0.00561617000 0.01079240000 0.01892270000 0.03314020000 0.05690490000 0.09625940000 0.15224300000 0.21230700000 0.25146600000 0.25099000000 0.21912400000 0.17951300000 0.14658100000 0.11986000000 0.09533970000 0.07396560000 0.05807050000 0.04811850000 0.04313470000 0.04235030000 0.04545090000 0.05151570000 0.05976090000 0.06954850000 0.07996970000 0.09045280000 0.10125000000 0.11132400000 0.12020900000 0.12642500000 0.12994400000 0.13238900000 0.13511600000 0.13780200000 0.13973600000 0.14055300000 0.13838200000 0.13253400000 0.12389100000 0.11387900000 0.10440000000 0.09666510000 0.09034320000 0.08563050000 0.08393820000 0.08626360000 0.09483400000 0.11552200000 0.15694900000 0.22464200000 0.31852500000 0.43945400000 0.58790500000 0.75333900000 0.91542300000 1.05588400000 1.17466900000 1.27651700000 1.35395200000 1.40179600000 1.41925300000 1.40743300000 1.37759200000 1.33936200000 1.29303300000 1.23468800000 1.16729700000 1.09937400000 1.04342500000 0.98767500000 0.93346600000 0.88167400000 0.81811300000 0.75022800000 0.68855100000 0.63025000000 0.57369000000 0.51914100000 0.46912000000 0.42370200000 0.38221100000 0.34474600000 0.31026000000 0.27799600000 0.24741900000 0.21902900000 0.19270500000 0.16841700000 0.14626300000 0.12692800000 0.11137100000 0.09888010000 0.08820300000 0.07824340000 0.06918020000
12 100.000000000 50.0000000000 25.0000000000 51.4656100000 38.5024500000 10.4019100000 -0.00006927450 -0.00006927450 -0.00006927450 -0.00006927450 -0.00006927450 -0.00006927450 -0.00006926870 0.00008615120 0.00072876500 0.00163768000 0.00311242000 0.00593740000 0.01127720000 0.02059300000 0.03616210000 0.06199310000 0.10510100000 0.16632200000 0.23206700000 0.27532000000 0.27512400000 0.24040200000 0.19732000000 0.16154700000 0.13235500000 0.10552400000 0.08278630000 0.06709860000 0.05950390000 0.05949740000 0.06657900000 0.08045830000 0.10058500000 0.12612500000 0.15608400000 0.18857800000 0.22312500000 0.25975500000 0.29548500000 0.32868900000 0.35471500000 0.37299700000 0.38693800000 0.40071000000 0.41351500000 0.42349800000 0.42951300000 0.42695800000 0.41263600000 0.38858600000 0.35959600000 0.33121600000 0.30661900000 0.28511900000 0.26777700000 0.25839400000 0.25531100000 0.25698900000 0.26831400000 0.29895700000 0.35494300000 0.43538200000 0.54161900000 0.67519200000 0.82677100000 0.97670300000 1.10595200000 1.21393000000 1.30606700000 1.37518300000 1.41640200000 1.42915200000 1.41395500000 1.38200500000 1.34222400000 1.29478600000 1.23588900000 1.16838200000 1.10026600000 1.04399900000 0.98809500000 0.93381200000 0.88193700000 0.81860800000 0.75065600000 0.68889500000 0.63051500000 0.57411400000 0.51984200000 0.46977700000 0.42441000000 0.38292500000 0.34545800000 0.31118500000 0.27926200000 0.24875700000 0.22034200000 0.19426700000 0.16986000000 0.14751000000 0.12827300000 0.11255900000 0.10003000000 0.08919830000 0.07909980000 0.06997510000
13 100.000000000 75.0000000000 25.0000000000 61.6228700000 59.5928500000 13.8869600000 0.00004891060 0.00004891060 0.00004891060 0.00004891060 0.00004891060 0.00004891060 0.00004892140 0.00034522900 0.00074950800 0.00154753000 0.00305038000 0.00676605000 0.01301000000 0.02358510000 0.04134250000 0.07121370000 0.12111900000 0.19195600000 0.26841800000 0.31892000000 0.31938800000 0.27974700000 0.22975300000 0.18843800000 0.15507100000 0.12468500000 0.09968490000 0.08434790000 0.08133820000 0.09083640000 0.11241500000 0.14639100000 0.19299500000 0.25123000000 0.31913700000 0.39344100000 0.47318800000 0.55802800000 0.64201400000 0.72022100000 0.78332200000 0.82917500000 0.86458500000 0.89881800000 0.92987800000 0.95497000000 0.97202100000 0.96910100000 0.93836800000 0.88508000000 0.82016500000 0.75608800000 0.69954500000 0.64941000000 0.60893700000 0.58491800000 0.57164800000 0.56103100000 0.55539200000 0.56570500000 0.59907100000 0.65419700000 0.73299800000 0.83905700000 0.96549200000 1.09232000000 1.19994900000 1.28760900000 1.36093100000 1.41453100000 1.44351200000 1.44692200000 1.42536500000 1.38952800000 1.34741400000 1.29865500000 1.23887000000 1.17063000000 1.10193500000 1.04549000000 0.98933300000 0.93479900000 0.88302200000 0.81952300000 0.75118300000 0.68940100000 0.63121300000 0.57474700000 0.52051800000 0.47052800000 0.42515000000 0.38407300000 0.34690800000 0.31294700000 0.28116500000 0.25088400000 0.22260500000 0.19653900000 0.17227700000 0.15006600000 0.13070700000 0.11482800000 0.10203200000 0.09106890000 0.08091010000 0.07146900000
