Dell/U2718Q/U2718Q 5DWRH79G0DCL #2 20230212000202 0.3127x 0.329y sRGB XYZLUT+MTX ColorMunki Desig/U2718Q 5DWRH79G0DCL #2 20230212000202 0.3127x 0.329y sRGB XYZLUT+MTX ColorMunki Desig.cal
CAL    

DESCRIPTOR "Argyll Device Calibration Curves"
ORIGINATOR "Argyll dispcal"
CREATED "Sun Feb 12 00:16:03 2023"
DEVICE_CLASS "DISPLAY"
COLOR_REP "RGB"
VIDEO_LUT_CALIBRATION_POSSIBLE "YES"
TV_OUTPUT_ENCODING "NO"
DEVICE_TYPE "l"
TARGET_WHITE_XYZ "195.067042 205.235231 223.513019"
TARGET_GAMMA "sRGB"
DEGREE_OF_BLACK_OUTPUT_OFFSET "1.0"
BLACK_POINT_CORRECTION "0.0"
BLACK_NEUTRAL_BLEND_RATE "4.0"
BLACK_POINT_HACK "YES"
QUALITY "low"

BEGIN_ARGYLL_DISPCAL_ARGS
-v2 -d2 -c1 -yl -P0.466240875912,0.404296875,2.6117274168 -F -H -Ib -ql -m -w0.3127,0.329 -gs -f1.0 -k0 -A4.0 -b
END_ARGYLL_DISPCAL_ARGS


NUMBER_OF_FIELDS 4
BEGIN_DATA_FORMAT
RGB_I RGB_R RGB_G RGB_B
END_DATA_FORMAT

NUMBER_OF_SETS 256
BEGIN_DATA
0.00000000 0.00000000 0.00000000 0.00000000
0.00392157 0.00511225 0.00479483 0.00455385
0.00784314 0.01016030 0.00953000 0.00901702
0.01176470 0.01514540 0.01420660 0.01339220
0.01568630 0.02006860 0.01882580 0.01768200
0.01960780 0.02493120 0.02338860 0.02188880
0.02352940 0.02973410 0.02789590 0.02601500
0.02745100 0.03447890 0.03234890 0.03006300
0.03137250 0.03916960 0.03675060 0.03403800
0.03529410 0.04380440 0.04110560 0.03794770
0.03921570 0.04839110 0.04542510 0.04180930
0.04313730 0.05293080 0.04971290 0.04563670
0.04705880 0.05741240 0.05396700 0.04942350
0.05098040 0.06182840 0.05818460 0.05316210
0.05490200 0.06618120 0.06236090 0.05684960
0.05882350 0.07047640 0.06649290 0.06048750
0.06274510 0.07471910 0.07057850 0.06408030
0.06666670 0.07891950 0.07461790 0.06763510
0.07058820 0.08308340 0.07861260 0.07116040
0.07450980 0.08721190 0.08256010 0.07466230
0.07843140 0.09130580 0.08646200 0.07813810
0.08235290 0.09536800 0.09031730 0.08158200
0.08627450 0.09940250 0.09412750 0.08499100
0.09019610 0.10341700 0.09789400 0.08836630
0.09411760 0.10742100 0.10161500 0.09170880
0.09803920 0.11142000 0.10529200 0.09502000
0.10196100 0.11541000 0.10892400 0.09830610
0.10588200 0.11939100 0.11250500 0.10156900
0.10980400 0.12336400 0.11603600 0.10481100
0.11372500 0.12732700 0.11952200 0.10803300
0.11764700 0.13127400 0.12296800 0.11123900
0.12156900 0.13520500 0.12638000 0.11444300
0.12549000 0.13911400 0.12976100 0.11765500
0.12941200 0.14300000 0.13310900 0.12088200
0.13333300 0.14686200 0.13642500 0.12411700
0.13725500 0.15070100 0.13970900 0.12736300
0.14117600 0.15451600 0.14297900 0.13062300
0.14509800 0.15830300 0.14623700 0.13389700
0.14902000 0.16205800 0.14948300 0.13718200
0.15294100 0.16577600 0.15271500 0.14047400
0.15686300 0.16945700 0.15593300 0.14376300
0.16078400 0.17310200 0.15913200 0.14704500
0.16470600 0.17671100 0.16231400 0.15031900
0.16862700 0.18028200 0.16548000 0.15357900
0.17254900 0.18381400 0.16862700 0.15682100
0.17647100 0.18730200 0.17175600 0.16004300
0.18039200 0.19074600 0.17486400 0.16324100
0.18431400 0.19414900 0.17795200 0.16641400
0.18823500 0.19751200 0.18101900 0.16956000
0.19215700 0.20083700 0.18406500 0.17268000
0.19607800 0.20413300 0.18709000 0.17577600
0.20000000 0.20740600 0.19009400 0.17884800
0.20392200 0.21065500 0.19308200 0.18190200
0.20784300 0.21388600 0.19605900 0.18494800
0.21176500 0.21710300 0.19903100 0.18798700
0.21568600 0.22031000 0.20199800 0.19102500
0.21960800 0.22350900 0.20496100 0.19406800
0.22352900 0.22670700 0.20792100 0.19712400
0.22745100 0.22990500 0.21087900 0.20019800
0.23137300 0.23310400 0.21383600 0.20329500
0.23529400 0.23630900 0.21679500 0.20641600
0.23921600 0.23952100 0.21976500 0.20957000
0.24313700 0.24273800 0.22274500 0.21276100
0.24705900 0.24596000 0.22573500 0.21599000
0.25098000 0.24918900 0.22873700 0.21925300
0.25490200 0.25244000 0.23175300 0.22255500
0.25882400 0.25571000 0.23478200 0.22589300
0.26274500 0.25900100 0.23782500 0.22925600
0.26666700 0.26231100 0.24089400 0.23264400
0.27058800 0.26563500 0.24399100 0.23605300
0.27451000 0.26897000 0.24711900 0.23947400
0.27843100 0.27230800 0.25027700 0.24289800
0.28235300 0.27565000 0.25346600 0.24632600
0.28627500 0.27900000 0.25668400 0.24975300
0.29019600 0.28235500 0.25993000 0.25317800
0.29411800 0.28571500 0.26320300 0.25660200
0.29803900 0.28907900 0.26650500 0.26000800
0.30196100 0.29244600 0.26983600 0.26338600
0.30588200 0.29581700 0.27319600 0.26674200
0.30980400 0.29919500 0.27658600 0.27007700
0.31372500 0.30258300 0.27998800 0.27339000
0.31764700 0.30599000 0.28340000 0.27668800
0.32156900 0.30941900 0.28682500 0.27996500
0.32549000 0.31286700 0.29026000 0.28322100
0.32941200 0.31633600 0.29370400 0.28646200
0.33333300 0.31983100 0.29715900 0.28968800
0.33725500 0.32335500 0.30062200 0.29289900
0.34117600 0.32690500 0.30409300 0.29609400
0.34509800 0.33048800 0.30757000 0.29927400
0.34902000 0.33410700 0.31105300 0.30243600
0.35294100 0.33774800 0.31453800 0.30557700
0.35686300 0.34140600 0.31802700 0.30869600
0.36078400 0.34508200 0.32152800 0.31179200
0.36470600 0.34877400 0.32503700 0.31485900
0.36862700 0.35248200 0.32853100 0.31789200
0.37254900 0.35620000 0.33200900 0.32089500
0.37647100 0.35992900 0.33547100 0.32387500
0.38039200 0.36367700 0.33891600 0.32683500
0.38431400 0.36744000 0.34234300 0.32977100
0.38823500 0.37121800 0.34575400 0.33268500
0.39215700 0.37500900 0.34915100 0.33557300
0.39607800 0.37881100 0.35253600 0.33844700
0.40000000 0.38261700 0.35591000 0.34131700
0.40392200 0.38643100 0.35927600 0.34418500
0.40784300 0.39025600 0.36263300 0.34705700
0.41176500 0.39408900 0.36598700 0.34993400
0.41568600 0.39792900 0.36933900 0.35281900
0.41960800 0.40177600 0.37269000 0.35571400
0.42352900 0.40561300 0.37604100 0.35862000
0.42745100 0.40943200 0.37939000 0.36153800
0.43137300 0.41322900 0.38274000 0.36446900
0.43529400 0.41700600 0.38609000 0.36741300
0.43921600 0.42076500 0.38944200 0.37037100
0.44313700 0.42450900 0.39279000 0.37334100
0.44705900 0.42824200 0.39612900 0.37632300
0.45098000 0.43196400 0.39946000 0.37931800
0.45490200 0.43567400 0.40277800 0.38232800
0.45882400 0.43937500 0.40608500 0.38536200
0.46274500 0.44307100 0.40938300 0.38841700
0.46666700 0.44676400 0.41267300 0.39149000
0.47058800 0.45046500 0.41596100 0.39457900
0.47451000 0.45417000 0.41926000 0.39768700
0.47843100 0.45788000 0.42257400 0.40081800
0.48235300 0.46159900 0.42590100 0.40397500
0.48627500 0.46532700 0.42924200 0.40715500
0.49019600 0.46906100 0.43260800 0.41036000
0.49411800 0.47280000 0.43600400 0.41359200
0.49803900 0.47654300 0.43943000 0.41685000
0.50196100 0.48028700 0.44288600 0.42013100
0.50588200 0.48403300 0.44637600 0.42344200
0.50980400 0.48777800 0.44989900 0.42678000
0.51372500 0.49152100 0.45345400 0.43014800
0.51764700 0.49526400 0.45704200 0.43354800
0.52156900 0.49900700 0.46066400 0.43697900
0.52549000 0.50276700 0.46432300 0.44043900
0.52941200 0.50654100 0.46801800 0.44393700
0.53333300 0.51032300 0.47174700 0.44747300
0.53725500 0.51411400 0.47551200 0.45102900
0.54117600 0.51791400 0.47932100 0.45459500
0.54509800 0.52172400 0.48317800 0.45817200
0.54902000 0.52554600 0.48706200 0.46175900
0.55294100 0.52938000 0.49096500 0.46535800
0.55686300 0.53323000 0.49488600 0.46897200
0.56078400 0.53709000 0.49882500 0.47259500
0.56470600 0.54095600 0.50278200 0.47623000
0.56862700 0.54482900 0.50676200 0.47987200
0.57254900 0.54871100 0.51076400 0.48351700
0.57647100 0.55259400 0.51478500 0.48717700
0.58039200 0.55647700 0.51882200 0.49085700
0.58431400 0.56035500 0.52287500 0.49455000
0.58823500 0.56422900 0.52694700 0.49825000
0.59215700 0.56810200 0.53104100 0.50195800
0.59607800 0.57198000 0.53515700 0.50566900
0.60000000 0.57586200 0.53929200 0.50939000
0.60392200 0.57974600 0.54343300 0.51312500
0.60784300 0.58362800 0.54757300 0.51684800
0.61176500 0.58750800 0.55171700 0.52055000
0.61568600 0.59138800 0.55585400 0.52422600
0.61960800 0.59526600 0.55996200 0.52787700
0.62352900 0.59914800 0.56404400 0.53150700
0.62745100 0.60304000 0.56810100 0.53511900
0.63137300 0.60695400 0.57213600 0.53872000
0.63529400 0.61088800 0.57615200 0.54232400
0.63921600 0.61483600 0.58014900 0.54593200
0.64313700 0.61879300 0.58414200 0.54953600
0.64705900 0.62275600 0.58814000 0.55312800
0.65098000 0.62672200 0.59214200 0.55670000
0.65490200 0.63068600 0.59614400 0.56024900
0.65882400 0.63464400 0.60014100 0.56379800
0.66274500 0.63860500 0.60413300 0.56735100
0.66666700 0.64257500 0.60812700 0.57091500
0.67058800 0.64655700 0.61212400 0.57448700
0.67451000 0.65055400 0.61612800 0.57807100
0.67843100 0.65456500 0.62013900 0.58167100
0.68235300 0.65858900 0.62415300 0.58528400
0.68627500 0.66262800 0.62816900 0.58891800
0.69019600 0.66668000 0.63218200 0.59257500
0.69411800 0.67073900 0.63619600 0.59625500
0.69803900 0.67478900 0.64021200 0.59994400
0.70196100 0.67882300 0.64423100 0.60362300
0.70588200 0.68284200 0.64825200 0.60728700
0.70980400 0.68684500 0.65226200 0.61093900
0.71372500 0.69083000 0.65625000 0.61458500
0.71764700 0.69479900 0.66021800 0.61822200
0.72156900 0.69875500 0.66416900 0.62185200
0.72549000 0.70270200 0.66810000 0.62547600
0.72941200 0.70664700 0.67201100 0.62909100
0.73333300 0.71059100 0.67590000 0.63269500
0.73725500 0.71453600 0.67976500 0.63629300
0.74117600 0.71848000 0.68360300 0.63989500
0.74509800 0.72242400 0.68742100 0.64350500
0.74902000 0.72636200 0.69122500 0.64711700
0.75294100 0.73029000 0.69503600 0.65072700
0.75686300 0.73420300 0.69885300 0.65433100
0.76078400 0.73810000 0.70267200 0.65793000
0.76470600 0.74198800 0.70649400 0.66152800
0.76862700 0.74587400 0.71031900 0.66513700
0.77254900 0.74975800 0.71414500 0.66876000
0.77647100 0.75365600 0.71797700 0.67239600
0.78039200 0.75757400 0.72181400 0.67603500
0.78431400 0.76151100 0.72567100 0.67967400
0.78823500 0.76547200 0.72956300 0.68331500
0.79215700 0.76945800 0.73349100 0.68696000
0.79607800 0.77347200 0.73745900 0.69060800
0.80000000 0.77751400 0.74146900 0.69425200
0.80392200 0.78158200 0.74552000 0.69789300
0.80784300 0.78567500 0.74961100 0.70153300
0.81176500 0.78979400 0.75373700 0.70516600
0.81568600 0.79394100 0.75788700 0.70879900
0.81960800 0.79811500 0.76205800 0.71243600
0.82352900 0.80231300 0.76625000 0.71608100
0.82745100 0.80651100 0.77046500 0.71973600
0.83137300 0.81070500 0.77470100 0.72340300
0.83529400 0.81489400 0.77894800 0.72708000
0.83921600 0.81908500 0.78320800 0.73076700
0.84313700 0.82328200 0.78747900 0.73446400
0.84705900 0.82748700 0.79176100 0.73817300
0.85098000 0.83170200 0.79605500 0.74189800
0.85490200 0.83592700 0.80036700 0.74564500
0.85882400 0.84016200 0.80470100 0.74940700
0.86274500 0.84441000 0.80906000 0.75317900
0.86666700 0.84867900 0.81344200 0.75696900
0.87058800 0.85297300 0.81785300 0.76079000
0.87451000 0.85728400 0.82229500 0.76464000
0.87843100 0.86161000 0.82676700 0.76851300
0.88235300 0.86594900 0.83125700 0.77237900
0.88627500 0.87030000 0.83573700 0.77623800
0.89019600 0.87466400 0.84020500 0.78009500
0.89411800 0.87903300 0.84465300 0.78394600
0.89803900 0.88340100 0.84908700 0.78781700
0.90196100 0.88776400 0.85351100 0.79170800
0.90588200 0.89212800 0.85791600 0.79561600
0.90980400 0.89650000 0.86231500 0.79954700
0.91372500 0.90087400 0.86672100 0.80350200
0.91764700 0.90526100 0.87113400 0.80747500
0.92156900 0.90966400 0.87555100 0.81146500
0.92549000 0.91407900 0.87996900 0.81546600
0.92941200 0.91850300 0.88439000 0.81947700
0.93333300 0.92294200 0.88882000 0.82350300
0.93725500 0.92739700 0.89326500 0.82754700
0.94117600 0.93186400 0.89772200 0.83159900
0.94509800 0.93634700 0.90218900 0.83567000
0.94902000 0.94083800 0.90666400 0.83975500
0.95294100 0.94534000 0.91114400 0.84385300
0.95686300 0.94984900 0.91563000 0.84796400
0.96078400 0.95436700 0.92012300 0.85208800
0.96470600 0.95889300 0.92462000 0.85622700
0.96862700 0.96342600 0.92912100 0.86037800
0.97254900 0.96796800 0.93362500 0.86454300
0.97647100 0.97252100 0.93813700 0.86872100
0.98039200 0.97708800 0.94265700 0.87291500
0.98431400 0.98166900 0.94718700 0.87712300
0.98823500 0.98626400 0.95172600 0.88134700
0.99215700 0.99087200 0.95627400 0.88558500
0.99607800 0.99549400 0.96083100 0.88983900
1.00000000 1.00000000 0.96539700 0.89410700
END_DATA
CAL    

DESCRIPTOR "Argyll Calibration options and model"
ORIGINATOR "Argyll dispcal"
CREATED "Sun Feb 12 00:16:03 202"

NUMBER_OF_FIELDS 3
BEGIN_DATA_FORMAT
R_P G_P B_P
END_DATA_FORMAT

NUMBER_OF_SETS 32
BEGIN_DATA
-0.00000473098 0.00040732400 0.00091086600
1.00000500000 0.99959300000 0.99908900000
1.44896900000 1.16659000000 1.22968700000
0.55453900000 0.53594100000 0.56863100000
0.07195770000 0.10040300000 0.10700800000
0.09315510000 0.13105000000 0.16436600000
0.09995810000 0.11538000000 0.11562400000
0.11700700000 0.10317800000 0.11846200000
0.07483030000 0.08208320000 0.05822870000
0.05584860000 0.07476880000 0.05256210000
0.05478420000 0.06650400000 0.05483190000
0.04622300000 0.06096720000 0.05799180000
0.04645420000 0.05530100000 0.04623030000
0.04811350000 0.04490780000 0.04946830000
0.02689440000 0.05729400000 0.04060140000
0.04411570000 0.04893560000 0.03496240000
0.03593930000 0.04097840000 0.03502000000
0.04057590000 0.03244920000 0.03209140000
0.02434230000 0.03005800000 0.03582620000
0.02731840000 0.03153970000 0.03211090000
0.01629670000 0.03518900000 0.02878010000
0.01925150000 0.03132010000 0.02600790000
0.02085390000 0.03016730000 0.02505550000
0.01759400000 0.02518060000 0.02457010000
0.01774210000 0.02359200000 0.02575570000
0.01723460000 0.02475050000 0.02363460000
0.01296440000 0.02154280000 0.02110300000
0.01300370000 0.01813540000 0.02289480000
0.01551240000 0.01923770000 0.02050110000
0.01252280000 0.02024290000 0.01914280000
0.01423300000 0.02129530000 0.01742710000
0.00984495000 0.01849660000 0.01303110000
END_DATA
