Microsoft/Surface Pro 2017/LP123WQ112604 #1 2020-05-26 09-42 0.3127x 0.329y sRGB M-S XYZLUT+MTX/LP123WQ112604 #1 2020-05-26 09-42 0.3127x 0.329y sRGB M-S XYZLUT+MTX.cal
CAL    

DESCRIPTOR "Argyll Device Calibration Curves"
ORIGINATOR "Argyll dispcal"
CREATED "Tue May 26 09:58:09 2020"
DEVICE_CLASS "DISPLAY"
COLOR_REP "RGB"
VIDEO_LUT_CALIBRATION_POSSIBLE "YES"
TV_OUTPUT_ENCODING "NO"
DEVICE_TYPE "n"
TARGET_WHITE_XYZ "311.414142 327.647114 356.826629"
TARGET_GAMMA "sRGB"
DEGREE_OF_BLACK_OUTPUT_OFFSET "1.0"
BLACK_POINT_CORRECTION "0.0"
BLACK_NEUTRAL_BLEND_RATE "4.0"
BLACK_POINT_HACK "YES"
QUALITY "medium"

BEGIN_ARGYLL_DISPCAL_ARGS
-v2 -d1 -c1 -yn -P0.5,0.5,2.22011385199 -X "Surface Book Pro 5th Gen.ccmx" -qm -m -w0.3127,0.329 -gs -f1.0 -k0 -A4.0 -b
END_ARGYLL_DISPCAL_ARGS


NUMBER_OF_FIELDS 4
BEGIN_DATA_FORMAT
RGB_I RGB_R RGB_G RGB_B
END_DATA_FORMAT

NUMBER_OF_SETS 256
BEGIN_DATA
0.00000000 0.00000000 0.00000000 0.00000000
0.00392157 0.03688050 0.03881580 0.03639630
0.00784314 0.05930650 0.06125940 0.05763010
0.01176470 0.07197500 0.07386600 0.07030330
0.01568630 0.08017390 0.08215030 0.07880980
0.01960780 0.08624850 0.08829070 0.08520090
0.02352940 0.09114590 0.09321870 0.09037550
0.02745100 0.09533040 0.09741740 0.09479130
0.03137250 0.09902630 0.10109400 0.09871780
0.03529410 0.10241300 0.10443300 0.10228100
0.03921570 0.10556300 0.10749400 0.10559400
0.04313730 0.10852000 0.11036000 0.10872300
0.04705880 0.11137900 0.11311400 0.11168600
0.05098040 0.11414900 0.11576100 0.11456000
0.05490200 0.11683200 0.11831000 0.11738400
0.05882350 0.11945000 0.12080900 0.12016000
0.06274510 0.12205900 0.12329300 0.12288400
0.06666670 0.12465600 0.12576300 0.12558700
0.07058820 0.12724600 0.12822600 0.12830400
0.07450980 0.12982400 0.13067900 0.13103000
0.07843140 0.13239000 0.13312400 0.13376300
0.08235290 0.13496500 0.13560200 0.13650300
0.08627450 0.13757500 0.13813100 0.13924900
0.09019610 0.14022600 0.14071500 0.14201600
0.09411760 0.14291400 0.14335200 0.14483200
0.09803920 0.14563100 0.14603200 0.14770100
0.10196100 0.14837100 0.14874700 0.15062200
0.10588200 0.15113000 0.15149200 0.15358500
0.10980400 0.15391100 0.15426900 0.15657300
0.11372500 0.15671200 0.15707600 0.15958800
0.11764700 0.15954200 0.15993300 0.16263500
0.12156900 0.16243400 0.16285100 0.16570800
0.12549000 0.16539800 0.16583200 0.16878700
0.12941200 0.16843200 0.16887300 0.17190500
0.13333300 0.17154100 0.17197000 0.17507200
0.13725500 0.17469300 0.17510300 0.17828500
0.14117600 0.17786800 0.17824700 0.18154600
0.14509800 0.18107000 0.18140300 0.18482000
0.14902000 0.18429300 0.18457400 0.18809700
0.15294100 0.18753800 0.18775900 0.19138700
0.15686300 0.19079200 0.19096500 0.19469200
0.16078400 0.19401000 0.19414900 0.19801300
0.16470600 0.19717700 0.19729000 0.20135100
0.16862700 0.20030600 0.20039500 0.20465900
0.17254900 0.20340900 0.20348900 0.20792500
0.17647100 0.20652100 0.20661900 0.21115600
0.18039200 0.20966900 0.20979900 0.21437000
0.18431400 0.21285600 0.21304400 0.21756300
0.18823500 0.21603900 0.21631400 0.22078300
0.19215700 0.21922400 0.21959400 0.22405000
0.19607800 0.22242000 0.22289200 0.22732200
0.20000000 0.22562200 0.22620300 0.23060500
0.20392200 0.22883300 0.22952200 0.23390000
0.20784300 0.23205700 0.23284800 0.23720200
0.21176500 0.23532500 0.23620300 0.24050900
0.21568600 0.23864600 0.23959200 0.24382500
0.21960800 0.24197100 0.24298600 0.24717800
0.22352900 0.24525600 0.24632100 0.25057400
0.22745100 0.24849500 0.24959300 0.25398000
0.23137300 0.25169200 0.25281500 0.25734000
0.23529400 0.25488400 0.25603100 0.26065700
0.23921600 0.25809700 0.25926800 0.26393000
0.24313700 0.26132500 0.26252400 0.26719700
0.24705900 0.26455000 0.26578600 0.27048900
0.25098000 0.26777100 0.26905500 0.27381100
0.25490200 0.27098800 0.27233700 0.27715100
0.25882400 0.27418100 0.27561600 0.28050700
0.26274500 0.27730300 0.27884200 0.28387200
0.26666700 0.28040400 0.28206700 0.28724400
0.27058800 0.28351500 0.28532300 0.29057400
0.27451000 0.28664100 0.28860500 0.29389100
0.27843100 0.28977200 0.29189100 0.29721200
0.28235300 0.29289700 0.29516800 0.30055000
0.28627500 0.29602400 0.29843800 0.30390300
0.29019600 0.29915600 0.30169600 0.30724500
0.29411800 0.30230000 0.30493800 0.31057900
0.29803900 0.30546100 0.30817500 0.31390400
0.30196100 0.30869400 0.31146800 0.31722500
0.30588200 0.31201300 0.31482200 0.32054100
0.30980400 0.31539200 0.31822000 0.32388200
0.31372500 0.31880800 0.32162300 0.32730000
0.31764700 0.32220700 0.32498400 0.33077800
0.32156900 0.32558500 0.32831200 0.33428800
0.32549000 0.32893800 0.33160300 0.33777100
0.32941200 0.33226900 0.33486800 0.34121500
0.33333300 0.33558800 0.33812400 0.34462900
0.33725500 0.33889000 0.34137000 0.34801000
0.34117600 0.34215100 0.34458200 0.35137000
0.34509800 0.34537400 0.34779900 0.35472400
0.34902000 0.34861100 0.35104600 0.35806800
0.35294100 0.35186000 0.35432600 0.36136400
0.35686300 0.35512000 0.35763600 0.36465100
0.36078400 0.35840500 0.36099400 0.36796200
0.36470600 0.36174400 0.36442100 0.37128800
0.36862700 0.36513000 0.36789900 0.37462700
0.37254900 0.36854700 0.37141300 0.37800200
0.37647100 0.37199800 0.37496800 0.38144300
0.38039200 0.37549800 0.37855300 0.38494100
0.38431400 0.37898600 0.38210900 0.38848600
0.38823500 0.38239100 0.38556800 0.39207900
0.39215700 0.38569700 0.38892300 0.39571800
0.39607800 0.38893100 0.39220500 0.39933200
0.40000000 0.39213200 0.39546800 0.40286700
0.40392200 0.39537700 0.39877000 0.40631600
0.40784300 0.39866700 0.40210500 0.40971100
0.41176500 0.40198300 0.40546200 0.41308700
0.41568600 0.40532100 0.40883700 0.41650700
0.41960800 0.40868800 0.41222700 0.41997800
0.42352900 0.41207200 0.41562600 0.42347300
0.42745100 0.41547900 0.41905000 0.42698100
0.43137300 0.41886900 0.42243500 0.43051100
0.43529400 0.42221200 0.42578000 0.43406100
0.43921600 0.42556000 0.42912700 0.43763300
0.44313700 0.42891400 0.43246900 0.44118100
0.44705900 0.43226000 0.43578000 0.44467300
0.45098000 0.43558700 0.43904900 0.44816600
0.45490200 0.43889100 0.44228400 0.45166500
0.45882400 0.44217100 0.44548300 0.45514900
0.46274500 0.44542500 0.44865200 0.45859800
0.46666700 0.44867200 0.45180700 0.46201900
0.47058800 0.45191600 0.45495100 0.46541700
0.47451000 0.45515600 0.45808600 0.46879700
0.47843100 0.45840100 0.46122300 0.47216200
0.48235300 0.46171000 0.46442200 0.47553600
0.48627500 0.46512500 0.46772300 0.47892600
0.49019600 0.46867300 0.47116400 0.48233500
0.49411800 0.47224400 0.47463000 0.48580600
0.49803900 0.47578900 0.47807700 0.48940300
0.50196100 0.47930700 0.48150300 0.49316700
0.50588200 0.48279900 0.48490800 0.49695700
0.50980400 0.48626600 0.48829200 0.50072400
0.51372500 0.48970800 0.49166000 0.50446900
0.51764700 0.49313500 0.49501300 0.50819100
0.52156900 0.49654500 0.49834600 0.51188600
0.52549000 0.49995000 0.50167200 0.51555100
0.52941200 0.50337800 0.50500600 0.51918200
0.53333300 0.50682800 0.50836000 0.52277400
0.53725500 0.51025700 0.51171300 0.52632800
0.54117600 0.51364900 0.51503500 0.52987100
0.54509800 0.51705700 0.51836500 0.53341600
0.54902000 0.52050300 0.52174900 0.53694200
0.55294100 0.52399700 0.52519300 0.54040600
0.55686300 0.52753000 0.52869200 0.54384700
0.56078400 0.53109200 0.53223200 0.54731200
0.56470600 0.53467200 0.53580500 0.55080900
0.56862700 0.53819800 0.53935600 0.55434700
0.57254900 0.54163500 0.54284800 0.55791500
0.57647100 0.54501700 0.54628600 0.56150900
0.58039200 0.54835700 0.54969500 0.56507800
0.58431400 0.55165700 0.55307900 0.56858200
0.58823500 0.55494600 0.55646700 0.57203900
0.59215700 0.55826800 0.55990200 0.57548000
0.59607800 0.56157900 0.56336800 0.57891000
0.60000000 0.56484700 0.56681300 0.58233700
0.60392200 0.56808000 0.57023000 0.58580700
0.60784300 0.57127200 0.57361300 0.58931900
0.61176500 0.57441800 0.57694700 0.59282100
0.61568600 0.57750300 0.58020900 0.59630500
0.61960800 0.58054400 0.58341000 0.59977700
0.62352900 0.58360000 0.58662100 0.60322700
0.62745100 0.58667200 0.58985200 0.60662800
0.63137300 0.58976900 0.59310400 0.60996800
0.63529400 0.59292400 0.59639800 0.61331000
0.63921600 0.59618500 0.59978100 0.61666900
0.64313700 0.59957400 0.60327300 0.62004300
0.64705900 0.60310400 0.60688500 0.62343800
0.65098000 0.60676500 0.61060100 0.62691300
0.65490200 0.61053200 0.61440500 0.63049100
0.65882400 0.61440000 0.61829200 0.63420100
0.66274500 0.61837100 0.62226600 0.63804500
0.66666700 0.62242200 0.62632600 0.64201000
0.67058800 0.62640800 0.63031800 0.64608900
0.67451000 0.63028700 0.63419300 0.65028600
0.67843100 0.63405300 0.63793100 0.65459400
0.68235300 0.63768200 0.64151800 0.65883400
0.68627500 0.64115800 0.64494900 0.66294900
0.69019600 0.64450200 0.64824700 0.66691300
0.69411800 0.64774900 0.65144100 0.67071200
0.69803900 0.65095600 0.65458900 0.67435000
0.70196100 0.65416300 0.65772000 0.67785000
0.70588200 0.65736700 0.66083500 0.68125400
0.70980400 0.66059000 0.66395800 0.68459600
0.71372500 0.66387700 0.66714200 0.68793500
0.71764700 0.66721100 0.67038000 0.69127400
0.72156900 0.67059200 0.67366900 0.69461700
0.72549000 0.67402000 0.67700400 0.69801400
0.72941200 0.67747600 0.68036300 0.70146700
0.73333300 0.68091800 0.68371400 0.70495900
0.73725500 0.68432800 0.68705100 0.70849500
0.74117600 0.68771600 0.69037600 0.71206700
0.74509800 0.69109400 0.69369400 0.71563100
0.74902000 0.69451300 0.69704100 0.71917300
0.75294100 0.69799000 0.70045300 0.72269800
0.75686300 0.70149200 0.70390800 0.72620600
0.76078400 0.70499000 0.70735900 0.72969700
0.76470600 0.70848100 0.71080900 0.73321400
0.76862700 0.71196800 0.71426600 0.73679200
0.77254900 0.71544300 0.71772200 0.74037300
0.77647100 0.71889300 0.72115300 0.74394800
0.78039200 0.72231600 0.72453700 0.74752100
0.78431400 0.72577700 0.72791100 0.75109400
0.78823500 0.72930100 0.73132800 0.75465300
0.79215700 0.73290700 0.73480300 0.75816400
0.79607800 0.73658500 0.73835400 0.76163600
0.80000000 0.74031000 0.74197000 0.76513700
0.80392200 0.74408400 0.74563700 0.76868100
0.80784300 0.74785700 0.74935800 0.77229400
0.81176500 0.75154900 0.75304700 0.77598300
0.81568600 0.75513800 0.75665700 0.77974000
0.81960800 0.75861800 0.76017700 0.78356400
0.82352900 0.76204300 0.76360700 0.78740600
0.82745100 0.76545100 0.76700400 0.79118400
0.83137300 0.76884600 0.77038700 0.79488200
0.83529400 0.77222300 0.77375700 0.79849900
0.83921600 0.77562900 0.77712500 0.80207100
0.84313700 0.77906600 0.78053500 0.80565200
0.84705900 0.78253100 0.78397700 0.80924400
0.85098000 0.78603600 0.78745000 0.81284400
0.85490200 0.78961700 0.79097200 0.81648400
0.85882400 0.79326600 0.79456800 0.82017200
0.86274500 0.79696900 0.79822600 0.82389800
0.86666700 0.80065400 0.80193600 0.82766100
0.87058800 0.80428400 0.80562700 0.83149900
0.87451000 0.80784500 0.80926100 0.83541800
0.87843100 0.81134800 0.81282800 0.83940900
0.88235300 0.81486900 0.81634300 0.84340000
0.88627500 0.81843900 0.81988700 0.84734500
0.89019600 0.82206400 0.82348800 0.85124300
0.89411800 0.82573000 0.82714000 0.85511300
0.89803900 0.82939500 0.83083600 0.85903900
0.90196100 0.83303100 0.83452800 0.86305000
0.90588200 0.83664400 0.83818800 0.86715300
0.90980400 0.84031300 0.84184200 0.87133200
0.91372500 0.84403300 0.84556100 0.87551700
0.91764700 0.84776400 0.84933500 0.87969100
0.92156900 0.85147200 0.85312000 0.88393000
0.92549000 0.85519500 0.85690300 0.88827000
0.92941200 0.85892900 0.86071600 0.89266700
0.93333300 0.86265400 0.86454700 0.89705800
0.93725500 0.86637600 0.86837200 0.90149200
0.94117600 0.87010600 0.87221000 0.90596000
0.94509800 0.87384300 0.87607900 0.91042000
0.94902000 0.87758700 0.87997800 0.91489900
0.95294100 0.88133400 0.88391000 0.91940100
0.95686300 0.88509000 0.88786700 0.92394100
0.96078400 0.88885800 0.89184600 0.92851500
0.96470600 0.89263700 0.89584800 0.93312100
0.96862700 0.89642700 0.89987000 0.93776900
0.97254900 0.90023700 0.90391400 0.94247000
0.97647100 0.90406800 0.90797400 0.94723800
0.98039200 0.90791900 0.91204800 0.95207500
0.98431400 0.91179100 0.91613700 0.95698000
0.98823500 0.91568400 0.92024100 0.96195600
0.99215700 0.91959900 0.92436000 0.96700300
0.99607800 0.92353500 0.92849400 0.97212400
1.00000000 0.92749200 0.93264300 0.97732000
END_DATA
CAL    

DESCRIPTOR "Argyll Calibration options and model"
ORIGINATOR "Argyll dispcal"
CREATED "Tue May 26 09:58:09 202"

NUMBER_OF_FIELDS 3
BEGIN_DATA_FORMAT
R_P G_P B_P
END_DATA_FORMAT

NUMBER_OF_SETS 32
BEGIN_DATA
-0.000338552 -0.000253455 0.000196666
1.000339000 1.000253000 0.999803000
1.048264000 1.153315000 1.184679000
0.862904000 0.959547000 0.615591000
0.131272000 0.013219900 0.119644000
0.184641000 0.208878000 0.326086000
0.057277700 0.079140800 0.021286300
0.255690000 0.165105000 0.309890000
0.082272100 0.078683700 0.064597700
0.142807000 0.030390900 0.069691700
0.080427700 0.097954700 0.063782800
0.068420100 0.083964500 0.061705600
0.058221700 0.054217500 0.073074100
0.069317000 0.073345300 0.052961500
0.053540600 0.058194200 0.079899300
0.061450800 0.063624600 0.033742600
0.053633400 0.061844100 0.058432100
0.048773800 0.058976800 0.045822900
0.044987100 0.054036300 0.046708600
0.043141100 0.058093000 0.045278500
0.040252800 0.047957400 0.032808300
0.039094000 0.056790100 0.054639800
0.034857400 0.054010800 0.041440800
0.033823200 0.045122000 0.032996400
0.026690400 0.042676700 0.035624500
0.027862000 0.035379200 0.033091500
0.025581000 0.036922800 0.029173100
0.023128200 0.038496000 0.035451400
0.024963900 0.037173300 0.029781100
0.023169000 0.038870600 0.020968100
0.028447600 0.039793700 0.037064600
0.010976400 0.037562700 0.023233600
END_DATA
