GPD/GPD Win (1st gen)/36865 #1 2019-06-14 15-10 0.3127x 0.329y sRGB F-S XYZLUT+MTX/36865 #1 2019-06-14 15-10 0.3127x 0.329y sRGB F-S XYZLUT+MTX.bpc.ti3
CTI3   

DESCRIPTOR "Argyll Calibration Target chart information 3"
ORIGINATOR "Argyll dispread"
CREATED "Fri Jun 14 15:18:13 2019"
DEVICE_CLASS "DISPLAY"
SINGLE_DIM_STEPS "17"
COMP_GREY_STEPS "49"
DARK_REGION_EMPHASIS "1.6"
COLOR_REP "RGB_XYZ"
TARGET_INSTRUMENT "X-Rite i1 DisplayPro, ColorMunki Display"
DISPLAY_TYPE_REFRESH "NO"
DISPLAY_TYPE_BASE_ID "1"
INSTRUMENT_TYPE_SPECTRAL "NO"
LUMINANCE_XYZ_CDM2 "68.440945 71.986196 78.556793"
NORMALIZED_TO_Y_100 "YES"
VIDEO_LUT_CALIBRATION_POSSIBLE "YES"

BEGIN_ARGYLL_COLPROF_ARGS
-v -qh -aX -bn -C "No copyright. Created with DisplayCAL 3.8.2.0 and ArgyllCMS 2.1.1" -M "36865"
END_ARGYLL_COLPROF_ARGS

OBSERVER "1931_2"
USE_BLACK_POINT_COMPENSATION "NO"
BLACK_POINT_CORRECTION "0.0"
HIRES_B2A "YES"
HIRES_B2A_SIZE "-1"
SMOOTH_B2A "YES"
PATCH_SEQUENCE "OPTIMIZE_DISPLAY_RESPONSE_DELAY"

NUMBER_OF_FIELDS 7
BEGIN_DATA_FORMAT
SAMPLE_ID RGB_R RGB_G RGB_B XYZ_X XYZ_Y XYZ_Z
END_DATA_FORMAT

NUMBER_OF_SETS 417
BEGIN_DATA
1 100.0000 100.0000 100.0000 95.07510 100.0000 109.1276
2 1.960800 1.960800 1.960800 0.211804 0.218677 0.279155
3 3.921600 3.921600 3.921600 0.402498 0.414341 0.558471
4 5.882400 5.882400 5.882400 0.587980 0.604072 0.796536
5 9.803900 9.803900 9.803900 1.026907 1.075550 1.321346
6 13.72600 13.72600 13.72600 1.692563 1.754814 2.125399
7 17.64700 17.64700 17.64700 2.539491 2.692664 3.038589
8 21.56900 21.56900 21.56900 3.609129 3.776931 4.238841
9 25.49000 25.49000 25.49000 4.997188 5.252203 5.949737
10 29.41200 29.41200 29.41200 6.556363 6.881386 7.638818
11 33.33300 33.33300 33.33300 8.615630 9.149280 9.747582
12 37.25500 37.25500 37.25500 10.84772 11.46836 12.69665
13 41.17600 41.17600 41.17600 13.36194 14.04938 15.51813
14 45.09800 45.09800 45.09800 16.06326 16.78642 18.60725
15 49.02000 49.02000 49.02000 19.23386 20.28760 22.23927
16 52.94100 52.94100 52.94100 23.04904 24.28908 26.27301
17 56.86300 56.86300 56.86300 26.68189 28.11371 30.93646
18 60.78400 60.78400 60.78400 30.84126 32.33233 35.32698
19 64.70600 64.70600 64.70600 35.46187 37.18025 40.65315
20 68.62700 68.62700 68.62700 40.38407 42.54990 46.36898
21 72.54900 72.54900 72.54900 45.76265 48.06345 52.47924
22 76.47100 76.47100 76.47100 51.28241 54.15290 58.60237
23 80.39200 80.39200 80.39200 57.02239 59.88293 66.00295
24 84.31400 84.31400 84.31400 63.40258 67.00785 73.15317
25 88.23500 88.23500 88.23500 69.71845 73.72112 80.82548
26 92.15700 92.15700 92.15700 77.90127 81.96549 90.34298
27 96.07800 96.07800 96.07800 86.10017 89.88688 99.59079
28 27.66030 12.68350 92.73190 18.54806 6.206545 82.84984
29 38.42000 27.61170 100.0000 25.71162 11.48862 100.5172
30 42.57730 47.77910 100.0000 32.15902 22.21597 101.3908
31 14.93840 36.43700 57.92020 10.87083 10.34293 30.28063
32 28.40750 36.74820 67.93620 14.78408 11.86737 42.48645
33 31.45360 60.08000 87.15320 29.31046 28.88208 74.35401
34 37.86010 77.40060 100.0000 45.53111 49.15734 104.0149
35 75.13330 88.89100 100.0000 68.14523 72.37551 106.4352
36 21.99260 36.17830 35.46260 7.807973 9.616610 11.24791
37 60.03410 36.34800 34.24440 17.70098 14.92924 10.96420
38 85.30990 48.06370 34.20270 33.79686 27.98647 12.28589
39 100.0000 47.69860 44.88380 46.44949 34.03798 20.19498
40 26.11940 0.000000 0.000000 2.028703 1.108063 0.422734
41 28.68270 0.000000 0.000000 2.395012 1.297779 0.445777
42 31.25000 0.000000 0.000000 2.979412 1.600186 0.479200
43 36.88520 0.000000 0.000000 3.986174 2.121844 0.538336
44 43.10350 0.000000 0.000000 5.535737 2.924203 0.626180
45 50.00000 0.000000 0.000000 7.682247 4.034951 0.746624
46 57.69230 0.000000 0.000000 10.35046 5.416902 0.897546
47 66.32650 0.000000 0.000000 14.04285 7.325781 1.100616
48 87.20930 0.000000 0.000000 24.89560 12.93973 1.680734
49 100.0000 0.000000 22.24980 36.09969 18.53560 6.175297
50 100.0000 28.21660 40.73130 40.54386 23.86696 16.37473
51 49.04440 52.99000 16.16290 17.57980 22.61297 4.690980
52 47.79410 100.0000 26.69110 48.69048 80.72741 13.62617
53 100.0000 100.0000 89.27580 90.73545 98.97532 86.47245
54 100.0000 100.0000 100.0000 95.17496 100.1056 109.3918
55 0.000000 17.12330 0.000000 1.148613 2.029975 0.499577
56 0.000000 21.42860 0.000000 1.625043 2.929320 0.584760
57 0.000000 26.11940 0.000000 2.372320 4.339138 0.715882
58 0.000000 31.25000 0.000000 3.339420 6.162977 0.883740
59 0.000000 36.88520 0.000000 4.708973 8.751868 1.127530
60 0.000000 46.63690 0.000000 7.390205 13.79917 1.599716
61 0.000000 50.00000 0.000000 8.914704 16.68689 1.874139
62 0.000000 57.69230 0.000000 11.95773 22.45186 2.418994
63 0.000000 66.32650 0.000000 16.05757 30.31766 3.166526
64 0.000000 76.08700 0.000000 21.89471 41.17652 4.189165
65 69.82990 77.32920 0.000000 38.13311 50.48370 5.173775
66 83.10360 100.0000 0.000000 63.50432 88.78652 8.824228
67 100.0000 100.0000 0.000000 76.15873 95.45179 9.477958
68 0.957900 0.957900 0.957900 0.154188 0.164942 0.176421
69 0.000000 0.000000 9.493700 0.285992 0.173393 0.963590
70 0.000000 0.000000 13.15790 0.419374 0.206766 1.607797
71 0.000000 0.000000 17.12330 0.605296 0.252640 2.535591
72 0.000000 0.000000 21.42860 0.817268 0.305490 3.627910
73 0.000000 0.000000 26.11940 1.189189 0.397677 5.604046
74 0.000000 0.000000 31.25000 1.582795 0.495712 7.706132
75 0.000000 0.000000 36.88520 2.235967 0.657706 11.18425
76 0.000000 0.000000 43.10350 3.052312 0.859261 15.54112
77 0.000000 0.000000 50.00000 4.095906 1.116935 21.04252
78 0.000000 0.000000 57.69230 5.682751 1.508526 29.40689
79 0.000000 0.000000 66.32650 7.512562 1.960140 39.00012
80 0.000000 0.000000 76.08700 10.29081 2.646085 53.61050
81 0.000000 23.21970 77.89320 12.66425 6.130632 57.06619
82 0.000000 39.60160 100.0000 24.30964 14.59697 100.8548
83 0.000000 53.69440 100.0000 29.37157 24.10068 101.7291
84 1.938000 1.938000 1.938000 0.211161 0.218370 0.279291
85 2.941200 2.941200 2.941200 0.317886 0.329022 0.431655
86 3.968300 3.968300 3.968300 0.402049 0.413971 0.559664
87 5.020100 5.020100 5.020100 0.496649 0.508859 0.673373
88 6.097600 6.097600 6.097600 0.612121 0.644695 0.806986
89 7.201600 7.201600 7.201600 0.683709 0.701844 0.921822
90 8.333300 8.333300 8.333300 0.834173 0.871333 1.077003
91 9.493700 9.493700 9.493700 0.957255 1.001430 1.232850
92 2.941200 0.000000 0.000000 0.197352 0.167770 0.168116
93 11.90480 11.90480 11.90480 1.336796 1.414530 1.629392
94 13.15790 13.15790 13.15790 1.588765 1.642224 1.988610
95 14.44440 14.44440 14.44440 1.895306 1.998528 2.293903
96 15.76580 15.76580 15.76580 2.108923 2.213999 2.582895
97 17.12330 17.12330 17.12330 2.451362 2.579188 3.037114
98 18.51850 18.51850 18.51850 2.735229 2.857893 3.332805
99 19.95310 19.95310 19.95310 3.149702 3.286506 3.843488
100 21.42860 21.42860 21.42860 3.606138 3.773487 4.241420
101 22.94690 22.94690 22.94690 4.183169 4.439688 4.889897
102 24.50980 24.50980 24.50980 4.575561 4.787478 5.533457
103 26.11940 26.11940 26.11940 5.304988 5.581544 6.356427
104 27.77780 27.77780 27.77780 5.857948 6.127534 6.971744
105 29.48720 29.48720 29.48720 6.557196 6.883260 7.649923
106 31.25000 31.25000 31.25000 7.614076 7.982900 8.644983
107 33.06880 33.06880 33.06880 8.452515 8.916466 9.743333
108 34.94620 34.94620 34.94620 9.564615 10.16363 10.99660
109 36.88520 36.88520 36.88520 10.63523 11.25076 12.35593
110 38.88890 38.88890 38.88890 11.76478 12.38795 13.85550
111 40.96050 40.96050 40.96050 12.94903 13.57852 15.21979
112 43.10350 43.10350 43.10350 14.65839 15.38097 17.02653
113 45.32160 45.32160 45.32160 16.37707 17.09426 18.97740
114 47.61910 47.61910 47.61910 17.96032 18.80894 20.82181
115 50.00000 50.00000 50.00000 20.44410 21.58682 23.08582
116 52.46910 52.46910 52.46910 22.68134 23.87489 26.27232
117 55.03140 55.03140 55.03140 24.73013 26.15397 28.55237
118 57.69230 57.69230 57.69230 27.78508 29.14074 32.14307
119 60.45750 60.45750 60.45750 30.40640 31.82259 35.27370
120 63.33330 63.33330 63.33330 33.49336 35.01519 38.60265
121 66.32650 66.32650 66.32650 37.43157 39.34535 42.70920
122 69.44440 69.44440 69.44440 41.62959 43.99112 47.42106
123 72.69500 72.69500 72.69500 45.75616 48.06324 52.44866
124 76.08700 76.08700 76.08700 50.77040 53.43587 58.59815
125 79.62960 79.62960 79.62960 56.07497 58.90398 64.94498
126 83.33330 83.33330 83.33330 61.45568 64.68174 71.03184
127 87.20930 87.20930 87.20930 67.73559 71.55559 78.70739
128 16.15850 46.71180 38.05050 10.40660 14.74604 13.57481
129 20.82000 88.65280 44.91360 35.00122 59.08208 22.75047
130 23.16520 89.47120 63.86590 39.58138 61.20829 42.34105
131 76.08700 0.000000 0.000000 18.91613 9.848337 1.365628
132 86.14090 16.20260 11.86650 25.61633 14.52714 3.022586
133 88.00410 15.80430 77.09050 36.65455 17.37083 57.15207
134 100.0000 23.12620 100.0000 56.22366 26.50567 102.1509
135 33.66030 11.72020 35.38330 5.862475 3.307395 10.65084
136 33.62450 25.89610 36.30250 7.615436 6.420247 11.59032
137 51.06180 44.83690 36.24010 16.57827 17.24510 12.34974
138 57.51190 60.31020 37.01150 25.34001 30.22525 14.28936
139 76.17780 67.69710 41.21720 38.51563 42.58936 18.41724
140 0.000000 0.000000 0.000000 0.123508 0.130220 0.141471
141 0.000000 2.941200 0.000000 0.212800 0.282474 0.235198
142 13.72740 5.586400 23.51600 1.736789 0.971369 4.774359
143 71.49540 0.000000 54.91880 21.32970 9.786459 26.98730
144 89.52290 83.88600 63.50190 60.17667 66.48100 42.35066
145 100.0000 85.89040 84.07450 76.28942 75.18985 73.35757
146 17.52900 34.75970 16.31800 5.571684 8.501542 3.310858
147 23.54980 35.35260 26.37570 6.939965 9.151668 6.687655
148 22.72130 39.62300 87.54440 20.64045 14.12854 73.97475
149 32.52260 60.79330 100.0000 35.30710 31.08669 102.5477
150 58.78350 69.30770 100.0000 47.73424 44.17598 103.6335
151 58.32390 0.000000 31.88840 12.28828 6.022699 8.778009
152 82.39960 0.000000 40.83360 25.10312 12.34924 15.18910
153 100.0000 0.000000 59.81320 41.31536 19.82293 33.59453
154 100.0000 0.000000 82.76390 47.50646 21.34210 66.02894
155 0.000000 100.0000 85.33390 53.75233 80.12000 76.42512
156 40.85310 100.0000 85.70000 58.84715 82.65361 77.70979
157 0.000000 86.74250 100.0000 47.98348 59.33213 105.2044
158 0.000000 100.0000 100.0000 59.72738 81.58039 107.5107
159 100.0000 43.43610 0.000000 41.86444 30.58918 3.318737
160 100.0000 46.59510 25.45380 43.70310 32.56752 8.753019
161 100.0000 65.94810 63.99160 58.13191 49.99041 41.37253
162 0.000000 52.81840 55.49450 15.12987 19.98518 29.11899
163 20.62890 61.45860 67.38320 22.30521 27.73403 43.20249
164 21.72750 65.28790 84.64740 29.73270 33.04050 70.98537
165 21.44520 77.05160 86.02370 36.73571 45.67780 73.99464
166 84.43360 78.54830 100.0000 65.83254 60.92758 105.4862
167 23.69460 14.58050 30.15590 3.811642 2.723823 7.719586
168 64.77370 14.34830 29.36380 15.45150 8.778048 7.952686
169 78.07810 21.58040 45.40070 24.80633 14.07015 18.82097
170 28.65610 38.31280 8.937400 7.463650 10.63860 2.081672
171 34.19090 39.29430 23.47470 9.400197 11.69471 5.826548
172 32.73140 0.000000 66.77880 10.70136 3.577137 39.89228
173 43.38220 0.000000 100.0000 24.67611 7.685550 100.2052
174 81.99100 0.000000 100.0000 41.23719 16.27176 100.8881
175 100.0000 0.000000 0.000000 35.31693 18.32854 2.186427
176 100.0000 25.92740 0.000000 37.60413 22.56644 2.566349
177 100.0000 78.47260 0.000000 58.79898 62.76140 6.366601
178 53.69080 71.10220 18.11950 27.93874 39.87520 6.764691
179 67.63590 70.62860 28.90750 34.53654 43.02287 11.00053
180 67.32400 86.52390 38.93280 45.91293 62.89368 18.83369
181 17.15280 86.34790 28.66770 30.73169 54.86448 11.84846
182 0.000000 100.0000 28.38000 41.88259 77.24487 14.04730
183 0.000000 100.0000 48.42950 44.49795 77.87401 27.26795
184 0.000000 100.0000 66.92900 48.28003 78.77827 47.50220
185 87.07620 13.57010 33.29770 27.15966 14.60260 10.45793
186 87.41820 35.15640 43.68930 32.22053 21.78761 18.06942
187 51.78980 58.34920 0.000000 20.30281 27.14765 2.908147
188 76.90660 58.93240 0.000000 31.71619 33.34232 3.567393
189 100.0000 58.69380 0.000000 47.77273 41.80814 4.381036
190 14.82140 11.54200 41.16540 3.967661 2.076507 14.34697
191 25.82550 23.94420 53.57000 8.531469 5.731802 25.49978
192 29.30720 41.13040 52.88750 12.74544 13.23207 25.19885
193 27.08290 53.52070 67.06780 19.80631 22.00512 41.80910
194 41.68950 61.68500 67.90300 26.18229 29.73844 44.22337
195 0.000000 28.96390 35.58020 4.785871 5.647520 11.22911
196 0.000000 30.61900 46.67350 6.588944 6.647304 18.98391
197 0.000000 45.41450 57.53850 12.56135 14.45666 30.78518
198 0.000000 63.61710 77.03390 24.95205 29.86295 57.54092
199 0.000000 70.36670 100.0000 37.31140 39.10709 103.4438
200 40.10340 0.000000 49.95750 8.676605 3.492562 21.26948
201 53.45650 10.60340 49.93610 13.18756 6.403760 21.66951
202 66.90970 17.12000 64.71320 22.51706 11.21296 38.15076
203 82.76700 52.84460 66.52570 40.07562 32.39426 42.91763
204 14.62020 23.45470 11.70060 2.857778 4.005491 1.880602
205 27.40500 24.02130 11.37220 4.277208 4.741465 1.957682
206 57.71150 34.49730 10.53650 14.58034 13.12166 2.620369
207 61.67030 35.78630 23.36890 17.25334 14.71091 6.190307
208 65.42740 45.92610 37.67010 22.82281 20.90897 13.98950
209 76.38260 100.0000 86.21230 73.31282 90.09879 79.46167
210 0.000000 24.42700 18.18760 2.551075 3.852580 3.305987
211 0.000000 37.74640 22.73740 5.667883 9.247762 5.383659
212 76.05370 39.55220 50.81300 28.32549 20.75686 24.04616
213 86.39730 38.62180 61.12410 35.79174 23.70142 35.19871
214 100.0000 48.66320 60.89500 49.62846 35.31602 35.79794
215 17.12330 0.000000 0.000000 0.969909 0.559358 0.333390
216 21.42860 0.000000 0.000000 1.439944 0.803935 0.382339
217 28.17140 11.45130 0.000000 2.810204 2.186643 0.524783
218 39.03400 14.08580 12.76910 5.540934 3.835965 2.104703
219 48.20900 14.97520 23.19270 8.713841 5.415460 5.046004
220 68.38620 0.000000 19.06020 15.46727 7.918069 4.070663
221 80.62840 15.11870 21.31850 22.92403 12.86724 5.238557
222 100.0000 27.81880 24.21690 38.78523 23.31006 7.475436
223 0.000000 0.000000 2.941200 0.158936 0.140942 0.327882
224 0.000000 0.000000 6.097600 0.213889 0.155176 0.621959
225 19.89060 10.02700 5.826800 1.751268 1.517562 0.920697
226 70.22380 58.16110 43.43030 30.97538 31.83845 19.01316
227 87.57140 64.17120 52.35210 44.30444 42.10023 27.61074
228 49.37340 20.11270 0.000000 8.679669 6.327450 0.949295
229 73.29480 25.40280 0.000000 19.66788 13.14505 1.658915
230 89.39460 35.93830 10.27670 31.08845 22.18621 3.471229
231 90.45650 40.40020 80.28890 44.51023 27.42794 63.00897
232 20.88840 0.000000 16.17270 1.777654 0.870669 2.572612
233 23.86780 0.000000 36.08430 3.692631 1.444399 10.74927
234 27.24350 53.69620 35.63760 14.25613 20.95203 12.65824
235 54.90480 73.38770 56.74350 34.74052 44.22357 32.49150
236 73.26080 79.69600 63.73290 48.53829 56.17147 41.92571
237 38.22490 25.39290 0.000000 6.360522 6.244419 0.914149
238 48.36910 25.88710 20.49600 9.918472 8.003803 4.330803
239 60.62580 28.01210 36.03530 16.05815 11.20249 11.78730
240 0.000000 13.15790 0.000000 0.752596 1.282195 0.430584
241 12.46870 13.98730 6.877700 1.470934 1.765880 1.048638
242 39.53750 24.30840 27.91480 7.704242 6.347183 7.012745
243 49.98960 28.16170 64.43020 16.97457 10.44035 37.39610
244 54.04070 40.04210 85.73390 27.64984 18.06395 71.29362
245 80.67790 49.24790 87.90860 43.83511 30.56108 76.53611
246 79.84770 78.33530 89.32690 58.92941 58.53318 82.31931
247 91.26980 91.26980 91.26980 75.85027 79.75471 88.48917
248 36.94420 70.43860 0.000000 22.53076 37.16974 3.831728
249 58.61680 86.43800 12.38170 39.60532 59.77044 7.458793
250 59.21170 100.0000 0.000000 51.56632 82.56445 8.206940
251 77.83160 100.0000 37.04630 62.54301 87.69555 19.89188
252 78.17440 100.0000 61.55730 66.92676 88.76470 42.16950
253 20.36430 62.03680 25.44150 15.91655 26.59421 7.999504
254 45.35950 64.57370 35.64790 23.28424 32.27320 13.80523
255 57.97150 96.32850 87.80860 61.20425 78.04962 81.29243
256 79.68500 100.0000 100.0000 80.41687 92.31704 108.4307
257 100.0000 100.0000 100.0000 95.13095 100.0018 109.3908
258 0.000000 13.81920 24.48010 1.724240 1.610323 5.279123
259 0.000000 13.94360 36.78890 2.961435 1.999507 11.51492
260 58.67760 13.30130 40.48080 13.95396 7.446580 14.45473
261 65.51660 27.23540 52.09310 20.34036 12.56811 24.70900
262 70.93240 35.11620 66.45580 28.08380 18.42426 40.74918
263 70.91100 48.40860 72.42160 33.38588 25.74848 50.33649
264 11.69290 73.08160 42.00290 23.07801 38.39656 18.43373
265 41.63970 73.35290 48.66510 29.05599 41.64875 23.98543
266 45.93780 84.93850 64.49020 41.27561 57.94664 42.04735
267 0.000000 0.000000 100.0000 19.12769 4.811050 99.97778
268 0.000000 21.90470 100.0000 20.68313 7.742698 100.2672
269 100.0000 47.43540 100.0000 62.11908 37.61314 103.3033
270 100.0000 67.57660 100.0000 71.06303 54.74300 105.0383
271 0.000000 13.20320 14.83930 1.124169 1.374869 2.402739
272 10.56730 23.52440 24.21460 3.275050 4.022332 5.476986
273 23.79340 31.18460 38.91590 7.267513 7.558155 13.37974
274 46.83590 51.57510 38.67420 18.28208 21.67967 14.79822
275 47.48260 51.57860 71.14310 24.96085 23.40384 48.15828
276 0.000000 17.50680 55.38780 6.234737 3.373380 26.95338
277 0.000000 29.04290 56.20000 8.047168 6.454158 28.30975
278 0.000000 38.15260 77.40850 15.51846 11.83037 56.59024
279 0.000000 50.42790 77.12130 19.62206 19.55007 57.44917
280 0.000000 0.000000 0.000000 0.123749 0.130455 0.141914
281 40.62060 0.000000 15.69180 5.266724 2.683992 2.663956
282 55.11820 9.597300 15.65130 10.10235 5.679582 2.988268
283 87.42360 15.45080 58.36660 31.57736 15.99502 31.51221
284 89.17470 72.62650 81.65810 57.47279 53.42306 67.20754
285 18.86560 10.15020 58.06800 7.118077 2.825554 29.57645
286 19.82280 15.81550 77.57230 12.67479 4.931759 55.98988
287 27.21750 30.03240 88.54040 19.33954 10.20809 75.77682
288 39.19350 89.25240 100.0000 54.59483 65.70343 106.0024
289 47.56800 100.0000 100.0000 66.46661 85.07701 107.7303
290 0.000000 87.20930 0.000000 29.28366 55.30290 5.543717
291 0.000000 100.0000 0.000000 40.71364 76.92664 7.608505
292 34.27200 100.0000 0.000000 43.99586 78.68028 7.788750
293 45.74600 100.0000 46.05840 50.36596 81.00853 25.55106
294 42.53890 40.01260 14.41840 10.95077 12.89102 3.358085
295 57.15720 46.56890 27.15020 18.45392 19.27161 7.935462
296 73.71130 49.98490 26.55350 27.44404 25.80139 8.419439
297 100.0000 100.0000 30.09380 77.38874 95.72895 16.78977
298 100.0000 100.0000 52.68670 80.71969 96.54297 33.55494
299 100.0000 100.0000 73.03580 85.35068 97.59337 58.54723
300 0.000000 75.36080 52.37410 25.61165 40.92555 27.93524
301 0.000000 75.65880 71.86890 30.43906 42.62343 51.06569
302 17.42660 86.99130 75.03130 39.95757 58.16026 57.25888
303 22.47550 87.85760 87.12620 44.97851 60.48922 77.54948
304 37.45160 52.23400 44.13720 16.75293 20.90517 18.44671
305 45.46610 51.94860 59.68340 21.43751 22.32919 33.16292
306 67.25490 55.49710 60.20560 31.56205 29.91315 35.16767
307 85.81810 65.84900 66.45450 47.25986 44.07738 43.23038
308 100.0000 0.000000 40.37760 37.93582 18.99193 15.64170
309 100.0000 26.94420 56.20050 42.91916 24.08174 30.16867
310 100.0000 27.68060 75.27370 47.61443 25.47770 54.21662
311 55.99930 31.35410 44.80140 16.08989 11.93541 17.92699
312 61.15260 44.36680 57.69320 24.00361 19.95461 31.27948
313 0.000000 54.58830 28.46170 11.72203 20.07603 8.550071
314 26.79030 64.78990 49.73870 21.12727 30.53505 23.95514
315 63.83640 76.75030 49.34640 38.75942 49.31492 25.47811
316 85.85780 87.23680 52.87920 57.94117 68.93145 30.72381
317 0.000000 43.10350 0.000000 6.339865 11.83023 1.415330
318 16.60170 46.06590 17.61570 8.394489 13.86967 4.099734
319 23.98640 46.92080 71.18200 17.84359 17.06592 47.55786
320 26.76860 48.50520 85.83600 23.38587 19.62131 71.38499
321 51.27660 84.29510 87.60420 49.24911 59.24469 78.51927
322 0.000000 74.64700 30.35670 22.28433 39.58337 11.25423
323 39.82960 79.30710 30.68780 29.67488 47.45647 12.25044
324 51.75180 79.64490 71.23900 40.95042 51.75971 50.96331
325 66.17290 82.68820 80.26880 51.39135 59.24620 65.81437
326 0.000000 0.000000 87.20930 13.81400 3.504272 72.05245
327 52.13370 9.980300 87.61450 22.64559 8.553781 73.58645
328 70.07110 25.32030 100.0000 37.04620 16.99177 101.2283
329 13.76730 21.91500 33.11900 3.921188 3.780808 9.289874
330 19.93420 23.16150 42.68040 5.874107 4.758817 15.74657
331 36.95470 34.68950 52.41930 12.52193 10.85636 24.94002
332 35.60740 67.34780 64.63450 27.43177 35.11977 40.34848
333 56.15980 74.11770 83.82590 42.68881 46.81477 70.22665
334 0.000000 38.19680 37.23500 7.135979 9.753040 12.62391
335 19.62340 42.38330 48.19080 10.87926 12.89945 20.85446
336 28.56780 51.58750 51.25090 15.88717 19.88129 24.35162
337 63.24690 63.24990 52.73890 31.33486 34.50321 27.32848
338 67.80520 40.19330 0.000000 19.95367 17.69896 2.067982
339 86.77400 47.11980 14.84040 32.46862 26.96735 4.954407
340 88.65370 58.87080 14.04000 38.46712 36.71018 5.598155
341 100.0000 62.19580 27.19640 50.54932 45.11526 10.48405
342 100.0000 79.82360 28.52650 60.99454 64.93967 12.96526
343 100.0000 81.82490 50.44450 65.14141 68.17824 28.24515
344 28.85870 45.65970 0.000000 9.359234 14.37063 1.662289
345 30.02930 61.77560 13.26420 16.56631 27.19114 4.416362
346 28.85870 86.95720 14.38470 32.02954 56.63547 7.500291
347 100.0000 88.48120 100.0000 84.89894 80.81497 107.6408
348 0.000000 0.000000 0.000000 0.124032 0.130457 0.142365
349 6.097600 0.000000 0.000000 0.299931 0.219274 0.202012
350 22.06040 26.41120 69.11830 11.91169 7.066140 43.81289
351 51.80040 27.06710 86.16740 23.99718 12.00753 71.77575
352 72.99700 43.00680 100.0000 42.57985 25.47845 102.0783
353 15.04820 13.73360 22.88650 2.283168 1.933598 4.668751
354 27.16340 15.86380 22.43280 3.750634 2.973917 4.553912
355 45.22590 33.26360 21.15950 10.50470 10.39734 4.904633
356 49.09370 37.40860 38.25900 14.22074 13.17487 13.69470
357 65.94280 44.70140 48.60140 24.26816 20.74201 22.01585
358 67.86240 60.79850 73.01440 37.02184 34.65446 52.19628
359 87.59030 62.16770 84.82090 51.85382 42.49101 71.86185
360 29.46430 7.731800 13.47470 3.096859 1.970740 2.034105
361 31.79930 13.46450 49.03730 7.478232 3.742395 20.62992
362 46.10410 14.02760 65.43160 14.46945 6.574067 38.87418
363 0.000000 57.62720 47.59650 15.52653 23.28987 21.26923
364 17.17360 66.52250 58.91490 23.03077 32.72603 33.62037
365 84.24040 74.40440 65.76540 51.37722 53.20511 43.51379
366 100.0000 82.43320 67.48330 69.18702 69.68909 47.51908
367 64.29050 54.55660 50.04350 27.55702 27.57984 23.72760
368 66.31460 58.78970 83.97170 38.71229 33.53511 69.00832
369 73.71370 59.10750 100.0000 49.23328 37.53352 103.2350
370 100.0000 50.18650 79.27150 55.24575 37.87489 61.96429
371 100.0000 68.81050 82.23360 64.88660 54.16507 69.21864
372 100.0000 100.0000 100.0000 95.00696 99.95475 109.3919
373 9.493700 0.000000 0.000000 0.434255 0.287661 0.238299
374 13.15790 0.000000 0.000000 0.683189 0.414660 0.290948
375 16.08880 12.46470 0.000000 1.457688 1.592376 0.460127
376 47.71950 41.03370 0.000000 12.67229 14.43916 1.705476
377 62.04390 49.95010 16.97110 21.04543 22.62074 4.870428
378 70.88130 60.74260 16.52620 29.89066 33.36023 5.779826
379 80.91890 91.37380 19.75130 54.38879 72.56810 10.41654
380 85.65320 92.26590 81.32990 69.06892 78.38363 69.82562
381 95.52850 95.52850 95.52850 85.29661 89.11738 98.79814
382 0.000000 6.097600 0.000000 0.349657 0.531446 0.323373
383 0.000000 9.493700 0.000000 0.497983 0.803754 0.375690
384 10.68380 10.68380 10.68380 1.129599 1.167224 1.420504
385 31.97050 21.62700 16.83150 5.027040 4.576597 3.095119
386 87.65140 77.91440 14.21220 48.54692 56.70082 7.494612
387 88.97140 83.73770 36.55470 55.25952 65.23286 17.38693
388 46.80590 40.57510 49.78420 15.96600 14.64896 22.39852
389 51.36580 40.57430 64.91800 20.64664 16.21914 39.23134
390 50.47820 51.06840 85.73670 30.10700 24.56743 71.89330
391 54.68280 65.86480 85.81760 38.09471 37.60770 73.31025
