GPD/GPD Win (1st gen)/36865 #1 2019-06-14 15-10 0.3127x 0.329y sRGB F-S XYZLUT+MTX/36865 #1 2019-06-14 15-10 0.3127x 0.329y sRGB F-S XYZLUT+MTX.cal
CAL    

DESCRIPTOR "Argyll Device Calibration Curves"
ORIGINATOR "Argyll dispcal"
CREATED "Fri Jun 14 15:18:11 2019"
DEVICE_CLASS "DISPLAY"
COLOR_REP "RGB"
VIDEO_LUT_CALIBRATION_POSSIBLE "YES"
TV_OUTPUT_ENCODING "NO"
DEVICE_TYPE "n"
TARGET_WHITE_XYZ "68.409037 71.974970 78.384899"
TARGET_GAMMA "sRGB"
DEGREE_OF_BLACK_OUTPUT_OFFSET "1.0"
BLACK_POINT_CORRECTION "0.0"
BLACK_NEUTRAL_BLEND_RATE "4.0"
BLACK_POINT_HACK "YES"
QUALITY "low"

BEGIN_ARGYLL_DISPCAL_ARGS
-v2 -d1 -c1 -yn -P0.50234741784,0.5,1.0 -ql -m -w0.3127,0.329 -gs -f1.0 -k0 -A4.0 -b
END_ARGYLL_DISPCAL_ARGS


NUMBER_OF_FIELDS 4
BEGIN_DATA_FORMAT
RGB_I RGB_R RGB_G RGB_B
END_DATA_FORMAT

NUMBER_OF_SETS 256
BEGIN_DATA
0.00000000 0.00000000 0.00000000 0.00000000
0.00392157 0.00892578 0.00851056 0.01161880
0.00784314 0.01687570 0.01603590 0.02080300
0.01176470 0.02400150 0.02273780 0.02824590
0.01568630 0.03042500 0.02874430 0.03442180
0.01960780 0.03624410 0.03415800 0.03965550
0.02352940 0.04154410 0.03905930 0.04421120
0.02745100 0.04642760 0.04354220 0.04830100
0.03137250 0.05098150 0.04769850 0.05206150
0.03529410 0.05526950 0.05159840 0.05558730
0.03921570 0.05935650 0.05529920 0.05894320
0.04313730 0.06328690 0.05884790 0.06216430
0.04705880 0.06710310 0.06228120 0.06529120
0.05098040 0.07084320 0.06562480 0.06835410
0.05490200 0.07452200 0.06890120 0.07136360
0.05882350 0.07814430 0.07213810 0.07433350
0.06274510 0.08171040 0.07533950 0.07726640
0.06666670 0.08522320 0.07850200 0.08016890
0.07058820 0.08868280 0.08163150 0.08304740
0.07450980 0.09210130 0.08473750 0.08589750
0.07843140 0.09548510 0.08781290 0.08873080
0.08235290 0.09883290 0.09086630 0.09155880
0.08627450 0.10216000 0.09389280 0.09436470
0.09019610 0.10546200 0.09688660 0.09714030
0.09411760 0.10873200 0.09986400 0.09990130
0.09803920 0.11198200 0.10283400 0.10265800
0.10196100 0.11520900 0.10578700 0.10540700
0.10588200 0.11841000 0.10871900 0.10813600
0.10980400 0.12158200 0.11163500 0.11084400
0.11372500 0.12474400 0.11454400 0.11352400
0.11764700 0.12790400 0.11743700 0.11617700
0.12156900 0.13105200 0.12031300 0.11881100
0.12549000 0.13419000 0.12316800 0.12142200
0.12941200 0.13731300 0.12601100 0.12401000
0.13333300 0.14042400 0.12886200 0.12658400
0.13725500 0.14353600 0.13171800 0.12913800
0.14117600 0.14664800 0.13457100 0.13169000
0.14509800 0.14975400 0.13743100 0.13425000
0.14902000 0.15286000 0.14030000 0.13682300
0.15294100 0.15596900 0.14316200 0.13941500
0.15686300 0.15907800 0.14602500 0.14201600
0.16078400 0.16220100 0.14889800 0.14462800
0.16470600 0.16535100 0.15178600 0.14725900
0.16862700 0.16853100 0.15469100 0.14990700
0.17254900 0.17173500 0.15761200 0.15255900
0.17647100 0.17495800 0.16055100 0.15523200
0.18039200 0.17820000 0.16351700 0.15793700
0.18431400 0.18147100 0.16649500 0.16067000
0.18823500 0.18476600 0.16946600 0.16343500
0.19215700 0.18805700 0.17244200 0.16623900
0.19607800 0.19135800 0.17543700 0.16906000
0.20000000 0.19468900 0.17846600 0.17189900
0.20392200 0.19807800 0.18153200 0.17475100
0.20784300 0.20153400 0.18462600 0.17762300
0.21176500 0.20506600 0.18774400 0.18051800
0.21568600 0.20866700 0.19089100 0.18342600
0.21960800 0.21234100 0.19406900 0.18629900
0.22352900 0.21607800 0.19729100 0.18914200
0.22745100 0.21988100 0.20055900 0.19197900
0.23137300 0.22375700 0.20384000 0.19480900
0.23529400 0.22768200 0.20711600 0.19765500
0.23921600 0.23163900 0.21041800 0.20055200
0.24313700 0.23563300 0.21374900 0.20350600
0.24705900 0.23965100 0.21710100 0.20653000
0.25098000 0.24369000 0.22049900 0.20958400
0.25490200 0.24775400 0.22395500 0.21265500
0.25882400 0.25184600 0.22747000 0.21574700
0.26274500 0.25596300 0.23101300 0.21887200
0.26666700 0.26007000 0.23457300 0.22199800
0.27058800 0.26415800 0.23814900 0.22513000
0.27451000 0.26824100 0.24174600 0.22827800
0.27843100 0.27230800 0.24534700 0.23146200
0.28235300 0.27636600 0.24896500 0.23467700
0.28627500 0.28043700 0.25261300 0.23789300
0.29019600 0.28454700 0.25630800 0.24109800
0.29411800 0.28869900 0.26003800 0.24430400
0.29803900 0.29285900 0.26376900 0.24753200
0.30196100 0.29701900 0.26750300 0.25078400
0.30588200 0.30120600 0.27125900 0.25404600
0.30980400 0.30543700 0.27504100 0.25732200
0.31372500 0.30971800 0.27884300 0.26060700
0.31764700 0.31404600 0.28264000 0.26389400
0.32156900 0.31844700 0.28644800 0.26718200
0.32549000 0.32290800 0.29026100 0.27047300
0.32941200 0.32741000 0.29406700 0.27380800
0.33333300 0.33194600 0.29786500 0.27717000
0.33725500 0.33655000 0.30169200 0.28052500
0.34117600 0.34118500 0.30555100 0.28387200
0.34509800 0.34584000 0.30942800 0.28720800
0.34902000 0.35051300 0.31332400 0.29054100
0.35294100 0.35521000 0.31724800 0.29387400
0.35686300 0.35991900 0.32120000 0.29721400
0.36078400 0.36465100 0.32518900 0.30053900
0.36470600 0.36936800 0.32921000 0.30387100
0.36862700 0.37406900 0.33321900 0.30725700
0.37254900 0.37879700 0.33724300 0.31068800
0.37647100 0.38354300 0.34129400 0.31415800
0.38039200 0.38830100 0.34535600 0.31770400
0.38431400 0.39308600 0.34945500 0.32136800
0.38823500 0.39793300 0.35362800 0.32516100
0.39215700 0.40283300 0.35789100 0.32902900
0.39607800 0.40765700 0.36221200 0.33285800
0.40000000 0.41234600 0.36648200 0.33665600
0.40392200 0.41693200 0.37070500 0.34044600
0.40784300 0.42143400 0.37491900 0.34424800
0.41176500 0.42584800 0.37912700 0.34804700
0.41568600 0.43017200 0.38331400 0.35186700
0.41960800 0.43442600 0.38750600 0.35570900
0.42352900 0.43860400 0.39170000 0.35960000
0.42745100 0.44272700 0.39590700 0.36355800
0.43137300 0.44681600 0.40015000 0.36749100
0.43529400 0.45083100 0.40436500 0.37139800
0.43921600 0.45476800 0.40853300 0.37530800
0.44313700 0.45865300 0.41267600 0.37921600
0.44705900 0.46250100 0.41680200 0.38311500
0.45098000 0.46630700 0.42088100 0.38702300
0.45490200 0.47009000 0.42492700 0.39094900
0.45882400 0.47386400 0.42893000 0.39488500
0.46274500 0.47763200 0.43289300 0.39883100
0.46666700 0.48140200 0.43681300 0.40278600
0.47058800 0.48516600 0.44069200 0.40675200
0.47451000 0.48891800 0.44453100 0.41078200
0.47843100 0.49265900 0.44833100 0.41477100
0.48235300 0.49638800 0.45212900 0.41868700
0.48627500 0.50011800 0.45591200 0.42253500
0.49019600 0.50386200 0.45964000 0.42631700
0.49411800 0.50759300 0.46331000 0.43004100
0.49803900 0.51129800 0.46692400 0.43370200
0.50196100 0.51497500 0.47049000 0.43728300
0.50588200 0.51862500 0.47401300 0.44076200
0.50980400 0.52226500 0.47749100 0.44418200
0.51372500 0.52590100 0.48093300 0.44753500
0.51764700 0.52952700 0.48432500 0.45081300
0.52156900 0.53313900 0.48769200 0.45403400
0.52549000 0.53673400 0.49103800 0.45721000
0.52941200 0.54030100 0.49433100 0.46035800
0.53333300 0.54384300 0.49757800 0.46350000
0.53725500 0.54736100 0.50080500 0.46663900
0.54117600 0.55082900 0.50401800 0.46972900
0.54509800 0.55424300 0.50722400 0.47276000
0.54902000 0.55760800 0.51043800 0.47575100
0.55294100 0.56093200 0.51366100 0.47871900
0.55686300 0.56421000 0.51685600 0.48166200
0.56078400 0.56746000 0.52001400 0.48457700
0.56470600 0.57068600 0.52314100 0.48747400
0.56862700 0.57388600 0.52623900 0.49036600
0.57254900 0.57703500 0.52930400 0.49324200
0.57647100 0.58012900 0.53232600 0.49610100
0.58039200 0.58318500 0.53531700 0.49894800
0.58431400 0.58621000 0.53828100 0.50179700
0.58823500 0.58921100 0.54123800 0.50463200
0.59215700 0.59218200 0.54418300 0.50746100
0.59607800 0.59512600 0.54711400 0.51031200
0.60000000 0.59804600 0.55003400 0.51317800
0.60392200 0.60096400 0.55295100 0.51605300
0.60784300 0.60389700 0.55584900 0.51893300
0.61176500 0.60684300 0.55872600 0.52182700
0.61568600 0.60980200 0.56158900 0.52474400
0.61960800 0.61277600 0.56444400 0.52769800
0.62352900 0.61577200 0.56728700 0.53070700
0.62745100 0.61878700 0.57011200 0.53378400
0.63137300 0.62181900 0.57291700 0.53693400
0.63529400 0.62487100 0.57571000 0.54015900
0.63921600 0.62795400 0.57849400 0.54345900
0.64313700 0.63106500 0.58128200 0.54669200
0.64705900 0.63419700 0.58408300 0.54978100
0.65098000 0.63734000 0.58691000 0.55273500
0.65490200 0.64050400 0.58976700 0.55556500
0.65882400 0.64368700 0.59265400 0.55828400
0.66274500 0.64688700 0.59557200 0.56091900
0.66666700 0.65011000 0.59852000 0.56349000
0.67058800 0.65337100 0.60144800 0.56601100
0.67451000 0.65668200 0.60431400 0.56849900
0.67843100 0.66005000 0.60713400 0.57095600
0.68235300 0.66347700 0.60991000 0.57339400
0.68627500 0.66697700 0.61264300 0.57581300
0.69019600 0.67049700 0.61534700 0.57820900
0.69411800 0.67397400 0.61803100 0.58058700
0.69803900 0.67740700 0.62070900 0.58295700
0.70196100 0.68080000 0.62339300 0.58532500
0.70588200 0.68416500 0.62609300 0.58769200
0.70980400 0.68752600 0.62881100 0.59007000
0.71372500 0.69090500 0.63155000 0.59246700
0.71764700 0.69431300 0.63430500 0.59486900
0.72156900 0.69774700 0.63706900 0.59727400
0.72549000 0.70120400 0.63984300 0.59969900
0.72941200 0.70469500 0.64263300 0.60213500
0.73333300 0.70821500 0.64544700 0.60457800
0.73725500 0.71175500 0.64828200 0.60702800
0.74117600 0.71532100 0.65114900 0.60948400
0.74509800 0.71892600 0.65404300 0.61197000
0.74902000 0.72256700 0.65693800 0.61447300
0.75294100 0.72624600 0.65984000 0.61699000
0.75686300 0.72996400 0.66275500 0.61952200
0.76078400 0.73368800 0.66568000 0.62206100
0.76470600 0.73744100 0.66861700 0.62460700
0.76862700 0.74122300 0.67157100 0.62716400
0.77254900 0.74503200 0.67456200 0.62971800
0.77647100 0.74887600 0.67757400 0.63227100
0.78039200 0.75276400 0.68059600 0.63483500
0.78431400 0.75667000 0.68363000 0.63741200
0.78823500 0.76058600 0.68667600 0.63999900
0.79215700 0.76452100 0.68974300 0.64260900
0.79607800 0.76848200 0.69282500 0.64525600
0.80000000 0.77247200 0.69591100 0.64795700
0.80392200 0.77648900 0.69900800 0.65071600
0.80784300 0.78054600 0.70213100 0.65350800
0.81176500 0.78465000 0.70528900 0.65627200
0.81568600 0.78879800 0.70849300 0.65900200
0.81960800 0.79300600 0.71175900 0.66170500
0.82352900 0.79730600 0.71509800 0.66440400
0.82745100 0.80169900 0.71851100 0.66710400
0.83137300 0.80607000 0.72194000 0.66981600
0.83529400 0.81036600 0.72534800 0.67253500
0.83921600 0.81460600 0.72873900 0.67525600
0.84313700 0.81882500 0.73212900 0.67797500
0.84705900 0.82305100 0.73553400 0.68071300
0.85098000 0.82728800 0.73896400 0.68347600
0.85490200 0.83153200 0.74241400 0.68626300
0.85882400 0.83579000 0.74587900 0.68906000
0.86274500 0.84007900 0.74937500 0.69188400
0.86666700 0.84440600 0.75291900 0.69475300
0.87058800 0.84875300 0.75651500 0.69767500
0.87451000 0.85312100 0.76015800 0.70061700
0.87843100 0.85751800 0.76387300 0.70355700
0.88235300 0.86190700 0.76768500 0.70650600
0.88627500 0.86626300 0.77156800 0.70949000
0.89019600 0.87061900 0.77548400 0.71251500
0.89411800 0.87499800 0.77945000 0.71560400
0.89803900 0.87941200 0.78349500 0.71876000
0.90196100 0.88385900 0.78764000 0.72199800
0.90588200 0.88834800 0.79188400 0.72530300
0.90980400 0.89286300 0.79624700 0.72860900
0.91372500 0.89736800 0.80069600 0.73192700
0.91764700 0.90189300 0.80517500 0.73527800
0.92156900 0.90645600 0.80970400 0.73868100
0.92549000 0.91106000 0.81429500 0.74213800
0.92941200 0.91565500 0.81892800 0.74562600
0.93333300 0.92024200 0.82354800 0.74915900
0.93725500 0.92484700 0.82814900 0.75274200
0.94117600 0.92946400 0.83270400 0.75634500
0.94509800 0.93409600 0.83719300 0.75998200
0.94902000 0.93872400 0.84161900 0.76362600
0.95294100 0.94336400 0.84598500 0.76728000
0.95686300 0.94801500 0.85029600 0.77095200
0.96078400 0.95267700 0.85456300 0.77465500
0.96470600 0.95734800 0.85880000 0.77838200
0.96862700 0.96203400 0.86302800 0.78213500
0.97254900 0.96673400 0.86725600 0.78592500
0.97647100 0.97145000 0.87149000 0.78975100
0.98039200 0.97618000 0.87573100 0.79361800
0.98431400 0.98092400 0.87998000 0.79752600
0.98823500 0.98568100 0.88423600 0.80147500
0.99215700 0.99045100 0.88850000 0.80546700
0.99607800 0.99523500 0.89277100 0.80950200
1.00000000 1.00000000 0.89705000 0.81358000
END_DATA
CAL    

DESCRIPTOR "Argyll Calibration options and model"
ORIGINATOR "Argyll dispcal"
CREATED "Fri Jun 14 15:18:11 201"

NUMBER_OF_FIELDS 3
BEGIN_DATA_FORMAT
R_P G_P B_P
END_DATA_FORMAT

NUMBER_OF_SETS 32
BEGIN_DATA
-0.000244680 0.000444901 0.001424650
1.000245000 0.999555000 0.998575000
1.615723000 1.490000000 1.485982000
0.567906000 0.595960000 0.653190000
0.166661000 0.197243000 0.137303000
0.052697900 0.138364000 0.113381000
0.047077400 0.007911840 0.070096100
0.089489600 0.049324200 0.075265700
0.053722000 0.057556400 0.062591600
0.038711500 0.048163200 0.064233800
0.040030000 0.052314000 0.052663100
0.038028200 0.053060200 0.053609800
0.039152400 0.042671000 0.051911300
0.036142800 0.041540400 0.046266100
0.025477800 0.037604800 0.044081000
0.038178800 0.040065100 0.043561600
0.027777700 0.038460600 0.040587000
0.026303500 0.038774600 0.037826700
0.027194900 0.035451100 0.037624100
0.023989800 0.033416900 0.037805300
0.026637700 0.036264200 0.035558500
0.021811900 0.030825200 0.034892200
0.019279600 0.028294300 0.034970100
0.018689400 0.026263100 0.034792000
0.015727100 0.028587500 0.029517000
0.015349900 0.027942400 0.028876700
0.012493900 0.026260500 0.024990400
0.010741500 0.027432300 0.027049800
0.011610700 0.028188600 0.023755700
0.011758200 0.026146000 0.026234700
0.011819700 0.022326500 0.028466900
0.013322300 0.026079700 0.025907500
END_DATA
