GPD/GPD Win (1st gen)/36865 #1 2019-06-14 15-10 0.3127x 0.329y sRGB F-S XYZLUT+MTX/36865 #1 2019-06-14 15-10 0.3127x 0.329y sRGB F-S XYZLUT+MTX.ti1
CTI1   

DESCRIPTOR "Argyll Calibration Target chart information 1"
ORIGINATOR "Argyll targen"
CREATED "Fri Jun 14 14:15:07 2019"
SINGLE_DIM_STEPS "17"
COMP_GREY_STEPS "49"
DARK_REGION_EMPHASIS "1.6"
COLOR_REP "RGB"
TARGET_INSTRUMENT "X-Rite i1 DisplayPro, ColorMunki Display"
DISPLAY_TYPE_REFRESH "NO"
DISPLAY_TYPE_BASE_ID "1"
INSTRUMENT_TYPE_SPECTRAL "NO"
NORMALIZED_TO_Y_100 "YES"
VIDEO_LUT_CALIBRATION_POSSIBLE "YES"
OBSERVER "1931_2"
USE_BLACK_POINT_COMPENSATION "NO"
BLACK_POINT_CORRECTION "0.0"
HIRES_B2A "YES"
HIRES_B2A_SIZE "-1"
SMOOTH_B2A "YES"
PATCH_SEQUENCE "OPTIMIZE_DISPLAY_RESPONSE_DELAY"

NUMBER_OF_FIELDS 7
BEGIN_DATA_FORMAT
SAMPLE_ID RGB_R RGB_G RGB_B XYZ_X XYZ_Y XYZ_Z
END_DATA_FORMAT

NUMBER_OF_SETS 417
BEGIN_DATA
1 100.0000 100.0000 100.0000 96.02050 100.0000 113.0233
2 1.960800 1.960800 1.960800 0.230428 0.227130 0.418071
3 3.921600 3.921600 3.921600 0.450452 0.458156 0.674916
4 5.882400 5.882400 5.882400 0.668830 0.677379 0.965428
5 9.803900 9.803900 9.803900 1.217584 1.289636 1.577273
6 13.72600 13.72600 13.72600 2.043834 2.127642 2.544538
7 17.64700 17.64700 17.64700 3.242563 3.395921 3.902442
8 21.56900 21.56900 21.56900 4.617298 4.893475 5.206731
9 25.49000 25.49000 25.49000 6.251822 6.546070 7.334020
10 29.41200 29.41200 29.41200 8.325871 8.755899 9.641871
11 33.33300 33.33300 33.33300 10.64033 11.30339 11.94719
12 37.25500 37.25500 37.25500 13.33632 14.03065 15.46290
13 41.17600 41.17600 41.17600 16.23745 17.04836 18.98752
14 45.09800 45.09800 45.09800 20.03087 21.08333 22.76150
15 49.02000 49.02000 49.02000 24.12339 25.32667 27.87474
16 52.94100 52.94100 52.94100 28.23958 29.88191 32.38562
17 56.86300 56.86300 56.86300 33.21872 34.99697 37.68276
18 60.78400 60.78400 60.78400 39.31863 41.43034 44.98750
19 64.70600 64.70600 64.70600 44.39749 46.63725 51.17547
20 68.62700 68.62700 68.62700 49.45965 51.95304 56.82173
21 72.54900 72.54900 72.54900 54.47720 57.61231 62.41631
22 76.47100 76.47100 76.47100 58.71119 61.91100 68.05765
23 80.39200 80.39200 80.39200 61.83340 64.61132 72.79287
24 84.31400 84.31400 84.31400 70.02377 73.82747 82.68782
25 88.23500 88.23500 88.23500 77.77093 82.15818 91.06431
26 92.15700 92.15700 92.15700 84.34030 89.02945 99.12444
27 96.07800 96.07800 96.07800 94.14468 98.80931 109.6692
28 27.66030 12.68350 92.73190 18.22904 5.971579 82.54408
29 38.42000 27.61170 100.0000 29.56903 11.79481 125.3636
30 42.57730 47.77910 100.0000 38.77791 23.61891 138.8284
31 14.93840 36.43700 57.92020 12.12920 11.19546 35.23982
32 28.40750 36.74820 67.93620 16.02287 12.30189 48.12644
33 31.45360 60.08000 87.15320 29.26456 29.07279 74.75580
34 37.86010 77.40060 100.0000 46.86359 45.25447 126.2442
35 75.13330 88.89100 100.0000 61.55187 59.17709 118.6756
36 21.99260 36.17830 35.46260 8.698915 10.69560 12.41626
37 60.03410 36.34800 34.24440 19.60135 16.02024 10.51042
38 85.30990 48.06370 34.20270 30.43867 24.92877 9.996953
39 100.0000 47.69860 44.88380 42.99779 29.19238 14.60013
40 26.11940 0.000000 0.000000 2.465295 1.343616 0.538331
41 28.68270 0.000000 0.000000 2.707749 1.467177 0.491272
42 31.25000 0.000000 0.000000 3.366828 1.795019 0.483211
43 36.88520 0.000000 0.000000 4.517653 2.391355 0.546227
44 43.10350 0.000000 0.000000 6.371768 3.351954 0.647341
45 50.00000 0.000000 0.000000 8.973002 4.698345 0.790989
46 57.69230 0.000000 0.000000 12.04736 6.284875 0.960876
47 66.32650 0.000000 0.000000 16.04922 8.361398 1.177172
48 87.20930 0.000000 0.000000 22.30502 11.59909 1.505076
49 100.0000 0.000000 22.24980 35.85712 18.48731 4.441223
50 100.0000 28.21660 40.73130 41.13741 23.46054 12.00909
51 49.04440 52.99000 16.16290 19.90224 25.69756 5.068008
52 47.79410 100.0000 26.69110 62.72292 108.5846 15.92928
53 100.0000 100.0000 89.27580 131.3252 149.8575 90.96267
54 100.0000 100.0000 100.0000 157.8120 166.1470 181.3725
55 0.000000 17.12330 0.000000 1.327561 2.270512 0.745218
56 0.000000 21.42860 0.000000 1.895267 3.372122 0.769979
57 0.000000 26.11940 0.000000 2.508741 4.595996 0.745331
58 0.000000 31.25000 0.000000 3.794706 7.034551 0.947436
59 0.000000 36.88520 0.000000 5.275600 9.836160 1.209418
60 0.000000 46.63690 0.000000 8.902462 16.67960 1.854594
61 0.000000 50.00000 0.000000 10.59854 19.88513 2.151588
62 0.000000 57.69230 0.000000 14.18886 26.68208 2.796368
63 0.000000 66.32650 0.000000 19.63041 36.93953 3.760941
64 0.000000 76.08700 0.000000 24.73343 46.78301 4.695389
65 69.82990 77.32920 0.000000 42.90389 57.33300 5.786430
66 83.10360 100.0000 0.000000 60.62831 91.73452 9.043606
67 100.0000 100.0000 0.000000 76.57579 96.01322 9.451651
68 0.957900 0.957900 0.957900 0.163511 0.156919 0.335345
69 0.000000 0.000000 9.493700 0.314015 0.167145 1.284562
70 0.000000 0.000000 13.15790 0.460378 0.204984 2.057608
71 0.000000 0.000000 17.12330 0.649528 0.253042 3.049587
72 0.000000 0.000000 21.42860 0.961420 0.331852 4.674600
73 0.000000 0.000000 26.11940 1.302452 0.417149 6.466350
74 0.000000 0.000000 31.25000 1.783772 0.537516 8.994557
75 0.000000 0.000000 36.88520 2.474638 0.709735 12.62251
76 0.000000 0.000000 43.10350 3.498171 0.963166 17.99001
77 0.000000 0.000000 50.00000 4.988820 1.331810 25.84074
78 0.000000 0.000000 57.69230 6.846985 1.792960 35.60836
79 0.000000 0.000000 66.32650 9.425674 2.429317 49.10577
80 0.000000 0.000000 76.08700 12.36296 3.156263 64.53494
81 0.000000 23.21970 77.89320 14.64536 6.540551 67.79474
82 0.000000 39.60160 100.0000 25.11970 12.83592 111.2547
83 0.000000 53.69440 100.0000 29.76459 20.16749 116.7196
84 1.938000 1.938000 1.938000 0.276298 0.267841 0.508851
85 2.941200 2.941200 2.941200 0.303702 0.306163 0.522231
86 3.968300 3.968300 3.968300 0.417561 0.424797 0.628860
87 5.020100 5.020100 5.020100 0.546693 0.565173 0.783774
88 6.097600 6.097600 6.097600 0.682310 0.717761 0.905120
89 7.201600 7.201600 7.201600 0.753941 0.784367 0.970496
90 8.333300 8.333300 8.333300 0.934040 0.973958 1.192359
91 9.493700 9.493700 9.493700 1.077185 1.125421 1.370924
92 2.941200 0.000000 0.000000 0.188448 0.147302 0.321480
93 11.90480 11.90480 11.90480 1.499974 1.588905 1.804693
94 13.15790 13.15790 13.15790 1.857812 1.960040 2.208608
95 14.44440 14.44440 14.44440 2.146243 2.228551 2.658563
96 15.76580 15.76580 15.76580 2.381269 2.561395 2.834683
97 17.12330 17.12330 17.12330 2.836798 2.993030 3.300895
98 18.51850 18.51850 18.51850 3.203693 3.323576 3.813480
99 19.95310 19.95310 19.95310 3.705763 3.833878 4.394957
100 21.42860 21.42860 21.42860 4.282576 4.538625 4.841899
101 22.94690 22.94690 22.94690 4.828752 5.040313 5.932863
102 24.50980 24.50980 24.50980 5.289392 5.543586 6.184069
103 26.11940 26.11940 26.11940 6.131371 6.425826 7.230051
104 27.77780 27.77780 27.77780 6.902711 7.230284 8.175783
105 29.48720 29.48720 29.48720 7.719140 8.117388 8.966358
106 31.25000 31.25000 31.25000 8.672374 9.130676 9.814517
107 33.06880 33.06880 33.06880 9.479137 9.944406 11.03447
108 34.94620 34.94620 34.94620 10.78233 11.38820 12.44662
109 36.88520 36.88520 36.88520 12.01266 12.71120 13.81100
110 38.88890 38.88890 38.88890 13.30356 13.98318 15.50511
111 40.96050 40.96050 40.96050 14.76898 15.51628 17.33483
112 43.10350 43.10350 43.10350 16.90405 17.80833 19.37919
113 45.32160 45.32160 45.32160 18.83523 19.63938 21.84990
114 47.61910 47.61910 47.61910 20.70472 21.71846 23.78977
115 50.00000 50.00000 50.00000 23.82600 24.97616 27.17478
116 52.46910 52.46910 52.46910 25.69681 26.94320 29.48939
117 55.03140 55.03140 55.03140 28.59721 29.95406 33.16899
118 57.69230 57.69230 57.69230 32.05149 33.58182 37.00911
119 60.45750 60.45750 60.45750 35.88609 37.71297 40.47142
120 63.33330 63.33330 63.33330 39.24270 41.50775 43.97305
121 66.32650 66.32650 66.32650 43.02935 45.53153 48.74373
122 69.44440 69.44440 69.44440 46.55374 48.88886 53.77459
123 72.69500 72.69500 72.69500 50.63008 53.52610 58.07006
124 76.08700 76.08700 76.08700 57.67009 60.26136 68.22403
125 79.62960 79.62960 79.62960 63.03878 66.07424 74.45399
126 83.33330 83.33330 83.33330 65.32529 68.69420 76.79606
127 87.20930 87.20930 87.20930 68.33584 72.01583 81.18333
128 16.15850 46.71180 38.05050 12.42081 17.93023 15.54358
129 20.82000 88.65280 44.91360 37.27714 63.15593 23.32186
130 23.16520 89.47120 63.86590 43.14367 66.67788 47.55405
131 76.08700 0.000000 0.000000 22.62772 11.76422 1.569458
132 86.14090 16.20260 11.86650 26.51487 14.84322 2.861326
133 88.00410 15.80430 77.09050 40.09787 18.64989 65.60224
134 100.0000 23.12620 100.0000 66.85785 30.31003 122.7727
135 33.66030 11.72020 35.38330 6.716411 3.776700 11.85478
136 33.62450 25.89610 36.30250 8.827989 7.582254 12.90440
137 51.06180 44.83690 36.24010 19.98949 20.84914 14.25900
138 57.51190 60.31020 37.01150 33.27971 38.90322 15.66843
139 76.17780 67.69710 41.21720 40.26940 44.37209 17.50774
140 0.000000 0.000000 0.000000 0.131171 0.117793 0.320124
141 0.000000 2.941200 0.000000 0.205727 0.254774 0.330305
142 13.72740 5.586400 23.51600 1.961553 1.059679 5.584274
143 71.49540 0.000000 54.91880 23.34559 10.81448 27.31708
144 89.52290 83.88600 63.50190 53.43383 59.13514 38.14635
145 100.0000 85.89040 84.07450 65.56907 59.56295 51.86717
146 17.52900 34.75970 16.31800 6.304146 9.564160 3.679965
147 23.54980 35.35260 26.37570 8.032006 10.53157 7.728484
148 22.72130 39.62300 87.54440 24.91191 16.54549 91.32961
149 32.52260 60.79330 100.0000 40.52418 30.67444 136.5886
150 58.78350 69.30770 100.0000 46.85143 38.38644 124.9632
151 58.32390 0.000000 31.88840 14.96823 7.395198 9.213917
152 82.39960 0.000000 40.83360 24.73106 12.22424 14.12703
153 100.0000 0.000000 59.81320 44.51944 21.89110 25.91593
154 100.0000 0.000000 82.76390 49.07798 23.04271 49.39945
155 0.000000 100.0000 85.33390 61.66580 98.50010 66.42335
156 40.85310 100.0000 85.70000 65.66452 100.7694 66.64233
157 0.000000 86.74250 100.0000 51.41416 56.20373 135.6852
158 0.000000 100.0000 100.0000 77.16969 106.0950 137.2954
159 100.0000 43.43610 0.000000 50.44521 35.38667 4.069357
160 100.0000 46.59510 25.45380 62.10669 43.15667 9.363749
161 100.0000 65.94810 63.99160 77.48344 61.35148 44.79229
162 0.000000 52.81840 55.49450 18.55514 24.37205 36.03267
163 20.62890 61.45860 67.38320 27.50971 34.23754 53.45162
164 21.72750 65.28790 84.64740 34.90774 39.73963 80.36261
165 21.44520 77.05160 86.02370 43.09194 54.77838 83.38871
166 84.43360 78.54830 100.0000 89.37233 75.64801 182.0644
167 23.69460 14.58050 30.15590 4.226811 2.882704 8.716172
168 64.77370 14.34830 29.36380 19.76404 10.99873 9.800228
169 78.07810 21.58040 45.40070 33.28207 18.69634 23.90558
170 28.65610 38.31280 8.937400 8.767504 12.59635 2.459914
171 34.19090 39.29430 23.47470 10.82102 13.56478 6.560911
172 32.73140 0.000000 66.77880 13.65652 4.395423 53.88181
173 43.38220 0.000000 100.0000 25.25699 7.456907 110.6815
174 81.99100 0.000000 100.0000 38.65074 14.40463 111.2575
175 100.0000 0.000000 0.000000 35.37372 18.34841 2.138875
176 100.0000 25.92740 0.000000 40.47830 23.14425 2.632627
177 100.0000 78.47260 0.000000 61.05770 60.69836 6.503132
178 53.69080 71.10220 18.11950 29.25351 42.11677 6.655692
179 67.63590 70.62860 28.90750 36.55884 48.84920 12.28867
180 67.32400 86.52390 38.93280 53.82506 74.02357 21.03077
181 17.15280 86.34790 28.66770 35.70173 63.65223 13.69537
182 0.000000 100.0000 28.38000 72.52673 134.9508 19.55465
183 0.000000 100.0000 48.42950 68.06512 122.5156 32.09968
184 0.000000 100.0000 66.92900 65.15766 111.0350 50.14582
185 87.07620 13.57010 33.29770 29.23913 15.65028 10.37660
186 87.41820 35.15640 43.68930 34.37120 22.62224 19.04021
187 51.78980 58.34920 0.000000 25.32595 34.32543 3.618336
188 76.90660 58.93240 0.000000 37.91832 39.18034 4.148198
189 100.0000 58.69380 0.000000 52.10864 41.72144 4.536148
190 14.82140 11.54200 41.16540 4.862416 2.470320 18.14811
191 25.82550 23.94420 53.57000 10.54123 6.906000 31.77298
192 29.30720 41.13040 52.88750 15.67090 16.37965 31.25855
193 27.08290 53.52070 67.06780 23.37838 25.50403 51.53189
194 41.68950 61.68500 67.90300 31.61216 35.88917 53.82831
195 0.000000 28.96390 35.58020 5.285634 6.440063 11.72473
196 0.000000 30.61900 46.67350 7.350647 7.319859 21.54522
197 0.000000 45.41450 57.53850 14.01890 15.87911 35.18537
198 0.000000 63.61710 77.03390 30.76726 36.29736 72.87177
199 0.000000 70.36670 100.0000 38.10110 35.15282 120.9623
200 40.10340 0.000000 49.95750 9.546849 3.841199 23.57252
201 53.45650 10.60340 49.93610 14.97982 7.237942 25.18668
202 66.90970 17.12000 64.71320 29.59672 14.47267 50.80573
203 82.76700 52.84460 66.52570 50.94317 39.92524 56.19182
204 14.62020 23.45470 11.70060 3.238373 4.571583 2.040382
205 27.40500 24.02130 11.37220 4.898361 5.433654 2.150784
206 57.71150 34.49730 10.53650 16.26470 13.94979 2.729937
207 61.67030 35.78630 23.36890 19.23978 15.77403 6.218311
208 65.42740 45.92610 37.67010 24.85638 22.10134 13.60285
209 76.38260 100.0000 86.21230 68.10800 92.81151 59.11800
210 0.000000 24.42700 18.18760 2.881139 4.411199 3.610151
211 0.000000 37.74640 22.73740 6.466462 10.58239 6.137583
212 76.05370 39.55220 50.81300 28.90695 20.72614 22.34009
213 86.39730 38.62180 61.12410 32.37995 21.10947 32.86370
214 100.0000 48.66320 60.89500 45.08920 30.02514 24.66766
215 17.12330 0.000000 0.000000 1.139190 0.640754 0.366889
216 21.42860 0.000000 0.000000 1.686351 0.924803 0.396056
217 28.17140 11.45130 0.000000 3.262592 2.513608 0.539453
218 39.03400 14.08580 12.76910 6.193283 4.296258 2.320933
219 48.20900 14.97520 23.19270 10.04390 6.193898 5.750410
220 68.38620 0.000000 19.06020 17.46442 8.960520 3.963499
221 80.62840 15.11870 21.31850 22.48774 12.44104 4.612365
222 100.0000 27.81880 24.21690 37.56939 21.65666 5.188977
223 0.000000 0.000000 2.941200 0.159064 0.126588 0.468977
224 0.000000 0.000000 6.097600 0.233951 0.146503 0.863411
225 19.89060 10.02700 5.826800 2.052364 1.701128 1.000359
226 70.22380 58.16110 43.43030 33.13179 33.33364 18.81549
227 87.57140 64.17120 52.35210 40.26279 39.85600 24.72431
228 49.37340 20.11270 0.000000 10.38495 7.487220 1.099890
229 73.29480 25.40280 0.000000 24.05496 15.61417 1.907165
230 89.39460 35.93830 10.27670 29.81501 20.73956 3.176142
231 90.45650 40.40020 80.28890 43.56855 26.48817 65.50983
232 20.88840 0.000000 16.17270 2.012694 0.975724 2.833449
233 23.86780 0.000000 36.08430 4.296295 1.668764 12.43171
234 27.24350 53.69620 35.63760 16.41054 24.54957 13.36859
235 54.90480 73.38770 56.74350 38.58800 50.61427 34.60296
236 73.26080 79.69600 63.73290 51.55041 59.77838 43.26576
237 38.22490 25.39290 0.000000 7.152154 7.088259 0.974569
238 48.36910 25.88710 20.49600 11.39114 9.098187 4.934910
239 60.62580 28.01210 36.03530 18.10402 12.33702 11.97912
240 0.000000 13.15790 0.000000 0.883801 1.538258 0.444857
241 12.46870 13.98730 6.877700 1.641717 1.979429 1.087423
242 39.53750 24.30840 27.91480 8.841923 7.305005 8.215477
243 49.98960 28.16170 64.43020 19.79012 11.69370 47.38405
244 54.04070 40.04210 85.73390 28.50266 18.09512 76.06849
245 80.67790 49.24790 87.90860 42.19792 28.33781 73.96858
246 79.84770 78.33530 89.32690 61.95372 61.75639 85.67530
247 91.26980 91.26980 91.26980 76.33050 80.19756 89.68104
248 36.94420 70.43860 0.000000 28.47830 47.73104 4.829587
249 58.61680 86.43800 12.38170 44.05371 66.66570 7.890461
250 59.21170 100.0000 0.000000 59.97986 101.0220 10.35449
251 77.83160 100.0000 37.04630 79.40053 119.4694 21.92938
252 78.17440 100.0000 61.55730 93.61081 134.3496 49.92764
253 20.36430 62.03680 25.44150 20.35035 34.58917 9.714750
254 45.35950 64.57370 35.64790 29.13501 40.97310 15.89021
255 57.97150 96.32850 87.80860 86.81735 116.0973 105.9866
256 79.68500 100.0000 100.0000 134.2545 161.7358 193.3169
257 100.0000 100.0000 100.0000 161.8015 170.0115 186.0397
258 0.000000 13.81920 24.48010 1.967000 1.886665 5.861575
259 0.000000 13.94360 36.78890 3.456296 2.354168 13.35143
260 58.67760 13.30130 40.48080 16.98232 9.066120 17.18919
261 65.51660 27.23540 52.09310 26.40794 16.27948 29.61833
262 70.93240 35.11620 66.45580 36.71592 22.89304 53.54102
263 70.91100 48.40860 72.42160 40.58697 29.66392 63.31997
264 11.69290 73.08160 42.00290 28.74111 45.89228 18.96249
265 41.63970 73.35290 48.66510 32.04228 47.71403 24.57699
266 45.93780 84.93850 64.49020 41.19223 57.93847 43.72812
267 0.000000 0.000000 100.0000 21.12004 5.315055 110.5855
268 0.000000 21.90470 100.0000 22.31212 7.436111 111.1773
269 100.0000 47.43540 100.0000 64.20834 35.95383 113.3865
270 100.0000 67.57660 100.0000 76.75393 52.30853 122.4081
271 0.000000 13.20320 14.83930 1.271327 1.616564 2.501806
272 10.56730 23.52440 24.21460 3.742838 4.649498 6.088689
273 23.79340 31.18460 38.91590 8.401855 8.708816 15.35776
274 46.83590 51.57510 38.67420 21.57871 26.01903 16.81778
275 47.48260 51.57860 71.14310 28.25386 25.55525 60.20774
276 0.000000 17.50680 55.38780 7.361743 3.830609 32.39319
277 0.000000 29.04290 56.20000 9.513374 7.316315 34.53552
278 0.000000 38.15260 77.40850 17.43371 12.36181 66.65303
279 0.000000 50.42790 77.12130 21.53476 20.04723 67.44304
280 0.000000 0.000000 0.000000 0.130869 0.117676 0.320188
281 40.62060 0.000000 15.69180 5.961782 3.028333 2.906122
282 55.11820 9.597300 15.65130 11.67150 6.480536 3.012210
283 87.42360 15.45080 58.36660 29.19930 14.63313 29.34300
284 89.17470 72.62650 81.65810 58.42982 55.99638 71.00001
285 18.86560 10.15020 58.06800 9.059956 3.374704 38.85404
286 19.82280 15.81550 77.57230 16.66403 6.077918 75.79665
287 27.21750 30.03240 88.54040 21.39564 10.82952 86.45748
288 39.19350 89.25240 100.0000 48.68386 52.82930 115.1289
289 47.56800 100.0000 100.0000 68.69720 90.32611 114.2777
290 0.000000 87.20930 0.000000 28.90266 54.36578 5.428369
291 0.000000 100.0000 0.000000 46.57180 87.95621 8.954562
292 34.27200 100.0000 0.000000 50.89280 92.66381 9.103585
293 45.74600 100.0000 46.05840 55.97835 94.66000 23.87163
294 42.53890 40.01260 14.41840 12.54328 14.78167 3.770054
295 57.15720 46.56890 27.15020 20.88193 21.43688 8.356901
296 73.71130 49.98490 26.55350 28.20728 25.28933 7.995232
297 100.0000 100.0000 30.09380 80.98562 100.3435 15.18871
298 100.0000 100.0000 52.68670 85.49215 103.8446 27.46180
299 100.0000 100.0000 73.03580 89.11524 104.5809 46.58871
300 0.000000 75.36080 52.37410 31.50989 51.39279 30.47768
301 0.000000 75.65880 71.86890 35.52262 50.17891 59.79828
302 17.42660 86.99130 75.03130 40.11019 57.45411 60.45176
303 22.47550 87.85760 87.12620 44.21428 59.07437 77.89392
304 37.45160 52.23400 44.13720 19.34421 24.88401 20.69144
305 45.46610 51.94860 59.68340 24.89999 25.60440 41.19027
306 67.25490 55.49710 60.20560 34.58777 31.94713 38.13483
307 85.81810 65.84900 66.45450 43.83391 41.04003 40.77807
308 100.0000 0.000000 40.37760 36.94461 18.74108 10.58112
309 100.0000 26.94420 56.20050 40.45935 22.24632 20.88755
310 100.0000 27.68060 75.27370 45.64549 24.11149 39.61836
311 55.99930 31.35410 44.80140 17.41934 12.70417 19.25096
312 61.15260 44.36680 57.69320 25.66594 21.51475 33.38903
313 0.000000 54.58830 28.46170 13.33484 22.71600 9.891740
314 26.79030 64.78990 49.73870 23.37059 33.64068 27.10825
315 63.83640 76.75030 49.34640 42.32976 54.34208 27.78420
316 85.85780 87.23680 52.87920 61.92278 73.36527 32.41703
317 0.000000 43.10350 0.000000 7.273515 13.59442 1.604094
318 16.60170 46.06590 17.61570 9.990711 16.60165 4.747949
319 23.98640 46.92080 71.18200 20.32220 17.96706 59.45516
320 26.76860 48.50520 85.83600 24.08081 19.52725 76.17550
321 51.27660 84.29510 87.60420 49.31025 59.91458 79.62812
322 0.000000 74.64700 30.35670 27.23962 48.60072 12.40056
323 39.82960 79.30710 30.68780 34.94446 57.24831 13.07085
324 51.75180 79.64490 71.23900 48.28681 61.54624 62.64496
325 66.17290 82.68820 80.26880 60.30960 68.38074 78.78775
326 0.000000 0.000000 87.20930 16.12092 4.090910 84.24679
327 52.13370 9.980300 87.61450 25.40956 9.417326 84.87308
328 70.07110 25.32030 100.0000 41.03063 17.20332 128.1937
329 13.76730 21.91500 33.11900 4.447037 4.333758 10.46248
330 19.93420 23.16150 42.68040 6.824352 5.439725 18.15863
331 36.95470 34.68950 52.41930 14.17777 11.89569 29.67814
332 35.60740 67.34780 64.63450 32.28623 42.10359 48.37946
333 56.15980 74.11770 83.82590 46.90571 52.62504 77.32217
334 0.000000 38.19680 37.23500 8.185886 11.31238 14.25345
335 19.62340 42.38330 48.19080 12.71292 14.97792 24.60194
336 28.56780 51.58750 51.25090 18.85449 23.56427 29.15570
337 63.24690 63.24990 52.73890 36.15452 40.70941 28.75963
338 67.80520 40.19330 0.000000 22.13898 18.77200 2.142452
339 86.77400 47.11980 14.84040 28.96213 23.80730 4.020441
340 88.65370 58.87080 14.04000 34.40935 32.97648 4.728566
341 100.0000 62.19580 27.19640 50.10052 41.69267 8.600692
342 100.0000 79.82360 28.52650 66.96543 63.30987 11.81072
343 100.0000 81.82490 50.44450 70.58897 65.59286 25.62220
344 28.85870 45.65970 0.000000 11.08879 17.10742 1.949896
345 30.02930 61.77560 13.26420 19.83775 33.37587 4.928210
346 28.85870 86.95720 14.38470 31.35985 55.56273 7.048918
347 100.0000 88.48120 100.0000 74.69514 61.25834 105.7112
348 0.000000 0.000000 0.000000 0.130983 0.117621 0.320567
349 6.097600 0.000000 0.000000 0.329753 0.220914 0.327517
350 22.06040 26.41120 69.11830 14.13789 7.588872 55.57626
351 51.80040 27.06710 86.16740 24.72930 12.11981 76.40152
352 72.99700 43.00680 100.0000 40.42987 22.00336 112.2942
353 15.04820 13.73360 22.88650 2.555171 2.168606 5.313582
354 27.16340 15.86380 22.43280 4.260120 3.345219 5.191362
355 45.22590 33.26360 21.15950 11.78257 11.43885 5.542135
356 49.09370 37.40860 38.25900 15.85497 14.52485 14.50830
357 65.94280 44.70140 48.60140 26.55609 22.01333 22.44549
358 67.86240 60.79850 73.01440 42.26614 38.68190 61.48470
359 87.59030 62.16770 84.82090 46.95966 38.66889 66.30907
360 29.46430 7.731800 13.47470 3.600796 2.278238 2.264133
361 31.79930 13.46450 49.03730 8.742561 4.365781 25.12335
362 46.10410 14.02760 65.43160 16.60061 7.156048 48.75149
363 0.000000 57.62720 47.59650 18.03966 27.55503 23.37688
364 17.17360 66.52250 58.91490 27.25346 39.53806 38.19307
365 84.24040 74.40440 65.76540 49.65825 52.38103 42.57980
366 100.0000 82.43320 67.48330 57.99620 52.45522 33.13494
367 64.29050 54.55660 50.04350 30.29556 29.83567 24.62312
368 66.31460 58.78970 83.97170 42.47760 36.10022 75.69896
369 73.71370 59.10750 100.0000 45.64438 31.31198 113.1414
370 100.0000 50.18650 79.27150 48.65630 31.40554 41.90055
371 100.0000 68.81050 82.23360 54.84117 42.57523 45.09283
372 100.0000 100.0000 100.0000 95.19324 100.3304 109.5067
373 9.493700 0.000000 0.000000 0.535476 0.343405 0.433186
374 13.15790 0.000000 0.000000 0.766510 0.453112 0.381080
375 16.08880 12.46470 0.000000 1.702761 1.894291 0.472972
376 47.71950 41.03370 0.000000 14.22739 15.89938 1.822320
377 62.04390 49.95010 16.97110 23.64806 24.49240 4.990669
378 70.88130 60.74260 16.52620 32.53324 35.78443 5.670643
379 80.91890 91.37380 19.75130 52.31610 69.10600 9.417564
380 85.65320 92.26590 81.32990 64.27933 72.76599 65.79842
381 95.52850 95.52850 95.52850 73.16733 76.77594 85.86702
382 0.000000 6.097600 0.000000 0.431022 0.635637 0.457688
383 0.000000 9.493700 0.000000 0.542539 0.875337 0.418995
384 10.68380 10.68380 10.68380 1.257346 1.301787 1.562414
385 31.97050 21.62700 16.83150 5.753460 5.370741 3.544016
386 87.65140 77.91440 14.21220 44.99002 53.63042 6.733926
387 88.97140 83.73770 36.55470 48.73180 57.78069 14.00965
388 46.80590 40.57510 49.78420 18.06434 16.67918 25.54424
389 51.36580 40.57430 64.91800 24.29484 18.82872 48.64109
390 50.47820 51.06840 85.73670 35.42023 27.83870 88.60531
391 54.68280 65.86480 85.81760 46.63571 46.53839 90.41612
392 14.48030 4.999400 12.79800 1.359151 0.936251 1.988111
393 33.82800 3.723700 21.59120 4.708047 2.396616 4.810292
394 44.35100 17.47880 31.92910 9.588798 6.193129 9.596049
395 45.00640 25.99910 48.21730 13.67689 9.312190 23.54944
