GPD/GPD Win (1st gen)/36865 #1 2019-06-14 15-10 0.3127x 0.329y sRGB F-S XYZLUT+MTX/36865 #1 2019-06-14 15-10 0.3127x 0.329y sRGB F-S XYZLUT+MTX.ti3
CTI3   

DESCRIPTOR "Argyll Calibration Target chart information 3"
ORIGINATOR "Argyll dispread"
CREATED "Fri Jun 14 15:18:13 2019"
DEVICE_CLASS "DISPLAY"
SINGLE_DIM_STEPS "17"
COMP_GREY_STEPS "49"
DARK_REGION_EMPHASIS "1.6"
COLOR_REP "RGB_XYZ"
TARGET_INSTRUMENT "X-Rite i1 DisplayPro, ColorMunki Display"
DISPLAY_TYPE_REFRESH "NO"
DISPLAY_TYPE_BASE_ID "1"
INSTRUMENT_TYPE_SPECTRAL "NO"
LUMINANCE_XYZ_CDM2 "68.440945 71.986196 78.556793"
NORMALIZED_TO_Y_100 "YES"
VIDEO_LUT_CALIBRATION_POSSIBLE "YES"

BEGIN_ARGYLL_COLPROF_ARGS
-v -qh -aX -bn -C "No copyright. Created with DisplayCAL 3.8.2.0 and ArgyllCMS 2.1.1" -M "36865"
END_ARGYLL_COLPROF_ARGS

OBSERVER "1931_2"
USE_BLACK_POINT_COMPENSATION "NO"
BLACK_POINT_CORRECTION "0.0"
HIRES_B2A "YES"
HIRES_B2A_SIZE "-1"
SMOOTH_B2A "YES"
PATCH_SEQUENCE "OPTIMIZE_DISPLAY_RESPONSE_DELAY"

NUMBER_OF_FIELDS 7
BEGIN_DATA_FORMAT
SAMPLE_ID RGB_R RGB_G RGB_B XYZ_X XYZ_Y XYZ_Z
END_DATA_FORMAT

NUMBER_OF_SETS 417
BEGIN_DATA
1 100.0000 100.0000 100.0000 95.07510 100.0000 109.1276
2 1.960800 1.960800 1.960800 0.225120 0.218637 0.417324
3 3.921600 3.921600 3.921600 0.408919 0.414301 0.625144
4 5.882400 5.882400 5.882400 0.591095 0.604032 0.831395
5 9.803900 9.803900 9.803900 1.027461 1.075510 1.329372
6 13.72600 13.72600 13.72600 1.692629 1.754775 2.126796
7 17.64700 17.64700 17.64700 2.539469 2.692625 3.038751
8 21.56900 21.56900 21.56900 3.609094 3.776892 4.238833
9 25.49000 25.49000 25.49000 4.997152 5.252165 5.949702
10 29.41200 29.41200 29.41200 6.556327 6.881349 7.638781
11 33.33300 33.33300 33.33300 8.615595 9.149244 9.747546
12 37.25500 37.25500 37.25500 10.84769 11.46832 12.69661
13 41.17600 41.17600 41.17600 13.36191 14.04935 15.51810
14 45.09800 45.09800 45.09800 16.06323 16.78639 18.60722
15 49.02000 49.02000 49.02000 19.23383 20.28757 22.23924
16 52.94100 52.94100 52.94100 23.04901 24.28905 26.27298
17 56.86300 56.86300 56.86300 26.68186 28.11368 30.93643
18 60.78400 60.78400 60.78400 30.84123 32.33230 35.32695
19 64.70600 64.70600 64.70600 35.46185 37.18022 40.65312
20 68.62700 68.62700 68.62700 40.38405 42.54988 46.36896
21 72.54900 72.54900 72.54900 45.76263 48.06343 52.47922
22 76.47100 76.47100 76.47100 51.28239 54.15288 58.60235
23 80.39200 80.39200 80.39200 57.02237 59.88291 66.00293
24 84.31400 84.31400 84.31400 63.40257 67.00784 73.15316
25 88.23500 88.23500 88.23500 69.71844 73.72111 80.82547
26 92.15700 92.15700 92.15700 77.90126 81.96548 90.34297
27 96.07800 96.07800 96.07800 86.10017 89.88688 99.59079
28 27.66030 12.68350 92.73190 18.54798 6.206507 82.84965
29 38.42000 27.61170 100.0000 25.71156 11.48858 100.5171
30 42.57730 47.77910 100.0000 32.15898 22.21594 101.3907
31 14.93840 36.43700 57.92020 10.87079 10.34289 30.28056
32 28.40750 36.74820 67.93620 14.78404 11.86733 42.48637
33 31.45360 60.08000 87.15320 29.31043 28.88205 74.35396
34 37.86010 77.40060 100.0000 45.53109 49.15732 104.0149
35 75.13330 88.89100 100.0000 68.14522 72.37550 106.4352
36 21.99260 36.17830 35.46260 7.807942 9.616574 11.24787
37 60.03410 36.34800 34.24440 17.70094 14.92921 10.96417
38 85.30990 48.06370 34.20270 33.79683 27.98644 12.28587
39 100.0000 47.69860 44.88380 46.44946 34.03795 20.19496
40 26.11940 0.000000 0.000000 2.029475 1.108023 0.427561
41 28.68270 0.000000 0.000000 2.395448 1.297739 0.448369
42 31.25000 0.000000 0.000000 2.979585 1.600146 0.480253
43 36.88520 0.000000 0.000000 3.986187 2.121805 0.538599
44 43.10350 0.000000 0.000000 5.535693 2.924164 0.626214
45 50.00000 0.000000 0.000000 7.682191 4.034912 0.746618
46 57.69230 0.000000 0.000000 10.35040 5.416864 0.897536
47 66.32650 0.000000 0.000000 14.04279 7.325744 1.100606
48 87.20930 0.000000 0.000000 24.89555 12.93970 1.680726
49 100.0000 0.000000 22.24980 36.09964 18.53557 6.175282
50 100.0000 28.21660 40.73130 40.54382 23.86693 16.37471
51 49.04440 52.99000 16.16290 17.57977 22.61294 4.690970
52 47.79410 100.0000 26.69110 48.69047 80.72740 13.62617
53 100.0000 100.0000 89.27580 90.73545 98.97532 86.47245
54 100.0000 100.0000 100.0000 95.17496 100.1056 109.3918
55 0.000000 17.12330 0.000000 1.148626 2.029936 0.499909
56 0.000000 21.42860 0.000000 1.625024 2.929281 0.584793
57 0.000000 26.11940 0.000000 2.372295 4.339100 0.715875
58 0.000000 31.25000 0.000000 3.339395 6.162939 0.883731
59 0.000000 36.88520 0.000000 4.708949 8.751831 1.127521
60 0.000000 46.63690 0.000000 7.390182 13.79914 1.599708
61 0.000000 50.00000 0.000000 8.914682 16.68686 1.874132
62 0.000000 57.69230 0.000000 11.95771 22.45183 2.418987
63 0.000000 66.32650 0.000000 16.05755 30.31763 3.166520
64 0.000000 76.08700 0.000000 21.89469 41.17650 4.189160
65 69.82990 77.32920 0.000000 38.13309 50.48368 5.173771
66 83.10360 100.0000 0.000000 63.50432 88.78652 8.824227
67 100.0000 100.0000 0.000000 76.15873 95.45179 9.477958
68 0.957900 0.957900 0.957900 0.170414 0.164902 0.344808
69 0.000000 0.000000 9.493700 0.301723 0.173353 1.173395
70 0.000000 0.000000 13.15790 0.433287 0.206726 1.864455
71 0.000000 0.000000 17.12330 0.617041 0.252600 2.825133
72 0.000000 0.000000 21.42860 0.826921 0.305450 3.927128
73 0.000000 0.000000 26.11940 1.197729 0.397637 5.884476
74 0.000000 0.000000 31.25000 1.589920 0.495672 7.944268
75 0.000000 0.000000 36.88520 2.240774 0.657666 11.34781
76 0.000000 0.000000 43.10350 3.054974 0.859221 15.63384
77 0.000000 0.000000 50.00000 4.097100 1.116895 21.08652
78 0.000000 0.000000 57.69230 5.683120 1.508486 29.42297
79 0.000000 0.000000 66.32650 7.512632 1.960101 39.00575
80 0.000000 0.000000 76.08700 10.29076 2.646046 53.61174
81 0.000000 23.21970 77.89320 12.66419 6.130594 57.06604
82 0.000000 39.60160 100.0000 24.30959 14.59694 100.8547
83 0.000000 53.69440 100.0000 29.37154 24.10065 101.7290
84 1.938000 1.938000 1.938000 0.224492 0.218330 0.417616
85 2.941200 2.941200 2.941200 0.326728 0.328982 0.523416
86 3.968300 3.968300 3.968300 0.408479 0.413931 0.626429
87 5.020100 5.020100 5.020100 0.501137 0.508819 0.720033
88 6.097600 6.097600 6.097600 0.614783 0.644655 0.837010
89 7.201600 7.201600 7.201600 0.685839 0.701804 0.948068
90 8.333300 8.333300 8.333300 0.835258 0.871293 1.091960
91 9.493700 9.493700 9.493700 0.957955 1.001390 1.242821
92 2.941200 0.000000 0.000000 0.213411 0.167730 0.334763
93 11.90480 11.90480 11.90480 1.336992 1.414490 1.632481
94 13.15790 13.15790 13.15790 1.588863 1.642184 1.990433
95 14.44440 14.44440 14.44440 1.895328 1.998489 2.294675
96 15.76580 15.76580 15.76580 2.108924 2.213960 2.583378
97 17.12330 17.12330 17.12330 2.451343 2.579149 3.037330
98 18.51850 18.51850 18.51850 2.735203 2.857854 3.332917
99 19.95310 19.95310 19.95310 3.149670 3.286467 3.843519
100 21.42860 21.42860 21.42860 3.606103 3.773448 4.241412
101 22.94690 22.94690 22.94690 4.183133 4.439650 4.889870
102 24.50980 24.50980 24.50980 4.575525 4.787440 5.533424
103 26.11940 26.11940 26.11940 5.304952 5.581506 6.356390
104 27.77780 27.77780 27.77780 5.857912 6.127496 6.971707
105 29.48720 29.48720 29.48720 6.557160 6.883223 7.649886
106 31.25000 31.25000 31.25000 7.614041 7.982863 8.644947
107 33.06880 33.06880 33.06880 8.452480 8.916429 9.743297
108 34.94620 34.94620 34.94620 9.564581 10.16359 10.99656
109 36.88520 36.88520 36.88520 10.63520 11.25072 12.35589
110 38.88890 38.88890 38.88890 11.76475 12.38791 13.85546
111 40.96050 40.96050 40.96050 12.94900 13.57849 15.21975
112 43.10350 43.10350 43.10350 14.65836 15.38094 17.02650
113 45.32160 45.32160 45.32160 16.37704 17.09423 18.97737
114 47.61910 47.61910 47.61910 17.96029 18.80891 20.82178
115 50.00000 50.00000 50.00000 20.44407 21.58679 23.08579
116 52.46910 52.46910 52.46910 22.68131 23.87486 26.27229
117 55.03140 55.03140 55.03140 24.73010 26.15394 28.55234
118 57.69230 57.69230 57.69230 27.78505 29.14071 32.14304
119 60.45750 60.45750 60.45750 30.40637 31.82256 35.27367
120 63.33330 63.33330 63.33330 33.49333 35.01516 38.60262
121 66.32650 66.32650 66.32650 37.43155 39.34533 42.70918
122 69.44440 69.44440 69.44440 41.62957 43.99110 47.42104
123 72.69500 72.69500 72.69500 45.75614 48.06322 52.44864
124 76.08700 76.08700 76.08700 50.77038 53.43585 58.59813
125 79.62960 79.62960 79.62960 56.07495 58.90396 64.94496
126 83.33330 83.33330 83.33330 61.45567 64.68173 71.03183
127 87.20930 87.20930 87.20930 67.73558 71.55558 78.70738
128 16.15850 46.71180 38.05050 10.40657 14.74601 13.57478
129 20.82000 88.65280 44.91360 35.00121 59.08206 22.75046
130 23.16520 89.47120 63.86590 39.58137 61.20827 42.34104
131 76.08700 0.000000 0.000000 18.91607 9.848301 1.365619
132 86.14090 16.20260 11.86650 25.61628 14.52711 3.022575
133 88.00410 15.80430 77.09050 36.65450 17.37080 57.15200
134 100.0000 23.12620 100.0000 56.22361 26.50564 102.1508
135 33.66030 11.72020 35.38330 5.862426 3.307356 10.65090
136 33.62450 25.89610 36.30250 7.615394 6.420209 11.59027
137 51.06180 44.83690 36.24010 16.57824 17.24507 12.34972
138 57.51190 60.31020 37.01150 25.33999 30.22522 14.28934
139 76.17780 67.69710 41.21720 38.51561 42.58934 18.41723
140 0.000000 0.000000 0.000000 0.141919 0.130180 0.332548
141 0.000000 2.941200 0.000000 0.223315 0.282434 0.344309
142 13.72740 5.586400 23.51600 1.737958 0.971329 4.801787
143 71.49540 0.000000 54.91880 21.32964 9.786423 26.98723
144 89.52290 83.88600 63.50190 60.17666 66.48099 42.35065
145 100.0000 85.89040 84.07450 76.28941 75.18984 73.35756
146 17.52900 34.75970 16.31800 5.571657 8.501505 3.310840
147 23.54980 35.35260 26.37570 6.939935 9.151632 6.687627
148 22.72130 39.62300 87.54440 20.64041 14.12851 73.97465
149 32.52260 60.79330 100.0000 35.30707 31.08666 102.5476
150 58.78350 69.30770 100.0000 47.73422 44.17596 103.6335
151 58.32390 0.000000 31.88840 12.28822 6.022661 8.777965
152 82.39960 0.000000 40.83360 25.10306 12.34920 15.18906
153 100.0000 0.000000 59.81320 41.31531 19.82290 33.59449
154 100.0000 0.000000 82.76390 47.50641 21.34207 66.02888
155 0.000000 100.0000 85.33390 53.75232 80.11999 76.42511
156 40.85310 100.0000 85.70000 58.84714 82.65360 77.70978
157 0.000000 86.74250 100.0000 47.98347 59.33211 105.2044
158 0.000000 100.0000 100.0000 59.72737 81.58038 107.5107
159 100.0000 43.43610 0.000000 41.86441 30.58915 3.318731
160 100.0000 46.59510 25.45380 43.70307 32.56749 8.753008
161 100.0000 65.94810 63.99160 58.13189 49.99039 41.37251
162 0.000000 52.81840 55.49450 15.12984 19.98515 29.11895
163 20.62890 61.45860 67.38320 22.30519 27.73400 43.20245
164 21.72750 65.28790 84.64740 29.73268 33.04047 70.98533
165 21.44520 77.05160 86.02370 36.73569 45.67778 73.99461
166 84.43360 78.54830 100.0000 65.83252 60.92756 105.4862
167 23.69460 14.58050 30.15590 3.811612 2.723784 7.719865
168 64.77370 14.34830 29.36380 15.45145 8.778011 7.952654
169 78.07810 21.58040 45.40070 24.80628 14.07012 18.82093
170 28.65610 38.31280 8.937400 7.463622 10.63856 2.081661
171 34.19090 39.29430 23.47470 9.400167 11.69467 5.826527
172 32.73140 0.000000 66.77880 10.70129 3.577098 39.89230
173 43.38220 0.000000 100.0000 24.67603 7.685513 100.2050
174 81.99100 0.000000 100.0000 41.23713 16.27173 100.8880
175 100.0000 0.000000 0.000000 35.31688 18.32851 2.186420
176 100.0000 25.92740 0.000000 37.60409 22.56641 2.566342
177 100.0000 78.47260 0.000000 58.79897 62.76139 6.366598
178 53.69080 71.10220 18.11950 27.93872 39.87518 6.764684
179 67.63590 70.62860 28.90750 34.53652 43.02285 11.00052
180 67.32400 86.52390 38.93280 45.91292 62.89367 18.83368
181 17.15280 86.34790 28.66770 30.73168 54.86446 11.84845
182 0.000000 100.0000 28.38000 41.88258 77.24486 14.04730
183 0.000000 100.0000 48.42950 44.49794 77.87400 27.26795
184 0.000000 100.0000 66.92900 48.28002 78.77826 47.50219
185 87.07620 13.57010 33.29770 27.15961 14.60257 10.45790
186 87.41820 35.15640 43.68930 32.22049 21.78758 18.06939
187 51.78980 58.34920 0.000000 20.30279 27.14762 2.908141
188 76.90660 58.93240 0.000000 31.71616 33.34229 3.567387
189 100.0000 58.69380 0.000000 47.77270 41.80812 4.381031
190 14.82140 11.54200 41.16540 3.967682 2.076468 14.34911
191 25.82550 23.94420 53.57000 8.531420 5.731764 25.49969
192 29.30720 41.13040 52.88750 12.74541 13.23204 25.19880
193 27.08290 53.52070 67.06780 19.80628 22.00509 41.80905
194 41.68950 61.68500 67.90300 26.18226 29.73841 44.22334
195 0.000000 28.96390 35.58020 4.785838 5.647482 11.22906
196 0.000000 30.61900 46.67350 6.588907 6.647266 18.98384
197 0.000000 45.41450 57.53850 12.56132 14.45663 30.78513
198 0.000000 63.61710 77.03390 24.95203 29.86292 57.54088
199 0.000000 70.36670 100.0000 37.31138 39.10707 103.4438
200 40.10340 0.000000 49.95750 8.676542 3.492523 21.26951
201 53.45650 10.60340 49.93610 13.18750 6.403722 21.66943
202 66.90970 17.12000 64.71320 22.51700 11.21292 38.15068
203 82.76700 52.84460 66.52570 40.07559 32.39423 42.91760
204 14.62020 23.45470 11.70060 2.857749 4.005452 1.880592
205 27.40500 24.02130 11.37220 4.277173 4.741427 1.957666
206 57.71150 34.49730 10.53650 14.58030 13.12163 2.620358
207 61.67030 35.78630 23.36890 17.25330 14.71088 6.190289
208 65.42740 45.92610 37.67010 22.82278 20.90894 13.98948
209 76.38260 100.0000 86.21230 73.31282 90.09879 79.46167
210 0.000000 24.42700 18.18760 2.551048 3.852541 3.305977
211 0.000000 37.74640 22.73740 5.667857 9.247726 5.383635
212 76.05370 39.55220 50.81300 28.32545 20.75683 24.04613
213 86.39730 38.62180 61.12410 35.79170 23.70139 35.19867
214 100.0000 48.66320 60.89500 49.62843 35.31599 35.79792
215 17.12330 0.000000 0.000000 0.973940 0.559318 0.371898
216 21.42860 0.000000 0.000000 1.441959 0.803895 0.397322
217 28.17140 11.45130 0.000000 2.810207 2.186604 0.525006
218 39.03400 14.08580 12.76910 5.540888 3.835926 2.104696
219 48.20900 14.97520 23.19270 8.713790 5.415422 5.045972
220 68.38620 0.000000 19.06020 15.46721 7.918032 4.070641
221 80.62840 15.11870 21.31850 22.92398 12.86720 5.238539
222 100.0000 27.81880 24.21690 38.78519 23.31003 7.475422
223 0.000000 0.000000 2.941200 0.176654 0.140902 0.511762
224 0.000000 0.000000 6.097600 0.230707 0.155136 0.798444
225 19.89060 10.02700 5.826800 1.751431 1.517522 0.922254
226 70.22380 58.16110 43.43030 30.97535 31.83842 19.01314
227 87.57140 64.17120 52.35210 44.30442 42.10021 27.61072
228 49.37340 20.11270 0.000000 8.679623 6.327412 0.949285
229 73.29480 25.40280 0.000000 19.66783 13.14502 1.658907
230 89.39460 35.93830 10.27670 31.08841 22.18618 3.471220
231 90.45650 40.40020 80.28890 44.51019 27.42791 63.00892
232 20.88840 0.000000 16.17270 1.779427 0.870629 2.599379
233 23.86780 0.000000 36.08430 3.692979 1.444359 10.75920
234 27.24350 53.69620 35.63760 14.25611 20.95200 12.65822
235 54.90480 73.38770 56.74350 34.74050 44.22355 32.49148
236 73.26080 79.69600 63.73290 48.53827 56.17145 41.92570
237 38.22490 25.39290 0.000000 6.360484 6.244381 0.914139
238 48.36910 25.88710 20.49600 9.918430 8.003766 4.330780
239 60.62580 28.01210 36.03530 16.05811 11.20245 11.78727
240 0.000000 13.15790 0.000000 0.752828 1.282155 0.433307
241 12.46870 13.98730 6.877700 1.470992 1.765841 1.049484
242 39.53750 24.30840 27.91480 7.704200 6.347145 7.012708
243 49.98960 28.16170 64.43020 16.97452 10.44031 37.39602
244 54.04070 40.04210 85.73390 27.64980 18.06392 71.29354
245 80.67790 49.24790 87.90860 43.83507 30.56105 76.53606
246 79.84770 78.33530 89.32690 58.92939 58.53316 82.31929
247 91.26980 91.26980 91.26980 75.85026 79.75470 88.48916
248 36.94420 70.43860 0.000000 22.53074 37.16971 3.831723
249 58.61680 86.43800 12.38170 39.60531 59.77042 7.458789
250 59.21170 100.0000 0.000000 51.56631 82.56444 8.206939
251 77.83160 100.0000 37.04630 62.54301 87.69555 19.89188
252 78.17440 100.0000 61.55730 66.92676 88.76470 42.16950
253 20.36430 62.03680 25.44150 15.91653 26.59418 7.999492
254 45.35950 64.57370 35.64790 23.28422 32.27317 13.80522
255 57.97150 96.32850 87.80860 61.20424 78.04961 81.29242
256 79.68500 100.0000 100.0000 80.41687 92.31704 108.4307
257 100.0000 100.0000 100.0000 95.13095 100.0018 109.3908
258 0.000000 13.81920 24.48010 1.724356 1.610283 5.282945
259 0.000000 13.94360 36.78890 2.961465 1.999468 11.51718
260 58.67760 13.30130 40.48080 13.95390 7.446543 14.45468
261 65.51660 27.23540 52.09310 20.34031 12.56807 24.70895
262 70.93240 35.11620 66.45580 28.08376 18.42423 40.74913
263 70.91100 48.40860 72.42160 33.38584 25.74845 50.33645
264 11.69290 73.08160 42.00290 23.07799 38.39654 18.43372
265 41.63970 73.35290 48.66510 29.05597 41.64873 23.98541
266 45.93780 84.93850 64.49020 41.27560 57.94662 42.04734
267 0.000000 0.000000 100.0000 19.12760 4.811012 99.97755
268 0.000000 21.90470 100.0000 20.68306 7.742661 100.2670
269 100.0000 47.43540 100.0000 62.11905 37.61311 103.3033
270 100.0000 67.57660 100.0000 71.06301 54.74298 105.0383
271 0.000000 13.20320 14.83930 1.124370 1.374829 2.407252
272 10.56730 23.52440 24.21460 3.275018 4.022293 5.476966
273 23.79340 31.18460 38.91590 7.267477 7.558118 13.37969
274 46.83590 51.57510 38.67420 18.28205 21.67964 14.79820
275 47.48260 51.57860 71.14310 24.96082 23.40381 48.15823
276 0.000000 17.50680 55.38780 6.234686 3.373341 26.95346
277 0.000000 29.04290 56.20000 8.047125 6.454120 28.30966
278 0.000000 38.15260 77.40850 15.51842 11.83033 56.59015
279 0.000000 50.42790 77.12130 19.62203 19.55004 57.44911
280 0.000000 0.000000 0.000000 0.142160 0.130415 0.332991
281 40.62060 0.000000 15.69180 5.266688 2.683953 2.664108
282 55.11820 9.597300 15.65130 10.10230 5.679544 2.988246
283 87.42360 15.45080 58.36660 31.57731 15.99499 31.51216
284 89.17470 72.62650 81.65810 57.47277 53.42304 67.20752
285 18.86560 10.15020 58.06800 7.118028 2.825515 29.57697
286 19.82280 15.81550 77.57230 12.67472 4.931721 55.98972
287 27.21750 30.03240 88.54040 19.33949 10.20805 75.77669
288 39.19350 89.25240 100.0000 54.59482 65.70342 106.0024
289 47.56800 100.0000 100.0000 66.46660 85.07700 107.7303
290 0.000000 87.20930 0.000000 29.28365 55.30288 5.543713
291 0.000000 100.0000 0.000000 40.71363 76.92663 7.608503
292 34.27200 100.0000 0.000000 43.99585 78.68027 7.788748
293 45.74600 100.0000 46.05840 50.36595 81.00852 25.55106
294 42.53890 40.01260 14.41840 10.95074 12.89099 3.358072
295 57.15720 46.56890 27.15020 18.45389 19.27158 7.935445
296 73.71130 49.98490 26.55350 27.44401 25.80136 8.419426
297 100.0000 100.0000 30.09380 77.38874 95.72895 16.78977
298 100.0000 100.0000 52.68670 80.71969 96.54297 33.55494
299 100.0000 100.0000 73.03580 85.35068 97.59337 58.54723
300 0.000000 75.36080 52.37410 25.61163 40.92553 27.93522
301 0.000000 75.65880 71.86890 30.43904 42.62341 51.06567
302 17.42660 86.99130 75.03130 39.95756 58.16024 57.25886
303 22.47550 87.85760 87.12620 44.97850 60.48920 77.54946
304 37.45160 52.23400 44.13720 16.75290 20.90514 18.44668
305 45.46610 51.94860 59.68340 21.43748 22.32916 33.16288
306 67.25490 55.49710 60.20560 31.56202 29.91312 35.16764
307 85.81810 65.84900 66.45450 47.25984 44.07736 43.23036
308 100.0000 0.000000 40.37760 37.93577 18.99190 15.64167
309 100.0000 26.94420 56.20050 42.91912 24.08171 30.16864
310 100.0000 27.68060 75.27370 47.61439 25.47767 54.21657
311 55.99930 31.35410 44.80140 16.08985 11.93537 17.92695
312 61.15260 44.36680 57.69320 24.00357 19.95458 31.27944
313 0.000000 54.58830 28.46170 11.72201 20.07600 8.550054
314 26.79030 64.78990 49.73870 21.12725 30.53502 23.95512
315 63.83640 76.75030 49.34640 38.75940 49.31490 25.47810
316 85.85780 87.23680 52.87920 57.94116 68.93144 30.72380
317 0.000000 43.10350 0.000000 6.339842 11.83019 1.415322
318 16.60170 46.06590 17.61570 8.394465 13.86964 4.099720
319 23.98640 46.92080 71.18200 17.84356 17.06589 47.55780
320 26.76860 48.50520 85.83600 23.38583 19.62128 71.38492
321 51.27660 84.29510 87.60420 49.24910 59.24467 78.51925
322 0.000000 74.64700 30.35670 22.28431 39.58335 11.25422
323 39.82960 79.30710 30.68780 29.67486 47.45645 12.25043
324 51.75180 79.64490 71.23900 40.95040 51.75969 50.96329
325 66.17290 82.68820 80.26880 51.39134 59.24618 65.81435
326 0.000000 0.000000 87.20930 13.81391 3.504233 72.05251
327 52.13370 9.980300 87.61450 22.64552 8.553744 73.58631
328 70.07110 25.32030 100.0000 37.04614 16.99174 101.2282
329 13.76730 21.91500 33.11900 3.921151 3.780769 9.289860
330 19.93420 23.16150 42.68040 5.874064 4.758779 15.74650
331 36.95470 34.68950 52.41930 12.52189 10.85632 24.93996
332 35.60740 67.34780 64.63450 27.43175 35.11974 40.34845
333 56.15980 74.11770 83.82590 42.68879 46.81475 70.22662
334 0.000000 38.19680 37.23500 7.135950 9.753004 12.62387
335 19.62340 42.38330 48.19080 10.87923 12.89942 20.85441
336 28.56780 51.58750 51.25090 15.88714 19.88126 24.35159
337 63.24690 63.24990 52.73890 31.33484 34.50318 27.32846
338 67.80520 40.19330 0.000000 19.95363 17.69893 2.067975
339 86.77400 47.11980 14.84040 32.46859 26.96732 4.954398
340 88.65370 58.87080 14.04000 38.46709 36.71015 5.598148
341 100.0000 62.19580 27.19640 50.54930 45.11524 10.48404
342 100.0000 79.82360 28.52650 60.99453 64.93966 12.96526
343 100.0000 81.82490 50.44450 65.14140 68.17823 28.24514
344 28.85870 45.65970 0.000000 9.359208 14.37060 1.662281
345 30.02930 61.77560 13.26420 16.56629 27.19111 4.416354
346 28.85870 86.95720 14.38470 32.02953 56.63545 7.500287
347 100.0000 88.48120 100.0000 84.89893 80.81496 107.6408
348 0.000000 0.000000 0.000000 0.142443 0.130417 0.333442
349 6.097600 0.000000 0.000000 0.313217 0.219234 0.339877
350 22.06040 26.41120 69.11830 11.91164 7.066103 43.81277
351 51.80040 27.06710 86.16740 23.99712 12.00749 71.77564
352 72.99700 43.00680 100.0000 42.57981 25.47842 102.0782
353 15.04820 13.73360 22.88650 2.283204 1.933559 4.670218
354 27.16340 15.86380 22.43280 3.750600 2.973878 4.554012
355 45.22590 33.26360 21.15950 10.50466 10.39730 4.904613
356 49.09370 37.40860 38.25900 14.22070 13.17484 13.69467
357 65.94280 44.70140 48.60140 24.26813 20.74198 22.01582
358 67.86240 60.79850 73.01440 37.02181 34.65443 52.19625
359 87.59030 62.16770 84.82090 51.85379 42.49099 71.86182
360 29.46430 7.731800 13.47470 3.096895 1.970701 2.034870
361 31.79930 13.46450 49.03730 7.478175 3.742356 20.62990
362 46.10410 14.02760 65.43160 14.46939 6.574029 38.87407
363 0.000000 57.62720 47.59650 15.52651 23.28984 21.26920
364 17.17360 66.52250 58.91490 23.03075 32.72600 33.62034
365 84.24040 74.40440 65.76540 51.37720 53.20509 43.51377
366 100.0000 82.43320 67.48330 69.18701 69.68908 47.51907
367 64.29050 54.55660 50.04350 27.55699 27.57981 23.72758
368 66.31460 58.78970 83.97170 38.71226 33.53508 69.00828
369 73.71370 59.10750 100.0000 49.23325 37.53349 103.2350
370 100.0000 50.18650 79.27150 55.24572 37.87487 61.96426
371 100.0000 68.81050 82.23360 64.88658 54.16505 69.21862
372 100.0000 100.0000 100.0000 95.00696 99.95475 109.3919
373 9.493700 0.000000 0.000000 0.444570 0.287621 0.345328
374 13.15790 0.000000 0.000000 0.689602 0.414620 0.357541
375 16.08880 12.46470 0.000000 1.457798 1.592336 0.461203
376 47.71950 41.03370 0.000000 12.67226 14.43913 1.705468
377 62.04390 49.95010 16.97110 21.04540 22.62071 4.870418
378 70.88130 60.74260 16.52620 29.89064 33.36020 5.779818
379 80.91890 91.37380 19.75130 54.38878 72.56809 10.41654
380 85.65320 92.26590 81.32990 69.06891 78.38362 69.82561
381 95.52850 95.52850 95.52850 85.29661 89.11738 98.79814
382 0.000000 6.097600 0.000000 0.353774 0.531406 0.366198
383 0.000000 9.493700 0.000000 0.499406 0.803714 0.390684
384 10.68380 10.68380 10.68380 1.130020 1.167184 1.426667
385 31.97050 21.62700 16.83150 5.027000 4.576559 3.095098
386 87.65140 77.91440 14.21220 48.54690 56.70080 7.494608
387 88.97140 83.73770 36.55470 55.25951 65.23285 17.38692
388 46.80590 40.57510 49.78420 15.96596 14.64893 22.39848
389 51.36580 40.57430 64.91800 20.64660 16.21911 39.23128
390 50.47820 51.06840 85.73670 30.10697 24.56740 71.89324
391 54.68280 65.86480 85.81760 38.09469 37.60767 73.31021
