Lenovo/ThinkPad X61/N121X5-L06 #1 2020-05-26 13-57 0.3127x 0.329y sRGB M-S XYZLUT+MTX/N121X5-L06 #1 2020-05-26 13-57 0.3127x 0.329y sRGB M-S XYZLUT+MTX.cal
CAL    

DESCRIPTOR "Argyll Device Calibration Curves"
ORIGINATOR "Argyll dispcal"
CREATED "Tue May 26 14:12:08 2020"
DEVICE_CLASS "DISPLAY"
COLOR_REP "RGB"
VIDEO_LUT_CALIBRATION_POSSIBLE "YES"
TV_OUTPUT_ENCODING "NO"
DEVICE_TYPE "n"
TARGET_WHITE_XYZ "62.372371 65.623633 71.467926"
TARGET_GAMMA "sRGB"
DEGREE_OF_BLACK_OUTPUT_OFFSET "1.0"
BLACK_POINT_CORRECTION "0.0"
BLACK_NEUTRAL_BLEND_RATE "4.0"
BLACK_POINT_HACK "YES"
QUALITY "medium"

BEGIN_ARGYLL_DISPCAL_ARGS
-v2 -d1 -c1 -yn -P0.497237569061,1,1.74670184697 -F -qm -m -w0.3127,0.329 -gs -f1.0 -k0 -A4.0 -b
END_ARGYLL_DISPCAL_ARGS


NUMBER_OF_FIELDS 4
BEGIN_DATA_FORMAT
RGB_I RGB_R RGB_G RGB_B
END_DATA_FORMAT

NUMBER_OF_SETS 256
BEGIN_DATA
0.00000000 0.00000000 0.00000000 0.00000000
0.00392157 0.01326130 0.01085090 0.00818853
0.00784314 0.02388780 0.01973990 0.01540450
0.01176470 0.03259960 0.02715460 0.02181140
0.01568630 0.03992420 0.03344350 0.02753820
0.01960780 0.04618530 0.03889630 0.03268760
0.02352940 0.05165670 0.04372270 0.03735330
0.02745100 0.05653020 0.04807050 0.04163040
0.03137250 0.06093740 0.05204570 0.04559800
0.03529410 0.06496110 0.05572700 0.04931550
0.03921570 0.06867590 0.05917020 0.05283020
0.04313730 0.07214830 0.06241580 0.05617390
0.04705880 0.07542150 0.06549450 0.05937010
0.05098040 0.07853660 0.06842630 0.06244310
0.05490200 0.08150960 0.07123270 0.06540950
0.05882350 0.08437480 0.07392390 0.06827940
0.06274510 0.08713900 0.07652480 0.07106100
0.06666670 0.08981100 0.07903840 0.07376420
0.07058820 0.09242690 0.08147140 0.07639270
0.07450980 0.09499400 0.08384780 0.07895780
0.07843140 0.09751330 0.08616880 0.08146600
0.08235290 0.09999450 0.08843550 0.08391810
0.08627450 0.10246700 0.09065430 0.08632790
0.09019610 0.10493200 0.09285020 0.08869500
0.09411760 0.10738100 0.09502290 0.09101910
0.09803920 0.10981100 0.09716890 0.09331360
0.10196100 0.11222900 0.09929010 0.09558350
0.10588200 0.11465700 0.10138800 0.09782610
0.10980400 0.11709900 0.10348900 0.10004300
0.11372500 0.11955200 0.10559900 0.10224600
0.11764700 0.12201000 0.10771900 0.10444300
0.12156900 0.12446600 0.10984300 0.10663300
0.12549000 0.12692400 0.11196800 0.10881600
0.12941200 0.12939600 0.11409600 0.11099200
0.13333300 0.13189400 0.11623000 0.11317500
0.13725500 0.13442100 0.11838600 0.11537900
0.14117600 0.13697900 0.12057100 0.11760300
0.14509800 0.13957000 0.12278400 0.11984500
0.14902000 0.14218800 0.12502600 0.12210400
0.15294100 0.14482900 0.12729400 0.12438200
0.15686300 0.14749500 0.12958100 0.12668600
0.16078400 0.15019300 0.13188700 0.12902800
0.16470600 0.15293300 0.13421700 0.13141000
0.16862700 0.15572100 0.13657300 0.13383100
0.17254900 0.15856700 0.13895900 0.13629200
0.17647100 0.16147600 0.14138700 0.13878800
0.18039200 0.16445300 0.14386200 0.14132200
0.18431400 0.16750200 0.14638400 0.14389800
0.18823500 0.17060600 0.14895400 0.14651700
0.19215700 0.17374700 0.15157700 0.14918600
0.19607800 0.17691700 0.15424000 0.15191200
0.20000000 0.18011700 0.15694100 0.15469200
0.20392200 0.18334900 0.15967700 0.15752600
0.20784300 0.18661300 0.16245900 0.16040000
0.21176500 0.18987900 0.16529200 0.16331200
0.21568600 0.19312300 0.16817200 0.16626100
0.21960800 0.19637300 0.17106800 0.16925300
0.22352900 0.19964000 0.17399300 0.17228500
0.22745100 0.20292500 0.17696700 0.17533400
0.23137300 0.20623300 0.17998300 0.17841400
0.23529400 0.20958100 0.18303900 0.18152900
0.23921600 0.21297400 0.18613700 0.18467700
0.24313700 0.21636800 0.18928800 0.18786400
0.24705900 0.21976100 0.19245600 0.19108500
0.25098000 0.22316100 0.19562900 0.19431600
0.25490200 0.22656700 0.19881000 0.19755200
0.25882400 0.23000400 0.20199500 0.20078800
0.26274500 0.23347800 0.20519200 0.20403200
0.26666700 0.23698900 0.20841300 0.20729300
0.27058800 0.24052200 0.21166900 0.21056500
0.27451000 0.24404800 0.21495700 0.21381900
0.27843100 0.24752100 0.21823900 0.21704900
0.28235300 0.25096400 0.22147100 0.22026200
0.28627500 0.25438800 0.22467100 0.22345500
0.29019600 0.25778400 0.22785600 0.22663000
0.29411800 0.26113100 0.23102700 0.22978900
0.29803900 0.26444100 0.23416800 0.23295000
0.30196100 0.26771300 0.23728400 0.23613400
0.30588200 0.27095700 0.24037300 0.23933200
0.30980400 0.27418000 0.24343500 0.24251200
0.31372500 0.27740700 0.24648100 0.24567200
0.31764700 0.28066700 0.24954300 0.24881700
0.32156900 0.28393600 0.25263300 0.25194700
0.32549000 0.28717600 0.25572200 0.25506500
0.32941200 0.29038500 0.25878300 0.25818900
0.33333300 0.29357100 0.26181400 0.26131600
0.33725500 0.29673400 0.26481400 0.26445500
0.34117600 0.29987800 0.26778400 0.26760900
0.34509800 0.30300400 0.27073700 0.27076000
0.34902000 0.30609300 0.27366200 0.27388700
0.35294100 0.30914500 0.27654600 0.27698300
0.35686300 0.31220200 0.27941900 0.28005900
0.36078400 0.31526200 0.28229800 0.28313500
0.36470600 0.31832300 0.28517600 0.28620900
0.36862700 0.32139500 0.28805900 0.28928300
0.37254900 0.32449200 0.29096100 0.29234600
0.37647100 0.32761700 0.29389100 0.29541200
0.38039200 0.33077600 0.29685400 0.29847700
0.38431400 0.33396100 0.29983300 0.30154100
0.38823500 0.33712500 0.30278600 0.30460100
0.39215700 0.34023600 0.30568500 0.30765800
0.39607800 0.34329700 0.30853400 0.31072500
0.40000000 0.34631500 0.31134700 0.31382600
0.40392200 0.34931300 0.31413500 0.31693500
0.40784300 0.35229700 0.31690100 0.32003800
0.41176500 0.35530600 0.31968600 0.32313500
0.41568600 0.35834000 0.32248300 0.32622200
0.41960800 0.36138800 0.32528900 0.32929800
0.42352900 0.36445300 0.32810800 0.33236600
0.42745100 0.36754600 0.33094900 0.33542600
0.43137300 0.37066200 0.33379100 0.33848900
0.43529400 0.37376100 0.33661200 0.34155400
0.43921600 0.37684200 0.33941900 0.34459500
0.44313700 0.37992800 0.34222600 0.34761800
0.44705900 0.38302300 0.34502800 0.35065300
0.45098000 0.38610900 0.34781500 0.35370100
0.45490200 0.38918100 0.35059400 0.35676400
0.45882400 0.39224500 0.35336400 0.35983900
0.46274500 0.39530000 0.35612500 0.36293600
0.46666700 0.39834700 0.35887900 0.36606100
0.47058800 0.40138700 0.36162400 0.36922600
0.47451000 0.40442000 0.36436100 0.37243500
0.47843100 0.40744500 0.36709000 0.37567200
0.48235300 0.41046300 0.36982900 0.37888200
0.48627500 0.41349000 0.37261300 0.38205900
0.49019600 0.41657900 0.37543800 0.38521200
0.49411800 0.41969800 0.37826600 0.38834800
0.49803900 0.42279900 0.38109700 0.39147900
0.50196100 0.42588300 0.38393000 0.39461000
0.50588200 0.42895000 0.38676500 0.39773900
0.50980400 0.43200100 0.38960200 0.40089100
0.51372500 0.43503400 0.39244100 0.40406400
0.51764700 0.43805200 0.39528000 0.40725400
0.52156900 0.44105000 0.39812300 0.41046100
0.52549000 0.44403200 0.40096400 0.41370000
0.52941200 0.44699500 0.40381800 0.41697000
0.53333300 0.44995400 0.40668900 0.42023100
0.53725500 0.45291200 0.40955500 0.42348500
0.54117600 0.45585300 0.41241600 0.42675700
0.54509800 0.45877000 0.41529800 0.43005300
0.54902000 0.46167700 0.41820900 0.43336900
0.55294100 0.46460600 0.42115400 0.43669600
0.55686300 0.46755800 0.42414100 0.44004500
0.56078400 0.47054700 0.42715800 0.44341200
0.56470600 0.47357300 0.43014500 0.44680500
0.56862700 0.47662300 0.43309400 0.45022100
0.57254900 0.47964600 0.43602000 0.45365700
0.57647100 0.48264000 0.43893100 0.45711100
0.58039200 0.48561900 0.44182100 0.46058100
0.58431400 0.48860500 0.44469400 0.46406900
0.58823500 0.49159300 0.44757600 0.46759900
0.59215700 0.49458000 0.45046000 0.47115800
0.59607800 0.49758700 0.45334200 0.47471100
0.60000000 0.50060500 0.45622400 0.47825900
0.60392200 0.50361700 0.45910600 0.48180200
0.60784300 0.50662700 0.46197400 0.48534100
0.61176500 0.50964000 0.46483400 0.48888200
0.61568600 0.51265200 0.46771600 0.49242700
0.61960800 0.51564400 0.47062400 0.49596900
0.62352900 0.51862300 0.47355300 0.49951200
0.62745100 0.52161900 0.47651400 0.50304700
0.63137300 0.52462900 0.47951300 0.50658900
0.63529400 0.52765000 0.48256300 0.51014400
0.63921600 0.53069400 0.48567700 0.51368100
0.64313700 0.53377500 0.48886700 0.51719500
0.64705900 0.53690200 0.49213600 0.52071100
0.65098000 0.54008400 0.49548700 0.52424600
0.65490200 0.54333600 0.49885900 0.52780200
0.65882400 0.54666600 0.50213100 0.53139700
0.66274500 0.55008000 0.50529700 0.53502700
0.66666700 0.55358100 0.50836700 0.53864000
0.67058800 0.55708100 0.51135900 0.54222500
0.67451000 0.56048600 0.51429000 0.54580200
0.67843100 0.56379900 0.51717700 0.54939700
0.68235300 0.56702700 0.52003000 0.55301100
0.68627500 0.57017700 0.52286400 0.55664800
0.69019600 0.57326600 0.52568700 0.56030800
0.69411800 0.57630700 0.52849400 0.56397500
0.69803900 0.57931400 0.53130000 0.56763500
0.70196100 0.58229900 0.53413400 0.57128700
0.70588200 0.58527700 0.53699300 0.57493400
0.70980400 0.58824700 0.53987800 0.57855900
0.71372500 0.59120400 0.54278200 0.58216300
0.71764700 0.59417700 0.54568700 0.58578000
0.72156900 0.59716700 0.54860100 0.58942100
0.72549000 0.60017200 0.55152200 0.59307800
0.72941200 0.60320100 0.55445000 0.59676500
0.73333300 0.60624200 0.55738900 0.60048600
0.73725500 0.60928500 0.56034200 0.60425100
0.74117600 0.61234000 0.56328400 0.60807400
0.74509800 0.61540300 0.56621500 0.61198100
0.74902000 0.61847000 0.56913700 0.61599500
0.75294100 0.62154100 0.57205700 0.62012200
0.75686300 0.62463900 0.57496400 0.62433100
0.76078400 0.62774500 0.57785300 0.62845400
0.76470600 0.63085400 0.58074800 0.63247300
0.76862700 0.63396100 0.58365900 0.63639500
0.77254900 0.63707000 0.58659200 0.64024900
0.77647100 0.64017500 0.58956000 0.64406300
0.78039200 0.64325600 0.59257000 0.64785200
0.78431400 0.64632500 0.59561700 0.65162600
0.78823500 0.64941300 0.59863500 0.65539500
0.79215700 0.65252600 0.60159600 0.65918300
0.79607800 0.65567300 0.60450400 0.66298800
0.80000000 0.65886000 0.60737100 0.66682500
0.80392200 0.66209000 0.61020600 0.67072300
0.80784300 0.66535400 0.61301900 0.67467700
0.81176500 0.66858400 0.61580800 0.67869600
0.81568600 0.67176400 0.61857400 0.68275400
0.81960800 0.67490000 0.62134400 0.68683700
0.82352900 0.67800500 0.62412300 0.69095000
0.82745100 0.68109100 0.62691300 0.69509000
0.83137300 0.68417700 0.62971100 0.69925400
0.83529400 0.68725900 0.63253100 0.70345600
0.83921600 0.69033200 0.63538200 0.70768000
0.84313700 0.69342100 0.63826300 0.71192100
0.84705900 0.69653600 0.64111900 0.71617700
0.85098000 0.69967400 0.64393100 0.72044300
0.85490200 0.70283000 0.64671100 0.72470200
0.85882400 0.70602300 0.64946300 0.72900100
0.86274500 0.70926600 0.65219800 0.73336200
0.86666700 0.71255300 0.65493900 0.73779700
0.87058800 0.71582200 0.65768200 0.74234500
0.87451000 0.71906400 0.66043300 0.74702700
0.87843100 0.72228800 0.66317600 0.75173400
0.88235300 0.72550200 0.66588600 0.75641900
0.88627500 0.72873600 0.66857100 0.76111400
0.89019600 0.73200200 0.67124200 0.76585600
0.89411800 0.73530900 0.67391300 0.77067900
0.89803900 0.73865900 0.67658500 0.77558100
0.90196100 0.74200100 0.67924000 0.78055800
0.90588200 0.74533700 0.68187800 0.78560400
0.90980400 0.74867800 0.68450900 0.79072000
0.91372500 0.75204400 0.68714100 0.79592900
0.91764700 0.75543400 0.68976200 0.80126300
0.92156900 0.75882300 0.69237600 0.80661300
0.92549000 0.76221300 0.69498900 0.81198200
0.92941200 0.76563000 0.69759400 0.81739200
0.93333300 0.76905500 0.70019600 0.82291400
0.93725500 0.77247600 0.70279300 0.82857000
0.94117600 0.77590500 0.70538600 0.83430900
0.94509800 0.77933600 0.70797200 0.84004700
0.94902000 0.78278000 0.71055000 0.84584800
0.95294100 0.78623500 0.71312300 0.85174100
0.95686300 0.78969900 0.71568600 0.85766100
0.96078400 0.79317900 0.71823800 0.86368200
0.96470600 0.79667500 0.72077700 0.86979900
0.96862700 0.80018800 0.72330500 0.87605200
0.97254900 0.80372200 0.72582000 0.88247400
0.97647100 0.80727700 0.72832400 0.88908000
0.98039200 0.81085400 0.73081600 0.89587400
0.98431400 0.81445100 0.73329700 0.90284900
0.98823500 0.81807000 0.73576600 0.90997500
0.99215700 0.82171000 0.73822400 0.91724900
0.99607800 0.82537200 0.74067000 0.92467500
1.00000000 0.82905500 0.74310500 0.93226000
END_DATA
CAL    

DESCRIPTOR "Argyll Calibration options and model"
ORIGINATOR "Argyll dispcal"
CREATED "Tue May 26 14:12:08 202"

NUMBER_OF_FIELDS 3
BEGIN_DATA_FORMAT
R_P G_P B_P
END_DATA_FORMAT

NUMBER_OF_SETS 32
BEGIN_DATA
0.00198881 0.00187176 0.00639075
0.99801100 0.99812800 0.99360900
1.81914700 1.51666900 0.74627900
0.48940900 0.56837300 0.82661500
0.15692400 0.13510000 0.06387110
0.10438900 0.11588900 0.05750040
0.06963880 0.11338900 0.05855270
0.08129020 0.12742100 0.03808970
0.07320670 0.07384450 0.04711070
0.04367870 0.04077600 0.05873180
0.04033290 0.05610320 0.03888700
0.04804320 0.05724740 0.03269020
0.04280400 0.04537140 0.03138320
0.03504860 0.03291070 0.03270830
0.03142650 0.03836520 0.02788840
0.02743750 0.03477410 0.02512390
0.03104070 0.03174990 0.02646200
0.02500280 0.03120960 0.02434240
0.02256300 0.02863480 0.02443090
0.02182530 0.02780550 0.02217480
0.02208240 0.02157670 0.02000780
0.02025500 0.02215400 0.01999210
0.02020280 0.01896850 0.01997490
0.01521880 0.02183980 0.02037760
0.01499260 0.02107460 0.01994000
0.01590130 0.01975560 0.01882160
0.01244850 0.01846710 0.01730430
0.01370490 0.01645550 0.01613250
0.01277710 0.01468340 0.01448270
0.01232220 0.01394530 0.01494110
0.00916952 0.01214900 0.01503350
0.00790209 0.01285130 0.01503770
END_DATA
