Lenovo/ThinkPad X61/N121X5-L06 #1 2020-05-26 13-57 0.3127x 0.329y sRGB M-S XYZLUT+MTX/N121X5-L06 #1 2020-05-26 13-57 0.3127x 0.329y sRGB M-S XYZLUT+MTX.ti1
CTI1   

DESCRIPTOR "Argyll Calibration Target chart information 1"
ORIGINATOR "Argyll targen"
CREATED "Tue May 26 14:12:56 2020"
APPROX_WHITE_POINT "90.922377 92.909322 106.743265"
COLOR_REP "RGB"
ACCURATE_EXPECTED_VALUES "true"
DARK_REGION_EMPHASIS "1.6"
WHITE_COLOR_PATCHES "4"
BLACK_COLOR_PATCHES "4"
SINGLE_DIM_STEPS "25"
COMP_GREY_STEPS "73"
OFPS_PATCHES "648"

NUMBER_OF_FIELDS 7
BEGIN_DATA_FORMAT
SAMPLE_ID RGB_R RGB_G RGB_B XYZ_X XYZ_Y XYZ_Z
END_DATA_FORMAT

NUMBER_OF_SETS 825
BEGIN_DATA
1 100.0000 100.0000 100.0000 90.92238 92.90932 106.7433
2 1.960800 1.960800 1.960800 1.142800 1.150200 1.163700
3 3.921600 3.921600 3.921600 1.285600 1.300500 1.327300
4 5.882400 5.882400 5.882400 1.449500 1.472900 1.515200
5 9.803900 9.803900 9.803900 1.914800 1.962400 2.048400
6 13.72600 13.72600 13.72600 2.581700 2.663900 2.812600
7 17.64700 17.64700 17.64700 3.469500 3.597900 3.830000
8 21.56900 21.56900 21.56900 4.595300 4.782200 5.120100
9 25.49000 25.49000 25.49000 5.974500 6.233200 6.700700
10 29.41200 29.41200 29.41200 7.621300 7.965600 8.587900
11 33.33300 33.33300 33.33300 9.548800 9.993300 10.79700
12 37.25500 37.25500 37.25500 11.76900 12.32900 13.34100
13 41.17600 41.17600 41.17600 14.29400 14.98500 16.23400
14 45.09800 45.09800 45.09800 17.13400 17.97300 19.48900
15 49.02000 49.02000 49.02000 20.29900 21.30300 23.11700
16 52.94100 52.94100 52.94100 23.80000 24.98600 27.12900
17 56.86300 56.86300 56.86300 27.64600 29.03200 31.53600
18 60.78400 60.78400 60.78400 31.84600 33.45000 36.34900
19 64.70600 64.70600 64.70600 36.40900 38.25000 41.57800
20 68.62700 68.62700 68.62700 41.34300 43.44000 47.23200
21 72.54900 72.54900 72.54900 46.65600 49.03000 53.32100
22 76.47100 76.47100 76.47100 52.35600 55.02700 59.85300
23 80.39200 80.39200 80.39200 58.45200 61.43900 66.83800
24 84.31400 84.31400 84.31400 64.94900 68.27500 74.28500
25 88.23500 88.23500 88.23500 71.85700 75.54100 82.20000
26 92.15700 92.15700 92.15700 79.18100 83.24600 90.59400
27 96.07800 96.07800 96.07800 86.92900 91.39700 99.47200
28 3.968300 0.000000 0.000000 0.677224 0.667230 0.755269
29 6.097600 0.000000 0.000000 0.770488 0.722083 0.765399
30 67.17430 81.52110 0.000000 37.88171 44.94110 10.93597
31 100.0000 100.0000 0.000000 71.15860 72.96144 16.86705
32 100.0000 100.0000 23.07680 72.02724 73.83816 20.81718
33 32.03750 43.57710 0.000000 9.131809 11.32569 3.232585
34 48.74850 50.94890 0.000000 16.45032 17.83960 4.633356
35 65.68580 57.39530 0.000000 26.14624 25.92078 6.338704
36 85.46130 61.96180 0.000000 41.31921 36.68129 8.490391
37 90.00440 79.56020 0.000000 53.26300 52.82300 12.28744
38 0.000000 83.35090 28.58150 22.90315 37.80075 15.34450
39 29.33380 82.86330 100.0000 43.96390 57.66557 99.55180
40 0.000000 69.34120 100.0000 34.32938 44.42709 96.42920
41 0.000000 82.77920 100.0000 41.05924 55.90491 99.22195
42 18.51850 0.000000 0.000000 1.753457 1.300211 0.872172
43 21.42860 0.000000 0.000000 2.123848 1.518054 0.912405
44 24.50980 0.000000 0.000000 2.577954 1.785134 0.961731
45 27.77780 0.000000 0.000000 3.120717 2.104356 1.020687
46 31.25000 0.000000 0.000000 3.850416 2.533524 1.099949
47 34.94620 0.000000 0.000000 4.806110 3.095610 1.203759
48 38.88890 0.000000 0.000000 5.934026 3.758987 1.326276
49 43.10350 0.000000 0.000000 7.308628 4.567451 1.475589
50 47.61910 0.000000 0.000000 8.965357 5.541846 1.655547
51 52.46910 0.000000 0.000000 10.76843 6.602313 1.851402
52 57.69230 0.000000 0.000000 13.06140 7.950911 2.100470
53 63.33330 0.000000 0.000000 15.69035 9.497108 2.386033
54 69.44440 0.000000 0.000000 19.30824 11.62495 2.779017
55 76.08700 0.000000 0.000000 23.49402 14.08679 3.233688
56 83.33330 0.000000 0.000000 28.75426 17.18057 3.805068
57 91.26980 0.000000 0.000000 35.36041 21.06593 4.522645
58 100.0000 30.19440 34.04400 47.67471 31.65463 14.57083
59 100.0000 100.0000 90.07570 86.73845 88.68642 87.71677
60 100.0000 100.0000 100.0000 90.92238 92.90932 106.7433
61 20.14650 28.39430 100.0000 23.78072 24.88528 91.62649
62 77.08920 61.20270 100.0000 54.46344 52.41109 97.55851
63 0.000000 10.68380 0.000000 0.914977 1.197999 0.888280
64 0.000000 13.15790 0.000000 1.051681 1.431149 0.945009
65 0.000000 15.76580 0.000000 1.233791 1.741738 1.020580
66 0.000000 18.51850 0.000000 1.469673 2.144036 1.118466
67 0.000000 21.42860 0.000000 1.760816 2.640583 1.239284
68 0.000000 24.50980 0.000000 2.119868 3.252947 1.388283
69 14.71020 24.53850 0.000000 2.913701 3.723777 1.475592
70 33.19080 26.66570 0.000000 6.170960 5.944536 1.913034
71 100.0000 67.61490 22.18170 57.61056 49.29379 14.57732
72 100.0000 100.0000 100.0000 90.92238 92.90932 106.7433
73 0.000000 27.77780 0.000000 2.545505 3.978873 1.564913
74 0.000000 43.10350 0.000000 5.537812 9.082267 2.806653
75 0.000000 47.61910 0.000000 6.692312 11.05127 3.285745
76 0.000000 52.46910 0.000000 8.096931 13.44686 3.868630
77 0.000000 57.69230 0.000000 9.862910 16.45874 4.601472
78 0.000000 63.33330 0.000000 11.94738 20.01382 5.466481
79 0.000000 69.44440 0.000000 14.60982 24.55463 6.571336
80 0.000000 83.33330 0.000000 21.60330 36.48204 9.473474
81 0.000000 91.26980 0.000000 26.24231 44.39389 11.39856
82 0.000000 100.0000 0.000000 28.16676 47.67604 12.19716
83 84.32130 100.0000 0.000000 57.15031 64.72254 15.34543
84 83.78140 100.0000 24.31840 57.67249 65.43327 19.65590
85 56.54750 100.0000 64.45430 47.46882 62.11863 46.86264
86 64.86930 100.0000 78.56320 55.62720 68.68623 66.39622
87 89.03580 100.0000 81.74230 73.61783 79.69957 72.90614
88 0.000000 0.000000 10.68380 0.776481 0.814635 1.704339
89 0.000000 0.000000 13.15790 0.873364 0.912420 2.144916
90 0.000000 0.000000 15.76580 0.994922 1.035111 2.697704
91 0.000000 0.000000 18.51850 1.142613 1.184177 3.369329
92 0.000000 0.000000 21.42860 1.321261 1.364490 4.181737
93 0.000000 0.000000 24.50980 1.537619 1.582863 5.165632
94 0.000000 0.000000 27.77780 1.790822 1.838425 6.317076
95 0.000000 0.000000 31.25000 2.079971 2.130268 7.631990
96 0.000000 0.000000 38.88890 3.008594 3.067541 11.85492
97 0.000000 0.000000 43.10350 3.634084 3.698858 14.69935
98 0.000000 0.000000 47.61910 4.381973 4.453713 18.10039
99 0.000000 0.000000 52.46910 5.260791 5.340719 22.09684
100 0.000000 0.000000 57.69230 6.308269 6.397954 26.86027
101 0.000000 0.000000 63.33330 7.613571 7.715416 32.79616
102 0.000000 0.000000 69.44440 9.300011 9.417566 40.46528
103 0.000000 0.000000 76.08700 11.30379 11.44001 49.57751
104 0.000000 0.000000 83.33330 13.65687 13.81501 60.27821
105 0.000000 0.000000 91.26980 16.61499 16.80069 73.73032
106 68.13010 0.000000 100.0000 38.21501 31.06879 92.56215
107 76.94070 17.56710 100.0000 44.63540 35.75926 93.51024
108 78.00920 40.79640 100.0000 48.94769 42.30823 95.07885
109 1.938000 1.938000 1.938000 0.647022 0.689210 0.819516
110 2.604200 2.604200 2.604200 0.693360 0.737848 0.865556
111 3.280800 3.280800 3.280800 0.745613 0.792317 0.920808
112 3.968300 3.968300 3.968300 0.802768 0.851588 0.984013
113 4.666700 4.666700 4.666700 0.865687 0.917230 1.053668
114 5.376300 5.376300 5.376300 0.932397 0.986918 1.129473
115 6.097600 6.097600 6.097600 1.005148 1.063765 1.210223
116 6.830600 6.830600 6.830600 1.082723 1.146426 1.295625
117 7.575800 7.575800 7.575800 1.167374 1.236667 1.390908
118 8.333300 8.333300 8.333300 1.261717 1.336827 1.501951
119 9.103600 9.103600 9.103600 1.362197 1.443908 1.622019
120 9.887000 9.887000 9.887000 1.472163 1.559959 1.755401
121 10.68380 10.68380 10.68380 1.589904 1.683980 1.899880
122 11.49420 11.49420 11.49420 1.718946 1.819148 2.058251
123 12.31880 12.31880 12.31880 1.860840 1.967447 2.231895
124 13.15790 13.15790 13.15790 2.012435 2.126042 2.417710
125 14.01180 14.01180 14.01180 2.179765 2.302195 2.620549
126 14.88100 14.88100 14.88100 2.358801 2.490628 2.837943
127 15.76580 15.76580 15.76580 2.555399 2.700062 3.072063
128 16.66670 16.66670 16.66670 2.765153 2.923585 3.321671
129 17.58410 17.58410 17.58410 2.992123 3.165876 3.588567
130 18.51850 18.51850 18.51850 3.235537 3.425849 3.873787
131 19.47040 19.47040 19.47040 3.496153 3.703374 4.177210
132 20.44020 20.44020 20.44020 3.774604 3.999741 4.499925
133 21.42860 21.42860 21.42860 4.075720 4.320552 4.847247
134 22.43590 22.43590 22.43590 4.396568 4.662180 5.216058
135 23.46280 23.46280 23.46280 4.740488 5.029056 5.611501
136 24.50980 24.50980 24.50980 5.105236 5.418370 6.029466
137 25.57760 25.57760 25.57760 5.491037 5.830025 6.470367
138 26.66670 26.66670 26.66670 5.897081 6.262522 6.930946
139 27.77780 27.77780 27.77780 6.326839 6.719080 7.416497
140 28.91160 28.91160 28.91160 6.791325 7.203311 7.920233
141 30.06870 30.06870 30.06870 7.290938 7.719362 8.451431
142 31.25000 31.25000 31.25000 7.834197 8.273246 9.013392
143 32.45610 32.45610 32.45610 8.439670 8.890536 9.654693
144 33.68790 33.68790 33.68790 9.096232 9.562354 10.36554
145 34.94620 34.94620 34.94620 9.811425 10.30263 11.17313
146 36.23190 36.23190 36.23190 10.59220 11.12320 12.07941
147 37.54580 37.54580 37.54580 11.43131 12.01075 13.05263
148 38.88890 38.88890 38.88890 12.32817 12.96309 14.07754
149 40.26220 40.26220 40.26220 13.27967 13.97138 15.14936
150 41.66670 41.66670 41.66670 14.28673 15.03282 16.28815
151 43.10350 43.10350 43.10350 15.35032 16.14600 17.49542
152 44.57360 44.57360 44.57360 16.47337 17.31275 18.77597
153 46.07840 46.07840 46.07840 17.66371 18.54617 20.12997
154 47.61910 47.61910 47.61910 18.90944 19.84426 21.55551
155 49.19680 49.19680 49.19680 20.20275 21.20601 23.06016
156 50.81300 50.81300 50.81300 21.55408 22.64406 24.64847
157 52.46910 52.46910 52.46910 22.99595 24.18731 26.33069
158 54.16670 54.16670 54.16670 24.56976 25.86832 28.11789
159 55.90720 55.90720 55.90720 26.28453 27.68712 30.02805
160 57.69230 57.69230 57.69230 28.10238 29.60503 32.07603
161 59.52380 59.52380 59.52380 29.99673 31.60457 34.27275
162 61.40350 61.40350 61.40350 31.98158 33.72186 36.62495
163 63.33330 63.33330 63.33330 34.12109 36.02377 39.16249
164 65.31530 65.31530 65.31530 36.53377 38.60523 41.99094
165 67.35160 67.35160 67.35160 39.22330 41.43760 45.09107
166 69.44440 69.44440 69.44440 42.08787 44.39457 48.32946
167 71.59620 71.59620 71.59620 45.04508 47.44765 51.67883
168 73.80950 73.80950 73.80950 48.15071 50.73857 55.29361
169 76.08700 76.08700 76.08700 51.45327 54.29527 59.21426
170 78.43140 78.43140 78.43140 54.98660 58.03103 63.32484
171 80.84580 80.84580 80.84580 58.78428 61.99812 67.57358
172 83.33330 83.33330 83.33330 62.88423 66.27505 72.07058
173 85.89740 85.89740 85.89740 67.31464 70.86473 77.04028
174 88.54170 88.54170 88.54170 72.02922 75.76048 82.41834
175 91.26980 91.26980 91.26980 77.08750 81.05794 88.16535
176 94.08600 94.08600 94.08600 82.69699 86.92913 94.52976
177 0.000000 0.000000 1.938000 0.578202 0.614508 0.802657
178 0.000000 0.000000 3.968300 0.607848 0.644431 0.937474
179 0.000000 0.000000 6.097600 0.649178 0.686146 1.125424
180 0.000000 0.000000 8.333300 0.702461 0.739925 1.367729
181 14.70330 0.000000 12.13720 1.620963 1.334399 2.039400
182 19.35900 40.84860 17.88370 6.818228 9.448231 5.181489
183 0.000000 79.72540 55.06710 24.84888 38.39768 32.30669
184 0.000000 83.29070 70.96020 30.74812 45.69561 51.15728
185 0.000000 100.0000 72.30620 37.72680 57.32515 55.67169
186 0.000000 100.0000 85.19650 41.91358 61.55093 74.71116
187 25.18380 100.0000 86.39310 44.47434 63.24292 76.94854
188 88.85660 100.0000 91.16570 76.91143 83.08705 88.54996
189 88.85580 100.0000 100.0000 80.66651 86.87740 105.6292
190 0.000000 19.79760 20.06060 2.260715 3.027477 4.211014
191 0.000000 31.31590 57.33100 8.709553 10.54723 27.53698
192 0.000000 44.49600 65.50550 13.50323 17.36191 37.60486
193 32.22340 49.66100 74.33220 20.96125 24.36130 50.19596
194 61.16190 56.39260 77.05120 34.56074 35.13355 56.19410
195 100.0000 0.000000 37.41440 45.79495 28.14553 15.59034
196 100.0000 21.37520 46.57630 48.38516 31.58830 22.45191
197 100.0000 45.20630 46.01340 52.59652 38.83693 23.80693
198 72.34780 34.89710 0.000000 24.27174 17.99260 4.263639
199 88.09600 44.60110 0.000000 38.00924 28.59468 6.447440
200 100.0000 77.09640 0.000000 61.29288 56.13540 12.77299
201 100.0000 84.43590 19.85930 65.86359 63.47361 17.38337
202 54.54470 64.11800 36.46890 25.44805 29.20932 16.39438
203 63.99520 74.35910 37.35840 34.58416 39.79002 19.34003
204 70.61380 77.23790 61.96790 44.60101 49.22757 40.79004
205 33.01630 15.65790 18.58820 5.535678 4.507378 4.066517
206 46.18580 23.72440 31.12420 11.39236 9.232439 9.041497
207 58.76100 31.19960 40.39220 18.67677 15.12331 15.26255
208 68.54860 35.35800 40.94390 24.63555 19.45916 16.48848
209 27.42130 30.30720 87.87220 20.13033 20.92226 69.01859
210 26.07940 67.73260 100.0000 35.89349 44.56351 96.38428
211 44.52330 75.74520 100.0000 44.62110 53.88074 98.47949
212 0.000000 76.08700 0.000000 17.78567 29.97105 7.889240
213 29.74320 80.59880 0.000000 23.05373 35.66732 9.173756
214 51.68260 84.59940 0.000000 32.20479 43.50325 10.84054
215 83.88650 100.0000 42.15450 59.72043 67.46471 28.59396
216 100.0000 100.0000 55.99570 76.54573 78.39875 41.36515
217 100.0000 100.0000 68.71520 79.68747 81.56976 55.65227
218 48.26530 0.000000 51.52160 13.72721 10.24538 22.22795
219 64.67130 0.000000 61.70940 23.03252 16.61771 32.71861
220 83.97690 0.000000 71.12580 38.48608 26.78584 45.77151
221 87.64060 12.61330 82.01350 45.39463 32.80386 61.91593
222 100.0000 56.01690 83.80160 65.52728 54.13018 69.30124
223 0.000000 1.938000 0.000000 0.595734 0.653528 0.755801
224 0.000000 3.968300 0.000000 0.647902 0.742502 0.777449
225 0.000000 6.097600 0.000000 0.715687 0.858110 0.805579
226 18.64480 10.29120 0.000000 2.098680 1.872380 1.010878
227 28.48370 35.07250 53.14150 11.19838 12.37234 24.26467
228 44.75290 37.23850 77.27340 22.59126 22.23179 53.59936
229 62.46910 74.95420 100.0000 51.66584 57.56389 99.11854
230 90.52950 85.90390 100.0000 76.94875 78.96088 103.6544
231 43.38870 0.000000 15.53120 7.826867 5.048355 3.387926
232 60.98010 0.000000 16.18130 15.03152 9.299494 4.315601
233 63.28800 24.86600 100.0000 37.03012 32.15856 92.92330
234 38.83720 0.000000 83.88060 19.19935 17.15455 61.72089
235 45.74190 17.77190 100.0000 28.86283 26.50299 91.80254
236 52.25590 40.73710 100.0000 34.84332 33.99662 93.54235
237 34.44950 24.35070 100.0000 25.97060 25.58268 91.70244
238 40.21770 47.13680 100.0000 32.10988 34.18015 93.73654
239 52.69540 100.0000 100.0000 58.22365 73.67776 103.1914
240 33.35020 100.0000 23.00260 32.84654 50.79207 16.53806
241 52.35230 100.0000 30.06600 39.73728 55.07636 19.72688
242 28.32310 100.0000 0.000000 30.82570 49.23988 12.48598
243 50.10380 100.0000 0.000000 37.48444 53.15619 13.20927
244 68.22720 100.0000 0.000000 46.11528 58.23236 14.14678
245 83.77550 100.0000 57.22320 62.35231 70.15868 40.95856
246 100.0000 39.24410 56.30290 53.04166 38.26830 31.87349
247 100.0000 39.10920 74.43080 57.77023 43.01880 53.50812
248 55.47060 0.000000 42.95110 15.08390 10.42296 15.83723
249 71.35820 0.000000 42.29270 23.49481 15.32674 16.29718
250 81.92750 0.000000 83.31930 40.74312 29.74361 63.19907
251 100.0000 0.000000 100.0000 63.32072 45.83456 95.28919
252 100.0000 35.54180 100.0000 66.53321 51.31348 96.62230
253 23.43450 49.80550 46.98220 12.85258 16.91190 20.59632
254 32.64790 60.06670 49.18570 18.42316 24.14924 23.95224
255 38.30130 72.85930 78.97010 33.00614 42.00397 60.83944
256 0.000000 55.76190 50.88190 13.59425 19.75964 24.33127
257 0.000000 56.78780 67.95240 17.85864 24.30993 42.26232
258 27.62740 57.28010 74.63070 22.52286 28.07216 51.53787
259 61.76790 60.48090 100.0000 44.98949 46.54211 96.44802
260 38.83620 21.81030 40.14760 9.777642 8.506599 13.76363
261 44.49200 32.72350 48.02910 14.39243 13.39066 20.33260
262 63.39480 41.74510 53.46330 25.24579 22.35806 26.53017
263 82.28070 58.69740 62.88600 44.51195 40.14755 39.26166
264 72.40010 51.37190 47.23400 32.16039 28.79987 23.02612
265 100.0000 64.76550 52.32080 60.21058 51.03987 31.61367
266 92.25420 69.88040 52.97360 55.26367 50.69287 32.31307
267 100.0000 73.92720 66.39280 67.53101 61.29717 47.87515
268 54.91880 44.90250 26.21300 18.31438 17.56013 9.223237
269 78.18440 54.49980 31.37670 34.62096 30.43301 13.72731
270 77.62310 67.33970 89.98650 53.17866 52.75914 79.48428
271 78.52370 75.37410 100.0000 61.75215 63.74006 100.2810
272 25.17590 23.51630 42.59940 7.107078 7.310134 15.16672
273 34.36390 23.57070 49.80780 10.29304 9.702490 20.90301
274 41.77960 44.59570 70.58870 21.26165 22.55984 44.85308
275 0.000000 14.73550 27.59440 2.366971 2.831334 6.495119
276 0.000000 48.18960 29.53250 8.215354 12.69605 9.573384
277 12.12130 50.36510 41.88040 10.90843 15.60103 16.76204
278 42.34240 64.92600 67.11330 27.17348 33.12059 43.15211
279 55.14830 66.01140 78.01110 35.79167 40.11159 58.84065
280 0.000000 0.000000 100.0000 20.32888 20.54917 90.61931
281 0.000000 32.64570 100.0000 23.01835 25.13608 91.73538
282 0.000000 52.11820 100.0000 27.74967 33.20537 93.69877
283 0.000000 18.52960 42.40570 4.431050 5.133721 14.58111
284 62.62280 22.68910 61.57460 23.29977 18.25426 33.01465
285 68.20970 35.43060 70.26610 30.66182 25.64433 44.80534
286 76.32380 86.67880 100.0000 66.32575 73.20443 102.6352
287 0.000000 33.79560 45.56270 6.917440 9.021149 17.70903
288 0.000000 46.84470 52.72410 11.22964 15.48703 24.77318
289 0.000000 67.09790 67.22130 21.68592 30.98278 42.98750
290 22.65190 75.02560 78.97440 30.63709 41.82892 60.92216
291 0.000000 100.0000 58.77730 34.14747 53.71247 39.39457
292 35.63410 100.0000 62.38360 39.41019 57.15883 43.66686
293 0.000000 52.53060 19.55510 8.754722 14.12433 6.779467
294 29.96780 56.61960 25.78200 13.55116 18.66125 9.632612
295 41.92280 56.73580 42.84570 18.89902 22.67713 18.92498
296 86.37670 73.89920 48.53940 51.30885 50.10235 28.84233
297 100.0000 82.40400 58.80630 70.06713 66.93177 41.15610
298 40.66530 45.85970 7.953200 12.28150 13.87368 4.314059
299 74.23030 71.19700 0.000000 37.15646 38.67060 9.254916
300 77.48690 78.51690 17.79960 43.41583 46.65900 13.43730
301 96.99450 96.99450 96.99450 86.72851 89.87059 100.5000
302 100.0000 100.0000 100.0000 90.92238 92.90932 106.7433
303 28.15240 0.000000 12.98280 3.491828 2.449256 2.395638
304 41.29970 0.000000 26.96560 7.858797 5.379903 6.687797
305 50.17140 41.34670 36.71040 16.59152 16.00431 13.38316
306 26.62290 28.02250 18.51380 5.511834 6.003503 4.459540
307 37.38780 32.33200 28.51470 9.411749 9.293842 8.215372
308 57.80170 55.35800 31.39160 23.13015 24.00371 12.57541
309 57.58190 73.58310 54.67910 34.06821 40.26889 32.00156
310 0.000000 100.0000 42.61630 31.15972 50.69689 25.80774
311 26.40350 100.0000 71.70860 39.87049 58.51203 55.12555
312 43.69830 100.0000 86.12380 49.20759 65.98458 77.01826
313 100.0000 0.000000 0.000000 43.55695 25.88668 5.412974
314 100.0000 0.000000 22.24490 44.36759 26.70488 9.099400
315 100.0000 0.000000 67.71340 51.79871 34.20522 42.89258
316 100.0000 70.90570 90.26880 73.89244 66.72560 82.69397
317 100.0000 81.30780 100.0000 83.24594 79.81713 103.5577
318 28.38120 0.000000 100.0000 22.99915 22.11968 90.90936
319 50.59970 0.000000 100.0000 29.82708 26.13548 91.65103
320 86.26690 0.000000 100.0000 50.91078 38.53573 93.94119
321 31.92380 14.54570 0.000000 4.592300 3.615363 1.357517
322 47.11170 17.75760 0.000000 9.608822 6.853485 1.981301
323 100.0000 34.83570 0.000000 46.63178 31.13083 6.688963
324 100.0000 52.40300 35.14820 53.00247 40.64917 17.32774
325 26.80100 0.000000 22.14780 3.755469 2.816346 4.658952
326 35.26220 9.896700 25.50080 6.251358 4.734688 6.104319
327 44.40880 33.15280 24.87120 11.54386 10.57732 7.221763
328 85.72020 34.18450 56.73580 39.18973 28.95344 30.43741
329 89.00730 51.39420 100.0000 60.39082 52.15530 97.17641
330 58.54420 38.00040 84.07320 30.54848 28.04145 64.40016
331 82.02570 54.00770 83.43110 48.88881 43.52473 66.71393
332 37.14130 40.20880 17.44300 10.19985 11.25191 5.393126
333 18.14120 37.23460 0.000000 5.281580 7.365988 2.349575
334 21.65450 50.92080 0.000000 9.212811 13.57360 3.844648
335 40.17060 59.76840 14.71280 16.73678 21.47373 7.251576
336 39.76760 75.94200 33.40340 25.08038 34.90574 16.33181
337 49.13130 77.35220 70.67430 36.47800 45.51493 50.45199
338 47.76290 100.0000 75.42140 47.14698 63.27210 60.97951
339 61.48700 100.0000 88.68010 57.46315 71.24414 82.17399
340 73.16710 100.0000 100.0000 69.05303 80.04700 104.3678
341 8.333300 0.000000 0.000000 0.884527 0.789155 0.777786
342 10.68380 0.000000 0.000000 1.028651 0.873921 0.793442
343 13.25820 0.000000 21.21930 1.968585 1.739408 4.190914
344 21.41790 0.000000 51.20390 6.581408 6.017749 21.18970
345 71.72880 0.000000 56.48510 26.27878 18.03612 27.89789
346 0.000000 31.25000 0.000000 3.034015 4.812029 1.767633
347 0.000000 34.94620 0.000000 3.660631 5.880725 2.027665
348 0.000000 38.88890 0.000000 4.515752 7.339139 2.382521
349 55.00660 42.15390 0.000000 16.57167 15.31157 3.933841
350 71.47590 47.90740 0.000000 26.83248 22.98335 5.497211
351 100.0000 58.07100 0.000000 52.98479 41.96591 9.325319
352 0.000000 8.333300 0.000000 0.804935 1.010322 0.842615
353 11.20990 12.75940 0.000000 1.527659 1.684131 0.989319
354 26.85080 65.29470 0.000000 15.17738 22.84682 6.073221
355 56.89680 66.23480 0.000000 25.32757 29.28394 7.303898
356 62.83630 76.55640 25.25750 33.93169 40.16700 14.28225
357 67.26450 100.0000 24.94400 46.50524 58.88499 18.65017
358 68.01940 100.0000 43.83710 49.16737 61.36912 28.61898
359 0.000000 100.0000 23.88140 29.09322 48.61114 16.41029
360 30.99910 100.0000 38.87770 33.83533 52.03845 23.65236
361 50.03050 100.0000 49.66830 41.63660 57.35834 32.21064
362 33.54570 69.47220 38.24000 20.84102 29.22336 17.69180
363 56.13490 76.38660 43.05510 32.77427 40.24570 23.15321
364 70.41680 100.0000 59.32510 53.65415 65.23660 42.05511
365 75.31630 100.0000 71.60440 59.96618 70.31848 57.17440
366 0.000000 67.53530 35.78000 15.79356 25.16967 15.39558
367 18.97420 77.73320 58.36900 25.76263 38.08643 35.16237
368 33.41940 77.72620 64.81700 29.89292 41.16107 42.45446
369 0.000000 38.53730 78.95170 16.09700 18.97101 55.38845
370 24.52570 51.05850 100.0000 29.44305 33.84157 93.78408
371 45.20630 62.44330 100.0000 38.85201 43.76251 96.00895
372 0.000000 0.000000 34.94620 2.474890 2.528865 9.427890
373 17.61490 0.000000 36.52350 3.766928 3.375745 10.48490
374 86.13450 0.000000 40.13080 33.65727 21.16772 15.96765
375 100.0000 0.000000 52.56350 48.27041 30.64406 26.84758
376 100.0000 23.80900 62.90720 51.96739 35.39803 37.58974
377 100.0000 60.89070 100.0000 73.75286 63.62662 99.61830
378 39.03980 0.000000 37.10900 8.176591 6.002987 11.31934
379 47.25430 0.000000 64.99940 16.30933 13.01235 35.66492
380 53.64520 0.000000 81.49590 23.72430 19.48020 58.67461
381 100.0000 0.000000 83.58740 56.73589 39.18839 65.34451
382 100.0000 18.20870 90.82450 60.30474 43.40033 77.95400
383 0.000000 68.57260 83.82960 27.50054 37.30599 66.73214
384 0.000000 84.27970 85.83140 36.10738 51.48627 73.26420
385 0.000000 100.0000 100.0000 47.93053 67.62393 102.0734
386 29.19670 100.0000 100.0000 50.76119 69.28876 102.3809
387 0.000000 42.16470 38.08300 7.637538 11.04130 13.30645
388 0.000000 59.51570 42.19010 13.42720 20.49977 18.17738
389 31.01550 68.18000 47.44280 21.08041 29.34465 23.91387
390 50.04990 77.94520 59.96070 34.28196 43.36745 37.70158
391 59.57420 79.71130 69.50710 41.76410 49.83457 49.91505
392 0.000000 22.16420 12.64220 2.128204 3.067643 2.576090
393 14.97470 25.08680 19.73900 3.656228 4.510452 4.459751
394 13.56430 35.40840 36.46360 6.545689 8.565544 11.72616
395 35.70760 43.98800 52.00610 14.81341 16.72208 24.33832
396 0.000000 32.89920 24.95850 4.301929 6.274047 6.451423
397 35.59470 45.82110 35.43960 12.60850 14.83187 12.53528
398 47.40610 47.27230 40.57450 17.60345 18.49547 16.35899
399 72.71780 48.01430 69.51690 36.40159 32.33146 45.41030
400 0.000000 0.000000 0.000000 0.565103 0.601287 0.743090
401 13.15790 0.000000 0.000000 1.217595 0.985047 0.813965
402 15.76580 0.000000 0.000000 1.456892 1.125787 0.839958
403 71.44040 0.000000 29.14380 21.94111 13.73629 8.996899
404 74.47900 29.80260 25.27350 25.78645 18.39372 8.746468
405 80.15610 70.83400 35.07030 42.89450 42.67663 18.37411
406 84.23380 73.50000 68.66560 53.88712 53.30823 49.20134
407 100.0000 85.97220 75.58210 76.64592 74.95662 62.85334
