Lenovo/ThinkPad X61/N121X5-L06 #1 2020-05-26 13-57 0.3127x 0.329y sRGB M-S XYZLUT+MTX/N121X5-L06 #1 2020-05-26 13-57 0.3127x 0.329y sRGB M-S XYZLUT+MTX.ti3
CTI3   

DESCRIPTOR "Argyll Calibration Target chart information 3"
ORIGINATOR "Argyll dispread"
CREATED "Tue May 26 14:13:25 2020"
DEVICE_CLASS "DISPLAY"
SINGLE_DIM_STEPS "25"
COMP_GREY_STEPS "73"
DARK_REGION_EMPHASIS "1.6"
COLOR_REP "RGB_XYZ"
TARGET_INSTRUMENT "X-Rite i1 DisplayPro, ColorMunki Display"
DISPLAY_TYPE_REFRESH "NO"
DISPLAY_TYPE_BASE_ID "1"
INSTRUMENT_TYPE_SPECTRAL "NO"
LUMINANCE_XYZ_CDM2 "62.651285 65.852767 71.510581"
NORMALIZED_TO_Y_100 "YES"
VIDEO_LUT_CALIBRATION_POSSIBLE "YES"

BEGIN_ARGYLL_COLPROF_ARGS
-M "N121X5-L06" -A "Lenovo Group Limited"
END_ARGYLL_COLPROF_ARGS

OBSERVER "1931_2"

NUMBER_OF_FIELDS 7
BEGIN_DATA_FORMAT
SAMPLE_ID RGB_R RGB_G RGB_B XYZ_X XYZ_Y XYZ_Z
END_DATA_FORMAT

NUMBER_OF_SETS 825
BEGIN_DATA
1 100.0000 100.0000 100.0000 95.13842 100.0000 108.5916
2 1.960800 1.960800 1.960800 0.649977 0.692522 0.821531
3 3.921600 3.921600 3.921600 0.798282 0.844502 0.995510
4 5.882400 5.882400 5.882400 0.973249 1.029005 1.159648
5 9.803900 9.803900 9.803900 1.447767 1.538373 1.725683
6 13.72600 13.72600 13.72600 2.108714 2.220881 2.541955
7 17.64700 17.64700 17.64700 3.005254 3.182799 3.608171
8 21.56900 21.56900 21.56900 4.109849 4.355336 4.885080
9 25.49000 25.49000 25.49000 5.473344 5.812338 6.451931
10 29.41200 29.41200 29.41200 6.972829 7.409524 8.152446
11 33.33300 33.33300 33.33300 8.874153 9.315730 10.04997
12 37.25500 37.25500 37.25500 11.23881 11.79941 12.86715
13 41.17600 41.17600 41.17600 13.94974 14.69516 15.88887
14 45.09800 45.09800 45.09800 16.88788 17.74378 19.25838
15 49.02000 49.02000 49.02000 20.11908 21.08852 22.90889
16 52.94100 52.94100 52.94100 23.34330 24.57429 26.82194
17 56.86300 56.86300 56.86300 27.30565 28.77308 31.09992
18 60.78400 60.78400 60.78400 31.33359 32.99816 35.84135
19 64.70600 64.70600 64.70600 35.63713 37.67939 40.98042
20 68.62700 68.62700 68.62700 41.04675 43.36703 47.19814
21 72.54900 72.54900 72.54900 46.38554 48.76397 53.11872
22 76.47100 76.47100 76.47100 52.02726 54.97115 59.94297
23 80.39200 80.39200 80.39200 58.05079 61.21988 66.87420
24 84.31400 84.31400 84.31400 64.53729 68.02481 73.80770
25 88.23500 88.23500 88.23500 71.54726 75.22909 81.89296
26 92.15700 92.15700 92.15700 78.70139 82.77345 89.98174
27 96.07800 96.07800 96.07800 86.84196 91.27337 99.22454
28 3.968300 0.000000 0.000000 0.682486 0.672550 0.764628
29 6.097600 0.000000 0.000000 0.770355 0.725061 0.779149
30 67.17430 81.52110 0.000000 38.21106 45.78924 11.80642
31 100.0000 100.0000 0.000000 74.30551 78.27236 17.96113
32 100.0000 100.0000 23.07680 75.54040 79.78524 21.90254
33 32.03750 43.57710 0.000000 9.340561 11.75100 3.705373
34 48.74850 50.94890 0.000000 16.63264 18.50949 5.354815
35 65.68580 57.39530 0.000000 26.10392 26.51401 7.183741
36 85.46130 61.96180 0.000000 41.00621 36.93215 9.209832
37 90.00440 79.56020 0.000000 53.42178 53.65530 13.02866
38 0.000000 83.35090 28.58150 23.68479 39.24787 15.54547
39 29.33380 82.86330 100.0000 45.04473 59.58309 100.5980
40 0.000000 69.34120 100.0000 35.05947 46.04844 97.06022
41 0.000000 82.77920 100.0000 42.09816 57.74533 100.0350
42 18.51850 0.000000 0.000000 1.784868 1.331891 0.934808
43 21.42860 0.000000 0.000000 2.147400 1.548487 0.988166
44 24.50980 0.000000 0.000000 2.537098 1.779195 1.045885
45 27.77780 0.000000 0.000000 3.102512 2.115540 1.127873
46 31.25000 0.000000 0.000000 3.871520 2.571922 1.234815
47 34.94620 0.000000 0.000000 4.724073 3.076156 1.353156
48 38.88890 0.000000 0.000000 5.780487 3.701853 1.498405
49 43.10350 0.000000 0.000000 7.165804 4.521522 1.683549
50 47.61910 0.000000 0.000000 8.715908 5.437513 1.889112
51 52.46910 0.000000 0.000000 10.61908 6.560503 2.129697
52 57.69230 0.000000 0.000000 12.67603 7.772331 2.383199
53 63.33330 0.000000 0.000000 14.96722 9.120608 2.659160
54 69.44440 0.000000 0.000000 18.71757 11.32824 3.087733
55 76.08700 0.000000 0.000000 22.65620 13.64561 3.508920
56 83.33330 0.000000 0.000000 27.38133 16.42444 3.983271
57 91.26980 0.000000 0.000000 34.31236 20.46464 4.591606
58 100.0000 30.19440 34.04400 47.09032 31.24532 14.40785
59 100.0000 100.0000 90.07570 90.25589 93.99097 88.65246
60 100.0000 100.0000 100.0000 95.09032 99.88651 108.5904
61 20.14650 28.39430 100.0000 24.03767 25.34850 92.26349
62 77.08920 61.20270 100.0000 55.03427 53.93598 99.19600
63 0.000000 10.68380 0.000000 0.895605 1.206740 0.920482
64 0.000000 13.15790 0.000000 1.072053 1.515366 1.007489
65 0.000000 15.76580 0.000000 1.220755 1.789685 1.081981
66 0.000000 18.51850 0.000000 1.437939 2.173930 1.190434
67 0.000000 21.42860 0.000000 1.769796 2.759086 1.351075
68 0.000000 24.50980 0.000000 2.062498 3.281782 1.492279
69 14.71020 24.53850 0.000000 2.967755 3.895073 1.657300
70 33.19080 26.66570 0.000000 6.253855 6.135919 2.212960
71 100.0000 67.61490 22.18170 57.75011 50.00953 14.88814
72 100.0000 100.0000 100.0000 95.09032 99.88651 108.5904
73 0.000000 27.77780 0.000000 2.573838 4.170836 1.733629
74 0.000000 43.10350 0.000000 5.536865 9.322193 3.100551
75 0.000000 47.61910 0.000000 6.702493 11.34525 3.628261
76 0.000000 52.46910 0.000000 8.332742 14.15655 4.351258
77 0.000000 57.69230 0.000000 9.976873 16.96462 5.067433
78 0.000000 63.33330 0.000000 12.11490 20.63015 5.982504
79 0.000000 69.44440 0.000000 14.70106 25.11967 7.087110
80 0.000000 83.33330 0.000000 21.80241 37.04245 9.906131
81 0.000000 91.26980 0.000000 26.56451 45.00756 11.70350
82 0.000000 100.0000 0.000000 31.36126 53.08572 13.43866
83 84.32130 100.0000 0.000000 60.09452 70.01373 16.85518
84 83.78140 100.0000 24.31840 61.06543 71.31203 21.05787
85 56.54750 100.0000 64.45430 50.77692 67.20620 47.21981
86 64.86930 100.0000 78.56320 58.69550 73.52946 66.85832
87 89.03580 100.0000 81.74230 76.23330 84.26909 73.40818
88 0.000000 0.000000 10.68380 0.726691 0.737790 1.574331
89 0.000000 0.000000 13.15790 0.823188 0.813832 2.009519
90 0.000000 0.000000 15.76580 0.902294 0.880978 2.391344
91 0.000000 0.000000 18.51850 1.051172 1.004991 3.090026
92 0.000000 0.000000 21.42860 1.223639 1.151480 3.932918
93 0.000000 0.000000 24.50980 1.378947 1.285446 4.680561
94 0.000000 0.000000 27.77780 1.644163 1.510403 5.941664
95 0.000000 0.000000 31.25000 1.894932 1.726108 7.140499
96 0.000000 0.000000 38.88890 2.697613 2.420379 10.95262
97 0.000000 0.000000 43.10350 3.282298 2.931226 13.69807
98 0.000000 0.000000 47.61910 3.871859 3.448967 16.48289
99 0.000000 0.000000 52.46910 4.756564 4.239119 20.68364
100 0.000000 0.000000 57.69230 5.722004 5.112873 25.23107
101 0.000000 0.000000 63.33330 6.944759 6.218203 30.88895
102 0.000000 0.000000 69.44440 8.454448 7.629021 37.96403
103 0.000000 0.000000 76.08700 10.47618 9.554418 47.27138
104 0.000000 0.000000 83.33330 12.78488 11.81132 57.86566
105 0.000000 0.000000 91.26980 16.00643 15.22434 72.30335
106 68.13010 0.000000 100.0000 37.79607 30.86631 93.30016
107 76.94070 17.56710 100.0000 44.03471 35.62528 94.43908
108 78.00920 40.79640 100.0000 49.08862 42.93963 96.21624
109 1.938000 1.938000 1.938000 0.648245 0.690733 0.820713
110 2.604200 2.604200 2.604200 0.697003 0.741869 0.885523
111 3.280800 3.280800 3.280800 0.733042 0.779028 0.904392
112 3.968300 3.968300 3.968300 0.795707 0.841495 0.994615
113 4.666700 4.666700 4.666700 0.846699 0.910432 1.041219
114 5.376300 5.376300 5.376300 0.926884 0.980691 1.142497
115 6.097600 6.097600 6.097600 0.997732 1.073968 1.210088
116 6.830600 6.830600 6.830600 1.030405 1.095916 1.257025
117 7.575800 7.575800 7.575800 1.103446 1.171158 1.341451
118 8.333300 8.333300 8.333300 1.238531 1.312622 1.442548
119 9.103600 9.103600 9.103600 1.335089 1.419386 1.598066
120 9.887000 9.887000 9.887000 1.437919 1.527789 1.721048
121 10.68380 10.68380 10.68380 1.541406 1.636853 1.842776
122 11.49420 11.49420 11.49420 1.693457 1.775627 1.971386
123 12.31880 12.31880 12.31880 1.816589 1.910722 2.101843
124 13.15790 13.15790 13.15790 2.071055 2.185661 2.410336
125 14.01180 14.01180 14.01180 2.200397 2.325187 2.566031
126 14.88100 14.88100 14.88100 2.335375 2.477587 2.731561
127 15.76580 15.76580 15.76580 2.535342 2.667626 2.917339
128 16.66670 16.66670 16.66670 2.814530 2.979401 3.275455
129 17.58410 17.58410 17.58410 2.987695 3.164477 3.595347
130 18.51850 18.51850 18.51850 3.188421 3.355329 3.785430
131 19.47040 19.47040 19.47040 3.481571 3.674267 4.140468
132 20.44020 20.44020 20.44020 3.755365 3.976766 4.364296
133 21.42860 21.42860 21.42860 4.085116 4.330106 4.867895
134 22.43590 22.43590 22.43590 4.362510 4.646070 5.102421
135 23.46280 23.46280 23.46280 4.750168 5.033868 5.495669
136 24.50980 24.50980 24.50980 4.952719 5.242872 5.845154
137 25.57760 25.57760 25.57760 5.449463 5.783357 6.434358
138 26.66670 26.66670 26.66670 5.871804 6.207419 6.862225
139 27.77780 27.77780 27.77780 6.322732 6.735062 7.480270
140 28.91160 28.91160 28.91160 6.776127 7.185330 7.922782
141 30.06870 30.06870 30.06870 7.378004 7.808345 8.424725
142 31.25000 31.25000 31.25000 7.881933 8.307762 9.063876
143 32.45610 32.45610 32.45610 8.483662 8.862686 9.564670
144 33.68790 33.68790 33.68790 9.136342 9.607965 10.38744
145 34.94620 34.94620 34.94620 9.750250 10.25973 11.08132
146 36.23190 36.23190 36.23190 10.50553 11.01907 11.83667
147 37.54580 37.54580 37.54580 11.51549 12.09785 13.21554
148 38.88890 38.88890 38.88890 12.30607 13.02296 14.00042
149 40.26220 40.26220 40.26220 13.18844 13.89064 15.08499
150 41.66670 41.66670 41.66670 14.26674 15.02623 16.26522
151 43.10350 43.10350 43.10350 15.25041 15.98781 17.45266
152 44.57360 44.57360 44.57360 16.42161 17.24216 18.78233
153 46.07840 46.07840 46.07840 17.23589 18.11340 19.67953
154 47.61910 47.61910 47.61910 18.66414 19.55808 21.08518
155 49.19680 49.19680 49.19680 20.05895 21.01577 22.88401
156 50.81300 50.81300 50.81300 21.77391 22.91473 24.87149
157 52.46910 52.46910 52.46910 23.26963 24.45464 26.39921
158 54.16670 54.16670 54.16670 24.62418 25.95147 27.95616
159 55.90720 55.90720 55.90720 26.39518 27.73865 30.42261
160 57.69230 57.69230 57.69230 28.04986 29.48257 32.08869
161 59.52380 59.52380 59.52380 29.95095 31.63514 34.65373
162 61.40350 61.40350 61.40350 32.06223 33.88861 36.92944
163 63.33330 63.33330 63.33330 33.87715 35.74965 39.12506
164 65.31530 65.31530 65.31530 36.77080 38.90607 42.22915
165 67.35160 67.35160 67.35160 39.33775 41.55713 45.33565
166 69.44440 69.44440 69.44440 41.97440 44.08070 47.94187
167 71.59620 71.59620 71.59620 45.08670 47.64486 51.81407
168 73.80950 73.80950 73.80950 47.81944 50.34835 55.06191
169 76.08700 76.08700 76.08700 51.56640 54.23319 59.13972
170 78.43140 78.43140 78.43140 54.66876 57.68511 63.19057
171 80.84580 80.84580 80.84580 58.75038 61.96363 67.52892
172 83.33330 83.33330 83.33330 62.55214 65.85025 71.86496
173 85.89740 85.89740 85.89740 67.30215 70.86904 77.35990
174 88.54170 88.54170 88.54170 72.37133 76.10420 82.85359
175 91.26980 91.26980 91.26980 77.59777 81.56832 88.63731
176 94.08600 94.08600 94.08600 83.17807 87.31479 94.99755
177 0.000000 0.000000 1.938000 0.575048 0.609131 0.794277
178 0.000000 0.000000 3.968300 0.600659 0.630725 0.931189
179 0.000000 0.000000 6.097600 0.631933 0.657016 1.086023
180 0.000000 0.000000 8.333300 0.671490 0.686713 1.260740
181 14.70330 0.000000 12.13720 1.606088 1.273928 1.918708
182 19.35900 40.84860 17.88370 6.883923 9.747026 5.368370
183 0.000000 79.72540 55.06710 25.15647 38.92540 31.40092
184 0.000000 83.29070 70.96020 30.69567 45.50893 49.50438
185 0.000000 100.0000 72.30620 40.84111 62.13083 54.67338
186 0.000000 100.0000 85.19650 45.05094 66.24448 73.58221
187 25.18380 100.0000 86.39310 47.96091 68.31132 77.32413
188 88.85660 100.0000 91.16570 79.95489 88.06039 88.99894
189 88.85580 100.0000 100.0000 84.44889 93.72106 107.7838
190 0.000000 19.79760 20.06060 2.146189 2.883911 4.028878
191 0.000000 31.31590 57.33100 8.224587 9.605972 26.09572
192 0.000000 44.49600 65.50550 13.04792 16.48064 35.97700
193 32.22340 49.66100 74.33220 20.99320 23.98127 49.79387
194 61.16190 56.39260 77.05120 34.17580 34.45312 55.69942
195 100.0000 0.000000 37.41440 44.51588 26.96256 14.95217
196 100.0000 21.37520 46.57630 47.54089 30.62418 21.87454
197 100.0000 45.20630 46.01340 52.08360 38.38123 23.23549
198 72.34780 34.89710 0.000000 23.70295 17.97237 4.819331
199 88.09600 44.60110 0.000000 37.59114 28.68387 6.971068
200 100.0000 77.09640 0.000000 61.37793 56.75376 13.18155
201 100.0000 84.43590 19.85930 66.16300 64.24263 17.68316
202 54.54470 64.11800 36.46890 25.64346 29.97586 16.87432
203 63.99520 74.35910 37.35840 35.10815 40.86574 19.98313
204 70.61380 77.23790 61.96790 44.72876 49.44707 41.02321
205 33.01630 15.65790 18.58820 5.473271 4.455619 4.050884
206 46.18580 23.72440 31.12420 11.17421 8.994823 8.997007
207 58.76100 31.19960 40.39220 18.37243 14.80158 15.17328
208 68.54860 35.35800 40.94390 24.30515 19.22457 16.47002
209 27.42130 30.30720 87.87220 19.60684 19.60443 67.70441
210 26.07940 67.73260 100.0000 36.88663 46.31857 97.61400
211 44.52330 75.74520 100.0000 45.74842 55.89281 99.94808
212 0.000000 76.08700 0.000000 18.05356 30.77129 8.446486
213 29.74320 80.59880 0.000000 23.68156 36.89577 9.912813
214 51.68260 84.59940 0.000000 32.72209 44.48381 11.65174
215 83.88650 100.0000 42.15450 63.12514 73.09326 29.48895
216 100.0000 100.0000 55.99570 80.01779 83.79560 42.29759
217 100.0000 100.0000 68.71520 82.99268 86.66729 56.17391
218 48.26530 0.000000 51.52160 12.96854 9.068936 21.24066
219 64.67130 0.000000 61.70940 21.91947 15.01334 31.99540
220 83.97690 0.000000 71.12580 36.75308 24.56587 44.60174
221 87.64060 12.61330 82.01350 43.62158 30.56056 61.17220
222 100.0000 56.01690 83.80160 65.15313 53.41001 69.01882
223 0.000000 1.938000 0.000000 0.593479 0.655994 0.761473
224 0.000000 3.968300 0.000000 0.637970 0.739335 0.786112
225 0.000000 6.097600 0.000000 0.721916 0.892842 0.831662
226 18.64480 10.29120 0.000000 2.166866 1.927249 1.106826
227 28.48370 35.07250 53.14150 11.04738 11.86969 24.00561
228 44.75290 37.23850 77.27340 22.12301 21.05445 52.87959
229 62.46910 74.95420 100.0000 52.79151 59.74027 100.7708
230 90.52950 85.90390 100.0000 77.93015 80.96230 105.0718
231 43.38870 0.000000 15.53120 7.695675 4.915169 3.410014
232 60.98010 0.000000 16.18130 14.38661 8.871741 4.397152
233 63.28800 24.86600 100.0000 36.79917 32.25497 93.91592
234 38.83720 0.000000 83.88060 18.48255 15.41375 60.72497
235 45.74190 17.77190 100.0000 28.91238 26.70122 92.50026
236 52.25590 40.73710 100.0000 35.30404 34.88302 94.56013
237 34.44950 24.35070 100.0000 26.28496 26.01094 92.24025
238 40.21770 47.13680 100.0000 32.74642 35.41485 94.89678
239 52.69540 100.0000 100.0000 62.85149 80.93227 105.5905
240 33.35020 100.0000 23.00260 36.62532 56.84782 17.92558
241 52.35230 100.0000 30.06600 43.55441 61.14573 21.11144
242 28.32310 100.0000 0.000000 34.22923 54.80900 13.85683
243 50.10380 100.0000 0.000000 40.89154 58.79173 14.76815
244 68.22720 100.0000 0.000000 49.34744 63.73293 15.77621
245 83.77550 100.0000 57.22320 65.88739 75.60445 41.98570
246 100.0000 39.24410 56.30290 52.48728 37.45816 31.38371
247 100.0000 39.10920 74.43080 57.12680 41.82738 52.92040
248 55.47060 0.000000 42.95110 14.45498 9.574727 15.65273
249 71.35820 0.000000 42.29270 22.27184 14.14055 15.95290
250 81.92750 0.000000 83.31930 39.20387 27.52903 62.34319
251 100.0000 0.000000 100.0000 62.39277 45.36482 95.47633
252 100.0000 35.54180 100.0000 66.44106 51.91658 97.25606
253 23.43450 49.80550 46.98220 13.07367 17.18671 20.50933
254 32.64790 60.06670 49.18570 18.69186 24.63556 23.85637
255 38.30130 72.85930 78.97010 33.26805 42.15639 60.37102
256 0.000000 55.76190 50.88190 13.64501 19.92108 23.73460
257 0.000000 56.78780 67.95240 17.61533 23.93193 40.84251
258 27.62740 57.28010 74.63070 22.38842 27.69096 50.62067
259 61.76790 60.48090 100.0000 45.82265 48.33439 98.08839
260 38.83620 21.81030 40.14760 9.543267 8.094711 13.28744
261 44.49200 32.72350 48.02910 13.89853 12.67320 19.68220
262 63.39480 41.74510 53.46330 24.96651 21.94715 26.49352
263 82.28070 58.69740 62.88600 44.63589 40.28053 39.42470
264 72.40010 51.37190 47.23400 31.94319 28.72121 23.13905
265 100.0000 64.76550 52.32080 60.03795 51.10371 31.24346
266 92.25420 69.88040 52.97360 54.85457 50.67438 32.41874
267 100.0000 73.92720 66.39280 67.71211 61.49073 47.52317
268 54.91880 44.90250 26.21300 18.42418 18.01093 9.671508
269 78.18440 54.49980 31.37670 34.53211 30.81077 14.29517
270 77.62310 67.33970 89.98650 53.33042 52.99546 79.87058
271 78.52370 75.37410 100.0000 62.22609 65.33125 101.8748
272 25.17590 23.51630 42.59940 6.939205 6.876673 14.77845
273 34.36390 23.57070 49.80780 10.11763 9.084175 20.19377
274 41.77960 44.59570 70.58870 21.11501 21.81988 44.06179
275 0.000000 14.73550 27.59440 2.236206 2.608192 6.117831
276 0.000000 48.18960 29.53250 8.380441 13.18766 9.565537
277 12.12130 50.36510 41.88040 10.90102 15.64338 16.40451
278 42.34240 64.92600 67.11330 27.35817 33.28656 42.92253
279 55.14830 66.01140 78.01110 36.07088 40.08825 58.85044
280 0.000000 0.000000 100.0000 20.31421 20.53896 90.50807
281 0.000000 32.64570 100.0000 23.15785 25.41671 91.98950
282 0.000000 52.11820 100.0000 28.35289 34.45640 94.37068
283 0.000000 18.52960 42.40570 4.049290 4.438371 13.54471
284 62.62280 22.68910 61.57460 22.82816 17.19335 32.62674
285 68.20970 35.43060 70.26610 30.02443 24.50624 43.99701
286 76.32380 86.67880 100.0000 67.53803 75.65333 104.2758
287 0.000000 33.79560 45.56270 6.583898 8.506989 16.57940
288 0.000000 46.84470 52.72410 10.95092 15.08309 23.62837
289 0.000000 67.09790 67.22130 21.58157 30.81684 41.55917
290 22.65190 75.02560 78.97440 30.92047 41.85802 60.11332
291 0.000000 100.0000 58.77730 37.63405 59.07482 39.51420
292 35.63410 100.0000 62.38360 43.09939 62.60174 44.34636
293 0.000000 52.53060 19.55510 9.064691 14.92211 7.066603
294 29.96780 56.61960 25.78200 13.83508 19.32515 9.979377
295 41.92280 56.73580 42.84570 19.29572 23.30834 19.04100
296 86.37670 73.89920 48.53940 51.14337 50.27345 29.12374
297 100.0000 82.40400 58.80630 70.45095 67.56385 41.28670
298 40.66530 45.85970 7.953200 12.44749 14.35719 4.854494
299 74.23030 71.19700 0.000000 37.16586 39.50359 10.21062
300 77.48690 78.51690 17.79960 43.70553 47.59605 14.24756
301 96.99450 96.99450 96.99450 88.46557 92.78088 101.0690
302 100.0000 100.0000 100.0000 95.13842 100.0000 108.5916
303 28.15240 0.000000 12.98280 3.429831 2.364440 2.312650
304 41.29970 0.000000 26.96560 7.591031 5.035291 6.631953
305 50.17140 41.34670 36.71040 16.59881 16.08374 13.65074
306 26.62290 28.02250 18.51380 5.580513 6.138630 4.538273
307 37.38780 32.33200 28.51470 9.365665 9.320048 8.313466
308 57.80170 55.35800 31.39160 23.36361 24.67160 13.16246
309 57.58190 73.58310 54.67910 34.43809 40.86969 32.03524
310 0.000000 100.0000 42.61630 34.67712 56.44541 26.32569
311 26.40350 100.0000 71.70860 43.34680 63.70123 55.30404
312 43.69830 100.0000 86.12380 52.97100 71.38720 78.16497
313 100.0000 0.000000 0.000000 42.48688 25.24838 5.207008
314 100.0000 0.000000 22.24490 43.22805 25.86026 8.692632
315 100.0000 0.000000 67.71340 50.37312 32.23686 42.11333
316 100.0000 70.90570 90.26880 74.00956 66.82184 82.67256
317 100.0000 81.30780 100.0000 84.37893 82.09774 104.7037
318 28.38120 0.000000 100.0000 23.09406 22.19701 91.35919
319 50.59970 0.000000 100.0000 29.83477 26.19421 92.47763
320 86.26690 0.000000 100.0000 50.01994 38.06610 94.67714
321 31.92380 14.54570 0.000000 4.623848 3.693783 1.551997
322 47.11170 17.75760 0.000000 9.543307 6.924374 2.310983
323 100.0000 34.83570 0.000000 46.31100 31.18879 6.774151
324 100.0000 52.40300 35.14820 52.97003 41.13696 17.55819
325 26.80100 0.000000 22.14780 3.642566 2.602520 4.386715
326 35.26220 9.896700 25.50080 6.163330 4.541255 6.079797
327 44.40880 33.15280 24.87120 11.45130 10.65149 7.379517
328 85.72020 34.18450 56.73580 38.53319 28.13529 30.28065
329 89.00730 51.39420 100.0000 60.14949 52.87232 98.52271
330 58.54420 38.00040 84.07320 29.91980 26.91786 63.62928
331 82.02570 54.00770 83.43110 48.58805 43.10250 66.79023
332 37.14130 40.20880 17.44300 10.38701 11.68664 5.704670
333 18.14120 37.23460 0.000000 5.382292 7.689612 2.674053
334 21.65450 50.92080 0.000000 9.498768 14.30142 4.391370
335 40.17060 59.76840 14.71280 17.11114 22.36595 7.881786
336 39.76760 75.94200 33.40340 25.75005 36.21976 16.79564
337 49.13130 77.35220 70.67430 36.74887 45.57711 49.94163
338 47.76290 100.0000 75.42140 50.59227 68.38081 61.41249
339 61.48700 100.0000 88.68010 61.08765 76.58334 83.03421
340 73.16710 100.0000 100.0000 73.24359 87.17235 106.6908
341 8.333300 0.000000 0.000000 0.901271 0.804865 0.801380
342 10.68380 0.000000 0.000000 1.027972 0.881235 0.821764
343 13.25820 0.000000 21.21930 1.932865 1.574646 3.978786
344 21.41790 0.000000 51.20390 6.207855 5.058506 20.19987
345 71.72880 0.000000 56.48510 24.98061 16.45920 27.24197
346 0.000000 31.25000 0.000000 3.073355 5.045386 1.971462
347 0.000000 34.94620 0.000000 3.716382 6.164591 2.268167
348 0.000000 38.88890 0.000000 4.656459 7.803092 2.704925
349 55.00660 42.15390 0.000000 16.47658 15.51344 4.518936
350 71.47590 47.90740 0.000000 26.42378 23.19073 6.207927
351 100.0000 58.07100 0.000000 52.90310 42.45378 9.680373
352 0.000000 8.333300 0.000000 0.793008 1.022082 0.868297
353 11.20990 12.75940 0.000000 1.592643 1.781349 1.078705
354 26.85080 65.29470 0.000000 15.68469 23.94131 6.814229
355 56.89680 66.23480 0.000000 25.54530 30.00694 8.167302
356 62.83630 76.55640 25.25750 34.57928 41.50243 15.08398
357 67.26450 100.0000 24.94400 50.29493 65.09535 20.28293
358 68.01940 100.0000 43.83710 52.66683 67.11055 29.73401
359 0.000000 100.0000 23.88140 32.73971 54.65030 17.41669
360 30.99910 100.0000 38.87770 37.49729 58.01957 24.63575
361 50.03050 100.0000 49.66830 45.44349 63.16954 33.14404
362 33.54570 69.47220 38.24000 21.32417 29.96875 18.05657
363 56.13490 76.38660 43.05510 33.35990 41.35886 23.71909
364 70.41680 100.0000 59.32510 57.28262 70.82384 43.21318
365 75.31630 100.0000 71.60440 63.26445 75.42330 58.16250
366 0.000000 67.53530 35.78000 16.14620 26.00339 15.48048
367 18.97420 77.73320 58.36900 26.14869 38.65091 35.05863
368 33.41940 77.72620 64.81700 30.28103 41.52299 41.92763
369 0.000000 38.53730 78.95170 15.44554 17.68063 53.15271
370 24.52570 51.05850 100.0000 30.14952 35.19111 94.93273
371 45.20630 62.44330 100.0000 39.61032 45.37361 97.26787
372 0.000000 0.000000 34.94620 2.228506 2.016644 8.722547
373 17.61490 0.000000 36.52350 3.554318 2.866326 9.914069
374 86.13450 0.000000 40.13080 32.39506 19.98251 15.44290
375 100.0000 0.000000 52.56350 46.90130 29.06496 25.96153
376 100.0000 23.80900 62.90720 51.14288 34.10251 36.80845
377 100.0000 60.89070 100.0000 74.17913 64.97929 100.8203
378 39.03980 0.000000 37.10900 7.948150 5.512408 11.15704
379 47.25430 0.000000 64.99940 15.52915 11.51897 34.83971
380 53.64520 0.000000 81.49590 22.96440 17.75274 58.09840
381 100.0000 0.000000 83.58740 55.14622 36.90452 64.27705
382 100.0000 18.20870 90.82450 59.44186 41.84514 77.56961
383 0.000000 68.57260 83.82960 27.55943 37.13221 65.56856
384 0.000000 84.27970 85.83140 36.41085 51.52706 72.31269
385 0.000000 100.0000 100.0000 52.27623 74.68626 103.6271
386 29.19670 100.0000 100.0000 55.28385 76.52600 104.4778
387 0.000000 42.16470 38.08300 7.570139 11.06942 12.77330
388 0.000000 59.51570 42.19010 13.63330 21.02455 17.87494
389 31.01550 68.18000 47.44280 21.31109 29.83356 23.71679
390 50.04990 77.94520 59.96070 34.98661 44.18195 37.79344
391 59.57420 79.71130 69.50710 41.87919 50.12984 49.47171
392 0.000000 22.16420 12.64220 2.147979 3.208090 2.568092
393 14.97470 25.08680 19.73900 3.629931 4.535611 4.386640
394 13.56430 35.40840 36.46360 6.518357 8.546839 11.44801
395 35.70760 43.98800 52.00610 14.76503 16.48981 24.05782
396 0.000000 32.89920 24.95850 4.246576 6.286958 6.362978
397 35.59470 45.82110 35.43960 12.74077 15.06009 12.63822
398 47.40610 47.27230 40.57450 17.70928 18.71788 16.33182
399 72.71780 48.01430 69.51690 35.70921 31.35937 44.73055
400 0.000000 0.000000 0.000000 0.565611 0.601492 0.744330
401 13.15790 0.000000 0.000000 1.287569 1.035106 0.861374
402 15.76580 0.000000 0.000000 1.505423 1.165746 0.894880
