KOIOS/K2721UG/K2721UG #1 2022-08-20 16-50 0.3127x 0.329y sRGB F-S XYZLUT+MTX/K2721UG #1 2022-08-20 16-50 0.3127x 0.329y sRGB F-S XYZLUT+MTX.ti3
CTI3   

DESCRIPTOR "Argyll Calibration Target chart information 3"
ORIGINATOR "Argyll dispread"
CREATED "Sat Aug 20 16:59:28 2022"
DEVICE_CLASS "DISPLAY"
SINGLE_DIM_STEPS "21"
COMP_GREY_STEPS "61"
DARK_REGION_EMPHASIS "1.6"
COLOR_REP "RGB_XYZ"
TARGET_INSTRUMENT "X-Rite i1 DisplayPro, ColorMunki Display"
DISPLAY_TYPE_REFRESH "NO"
DISPLAY_TYPE_BASE_ID "1"
INSTRUMENT_TYPE_SPECTRAL "NO"
LUMINANCE_XYZ_CDM2 "72.038059 75.504042 82.551853"
NORMALIZED_TO_Y_100 "YES"
VIDEO_LUT_CALIBRATION_POSSIBLE "YES"

BEGIN_ARGYLL_COLPROF_ARGS
-v -qh -aX -bn -C "No copyright. Created with DisplayCAL 3.8.9.3 and ArgyllCMS 2.1.2" -M "KOIOS K2721UG"
END_ARGYLL_COLPROF_ARGS

OBSERVER "1931_2"
USE_BLACK_POINT_COMPENSATION "NO"
BLACK_POINT_CORRECTION "0.0"
HIRES_B2A "YES"
HIRES_B2A_SIZE "-1"
SMOOTH_B2A "YES"
PATCH_SEQUENCE "OPTIMIZE_DISPLAY_RESPONSE_DELAY"

NUMBER_OF_FIELDS 7
BEGIN_DATA_FORMAT
SAMPLE_ID RGB_R RGB_G RGB_B XYZ_X XYZ_Y XYZ_Z
END_DATA_FORMAT

NUMBER_OF_SETS 588
BEGIN_DATA
1 100.0000 100.0000 100.0000 95.40954 100.0000 109.3343
2 1.960800 1.960800 1.960800 0.206960 0.215410 0.314524
3 3.921600 3.921600 3.921600 0.368872 0.374588 0.491760
4 5.882400 5.882400 5.882400 0.547417 0.574875 0.698984
5 9.803900 9.803900 9.803900 1.009349 1.049554 1.253162
6 13.72600 13.72600 13.72600 1.647734 1.706403 2.046502
7 17.64700 17.64700 17.64700 2.638917 2.775189 3.134098
8 21.56900 21.56900 21.56900 3.728409 3.935606 4.424515
9 25.49000 25.49000 25.49000 5.060014 5.305747 5.907834
10 29.41200 29.41200 29.41200 6.729247 7.069102 7.858508
11 33.33300 33.33300 33.33300 8.725494 9.131188 10.06981
12 37.25500 37.25500 37.25500 10.85069 11.38178 12.54634
13 41.17600 41.17600 41.17600 13.43337 14.15687 15.33565
14 45.09800 45.09800 45.09800 16.27535 17.05412 18.70762
15 49.02000 49.02000 49.02000 19.42058 20.47209 22.15211
16 52.94100 52.94100 52.94100 23.07642 24.35051 26.39446
17 56.86300 56.86300 56.86300 27.35272 28.72699 30.85781
18 60.78400 60.78400 60.78400 31.74059 33.31839 36.37425
19 64.70600 64.70600 64.70600 36.31318 37.90018 41.83940
20 68.62700 68.62700 68.62700 41.29922 43.22155 47.31316
21 72.54900 72.54900 72.54900 46.54556 48.94281 53.22480
22 76.47100 76.47100 76.47100 51.87914 54.66688 59.54752
23 80.39200 80.39200 80.39200 58.28245 61.12059 67.12776
24 84.31400 84.31400 84.31400 64.80829 68.22219 74.46469
25 88.23500 88.23500 88.23500 71.35718 75.26781 81.54800
26 92.15700 92.15700 92.15700 78.63162 82.81064 90.14252
27 96.07800 96.07800 96.07800 86.53251 91.09993 99.74929
28 82.07790 31.39870 100.0000 52.02458 26.59683 104.4855
29 100.0000 48.03860 100.0000 72.87283 42.94995 105.1966
30 58.23890 74.09770 51.96100 33.49460 44.60027 26.89761
31 100.0000 88.32320 54.89040 73.92924 77.54250 31.52305
32 22.07500 40.23340 0.000000 5.665401 10.41057 0.844512
33 40.43310 54.27180 54.21580 18.45640 22.80976 27.47938
34 49.90430 64.88310 58.94730 26.72062 33.53166 33.94935
35 100.0000 64.14480 100.0000 77.94544 55.94958 106.0925
36 4.807700 0.000000 0.000000 0.275849 0.188601 0.207263
37 7.425700 0.000000 0.000000 0.412840 0.252351 0.208722
38 10.20410 0.000000 0.000000 0.577828 0.329040 0.210078
39 13.15790 0.000000 0.000000 0.860043 0.461024 0.213026
40 16.30430 0.000000 0.000000 1.171054 0.606163 0.215281
41 19.66290 0.000000 0.000000 1.595743 0.803790 0.219395
42 23.25580 0.000000 0.000000 2.145880 1.060197 0.224404
43 27.10840 0.000000 0.000000 2.866586 1.396324 0.231683
44 31.25000 0.000000 0.000000 3.807020 1.835199 0.240834
45 35.71430 0.000000 0.000000 4.983823 2.383975 0.252537
46 43.08150 0.000000 0.000000 7.288708 3.458108 0.275272
47 45.77470 0.000000 0.000000 8.315570 3.937608 0.285612
48 51.47060 0.000000 0.000000 10.62039 5.012113 0.308338
49 57.69230 0.000000 0.000000 13.88705 6.535160 0.340257
50 64.51610 0.000000 0.000000 17.84505 8.378868 0.379374
51 72.03390 0.000000 0.000000 22.53088 10.56260 0.426487
52 80.35710 0.000000 0.000000 28.67103 13.43241 0.489614
53 89.62260 0.000000 0.000000 36.68502 17.16574 0.567324
54 100.0000 34.68400 0.000000 50.43839 29.25616 1.140626
55 100.0000 48.32630 16.00260 53.69205 36.52192 3.971199
56 0.000000 4.807700 0.000000 0.202884 0.345536 0.221541
57 0.000000 7.425700 0.000000 0.282396 0.547602 0.234693
58 0.000000 10.20410 0.000000 0.388008 0.813468 0.251705
59 0.000000 13.15790 0.000000 0.547045 1.220695 0.278483
60 0.000000 16.30430 0.000000 0.739237 1.708299 0.310702
61 0.000000 19.66290 0.000000 0.999517 2.370954 0.353971
62 0.000000 23.25580 0.000000 1.301769 3.135250 0.404493
63 0.000000 27.10840 0.000000 1.738492 4.246978 0.477927
64 0.000000 31.25000 0.000000 2.315854 5.713501 0.575440
65 0.000000 35.71430 0.000000 2.973430 7.381135 0.685606
66 0.000000 40.54050 0.000000 3.799752 9.476837 0.823709
67 0.000000 45.77470 0.000000 4.917345 12.32134 1.009178
68 0.000000 51.47060 0.000000 6.307624 15.85501 1.244219
69 0.000000 57.69230 0.000000 8.177344 20.73814 1.563913
70 0.000000 64.51610 0.000000 10.44028 26.39152 1.935784
71 0.000000 72.03390 0.000000 13.36069 33.78239 2.423591
72 0.000000 74.62380 24.13860 15.38639 36.75116 7.545836
73 85.50370 100.0000 47.33070 64.83365 87.70728 25.11491
74 100.0000 100.0000 50.88150 80.07168 94.81568 28.44500
75 0.000000 0.000000 2.336400 0.135208 0.120250 0.330261
76 0.000000 0.000000 4.807700 0.175509 0.133903 0.542179
77 0.000000 0.000000 7.425700 0.236109 0.154876 0.860809
78 0.000000 0.000000 10.20410 0.299009 0.176552 1.192182
79 0.000000 0.000000 13.15790 0.423776 0.218936 1.846112
80 0.000000 0.000000 16.30430 0.566782 0.267956 2.599501
81 0.000000 0.000000 19.66290 0.729597 0.323621 3.467154
82 0.000000 0.000000 23.25580 0.944601 0.397329 4.599763
83 0.000000 0.000000 27.10840 1.257931 0.504411 6.238146
84 0.000000 0.000000 31.25000 1.661638 0.643018 8.368069
85 0.000000 0.000000 35.71430 2.119829 0.798807 10.77673
86 0.000000 0.000000 40.54050 2.687152 0.992241 13.76442
87 0.000000 0.000000 45.77470 3.508988 1.272462 18.10941
88 0.000000 0.000000 51.47060 4.396978 1.575152 22.76694
89 0.000000 0.000000 57.69230 5.811267 2.057740 30.21522
90 0.000000 0.000000 64.51610 7.510043 2.637540 39.19200
91 0.000000 0.000000 72.03390 9.442673 3.294477 49.36292
92 0.000000 0.000000 80.35710 12.06953 4.181356 63.18897
93 0.000000 0.000000 89.62260 15.26012 5.272656 80.02261
94 32.18100 0.000000 100.0000 23.74984 8.649888 103.6096
95 30.61630 50.62980 100.0000 29.70347 24.19429 105.0382
96 39.24070 63.33040 100.0000 35.98850 35.26384 105.6315
97 47.29830 80.11630 100.0000 45.93098 54.24618 106.8052
98 63.22460 100.0000 100.0000 64.90393 85.73683 108.8061
99 0.000000 61.52170 65.21550 17.23682 26.79217 41.67721
100 0.000000 67.43330 83.52260 24.65895 33.94923 70.79600
101 5.663400 5.663400 5.663400 0.522245 0.534848 0.655111
102 6.535900 6.535900 6.535900 0.631657 0.671873 0.791336
103 7.425700 7.425700 7.425700 0.715458 0.738772 0.899545
104 8.333300 8.333300 8.333300 0.823404 0.856159 1.011496
105 9.259300 9.259300 9.259300 0.969382 1.028403 1.194532
106 10.20410 10.20410 10.20410 1.051710 1.106288 1.254483
107 11.16840 11.16840 11.16840 1.179593 1.240520 1.392253
108 12.15280 12.15280 12.15280 1.352950 1.403567 1.653259
109 13.15790 13.15790 13.15790 1.629857 1.700954 1.952597
110 14.18440 14.18440 14.18440 1.727838 1.805582 2.054472
111 15.23300 15.23300 15.23300 2.043859 2.142706 2.398262
112 16.30430 16.30430 16.30430 2.286428 2.392557 2.751496
113 17.39930 17.39930 17.39930 2.514316 2.642302 3.008690
114 18.51850 18.51850 18.51850 2.841243 2.950194 3.287438
115 19.66290 19.66290 19.66290 3.158012 3.335515 3.692010
116 20.83330 20.83330 20.83330 3.535187 3.673912 4.130080
117 22.03070 22.03070 22.03070 3.886075 4.101328 4.591046
118 23.25580 23.25580 23.25580 4.245891 4.448038 4.900297
119 24.50980 24.50980 24.50980 4.637374 4.916924 5.408478
120 25.79360 25.79360 25.79360 5.239383 5.495065 6.097038
121 27.10840 27.10840 27.10840 5.755999 6.043298 6.659154
122 28.45530 28.45530 28.45530 6.416987 6.807031 7.485865
123 29.83540 29.83540 29.83540 6.928347 7.273497 8.072929
124 31.25000 31.25000 31.25000 7.738031 8.153601 8.954750
125 32.70040 32.70040 32.70040 8.284296 8.657381 9.604813
126 34.18800 34.18800 34.18800 9.172545 9.602162 10.56132
127 35.71430 35.71430 35.71430 10.09139 10.59292 11.55633
128 37.28070 37.28070 37.28070 10.85416 11.38452 12.56474
129 38.88890 38.88890 38.88890 11.82601 12.43988 13.61023
130 40.54050 40.54050 40.54050 12.87107 13.55033 14.73913
131 42.23740 42.23740 42.23740 14.22713 14.84959 16.52481
132 43.98150 43.98150 43.98150 15.37728 16.08726 17.75759
133 45.77470 45.77470 45.77470 16.83334 17.67944 19.38823
134 47.61910 47.61910 47.61910 18.23750 19.08602 20.75497
135 49.51690 49.51690 49.51690 19.77790 20.85210 22.57105
136 51.47060 51.47060 51.47060 21.55909 22.70367 24.37760
137 53.48260 53.48260 53.48260 23.54036 24.77997 26.88050
138 55.55560 55.55560 55.55560 25.95549 27.33416 29.46925
139 57.69230 57.69230 57.69230 28.27415 29.74656 32.35812
140 59.89580 59.89580 59.89580 30.72237 32.20419 35.29942
141 62.16930 62.16930 62.16930 33.18563 34.81651 38.47632
142 64.51610 64.51610 64.51610 36.23828 37.80732 41.80482
143 66.93990 66.93990 66.93990 39.08239 41.15638 44.84148
144 69.44440 69.44440 69.44440 42.16051 44.30221 48.45471
145 72.03390 72.03390 72.03390 45.66481 48.08863 52.33800
146 74.71260 74.71260 74.71260 49.76569 52.36691 57.12953
147 77.48540 77.48540 77.48540 53.95049 56.84316 61.92310
148 80.35710 80.35710 80.35710 58.19217 60.97179 67.21336
149 83.33330 83.33330 83.33330 62.63233 65.69259 72.25884
150 86.41970 86.41970 86.41970 67.62116 71.21214 78.31616
151 89.62260 89.62260 89.62260 74.07406 77.83178 84.87297
152 92.94870 92.94870 92.94870 79.61922 83.59006 91.68090
153 96.40520 96.40520 96.40520 87.27594 91.81064 100.7632
154 0.000000 15.16510 27.62230 1.863459 1.954627 6.569771
155 0.000000 42.03280 100.0000 23.88247 17.22253 104.5067
156 0.000000 56.67440 100.0000 27.76683 27.11388 105.1169
157 0.000000 69.33390 100.0000 32.07658 38.07974 105.9904
158 100.0000 86.49770 87.02870 82.23307 78.51109 79.22214
159 100.0000 100.0000 88.65780 90.55725 98.38312 83.70769
160 12.42590 9.712100 0.000000 1.031942 1.079428 0.255170
161 26.21530 11.33890 0.000000 3.057565 2.186316 0.287607
162 43.91940 19.07650 18.06270 9.109313 6.048686 3.244277
163 52.65820 46.95840 27.42860 17.80247 19.00019 7.584728
164 0.000000 100.0000 0.000000 27.88642 70.79083 4.864323
165 36.78360 100.0000 0.000000 33.19932 73.21553 4.918920
166 60.37980 100.0000 0.000000 43.43409 78.08337 5.024393
167 80.55630 100.0000 0.000000 56.83713 84.31598 5.155914
168 100.0000 100.0000 27.41130 76.88710 93.57667 11.92526
169 34.07890 0.000000 74.74320 14.86312 5.717054 54.11074
170 41.15220 31.79460 74.12360 19.14540 12.60583 53.40589
171 52.08740 54.39650 82.69450 31.40803 28.14960 69.08511
172 0.000000 12.50920 36.26190 2.563084 1.795804 11.14651
173 0.000000 16.82150 56.11460 6.086691 3.628991 28.28175
174 0.000000 21.55580 78.36530 12.49056 6.690320 59.95255
175 28.40300 35.48550 78.68740 17.52264 12.75376 61.23599
176 52.86520 41.81320 100.0000 35.60597 22.79835 104.6728
177 60.27000 55.77400 100.0000 43.14533 33.66099 105.4951
178 100.0000 77.62720 100.0000 83.44125 69.58968 107.2445
179 100.0000 88.79430 100.0000 88.67403 82.73315 108.1404
180 26.57560 0.000000 18.01660 3.342666 1.553186 3.014958
181 57.12330 0.000000 18.83570 14.38771 6.696428 3.400574
182 100.0000 0.000000 16.20060 48.24470 22.49400 3.021305
183 100.0000 0.000000 30.98110 49.24553 22.82599 8.830566
184 100.0000 26.89860 34.56890 51.31193 27.26033 11.19361
185 100.0000 35.33370 48.85180 54.58499 31.04650 22.23520
186 61.46280 31.38910 0.000000 18.36082 13.29692 0.741670
187 69.53420 32.44750 44.65760 26.57926 17.03600 18.18044
188 0.000000 0.000000 0.000000 0.111809 0.111623 0.205472
189 0.000000 2.336400 0.000000 0.146343 0.202648 0.211998
190 74.91210 24.07570 0.000000 25.82497 14.82583 0.666753
191 100.0000 100.0000 100.0000 95.36758 99.90102 109.3333
192 0.000000 80.35710 0.000000 16.85208 42.71269 3.013113
193 0.000000 89.62260 0.000000 21.68066 54.71262 3.806487
194 0.000000 100.0000 27.78670 29.13928 71.19634 11.45849
195 0.000000 100.0000 85.31040 41.83863 75.70402 77.77914
196 0.000000 0.000000 100.0000 19.80298 6.782235 103.8903
197 0.000000 23.99290 100.0000 21.12709 10.12895 104.1780
198 25.30180 36.37080 100.0000 25.38293 15.71438 104.4584
199 29.15380 69.43270 100.0000 35.45501 39.84181 106.2200
200 83.18950 89.18610 100.0000 72.35350 75.47780 108.0164
201 100.0000 61.85160 25.82870 58.40716 47.19142 8.058994
202 100.0000 75.81830 40.28050 65.27383 61.00456 17.31248
203 21.83570 18.61190 0.000000 2.736779 2.961992 0.355348
204 36.40610 21.89520 0.000000 6.283537 5.312319 0.443076
205 62.04250 30.12000 66.51550 26.81186 15.90178 43.15088
206 77.10870 49.61750 100.0000 52.39962 34.43229 105.3666
207 18.58260 0.000000 28.67890 2.790603 1.199880 7.073344
208 75.39200 0.000000 37.59860 27.21676 12.47518 12.42896
209 78.49010 30.79110 37.85010 31.83524 19.23332 13.24578
210 85.33520 51.55340 54.74090 44.77551 33.59960 28.79127
211 100.0000 72.93870 72.17370 71.31615 61.07240 53.17067
212 100.0000 86.98010 73.12630 78.14244 77.69984 55.61099
213 40.54050 0.000000 0.000000 6.365835 3.028601 0.266926
214 49.25570 17.76710 0.000000 10.61521 6.564285 0.427681
215 67.34740 48.55810 0.000000 25.26235 23.41771 1.333905
216 80.89020 58.04040 24.85780 38.73476 35.23491 7.098018
217 100.0000 57.89290 55.92130 61.69812 45.60272 30.78347
218 36.15760 0.000000 33.95000 7.039736 3.112871 10.03706
219 43.13930 0.000000 52.15040 11.95272 5.066665 24.20284
220 100.0000 0.000000 59.42970 54.04335 24.47414 33.59132
221 100.0000 29.93450 69.76530 58.70882 30.59713 47.78688
222 100.0000 52.14890 81.78550 66.97812 43.51368 68.29586
223 0.000000 0.000000 0.000000 0.111992 0.111880 0.205830
224 15.00650 22.70260 0.000000 2.175134 3.470276 0.408324
225 54.43930 50.09270 0.000000 18.33094 20.98620 1.325163
226 54.14220 60.45240 77.32400 32.42392 32.79079 59.83455
227 32.33060 22.52390 100.0000 25.01341 11.60058 104.1433
228 60.00120 26.11340 100.0000 36.74498 17.99841 104.5747
229 29.08730 38.85320 42.40960 9.717408 11.37896 16.33915
230 38.09570 48.40890 41.17990 13.98285 17.64104 15.65617
231 50.20070 75.11040 44.34190 28.44279 43.61174 19.96804
232 86.85210 100.0000 69.03650 70.68443 89.83899 51.14667
233 100.0000 100.0000 73.41340 85.67471 96.70867 57.57712
234 0.000000 44.94870 30.08120 6.247835 12.48414 8.659667
235 33.16950 57.46150 33.00360 14.45313 23.67772 10.88536
236 53.74600 100.0000 76.47900 50.80055 80.20554 61.60872
237 86.73290 100.0000 87.40500 76.35040 91.84718 81.29811
238 86.93450 100.0000 100.0000 82.21570 93.91282 109.4339
239 39.17180 100.0000 44.16900 37.39027 75.02620 22.24229
240 56.10300 100.0000 58.82740 47.56032 79.34407 37.40747
241 0.000000 85.42430 100.0000 39.36116 56.28401 107.4434
242 31.53320 88.77250 100.0000 44.77246 62.13997 107.7107
243 100.0000 100.0000 100.0000 95.52775 100.0449 109.3333
244 26.28120 40.45100 54.19640 11.52719 12.65422 27.02428
245 63.15830 52.77620 70.42250 33.12799 28.49446 49.51091
246 17.40800 6.984100 10.01250 1.673893 1.181495 1.251954
247 25.17170 11.65680 20.38380 3.531880 2.329625 3.899305
248 0.000000 9.732200 13.95770 0.705523 0.887654 2.005094
249 0.000000 19.86580 15.26730 1.409563 2.534125 2.443275
250 29.96600 32.70620 24.96010 6.893198 8.095795 5.946818
251 71.84070 41.08290 28.26840 27.71226 21.04380 7.872935
252 100.0000 85.46560 26.47300 68.51448 72.49053 10.12958
253 77.66710 80.51790 0.000000 43.71227 55.52912 3.302470
254 100.0000 80.08670 0.000000 64.77837 65.48929 3.534116
255 100.0000 100.0000 0.000000 75.72539 93.36936 5.367293
256 0.000000 25.89900 51.96400 6.150108 5.469715 24.34831
257 0.000000 34.80960 76.29590 13.53415 10.80139 56.73353
258 0.000000 46.23220 78.50930 16.44626 16.66297 60.81473
259 59.08170 66.43930 100.0000 46.14311 42.46774 106.3524
260 81.35510 78.34700 100.0000 65.91562 61.94153 107.3840
261 3.144700 3.144700 3.144700 0.298666 0.304307 0.393699
262 3.968300 3.968300 3.968300 0.369099 0.374614 0.491955
263 4.807700 4.807700 4.807700 0.438334 0.449610 0.565376
264 40.84140 22.80530 28.79040 9.077987 6.558272 7.403242
265 41.36920 65.79390 30.08070 19.18528 31.61408 9.897026
266 64.67950 69.33740 36.98860 32.74775 40.68421 14.10583
267 89.47370 85.46990 46.34020 59.65548 67.87358 22.74588
268 31.47420 59.65630 0.000000 12.63811 24.16376 1.711158
269 32.13200 77.83400 0.000000 19.89215 41.96100 2.887516
270 0.000000 52.62820 21.08150 7.425132 17.07126 5.188335
271 0.000000 54.79990 77.51200 18.46324 22.44423 59.62251
272 0.000000 100.0000 100.0000 47.69866 77.56428 108.6802
273 100.0000 0.000000 0.000000 47.65353 22.28849 0.685625
274 100.0000 0.000000 44.73590 50.98611 23.42660 18.04798
275 100.0000 0.000000 78.51620 59.07141 26.17942 60.57443
276 100.0000 27.81620 100.0000 69.63589 33.82719 105.3445
277 0.000000 75.83370 41.46260 17.59711 38.52890 17.37737
278 0.000000 100.0000 47.27770 31.78316 72.15049 24.54303
279 0.000000 100.0000 65.35600 35.90939 73.72836 45.82917
280 25.82950 100.0000 74.84410 41.13122 75.93615 59.67124
281 35.58380 100.0000 100.0000 52.98740 80.19899 109.1470
282 53.24000 0.000000 32.42390 13.41187 6.105063 9.235634
283 58.21760 0.000000 49.13960 18.25118 8.081017 21.08339
284 77.74980 0.000000 55.70140 32.06367 14.34686 28.17642
285 76.52690 56.14780 55.03090 38.75599 33.63495 28.96187
286 88.43990 66.39590 58.50430 53.09063 47.32964 34.19806
287 0.764500 0.764500 0.764500 0.130519 0.132020 0.223511
288 1.543200 1.543200 1.543200 0.177783 0.178267 0.273995
289 2.336400 2.336400 2.336400 0.229987 0.239427 0.338977
290 25.22480 0.000000 50.90540 6.756905 2.678925 22.64386
291 55.98670 0.000000 100.0000 33.03049 12.96039 104.0435
292 100.0000 0.000000 100.0000 67.36452 28.97195 104.2908
293 76.61400 0.000000 75.10660 36.11885 15.59060 55.21007
294 77.81530 0.000000 100.0000 46.49312 19.24152 103.9431
295 29.75030 25.33360 43.50030 8.095594 6.477657 16.90669
296 33.77270 34.60910 43.22420 10.31449 10.13427 16.81821
297 44.09300 45.49310 65.69880 20.49346 18.70179 42.40791
298 0.000000 29.82950 42.01300 4.969735 6.149613 15.66231
299 0.000000 45.79720 54.88570 10.07389 14.21672 27.82774
300 0.000000 72.36920 63.41470 20.86510 36.99603 40.35501
301 38.12700 87.46680 62.41850 33.33721 57.35357 40.38438
302 100.0000 58.94290 0.000000 56.36202 44.10886 2.122397
303 100.0000 61.11770 42.35500 60.34933 47.52159 18.09775
304 31.91620 32.85230 0.000000 6.383446 8.073259 0.652245
305 40.25920 50.79940 0.000000 12.58757 18.74218 1.305278
306 57.58790 64.50700 0.000000 24.49018 33.19972 2.096382
307 60.33330 100.0000 31.45050 45.23014 78.79931 13.58798
308 69.27310 100.0000 49.72770 53.22916 82.33374 27.09083
309 42.82160 87.15720 18.44130 28.20639 55.31047 6.679968
310 51.39220 86.80840 37.34830 33.26969 56.98834 15.60323
311 46.53340 67.22230 9.067300 20.44849 33.25677 3.114872
312 89.06740 68.90930 47.96850 52.36470 49.39177 22.77311
313 100.0000 74.40840 58.89320 68.44506 61.36450 35.53935
314 52.49630 43.52750 48.47960 19.77933 17.88622 21.67938
315 60.25890 45.70010 57.32450 26.29970 21.86519 31.35940
316 19.59990 13.72780 24.50640 3.012197 2.272134 5.245626
317 23.07380 23.38780 33.65960 5.290818 4.916705 10.06097
318 53.52210 59.22100 52.06520 25.16148 29.28213 26.03022
319 80.05290 70.42260 56.25420 47.04399 48.17063 31.19002
320 66.23240 57.75540 15.19470 27.64391 30.10310 3.910201
321 84.17210 66.21590 19.38730 43.85393 43.59978 5.669176
322 86.58510 82.00270 26.70240 52.92615 61.71201 9.667492
323 80.51130 88.33500 32.23560 51.83483 67.62438 12.98421
324 82.76010 91.06410 53.52990 58.21905 73.16912 30.41029
325 88.76990 96.60190 77.61150 72.93076 86.01094 63.88484
326 39.82320 18.42280 7.813000 7.231213 5.054484 1.124135
327 91.03710 26.68360 4.922900 39.49758 21.83683 1.242885
328 100.0000 28.32310 16.62950 50.04854 27.20186 3.487815
329 34.21610 22.93580 14.53520 6.151202 5.305177 2.331158
330 35.00690 41.13180 14.39090 9.158093 12.43303 2.806811
331 44.51300 49.35340 35.50170 15.89205 19.26111 12.12605
332 24.35600 33.98020 20.98170 5.738912 8.128503 4.572909
333 39.77230 39.84560 23.71850 10.78217 12.62026 5.555194
334 85.31420 57.09530 35.56320 43.48426 37.02576 12.86860
335 80.90180 45.32290 0.000000 34.17180 25.98833 1.301042
336 91.40690 45.51480 25.99570 44.07475 30.57232 7.120520
337 100.0000 45.22570 35.73020 54.65776 35.24691 12.48170
338 64.42550 26.26710 9.069000 19.48444 12.37317 1.544819
339 82.09270 31.38920 15.50440 32.70505 19.98917 3.128185
340 85.92590 58.63600 4.853500 41.68514 37.28598 2.323834
341 100.0000 70.70260 16.53190 61.10737 55.39722 5.377815
342 0.000000 0.000000 0.000000 0.112066 0.111863 0.205904
343 0.000000 31.39590 15.79680 2.753267 5.915613 2.774322
344 62.72180 46.88890 15.54260 22.41443 21.26913 3.486459
345 66.81400 54.36260 42.87410 29.52290 28.47870 17.58472
346 77.89950 53.90250 44.03260 37.46712 31.75273 18.51552
347 56.88900 90.06420 13.38850 35.96041 62.14509 5.708964
348 64.85520 91.51050 58.52240 46.91599 68.14483 35.97478
349 100.0000 100.0000 100.0000 95.36758 99.90102 109.3333
350 48.64570 34.76050 0.000000 12.30117 11.54349 0.763157
351 63.51380 38.15070 14.55830 20.98339 16.65371 2.829550
352 79.42340 45.62570 16.22630 33.51505 25.66282 3.644691
353 12.85480 17.50760 7.417300 1.696551 2.382176 1.004801
354 23.41560 22.63090 15.13720 3.822964 4.205966 2.519970
355 28.23970 76.19730 20.69970 18.80342 39.70153 6.516709
356 51.58170 79.58540 20.74860 28.36617 47.78605 6.914434
357 13.79830 47.69140 63.27490 13.36416 16.58849 38.48923
358 32.82020 48.15780 85.53900 23.74424 20.81981 73.86151
359 0.000000 38.26420 60.14560 9.731663 10.75443 33.87042
360 19.51710 57.57860 68.70060 18.43308 24.74403 46.28883
361 20.64160 65.29400 83.93350 25.66882 32.44974 71.51047
362 21.18910 77.98080 100.0000 37.46921 47.98001 106.5777
363 62.41570 77.67720 100.0000 52.37889 54.94909 106.7184
364 31.63310 18.49700 53.30120 9.592906 5.582709 25.62574
365 54.74340 19.84790 71.14870 22.72551 11.41872 48.77251
366 60.07120 44.09870 85.08470 33.64483 23.37107 73.24956
367 6.678500 9.354100 22.59840 1.445165 1.174624 4.563566
368 13.35120 23.20110 22.58280 2.913244 3.826700 4.748510
369 14.97300 24.40580 30.54380 3.878635 4.488406 8.338890
370 26.11240 52.81180 53.88570 14.39309 20.21904 27.07347
371 25.56020 64.11270 65.91870 20.78567 30.18393 43.24075
372 0.000000 50.00430 45.97640 9.518269 16.42067 19.36679
373 16.88830 57.02450 45.95200 12.67835 22.09621 19.85412
374 77.29510 58.22450 68.90260 43.50999 36.49667 47.33293
375 14.63900 5.212500 22.79910 1.893729 1.061222 4.549544
376 14.48180 16.59310 33.12400 3.358866 2.738382 9.479970
377 16.26690 30.11530 41.78250 6.097849 6.839749 15.79067
378 26.16560 33.24030 53.78520 10.15430 9.416043 26.31842
379 37.74770 33.60910 62.43850 15.13317 11.64206 37.10501
380 52.86390 41.91150 70.69150 24.83769 19.07363 48.77228
381 13.52970 0.000000 12.69080 1.144168 0.559167 1.672289
382 39.13530 0.000000 16.10690 6.451106 3.013619 2.568547
383 40.99190 11.71200 25.68410 8.105201 4.420705 5.793413
384 54.33990 18.49880 25.37920 14.20946 8.206054 5.945623
385 53.87680 26.37650 36.06970 15.70223 10.37847 11.68199
386 69.22950 42.14390 66.38560 33.13217 23.12866 43.14650
387 69.23150 53.42760 82.52130 40.89544 31.93494 68.75191
388 50.78930 12.03140 87.65470 25.64543 10.95413 76.93880
389 68.48350 14.14830 86.78890 35.31847 15.76436 74.85807
390 55.71290 0.000000 71.68450 22.44991 9.353632 49.88049
391 63.19990 33.55270 86.07330 33.75499 19.49891 74.44132
