KOIOS/K2721UG/K2721UG #1 2022-08-20 16-50 0.3127x 0.329y sRGB F-S XYZLUT+MTX/K2721UG #1 2022-08-20 16-50 0.3127x 0.329y sRGB F-S XYZLUT+MTX.ti1
CTI1   

DESCRIPTOR "Argyll Calibration Target chart information 1"
ORIGINATOR "Argyll targen"
CREATED "Sat Aug 20 16:59:18 2022"
APPROX_WHITE_POINT "94.723069 98.442227 108.993986"
COLOR_REP "RGB"
ACCURATE_EXPECTED_VALUES "true"
DARK_REGION_EMPHASIS "1.6"
WHITE_COLOR_PATCHES "4"
BLACK_COLOR_PATCHES "4"
SINGLE_DIM_STEPS "21"
COMP_GREY_STEPS "61"
OFPS_PATCHES "435"

NUMBER_OF_FIELDS 7
BEGIN_DATA_FORMAT
SAMPLE_ID RGB_R RGB_G RGB_B XYZ_X XYZ_Y XYZ_Z
END_DATA_FORMAT

NUMBER_OF_SETS 588
BEGIN_DATA
1 100.0000 100.0000 100.0000 94.72307 98.44223 108.9940
2 1.960800 1.960800 1.960800 1.142800 1.150200 1.163700
3 3.921600 3.921600 3.921600 1.285600 1.300500 1.327300
4 5.882400 5.882400 5.882400 1.449500 1.472900 1.515200
5 9.803900 9.803900 9.803900 1.914800 1.962400 2.048400
6 13.72600 13.72600 13.72600 2.581700 2.663900 2.812600
7 17.64700 17.64700 17.64700 3.469500 3.597900 3.830000
8 21.56900 21.56900 21.56900 4.595300 4.782200 5.120100
9 25.49000 25.49000 25.49000 5.974500 6.233200 6.700700
10 29.41200 29.41200 29.41200 7.621300 7.965600 8.587900
11 33.33300 33.33300 33.33300 9.548800 9.993300 10.79700
12 37.25500 37.25500 37.25500 11.76900 12.32900 13.34100
13 41.17600 41.17600 41.17600 14.29400 14.98500 16.23400
14 45.09800 45.09800 45.09800 17.13400 17.97300 19.48900
15 49.02000 49.02000 49.02000 20.29900 21.30300 23.11700
16 52.94100 52.94100 52.94100 23.80000 24.98600 27.12900
17 56.86300 56.86300 56.86300 27.64600 29.03200 31.53600
18 60.78400 60.78400 60.78400 31.84600 33.45000 36.34900
19 64.70600 64.70600 64.70600 36.40900 38.25000 41.57800
20 68.62700 68.62700 68.62700 41.34300 43.44000 47.23200
21 72.54900 72.54900 72.54900 46.65600 49.03000 53.32100
22 76.47100 76.47100 76.47100 52.35600 55.02700 59.85300
23 80.39200 80.39200 80.39200 58.45200 61.43900 66.83800
24 84.31400 84.31400 84.31400 64.94900 68.27500 74.28500
25 88.23500 88.23500 88.23500 71.85700 75.54100 82.20000
26 92.15700 92.15700 92.15700 79.18100 83.24600 90.59400
27 96.07800 96.07800 96.07800 86.92900 91.39700 99.47200
28 82.07790 31.39870 100.0000 52.34786 26.58408 104.5169
29 100.0000 48.03860 100.0000 72.88241 42.87081 105.2724
30 58.23890 74.09770 51.96100 33.33981 44.72873 26.64674
31 100.0000 88.32320 54.89040 74.00505 77.79660 31.33156
32 22.07500 40.23340 0.000000 5.714005 10.48139 0.863546
33 40.43310 54.27180 54.21580 18.68106 23.08787 27.73185
34 49.90430 64.88310 58.94730 26.81401 33.84311 34.01230
35 100.0000 64.14480 100.0000 77.78404 55.34252 106.1076
36 4.807700 0.000000 0.000000 0.281536 0.191114 0.207338
37 7.425700 0.000000 0.000000 0.415558 0.253605 0.208927
38 10.20410 0.000000 0.000000 0.592903 0.336297 0.211029
39 13.15790 0.000000 0.000000 0.832351 0.447946 0.213867
40 16.30430 0.000000 0.000000 1.178726 0.609452 0.217972
41 19.66290 0.000000 0.000000 1.623421 0.816802 0.223243
42 23.25580 0.000000 0.000000 2.176095 1.074501 0.229793
43 27.10840 0.000000 0.000000 2.903516 1.413680 0.238414
44 31.25000 0.000000 0.000000 3.864119 1.861586 0.249800
45 35.71430 0.000000 0.000000 5.051245 2.415114 0.263870
46 43.08150 0.000000 0.000000 7.444192 3.530887 0.292231
47 45.77470 0.000000 0.000000 8.455657 4.002509 0.304219
48 51.47060 0.000000 0.000000 10.87271 5.129523 0.332866
49 57.69230 0.000000 0.000000 14.22432 6.692295 0.372590
50 64.51610 0.000000 0.000000 18.14934 8.522437 0.419110
51 72.03390 0.000000 0.000000 22.94270 10.75747 0.475922
52 80.35710 0.000000 0.000000 29.06148 13.61051 0.548442
53 89.62260 0.000000 0.000000 36.83172 17.23358 0.640537
54 100.0000 34.68400 0.000000 50.49729 29.27037 1.234690
55 100.0000 48.32630 16.00260 53.74391 36.55442 4.045586
56 0.000000 4.807700 0.000000 0.211161 0.364513 0.222237
57 0.000000 7.425700 0.000000 0.291848 0.569812 0.235986
58 0.000000 10.20410 0.000000 0.394489 0.830973 0.253475
59 0.000000 13.15790 0.000000 0.534365 1.186874 0.277310
60 0.000000 16.30430 0.000000 0.744330 1.721110 0.313088
61 0.000000 19.66290 0.000000 1.018854 2.419610 0.359866
62 0.000000 23.25580 0.000000 1.343584 3.245854 0.415199
63 0.000000 27.10840 0.000000 1.761934 4.310305 0.486485
64 0.000000 31.25000 0.000000 2.316849 5.722232 0.581042
65 0.000000 35.71430 0.000000 3.006833 7.477829 0.698613
66 0.000000 40.54050 0.000000 3.906509 9.766966 0.851916
67 0.000000 45.77470 0.000000 5.015277 12.58812 1.040848
68 0.000000 51.47060 0.000000 6.491561 16.34438 1.292404
69 0.000000 57.69230 0.000000 8.370937 21.12627 1.612645
70 0.000000 64.51610 0.000000 10.59628 26.78844 1.991839
71 0.000000 72.03390 0.000000 13.54301 34.28610 2.493955
72 0.000000 74.62380 24.13860 15.55821 37.35106 7.605084
73 85.50370 100.0000 47.33070 64.25327 86.27480 24.67658
74 100.0000 100.0000 50.88150 79.38305 93.24919 28.15915
75 0.000000 0.000000 2.336400 0.136919 0.120490 0.337007
76 0.000000 0.000000 4.807700 0.180969 0.135402 0.569128
77 0.000000 0.000000 7.425700 0.238740 0.154959 0.873556
78 0.000000 0.000000 10.20410 0.318020 0.181798 1.291323
79 0.000000 0.000000 13.15790 0.424862 0.217967 1.854334
80 0.000000 0.000000 16.30430 0.569888 0.267063 2.618554
81 0.000000 0.000000 19.66290 0.755615 0.329936 3.597249
82 0.000000 0.000000 23.25580 0.984925 0.407565 4.805608
83 0.000000 0.000000 27.10840 1.282139 0.508180 6.371785
84 0.000000 0.000000 31.25000 1.674118 0.640876 8.437336
85 0.000000 0.000000 35.71430 2.157922 0.804658 10.98676
86 0.000000 0.000000 40.54050 2.760995 1.008815 14.16468
87 0.000000 0.000000 45.77470 3.547511 1.275073 18.30925
88 0.000000 0.000000 51.47060 4.539994 1.611058 23.53918
89 0.000000 0.000000 57.69230 5.855356 2.056345 30.47053
90 0.000000 0.000000 64.51610 7.569816 2.636739 39.50494
91 0.000000 0.000000 72.03390 9.534240 3.301753 49.85655
92 0.000000 0.000000 80.35710 12.15757 4.189826 63.68029
93 0.000000 0.000000 89.62260 15.33629 5.265915 80.43070
94 32.18100 0.000000 100.0000 23.75767 8.626605 103.8251
95 30.61630 50.62980 100.0000 29.50403 24.07662 104.8675
96 39.24070 63.33040 100.0000 35.84839 35.21885 105.5671
97 47.29830 80.11630 100.0000 45.66068 54.06124 106.7719
98 63.22460 100.0000 100.0000 64.31569 84.26400 108.6336
99 0.000000 61.52170 65.21550 17.23985 26.85314 42.04971
100 0.000000 67.43330 83.52260 24.78244 33.96194 71.26533
101 5.663400 5.663400 5.663400 0.534870 0.555431 0.685561
102 6.535900 6.535900 6.535900 0.625631 0.651646 0.793049
103 7.425700 7.425700 7.425700 0.722285 0.754315 0.907812
104 8.333300 8.333300 8.333300 0.832107 0.868232 1.040516
105 9.259300 9.259300 9.259300 0.949907 0.989965 1.183484
106 10.20410 10.20410 10.20410 1.081551 1.125006 1.345170
107 11.16840 11.16840 11.16840 1.223543 1.270793 1.519461
108 12.15280 12.15280 12.15280 1.386857 1.440168 1.717559
109 13.15790 13.15790 13.15790 1.567718 1.628726 1.934855
110 14.18440 14.18440 14.18440 1.776777 1.849077 2.178555
111 15.23300 15.23300 15.23300 2.008572 2.095414 2.445586
112 16.30430 16.30430 16.30430 2.269084 2.373563 2.738958
113 17.39930 17.39930 17.39930 2.551020 2.676022 3.057848
114 18.51850 18.51850 18.51850 2.854928 3.002313 3.402081
115 19.66290 19.66290 19.66290 3.174030 3.342287 3.769701
116 20.83330 20.83330 20.83330 3.515623 3.704112 4.164577
117 22.03070 22.03070 22.03070 3.881322 4.088199 4.585774
118 23.25580 23.25580 23.25580 4.280744 4.503857 5.039944
119 24.50980 24.50980 24.50980 4.716724 4.956738 5.534713
120 25.79360 25.79360 25.79360 5.195898 5.455236 6.079641
121 27.10840 27.10840 27.10840 5.723729 6.008103 6.686029
122 28.45530 28.45530 28.45530 6.303336 6.615737 7.352691
123 29.83540 29.83540 29.83540 6.938458 7.280423 8.078944
124 31.25000 31.25000 31.25000 7.631226 8.000632 8.857521
125 32.70040 32.70040 32.70040 8.370113 8.769771 9.689951
126 34.18800 34.18800 34.18800 9.154845 9.590489 10.58133
127 35.71430 35.71430 35.71430 9.992140 10.47354 11.53859
128 37.28070 37.28070 37.28070 10.89746 11.43727 12.56504
129 38.88890 38.88890 38.88890 11.89386 12.50242 13.67172
130 40.54050 40.54050 40.54050 12.98941 13.66369 14.88752
131 42.23740 42.23740 42.23740 14.16887 14.89589 16.22933
132 43.98150 43.98150 43.98150 15.43395 16.21034 17.69133
133 45.77470 45.77470 45.77470 16.79458 17.64164 19.24366
134 47.61910 47.61910 47.61910 18.27092 19.22086 20.90154
135 49.51690 49.51690 49.51690 19.88857 20.95710 22.72434
136 51.47060 51.47060 51.47060 21.68041 22.86090 24.75380
137 53.48260 53.48260 53.48260 23.67630 24.94749 26.96425
138 55.55560 55.55560 55.55560 25.87353 27.21817 29.35905
139 57.69230 57.69230 57.69230 28.22675 29.65085 32.04511
140 59.89580 59.89580 59.89580 30.70040 32.21179 35.04282
141 62.16930 62.16930 62.16930 33.30598 34.87501 38.22912
142 64.51610 64.51610 64.51610 36.09157 37.72355 41.50524
143 66.93990 66.93990 66.93990 39.10649 40.88539 44.90500
144 69.44440 69.44440 69.44440 42.35023 44.38325 48.50811
145 72.03390 72.03390 72.03390 45.79609 48.12126 52.41577
146 74.71260 74.71260 74.71260 49.45286 52.04999 56.68494
147 77.48540 77.48540 77.48540 53.55257 56.31982 61.53835
148 80.35710 80.35710 80.35710 58.17270 61.10999 66.93135
149 83.33330 83.33330 83.33330 63.09384 66.37103 72.50062
150 86.41970 86.41970 86.41970 68.23728 71.92174 78.16523
151 89.62260 89.62260 89.62260 73.85799 77.86029 84.58091
152 92.94870 92.94870 92.94870 80.14967 84.44946 92.16198
153 96.40520 96.40520 96.40520 87.27465 91.83379 100.4614
154 0.000000 15.16510 27.62230 1.875850 1.920103 6.701151
155 0.000000 42.03280 100.0000 23.86259 17.18696 104.4757
156 0.000000 56.67440 100.0000 27.70221 26.95648 105.1300
157 0.000000 69.33390 100.0000 32.08411 38.10581 105.8766
158 100.0000 86.49770 87.02870 82.22037 78.49886 79.42801
159 100.0000 100.0000 88.65780 89.92496 96.81793 83.71018
160 12.42590 9.712100 0.000000 1.029579 1.086182 0.257881
161 26.21530 11.33890 0.000000 3.052724 2.170239 0.292595
162 43.91940 19.07650 18.06270 9.161281 6.042488 3.348286
163 52.65820 46.95840 27.42860 17.84674 19.00555 7.536105
164 0.000000 100.0000 0.000000 27.40871 69.56603 4.856642
165 36.78360 100.0000 0.000000 32.65019 72.01000 4.918765
166 60.37980 100.0000 0.000000 43.01004 76.84055 5.041552
167 80.55630 100.0000 0.000000 56.52148 83.14061 5.201691
168 100.0000 100.0000 27.41130 76.26456 92.19349 11.72615
169 34.07890 0.000000 74.74320 14.80668 5.660616 54.01616
170 41.15220 31.79460 74.12360 19.05589 12.41218 53.44988
171 52.08740 54.39650 82.69450 31.24059 28.01794 69.20419
172 0.000000 12.50920 36.26190 2.609251 1.812621 11.38822
173 0.000000 16.82150 56.11460 6.165996 3.645005 28.67817
174 0.000000 21.55580 78.36530 12.55040 6.689287 60.27995
175 28.40300 35.48550 78.68740 17.51297 12.69602 61.19735
176 52.86520 41.81320 100.0000 35.27506 22.41521 104.6039
177 60.27000 55.77400 100.0000 42.96099 33.48657 105.2662
178 100.0000 77.62720 100.0000 83.22579 69.18852 107.0349
179 100.0000 88.79430 100.0000 88.79009 83.34635 107.9830
180 26.57560 0.000000 18.01660 3.343673 1.548785 3.129948
181 57.12330 0.000000 18.83570 14.50253 6.745963 3.506228
182 100.0000 0.000000 16.20060 48.22405 22.48772 3.155770
183 100.0000 0.000000 30.98110 49.30634 22.85410 8.858902
184 100.0000 26.89860 34.56890 51.31183 27.11712 11.14185
185 100.0000 35.33370 48.85180 54.54703 30.87332 22.03866
186 61.46280 31.38910 0.000000 18.55306 13.33432 0.776645
187 69.53420 32.44750 44.65760 26.96788 17.16473 18.04315
188 0.000000 0.000000 0.000000 0.111930 0.112031 0.205328
189 0.000000 2.336400 0.000000 0.149090 0.206579 0.211660
190 74.91210 24.07570 0.000000 26.16206 14.98560 0.722130
191 100.0000 100.0000 100.0000 94.72307 98.44223 108.9940
192 0.000000 80.35710 0.000000 17.17751 43.53372 3.113266
193 0.000000 89.62260 0.000000 21.91384 55.58486 3.920327
194 0.000000 100.0000 27.78670 28.63817 69.98224 11.33529
195 0.000000 100.0000 85.31040 41.10665 74.20318 77.03844
196 0.000000 0.000000 100.0000 19.76687 6.765794 103.7778
197 0.000000 23.99290 100.0000 21.07066 10.08315 104.0000
198 25.30180 36.37080 100.0000 25.20709 15.55113 104.3190
199 29.15380 69.43270 100.0000 35.36401 39.71871 105.9219
200 83.18950 89.18610 100.0000 72.59831 76.22567 107.8239
201 100.0000 61.85160 25.82870 58.43462 47.12028 8.009908
202 100.0000 75.81830 40.28050 65.40132 61.42662 17.10216
203 21.83570 18.61190 0.000000 2.762251 3.048890 0.366520
204 36.40610 21.89520 0.000000 6.349534 5.314259 0.454256
205 62.04250 30.12000 66.51550 26.67286 15.72805 42.71443
206 77.10870 49.61750 100.0000 51.98110 33.98528 105.0903
207 18.58260 0.000000 28.67890 2.786771 1.191718 7.131918
208 75.39200 0.000000 37.59860 27.45389 12.57101 12.46153
209 78.49010 30.79110 37.85010 31.98236 19.12424 13.01691
210 85.33520 51.55340 54.74090 44.61918 33.52118 28.48661
211 100.0000 72.93870 72.17370 71.03854 60.66528 52.97904
212 100.0000 86.98010 73.12630 77.92439 77.59479 55.51827
213 40.54050 0.000000 0.000000 6.545762 3.111971 0.281583
214 49.25570 17.76710 0.000000 10.61944 6.566571 0.448511
215 67.34740 48.55810 0.000000 25.51530 23.57383 1.392690
216 80.89020 58.04040 24.85780 38.85766 35.44641 7.188450
217 100.0000 57.89290 55.92130 61.43299 45.31911 30.31991
218 36.15760 0.000000 33.95000 7.022723 3.098406 9.998653
219 43.13930 0.000000 52.15040 12.02531 5.084399 24.32268
220 100.0000 0.000000 59.42970 53.94105 24.42309 33.28170
221 100.0000 29.93450 69.76530 58.59457 30.45174 47.50927
222 100.0000 52.14890 81.78550 66.87610 43.29963 67.93040
223 0.000000 0.000000 0.000000 0.111930 0.112031 0.205328
224 15.00650 22.70260 0.000000 2.202323 3.536191 0.416980
225 54.43930 50.09270 0.000000 18.40563 21.10722 1.373156
226 54.14220 60.45240 77.32400 32.41008 32.77678 59.96362
227 32.33060 22.52390 100.0000 24.95881 11.60142 104.0236
228 60.00120 26.11340 100.0000 36.68937 17.84008 104.2213
229 29.08730 38.85320 42.40960 9.713995 11.40950 16.20246
230 38.09570 48.40890 41.17990 14.03747 17.79162 15.64750
231 50.20070 75.11040 44.34190 28.21127 43.38474 19.75663
232 86.85210 100.0000 69.03650 70.31153 88.47052 50.64002
233 100.0000 100.0000 73.41340 84.87895 95.10971 57.12005
234 0.000000 44.94870 30.08120 6.272935 12.59927 8.626517
235 33.16950 57.46150 33.00360 14.29477 23.51265 10.84453
236 53.74600 100.0000 76.47900 50.06573 78.75830 61.59874
237 86.73290 100.0000 87.40500 76.00498 90.38490 81.17797
238 86.93450 100.0000 100.0000 81.42586 92.24206 108.8364
239 39.17180 100.0000 44.16900 36.56893 73.43039 21.70907
240 56.10300 100.0000 58.82740 46.65016 77.76880 36.73660
241 0.000000 85.42430 100.0000 39.39220 56.70053 107.1219
242 31.53320 88.77250 100.0000 44.94363 62.87796 107.4615
243 100.0000 100.0000 100.0000 94.72307 98.44223 108.9940
244 26.28120 40.45100 54.19640 11.48425 12.62743 27.08333
245 63.15830 52.77620 70.42250 33.05804 28.36138 48.88369
246 17.40800 6.984100 10.01250 1.683836 1.162710 1.302053
247 25.17170 11.65680 20.38380 3.553685 2.347471 3.914660
248 0.000000 9.732200 13.95770 0.722581 0.900343 2.078763
249 0.000000 19.86580 15.26730 1.443273 2.602206 2.506393
250 29.96600 32.70620 24.96010 6.959139 8.205173 5.907689
251 71.84070 41.08290 28.26840 27.99301 21.06116 7.848971
252 100.0000 85.46560 26.47300 68.53409 72.70066 10.00071
253 77.66710 80.51790 0.000000 44.02882 56.21639 3.443913
254 100.0000 80.08670 0.000000 64.70577 65.42247 3.655786
255 100.0000 100.0000 0.000000 75.06813 91.78846 5.421509
256 0.000000 25.89900 51.96400 6.143051 5.478699 24.30051
257 0.000000 34.80960 76.29590 13.53974 10.71479 56.96204
258 0.000000 46.23220 78.50930 16.53596 16.72225 61.20850
259 59.08170 66.43930 100.0000 45.82575 42.14422 105.8588
260 81.35510 78.34700 100.0000 65.66054 61.67211 106.8781
261 3.144700 3.144700 3.144700 0.298722 0.310706 0.416178
262 3.968300 3.968300 3.968300 0.370824 0.385381 0.496998
263 4.807700 4.807700 4.807700 0.449805 0.466967 0.588047
264 40.84140 22.80530 28.79040 9.159496 6.631512 7.451148
265 41.36920 65.79390 30.08070 19.21813 31.57182 9.766652
266 64.67950 69.33740 36.98860 32.76451 40.65639 14.09032
267 89.47370 85.46990 46.34020 59.87250 68.35872 22.56889
268 31.47420 59.65630 0.000000 12.81449 24.51599 1.765850
269 32.13200 77.83400 0.000000 19.98195 42.40244 2.960433
270 0.000000 52.62820 21.08150 7.553008 17.43365 5.198398
271 0.000000 54.79990 77.51200 18.54603 22.57656 59.84066
272 0.000000 100.0000 100.0000 47.06366 76.21979 108.4291
273 100.0000 0.000000 0.000000 47.77134 22.33446 0.770195
274 100.0000 0.000000 44.73590 51.04387 23.44231 18.01492
275 100.0000 0.000000 78.51620 59.18830 26.19943 60.93230
276 100.0000 27.81620 100.0000 69.16326 33.40779 104.6386
277 0.000000 75.83370 41.46260 17.91351 39.27673 17.40815
278 0.000000 100.0000 47.27770 31.08670 70.81114 24.23795
279 0.000000 100.0000 65.35600 35.07783 72.16225 45.26935
280 25.82950 100.0000 74.84410 40.17525 74.21165 58.80482
281 35.58380 100.0000 100.0000 51.96696 78.50609 108.4872
282 53.24000 0.000000 32.42390 13.44626 6.114477 9.213357
283 58.21760 0.000000 49.13960 18.50787 8.179229 21.42917
284 77.74980 0.000000 55.70140 32.24006 14.41687 28.39738
285 76.52690 56.14780 55.03090 38.92942 33.70130 28.95523
286 88.43990 66.39590 58.50430 52.87998 47.15202 33.83442
287 0.764500 0.764500 0.764500 0.130143 0.131962 0.227778
288 1.543200 1.543200 1.543200 0.174103 0.179924 0.276933
289 2.336400 2.336400 2.336400 0.233153 0.242583 0.344039
290 25.22480 0.000000 50.90540 6.850159 2.702105 22.99557
291 55.98670 0.000000 100.0000 32.92354 12.90043 103.9337
292 100.0000 0.000000 100.0000 67.42629 28.98823 104.3427
293 76.61400 0.000000 75.10660 36.39073 15.71068 54.85054
294 77.81530 0.000000 100.0000 46.65718 19.30410 104.0965
295 29.75030 25.33360 43.50030 8.017607 6.408219 16.72724
296 33.77270 34.60910 43.22420 10.27681 10.10361 16.73383
297 44.09300 45.49310 65.69880 20.41180 18.64220 41.98862
298 0.000000 29.82950 42.01300 4.974692 6.179539 15.60942
299 0.000000 45.79720 54.88570 10.13626 14.33313 27.99970
300 0.000000 72.36920 63.41470 20.86314 37.07118 40.35798
301 38.12700 87.46680 62.41850 33.35975 57.69206 40.30508
302 100.0000 58.94290 0.000000 56.43451 44.37704 2.246380
303 100.0000 61.11770 42.35500 60.04486 47.14748 17.69234
304 31.91620 32.85230 0.000000 6.475732 8.152905 0.667830
305 40.25920 50.79940 0.000000 12.64218 18.82294 1.335600
306 57.58790 64.50700 0.000000 24.64795 33.33392 2.157888
307 60.33330 100.0000 31.45050 44.56668 77.36420 13.38074
308 69.27310 100.0000 49.72770 52.55525 80.76748 26.71162
309 42.82160 87.15720 18.44130 28.43819 55.87963 6.806289
310 51.39220 86.80840 37.34830 33.41005 57.61104 15.59684
311 46.53340 67.22230 9.067300 20.40003 33.40046 3.165347
312 89.06740 68.90930 47.96850 52.27234 49.18748 22.68792
313 100.0000 74.40840 58.89320 68.22919 61.07187 35.03675
314 52.49630 43.52750 48.47960 19.66561 17.89055 21.53337
315 60.25890 45.70010 57.32450 26.18854 21.70257 31.02857
316 19.59990 13.72780 24.50640 3.033047 2.299473 5.370605
317 23.07380 23.38780 33.65960 5.205036 4.840984 10.00762
318 53.52210 59.22100 52.06520 25.20812 29.42615 25.77944
319 80.05290 70.42260 56.25420 46.99030 47.80377 31.24387
320 66.23240 57.75540 15.19470 27.90259 30.22380 3.967607
321 84.17210 66.21590 19.38730 43.89320 43.50259 5.782510
322 86.58510 82.00270 26.70240 53.18950 61.86841 9.639502
323 80.51130 88.33500 32.23560 51.97451 67.97826 12.91576
324 82.76010 91.06410 53.52990 58.43945 73.61992 29.90356
325 88.76990 96.60190 77.61150 72.99360 86.31444 63.58453
326 39.82320 18.42280 7.813000 7.243051 5.088216 1.136620
327 91.03710 26.68360 4.922900 39.79348 21.92858 1.304216
328 100.0000 28.32310 16.62950 50.04837 27.08140 3.577864
329 34.21610 22.93580 14.53520 6.215348 5.405954 2.426860
330 35.00690 41.13180 14.39090 9.135892 12.40463 2.857638
331 44.51300 49.35340 35.50170 15.79604 19.21885 11.93928
332 24.35600 33.98020 20.98170 5.707831 8.062378 4.494173
333 39.77230 39.84560 23.71850 10.84670 12.59819 5.670562
334 85.31420 57.09530 35.56320 43.21067 36.71674 12.66119
335 80.90180 45.32290 0.000000 34.30865 26.03230 1.371664
336 91.40690 45.51480 25.99570 44.38051 30.68171 7.160200
337 100.0000 45.22570 35.73020 54.59717 35.18485 12.37549
338 64.42550 26.26710 9.069000 19.81446 12.49754 1.584751
339 82.09270 31.38920 15.50440 33.12175 20.07396 3.148188
340 85.92590 58.63600 4.853500 42.25352 37.54777 2.430204
341 100.0000 70.70260 16.53190 61.11981 55.26264 5.438860
342 0.000000 0.000000 0.000000 0.111930 0.112031 0.205328
343 0.000000 31.39590 15.79680 2.770344 5.922050 2.863727
344 62.72180 46.88890 15.54260 22.65364 21.31081 3.500575
345 66.81400 54.36260 42.87410 29.79778 28.58222 17.40141
346 77.89950 53.90250 44.03260 37.31741 31.77983 18.40196
347 56.88900 90.06420 13.38850 36.13467 62.66503 5.822703
348 64.85520 91.51050 58.52240 47.13432 68.72298 35.63979
349 100.0000 100.0000 100.0000 94.72307 98.44223 108.9940
350 48.64570 34.76050 0.000000 12.34949 11.50822 0.784483
351 63.51380 38.15070 14.55830 21.24011 16.83204 2.947673
352 79.42340 45.62570 16.22630 33.62531 25.79929 3.761575
353 12.85480 17.50760 7.417300 1.657557 2.327449 1.004585
354 23.41560 22.63090 15.13720 3.775866 4.204807 2.540227
355 28.23970 76.19730 20.69970 19.02966 40.38524 6.551529
356 51.58170 79.58540 20.74860 28.32837 47.86936 6.917727
357 13.79830 47.69140 63.27490 13.41071 16.55636 38.78671
358 32.82020 48.15780 85.53900 23.53075 20.67370 73.76837
359 0.000000 38.26420 60.14560 9.811032 10.78388 34.23590
360 19.51710 57.57860 68.70060 18.34923 24.61471 46.53837
361 20.64160 65.29400 83.93350 25.76697 32.74114 71.84906
362 21.18910 77.98080 100.0000 37.45744 48.17663 106.5175
363 62.41570 77.67720 100.0000 52.36056 54.84295 106.6726
364 31.63310 18.49700 53.30120 9.560553 5.587180 25.62844
365 54.74340 19.84790 71.14870 22.67671 11.37911 48.87423
366 60.07120 44.09870 85.08470 33.69281 23.43918 72.94939
367 6.678500 9.354100 22.59840 1.453560 1.149033 4.617209
368 13.35120 23.20110 22.58280 2.904988 3.857177 4.783880
369 14.97300 24.40580 30.54380 3.857229 4.465632 8.303241
370 26.11240 52.81180 53.88570 14.37443 20.19132 27.25510
371 25.56020 64.11270 65.91870 20.75228 30.24038 43.15808
372 0.000000 50.00430 45.97640 9.554127 16.48724 19.49707
373 16.88830 57.02450 45.95200 12.76223 22.28917 19.84290
374 77.29510 58.22450 68.90260 43.60465 36.81410 47.14791
375 14.63900 5.212500 22.79910 1.935991 1.084974 4.671556
376 14.48180 16.59310 33.12400 3.378775 2.771174 9.589068
377 16.26690 30.11530 41.78250 6.042828 6.763862 15.45239
378 26.16560 33.24030 53.78520 10.10115 9.342140 26.42011
379 37.74770 33.60910 62.43850 15.13216 11.54413 37.24381
380 52.86390 41.91150 70.69150 24.69278 18.87676 48.74197
381 13.52970 0.000000 12.69080 1.163175 0.564617 1.764634
382 39.13530 0.000000 16.10690 6.523596 3.044408 2.636621
383 40.99190 11.71200 25.68410 8.101644 4.426961 5.887173
384 54.33990 18.49880 25.37920 14.19034 8.226730 5.907548
385 53.87680 26.37650 36.06970 15.74897 10.38404 11.61181
386 69.22950 42.14390 66.38560 33.17917 23.07626 42.94520
387 69.23150 53.42760 82.52130 40.85284 31.90692 68.96744
388 50.78930 12.03140 87.65470 25.41440 10.81450 76.77484
389 68.48350 14.14830 86.78890 35.32641 15.72029 75.31822
390 55.71290 0.000000 71.68450 22.44194 9.332693 49.49955
391 63.19990 33.55270 86.07330 33.84827 19.35664 74.35714
392 24.62630 6.913700 11.48340 2.830416 1.686486 1.571996
393 48.63440 12.40860 12.03830 10.25854 5.603951 1.802137
394 49.26890 31.97430 12.26430 12.46499 10.63776 2.178973
395 53.27610 37.65550 26.81080 16.16229 14.17405 6.927667
396 67.32590 48.62200 29.57010 26.91441 24.08237 8.751903
397 71.88990 61.62360 39.17400 34.84234 35.78847 15.09837
398 18.17400 47.69590 12.97410 7.094791 14.48768 2.743982
399 17.83730 63.55210 22.35080 12.34472 26.82070 6.230458
