KOIOS/K2721UG/K2721UG #1 2022-08-20 16-50 0.3127x 0.329y sRGB F-S XYZLUT+MTX/K2721UG #1 2022-08-20 16-50 0.3127x 0.329y sRGB F-S XYZLUT+MTX.bpc.ti3
CTI3   

DESCRIPTOR "Argyll Calibration Target chart information 3"
ORIGINATOR "Argyll dispread"
CREATED "Sat Aug 20 16:59:28 2022"
DEVICE_CLASS "DISPLAY"
SINGLE_DIM_STEPS "21"
COMP_GREY_STEPS "61"
DARK_REGION_EMPHASIS "1.6"
COLOR_REP "RGB_XYZ"
TARGET_INSTRUMENT "X-Rite i1 DisplayPro, ColorMunki Display"
DISPLAY_TYPE_REFRESH "NO"
DISPLAY_TYPE_BASE_ID "1"
INSTRUMENT_TYPE_SPECTRAL "NO"
LUMINANCE_XYZ_CDM2 "72.038059 75.504042 82.551853"
NORMALIZED_TO_Y_100 "YES"
VIDEO_LUT_CALIBRATION_POSSIBLE "YES"

BEGIN_ARGYLL_COLPROF_ARGS
-v -qh -aX -bn -C "No copyright. Created with DisplayCAL 3.8.9.3 and ArgyllCMS 2.1.2" -M "KOIOS K2721UG"
END_ARGYLL_COLPROF_ARGS

OBSERVER "1931_2"
USE_BLACK_POINT_COMPENSATION "NO"
BLACK_POINT_CORRECTION "0.0"
HIRES_B2A "YES"
HIRES_B2A_SIZE "-1"
SMOOTH_B2A "YES"
PATCH_SEQUENCE "OPTIMIZE_DISPLAY_RESPONSE_DELAY"

NUMBER_OF_FIELDS 7
BEGIN_DATA_FORMAT
SAMPLE_ID RGB_R RGB_G RGB_B XYZ_X XYZ_Y XYZ_Z
END_DATA_FORMAT

NUMBER_OF_SETS 588
BEGIN_DATA
1 100.0000 100.0000 100.0000 95.40954 100.00000 109.3343
2 1.960800 1.960800 1.960800 0.203254 0.215290 0.257093
3 3.921600 3.921600 3.921600 0.366768 0.374468 0.459886
4 5.882400 5.882400 5.882400 0.546368 0.574755 0.683945
5 9.803900 9.803900 9.803900 1.009064 1.049435 1.250148
6 13.72600 13.72600 13.72600 1.647590 1.706285 2.045843
7 17.64700 17.64700 17.64700 2.638802 2.775072 3.133913
8 21.56900 21.56900 21.56900 3.728298 3.935490 4.424381
9 25.49000 25.49000 25.49000 5.059905 5.305633 5.907708
10 29.41200 29.41200 29.41200 6.729140 7.068990 7.858386
11 33.33300 33.33300 33.33300 8.725390 9.131079 10.06969
12 37.25500 37.25500 37.25500 10.85059 11.38167 12.54622
13 41.17600 41.17600 41.17600 13.43327 14.15677 15.33554
14 45.09800 45.09800 45.09800 16.27525 17.05402 18.70751
15 49.02000 49.02000 49.02000 19.42049 20.47199 22.15201
16 52.94100 52.94100 52.94100 23.07633 24.35042 26.39436
17 56.86300 56.86300 56.86300 27.35264 28.72690 30.85772
18 60.78400 60.78400 60.78400 31.74051 33.31831 36.37416
19 64.70600 64.70600 64.70600 36.31311 37.90011 41.83932
20 68.62700 68.62700 68.62700 41.29915 43.22148 47.31309
21 72.54900 72.54900 72.54900 46.54550 48.94275 53.22473
22 76.47100 76.47100 76.47100 51.87909 54.66683 59.54746
23 80.39200 80.39200 80.39200 58.28241 61.12054 67.12771
24 84.31400 84.31400 84.31400 64.80825 68.22215 74.46465
25 88.23500 88.23500 88.23500 71.35715 75.26778 81.54797
26 92.15700 92.15700 92.15700 78.63160 82.81062 90.14250
27 96.07800 96.07800 96.07800 86.53250 91.09992 99.74928
28 82.07790 31.39870 100.0000 52.02453 26.59674 104.4855
29 100.0000 48.03860 100.0000 72.87280 42.94988 105.1966
30 58.23890 74.09770 51.96100 33.49453 44.60020 26.89751
31 100.0000 88.32320 54.89040 73.92921 77.54247 31.52296
32 22.07500 40.23340 0.000000 5.665293 10.41046 0.844381
33 40.43310 54.27180 54.21580 18.45631 22.80967 27.47928
34 49.90430 64.88310 58.94730 26.72054 33.53158 33.94926
35 100.0000 64.14480 100.0000 77.94542 55.94953 106.0925
36 4.807700 0.000000 0.000000 0.271771 0.188481 0.143893
37 7.425700 0.000000 0.000000 0.409592 0.252231 0.158592
38 10.20410 0.000000 0.000000 0.575356 0.328920 0.172325
39 13.15790 0.000000 0.000000 0.858476 0.460904 0.189946
40 16.30430 0.000000 0.000000 1.169911 0.606043 0.201919
41 19.66290 0.000000 0.000000 1.595039 0.803671 0.213090
42 23.25580 0.000000 0.000000 2.145495 1.060078 0.221932
43 27.10840 0.000000 0.000000 2.866364 1.396205 0.230771
44 31.25000 0.000000 0.000000 3.806871 1.835081 0.240474
45 35.71430 0.000000 0.000000 4.983702 2.383857 0.252345
46 43.08150 0.000000 0.000000 7.288600 3.457992 0.275134
47 45.77470 0.000000 0.000000 8.315464 3.937492 0.285478
48 51.47060 0.000000 0.000000 10.62029 5.011999 0.308206
49 57.69230 0.000000 0.000000 13.88695 6.535047 0.340126
50 64.51610 0.000000 0.000000 17.84496 8.378758 0.379243
51 72.03390 0.000000 0.000000 22.53079 10.56249 0.426356
52 80.35710 0.000000 0.000000 28.67095 13.43231 0.489483
53 89.62260 0.000000 0.000000 36.68495 17.16564 0.567193
54 100.0000 34.68400 0.000000 50.43834 29.25607 1.140496
55 100.0000 48.32630 16.00260 53.69200 36.52184 3.971072
56 0.000000 4.807700 0.000000 0.200552 0.345416 0.186031
57 0.000000 7.425700 0.000000 0.281245 0.547482 0.218024
58 0.000000 10.20410 0.000000 0.387521 0.813349 0.245629
59 0.000000 13.15790 0.000000 0.546846 1.220576 0.276995
60 0.000000 16.30430 0.000000 0.739103 1.708181 0.310251
61 0.000000 19.66290 0.000000 0.999399 2.370836 0.353777
62 0.000000 23.25580 0.000000 1.301655 3.135133 0.404349
63 0.000000 27.10840 0.000000 1.738379 4.246863 0.477794
64 0.000000 31.25000 0.000000 2.315742 5.713387 0.575309
65 0.000000 35.71430 0.000000 2.973319 7.381023 0.685475
66 0.000000 40.54050 0.000000 3.799642 9.476728 0.823578
67 0.000000 45.77470 0.000000 4.917236 12.32123 1.009048
68 0.000000 51.47060 0.000000 6.307517 15.85491 1.244089
69 0.000000 57.69230 0.000000 8.177239 20.73804 1.563783
70 0.000000 64.51610 0.000000 10.44018 26.39143 1.935655
71 0.000000 72.03390 0.000000 13.36059 33.78231 2.423462
72 0.000000 74.62380 24.13860 15.38629 36.75108 7.545713
73 85.50370 100.0000 47.33070 64.83361 87.70727 25.11481
74 100.0000 100.0000 50.88150 80.07166 94.81567 28.44490
75 0.000000 0.000000 2.336400 0.130003 0.120130 0.248902
76 0.000000 0.000000 4.807700 0.170551 0.133783 0.464772
77 0.000000 0.000000 7.425700 0.231509 0.154756 0.789111
78 0.000000 0.000000 10.20410 0.294752 0.176432 1.117722
79 0.000000 0.000000 13.15790 0.420117 0.218816 1.760377
80 0.000000 0.000000 16.30430 0.563710 0.267836 2.509272
81 0.000000 0.000000 19.66290 0.727077 0.323501 3.377955
82 0.000000 0.000000 23.25580 0.942522 0.397209 4.517744
83 0.000000 0.000000 27.10840 1.256228 0.504291 6.170817
84 0.000000 0.000000 31.25000 1.660396 0.642898 8.319653
85 0.000000 0.000000 35.71430 2.118989 0.798688 10.74527
86 0.000000 0.000000 40.54050 2.686635 0.992122 13.74677
87 0.000000 0.000000 45.77470 3.508692 1.272343 18.10122
88 0.000000 0.000000 51.47060 4.396781 1.575033 22.76304
89 0.000000 0.000000 57.69230 5.811129 2.057622 30.21383
90 0.000000 0.000000 64.51610 7.509928 2.637423 39.19151
91 0.000000 0.000000 72.03390 9.442567 3.294361 49.36272
92 0.000000 0.000000 80.35710 12.06943 4.181241 63.18888
93 0.000000 0.000000 89.62260 15.26002 5.272542 80.02257
94 32.18100 0.000000 100.0000 23.74975 8.649778 103.6096
95 30.61630 50.62980 100.0000 29.70339 24.19420 105.0382
96 39.24070 63.33040 100.0000 35.98843 35.26376 105.6315
97 47.29830 80.11630 100.0000 45.93092 54.24612 106.8052
98 63.22460 100.0000 100.0000 64.90389 85.73681 108.8061
99 0.000000 61.52170 65.21550 17.23673 26.79208 41.67713
100 0.000000 67.43330 83.52260 24.65886 33.94915 70.79595
101 5.663400 5.663400 5.663400 0.521043 0.534728 0.637622
102 6.535900 6.535900 6.535900 0.630898 0.671753 0.780920
103 7.425700 7.425700 7.425700 0.714846 0.738652 0.891469
104 8.333300 8.333300 8.333300 0.822975 0.856040 1.006194
105 9.259300 9.259300 9.259300 0.969088 1.028284 1.191389
106 10.20410 10.20410 10.20410 1.051452 1.106169 1.251987
107 11.16840 11.16840 11.16840 1.179380 1.240401 1.390504
108 12.15280 12.15280 12.15280 1.352771 1.403448 1.652038
109 13.15790 13.15790 13.15790 1.629712 1.700836 1.951947
110 14.18440 14.18440 14.18440 1.727700 1.805464 2.053935
111 15.23300 15.23300 15.23300 2.043734 2.142588 2.397939
112 16.30430 16.30430 16.30430 2.286309 2.392439 2.751248
113 17.39930 17.39930 17.39930 2.514200 2.642185 3.008489
114 18.51850 18.51850 18.51850 2.841129 2.950077 3.287269
115 19.66290 19.66290 19.66290 3.157900 3.335399 3.691862
116 20.83330 20.83330 20.83330 3.535076 3.673796 4.129941
117 22.03070 22.03070 22.03070 3.885964 4.101213 4.590914
118 23.25580 23.25580 23.25580 4.245781 4.447923 4.900168
119 24.50980 24.50980 24.50980 4.637264 4.916810 5.408351
120 25.79360 25.79360 25.79360 5.239274 5.494951 6.096913
121 27.10840 27.10840 27.10840 5.755891 6.043185 6.659030
122 28.45530 28.45530 28.45530 6.416880 6.806919 7.485742
123 29.83540 29.83540 29.83540 6.928240 7.273385 8.072807
124 31.25000 31.25000 31.25000 7.737925 8.153490 8.954629
125 32.70040 32.70040 32.70040 8.284191 8.657271 9.604693
126 34.18800 34.18800 34.18800 9.172441 9.602053 10.56120
127 35.71430 35.71430 35.71430 10.09129 10.59281 11.55621
128 37.28070 37.28070 37.28070 10.85406 11.38441 12.56462
129 38.88890 38.88890 38.88890 11.82591 12.43977 13.61011
130 40.54050 40.54050 40.54050 12.87097 13.55023 14.73902
131 42.23740 42.23740 42.23740 14.22703 14.84949 16.52470
132 43.98150 43.98150 43.98150 15.37718 16.08716 17.75748
133 45.77470 45.77470 45.77470 16.83325 17.67934 19.38812
134 47.61910 47.61910 47.61910 18.23741 19.08592 20.75486
135 49.51690 49.51690 49.51690 19.77781 20.85200 22.57095
136 51.47060 51.47060 51.47060 21.55900 22.70358 24.37750
137 53.48260 53.48260 53.48260 23.54027 24.77988 26.88040
138 55.55560 55.55560 55.55560 25.95541 27.33407 29.46915
139 57.69230 57.69230 57.69230 28.27407 29.74648 32.35803
140 59.89580 59.89580 59.89580 30.72229 32.20411 35.29933
141 62.16930 62.16930 62.16930 33.18555 34.81643 38.47623
142 64.51610 64.51610 64.51610 36.23821 37.80725 41.80474
143 66.93990 66.93990 66.93990 39.08232 41.15631 44.84140
144 69.44440 69.44440 69.44440 42.16045 44.30214 48.45464
145 72.03390 72.03390 72.03390 45.66475 48.08857 52.33793
146 74.71260 74.71260 74.71260 49.76563 52.36685 57.12947
147 77.48540 77.48540 77.48540 53.95044 56.84311 61.92304
148 80.35710 80.35710 80.35710 58.19213 60.97174 67.21331
149 83.33330 83.33330 83.33330 62.63229 65.69255 72.25880
150 86.41970 86.41970 86.41970 67.62113 71.21211 78.31612
151 89.62260 89.62260 89.62260 74.07403 77.83175 84.87294
152 92.94870 92.94870 92.94870 79.61920 83.59004 91.68088
153 96.40520 96.40520 96.40520 87.27593 91.81063 100.7632
154 0.000000 15.16510 27.62230 1.863328 1.954509 6.569044
155 0.000000 42.03280 100.0000 23.88238 17.22243 104.5067
156 0.000000 56.67440 100.0000 27.76675 27.11379 105.1169
157 0.000000 69.33390 100.0000 32.07650 38.07967 105.9904
158 100.0000 86.49770 87.02870 82.23305 78.51106 79.22210
159 100.0000 100.0000 88.65780 90.55724 98.38312 83.70766
160 12.42590 9.712100 0.000000 1.031672 1.079309 0.252852
161 26.21530 11.33890 0.000000 3.057440 2.186198 0.287380
162 43.91940 19.07650 18.06270 9.109209 6.048573 3.244149
163 52.65820 46.95840 27.42860 17.80238 19.00009 7.584606
164 0.000000 100.0000 0.000000 27.88634 70.79079 4.864197
165 36.78360 100.0000 0.000000 33.19924 73.21550 4.918794
166 60.37980 100.0000 0.000000 43.43403 78.08334 5.024267
167 80.55630 100.0000 0.000000 56.83708 84.31596 5.155789
168 100.0000 100.0000 27.41130 76.88708 93.57666 11.92514
169 34.07890 0.000000 74.74320 14.86302 5.716940 54.11067
170 41.15220 31.79460 74.12360 19.14531 12.60572 53.40582
171 52.08740 54.39650 82.69450 31.40795 28.14951 69.08506
172 0.000000 12.50920 36.26190 2.562939 1.795686 11.14510
173 0.000000 16.82150 56.11460 6.086582 3.628875 28.28161
174 0.000000 21.55580 78.36530 12.49046 6.690208 59.95249
175 28.40300 35.48550 78.68740 17.52255 12.75365 61.23593
176 52.86520 41.81320 100.0000 35.60590 22.79826 104.6728
177 60.27000 55.77400 100.0000 43.14527 33.66091 105.4951
178 100.0000 77.62720 100.0000 83.44124 69.58964 107.2445
179 100.0000 88.79430 100.0000 88.67402 82.73313 108.1404
180 26.57560 0.000000 18.01660 3.342478 1.553067 3.013780
181 57.12330 0.000000 18.83570 14.38761 6.696316 3.400446
182 100.0000 0.000000 16.20060 48.24464 22.49391 3.021177
183 100.0000 0.000000 30.98110 49.24547 22.82590 8.830445
184 100.0000 26.89860 34.56890 51.31188 27.26024 11.19349
185 100.0000 35.33370 48.85180 54.58494 31.04642 22.23510
186 61.46280 31.38910 0.000000 18.36073 13.29682 0.741539
187 69.53420 32.44750 44.65760 26.57918 17.03590 18.18033
188 0.000000 0.000000 0.000000 0.106448 0.111503 0.121634
189 0.000000 2.336400 0.000000 0.142464 0.202528 0.151811
190 74.91210 24.07570 0.000000 25.82489 14.82573 0.666622
191 100.0000 100.0000 100.0000 95.36758 99.90102 109.3333
192 0.000000 80.35710 0.000000 16.85199 42.71262 3.012985
193 0.000000 89.62260 0.000000 21.68057 54.71257 3.806360
194 0.000000 100.0000 27.78670 29.13920 71.19631 11.45837
195 0.000000 100.0000 85.31040 41.83857 75.70399 77.77910
196 0.000000 0.000000 100.0000 19.80289 6.782123 103.8903
197 0.000000 23.99290 100.0000 21.12700 10.12884 104.1780
198 25.30180 36.37080 100.0000 25.38285 15.71428 104.4584
199 29.15380 69.43270 100.0000 35.45494 39.84174 106.2200
200 83.18950 89.18610 100.0000 72.35347 75.47777 108.0164
201 100.0000 61.85160 25.82870 58.40712 47.19136 8.058872
202 100.0000 75.81830 40.28050 65.27379 61.00451 17.31237
203 21.83570 18.61190 0.000000 2.736665 2.961875 0.355199
204 36.40610 21.89520 0.000000 6.283430 5.312205 0.442945
205 62.04250 30.12000 66.51550 26.81178 15.90168 43.15080
206 77.10870 49.61750 100.0000 52.39957 34.43221 105.3666
207 18.58260 0.000000 28.67890 2.790290 1.199761 7.067754
208 75.39200 0.000000 37.59860 27.21668 12.47507 12.42884
209 78.49010 30.79110 37.85010 31.83516 19.23322 13.24566
210 85.33520 51.55340 54.74090 44.77545 33.59952 28.79117
211 100.0000 72.93870 72.17370 71.31612 61.07235 53.17060
212 100.0000 86.98010 73.12630 78.14242 77.69981 55.61093
213 40.54050 0.000000 0.000000 6.365724 3.028484 0.266779
214 49.25570 17.76710 0.000000 10.61511 6.564172 0.427550
215 67.34740 48.55810 0.000000 25.26227 23.41762 1.333775
216 80.89020 58.04040 24.85780 38.73469 35.23483 7.097895
217 100.0000 57.89290 55.92130 61.69808 45.60265 30.78338
218 36.15760 0.000000 33.95000 7.039626 3.112754 10.03688
219 43.13930 0.000000 52.15040 11.95262 5.066551 24.20273
220 100.0000 0.000000 59.42970 54.04330 24.47405 33.59123
221 100.0000 29.93450 69.76530 58.70878 30.59705 47.78681
222 100.0000 52.14890 81.78550 66.97809 43.51361 68.29581
223 0.000000 0.000000 0.000000 0.106631 0.111760 0.121992
224 15.00650 22.70260 0.000000 2.175021 3.470160 0.408186
225 54.43930 50.09270 0.000000 18.33085 20.98610 1.325033
226 54.14220 60.45240 77.32400 32.42384 32.79071 59.83449
227 32.33060 22.52390 100.0000 25.01333 11.60047 104.1433
228 60.00120 26.11340 100.0000 36.74491 17.99831 104.5747
229 29.08730 38.85320 42.40960 9.717305 11.37885 16.33904
230 38.09570 48.40890 41.17990 13.98275 17.64094 15.65606
231 50.20070 75.11040 44.34190 28.44271 43.61167 19.96793
232 86.85210 100.0000 69.03650 70.68440 89.83898 51.14660
233 100.0000 100.0000 73.41340 85.67470 96.70867 57.57706
234 0.000000 44.94870 30.08120 6.247728 12.48403 8.659546
235 33.16950 57.46150 33.00360 14.45303 23.67763 10.88524
236 53.74600 100.0000 76.47900 50.80050 80.20552 61.60866
237 86.73290 100.0000 87.40500 76.35038 91.84717 81.29808
238 86.93450 100.0000 100.0000 82.21568 93.91281 109.4339
239 39.17180 100.0000 44.16900 37.39020 75.02617 22.24219
240 56.10300 100.0000 58.82740 47.56026 79.34405 37.40738
241 0.000000 85.42430 100.0000 39.36109 56.28396 107.4434
242 31.53320 88.77250 100.0000 44.77240 62.13992 107.7107
243 100.0000 100.0000 100.0000 95.52775 100.0449 109.3333
244 26.28120 40.45100 54.19640 11.52709 12.65411 27.02418
245 63.15830 52.77620 70.42250 33.12791 28.49437 49.51084
246 17.40800 6.984100 10.01250 1.673628 1.181376 1.249993
247 25.17170 11.65680 20.38380 3.531758 2.329507 3.899004
248 0.000000 9.732200 13.95770 0.705130 0.887535 1.997748
249 0.000000 19.86580 15.26730 1.409446 2.534008 2.443066
250 29.96600 32.70620 24.96010 6.893091 8.095684 5.946694
251 71.84070 41.08290 28.26840 27.71218 21.04370 7.872813
252 100.0000 85.46560 26.47300 68.51445 72.49050 10.12946
253 77.66710 80.51790 0.000000 43.71221 55.52907 3.302342
254 100.0000 80.08670 0.000000 64.77833 65.48925 3.533989
255 100.0000 100.0000 0.000000 75.72537 93.36935 5.367168
256 0.000000 25.89900 51.96400 6.150000 5.469601 24.34821
257 0.000000 34.80960 76.29590 13.53405 10.80128 56.73347
258 0.000000 46.23220 78.50930 16.44616 16.66287 60.81467
259 59.08170 66.43930 100.0000 46.14305 42.46767 106.3524
260 81.35510 78.34700 100.0000 65.91558 61.94148 107.3840
261 3.144700 3.144700 3.144700 0.295967 0.304187 0.352323
262 3.968300 3.968300 3.968300 0.366995 0.374494 0.460084
263 4.807700 4.807700 4.807700 0.436718 0.449490 0.541288
264 40.84140 22.80530 28.79040 9.077883 6.558159 7.403119
265 41.36920 65.79390 30.08070 19.18519 31.61400 9.896906
266 64.67950 69.33740 36.98860 32.74767 40.68414 14.10572
267 89.47370 85.46990 46.34020 59.65544 67.87354 22.74578
268 31.47420 59.65630 0.000000 12.63801 24.16367 1.711028
269 32.13200 77.83400 0.000000 19.89206 41.96093 2.887388
270 0.000000 52.62820 21.08150 7.425026 17.07116 5.188210
271 0.000000 54.79990 77.51200 18.46315 22.44414 59.62245
272 0.000000 100.0000 100.0000 47.69860 77.56425 108.6802
273 100.0000 0.000000 0.000000 47.65347 22.28840 0.685494
274 100.0000 0.000000 44.73590 50.98606 23.42651 18.04787
275 100.0000 0.000000 78.51620 59.07137 26.17933 60.57437
276 100.0000 27.81620 100.0000 69.63586 33.82711 105.3445
277 0.000000 75.83370 41.46260 17.59702 38.52883 17.37726
278 0.000000 100.0000 47.27770 31.78308 72.15046 24.54293
279 0.000000 100.0000 65.35600 35.90932 73.72833 45.82909
280 25.82950 100.0000 74.84410 41.13115 75.93612 59.67118
281 35.58380 100.0000 100.0000 52.98735 80.19897 109.1470
282 53.24000 0.000000 32.42390 13.41177 6.104950 9.235513
283 58.21760 0.000000 49.13960 18.25109 8.080906 21.08328
284 77.74980 0.000000 55.70140 32.06359 14.34676 28.17632
285 76.52690 56.14780 55.03090 38.75592 33.63487 28.96177
286 88.43990 66.39590 58.50430 53.09058 47.32958 34.19797
287 0.764500 0.764500 0.764500 0.125528 0.131900 0.145570
288 1.543200 1.543200 1.543200 0.173552 0.178147 0.208179
289 2.336400 2.336400 2.336400 0.226586 0.239307 0.286402
290 25.22480 0.000000 50.90540 6.756790 2.678808 22.64350
291 55.98670 0.000000 100.0000 33.03041 12.96029 104.0435
292 100.0000 0.000000 100.0000 67.36449 28.97186 104.2908
293 76.61400 0.000000 75.10660 36.11878 15.59050 55.21000
294 77.81530 0.000000 100.0000 46.49306 19.24142 103.9431
295 29.75030 25.33360 43.50030 8.095489 6.477544 16.90658
296 33.77270 34.60910 43.22420 10.31439 10.13416 16.81810
297 44.09300 45.49310 65.69880 20.49337 18.70169 42.40783
298 0.000000 29.82950 42.01300 4.969626 6.149500 15.66220
299 0.000000 45.79720 54.88570 10.07379 14.21662 27.82764
300 0.000000 72.36920 63.41470 20.86501 36.99595 40.35493
301 38.12700 87.46680 62.41850 33.33714 57.35352 40.38430
302 100.0000 58.94290 0.000000 56.36197 44.10879 2.122268
303 100.0000 61.11770 42.35500 60.34929 47.52153 18.09764
304 31.91620 32.85230 0.000000 6.383339 8.073148 0.652114
305 40.25920 50.79940 0.000000 12.58747 18.74208 1.305148
306 57.58790 64.50700 0.000000 24.49009 33.19964 2.096253
307 60.33330 100.0000 31.45050 45.23008 78.79928 13.58786
308 69.27310 100.0000 49.72770 53.22911 82.33372 27.09073
309 42.82160 87.15720 18.44130 28.20631 55.31042 6.679844
310 51.39220 86.80840 37.34830 33.26962 56.98829 15.60312
311 46.53340 67.22230 9.067300 20.44840 33.25669 3.114744
312 89.06740 68.90930 47.96850 52.36465 49.39171 22.77301
313 100.0000 74.40840 58.89320 68.44503 61.36445 35.53926
314 52.49630 43.52750 48.47960 19.77924 17.88612 21.67927
315 60.25890 45.70010 57.32450 26.29962 21.86510 31.35931
316 19.59990 13.72780 24.50640 3.012074 2.272016 5.245259
317 23.07380 23.38780 33.65960 5.290709 4.916591 10.06085
318 53.52210 59.22100 52.06520 25.16140 29.28204 26.03012
319 80.05290 70.42260 56.25420 47.04393 48.17057 31.18993
320 66.23240 57.75540 15.19470 27.64383 30.10302 3.910074
321 84.17210 66.21590 19.38730 43.85387 43.59971 5.669051
322 86.58510 82.00270 26.70240 52.92610 61.71196 9.667372
323 80.51130 88.33500 32.23560 51.83478 67.62434 12.98409
324 82.76010 91.06410 53.52990 58.21901 73.16909 30.41020
325 88.76990 96.60190 77.61150 72.93073 86.01092 63.88479
326 39.82320 18.42280 7.813000 7.231107 5.054370 1.124004
327 91.03710 26.68360 4.922900 39.49751 21.83674 1.242755
328 100.0000 28.32310 16.62950 50.04849 27.20177 3.487688
329 34.21610 22.93580 14.53520 6.151094 5.305063 2.331029
330 35.00690 41.13180 14.39090 9.157989 12.43292 2.806683
331 44.51300 49.35340 35.50170 15.89195 19.26101 12.12593
332 24.35600 33.98020 20.98170 5.738804 8.128392 4.572783
333 39.77230 39.84560 23.71850 10.78207 12.62015 5.555069
334 85.31420 57.09530 35.56320 43.48420 37.02568 12.86848
335 80.90180 45.32290 0.000000 34.17173 25.98824 1.300912
336 91.40690 45.51480 25.99570 44.07469 30.57224 7.120397
337 100.0000 45.22570 35.73020 54.65771 35.24683 12.48158
338 64.42550 26.26710 9.069000 19.48435 12.37306 1.544689
339 82.09270 31.38920 15.50440 32.70497 19.98907 3.128057
340 85.92590 58.63600 4.853500 41.68508 37.28590 2.323705
341 100.0000 70.70260 16.53190 61.10733 55.39717 5.377690
342 0.000000 0.000000 0.000000 0.106705 0.111743 0.122066
343 0.000000 31.39590 15.79680 2.753155 5.915500 2.774193
344 62.72180 46.88890 15.54260 22.41434 21.26904 3.486332
345 66.81400 54.36260 42.87410 29.52282 28.47861 17.58461
346 77.89950 53.90250 44.03260 37.46705 31.75265 18.51541
347 56.88900 90.06420 13.38850 35.96034 62.14504 5.708839
348 64.85520 91.51050 58.52240 46.91593 68.14479 35.97469
349 100.0000 100.0000 100.0000 95.36758 99.90102 109.3333
350 48.64570 34.76050 0.000000 12.30107 11.54338 0.763026
351 63.51380 38.15070 14.55830 20.98330 16.65361 2.829422
352 79.42340 45.62570 16.22630 33.51498 25.66273 3.644564
353 12.85480 17.50760 7.417300 1.696432 2.382058 1.004608
354 23.41560 22.63090 15.13720 3.822853 4.205851 2.519838
355 28.23970 76.19730 20.69970 18.80333 39.70146 6.516585
356 51.58170 79.58540 20.74860 28.36609 47.78599 6.914311
357 13.79830 47.69140 63.27490 13.36406 16.58839 38.48914
358 32.82020 48.15780 85.53900 23.74415 20.81971 73.86147
359 0.000000 38.26420 60.14560 9.731560 10.75432 33.87033
360 19.51710 57.57860 68.70060 18.43299 24.74394 46.28875
361 20.64160 65.29400 83.93350 25.66874 32.44966 71.51042
362 21.18910 77.98080 100.0000 37.46914 47.97995 106.5777
363 62.41570 77.67720 100.0000 52.37884 54.94904 106.7184
364 31.63310 18.49700 53.30120 9.592803 5.582595 25.62564
365 54.74340 19.84790 71.14870 22.72542 11.41861 48.77244
366 60.07120 44.09870 85.08470 33.64476 23.37098 73.24952
367 6.678500 9.354100 22.59840 1.444910 1.174505 4.559002
368 13.35120 23.20110 22.58280 2.913132 3.826584 4.748374
369 14.97300 24.40580 30.54380 3.878524 4.488291 8.338764
370 26.11240 52.81180 53.88570 14.39299 20.21894 27.07337
371 25.56020 64.11270 65.91870 20.78558 30.18385 43.24067
372 0.000000 50.00430 45.97640 9.518165 16.42057 19.36668
373 16.88830 57.02450 45.95200 12.67825 22.09612 19.85401
374 77.29510 58.22450 68.90260 43.50993 36.49659 47.33286
375 14.63900 5.212500 22.79910 1.893366 1.061103 4.542880
376 14.48180 16.59310 33.12400 3.358751 2.738265 9.479722
377 16.26690 30.11530 41.78250 6.097741 6.839637 15.79056
378 26.16560 33.24030 53.78520 10.15420 9.415934 26.31832
379 37.74770 33.60910 62.43850 15.13307 11.64195 37.10492
380 52.86390 41.91150 70.69150 24.83760 19.07353 48.77221
381 13.52970 0.000000 12.69080 1.142842 0.559047 1.649481
382 39.13530 0.000000 16.10690 6.450995 3.013502 2.568388
383 40.99190 11.71200 25.68410 8.105095 4.420590 5.793284
384 54.33990 18.49880 25.37920 14.20936 8.205943 5.945499
385 53.87680 26.37650 36.06970 15.70213 10.37836 11.68187
386 69.22950 42.14390 66.38560 33.13209 23.12857 43.14642
387 69.23150 53.42760 82.52130 40.89537 31.93486 68.75186
388 50.78930 12.03140 87.65470 25.64535 10.95402 76.93876
389 68.48350 14.14830 86.78890 35.31840 15.76426 74.85803
390 55.71290 0.000000 71.68450 22.44982 9.353523 49.88042
391 63.19990 33.55270 86.07330 33.75492 19.49881 74.44128
