KOIOS/K2721UG/K2721UG #1 2022-08-20 16-50 0.3127x 0.329y sRGB F-S XYZLUT+MTX/K2721UG #1 2022-08-20 16-50 0.3127x 0.329y sRGB F-S XYZLUT+MTX.cal
CAL    

DESCRIPTOR "Argyll Device Calibration Curves"
ORIGINATOR "Argyll dispcal"
CREATED "Sat Aug 20 16:58:28 2022"
DEVICE_CLASS "DISPLAY"
COLOR_REP "RGB"
VIDEO_LUT_CALIBRATION_POSSIBLE "YES"
TV_OUTPUT_ENCODING "NO"
DEVICE_TYPE "n"
TARGET_WHITE_XYZ "71.731844 75.470984 82.192261"
TARGET_GAMMA "sRGB"
DEGREE_OF_BLACK_OUTPUT_OFFSET "1.0"
BLACK_POINT_CORRECTION "0.0"
BLACK_NEUTRAL_BLEND_RATE "4.0"
BLACK_POINT_HACK "YES"
QUALITY "low"

BEGIN_ARGYLL_DISPCAL_ARGS
-v2 -d1 -c1 -yn -P0.467501009285,0.405269761606,2.11975116641 -ql -m -w0.3127,0.329 -gs -f1.0 -k0 -A4.0 -b
END_ARGYLL_DISPCAL_ARGS


NUMBER_OF_FIELDS 4
BEGIN_DATA_FORMAT
RGB_I RGB_R RGB_G RGB_B
END_DATA_FORMAT

NUMBER_OF_SETS 256
BEGIN_DATA
0.00000000 0.00000000 0.00000000 0.00000000
0.00392157 0.00939135 0.00876610 0.00965677
0.00784314 0.01764480 0.01657240 0.01829690
0.01176470 0.02495540 0.02356840 0.02607280
0.01568630 0.03147600 0.02987400 0.03310800
0.01960780 0.03733750 0.03560280 0.03951000
0.02352940 0.04264040 0.04085720 0.04537110
0.02745100 0.04748270 0.04570930 0.05077150
0.03137250 0.05195920 0.05023330 0.05578870
0.03529410 0.05615330 0.05449280 0.06050020
0.03921570 0.06012690 0.05853130 0.06496730
0.04313730 0.06392450 0.06238900 0.06923950
0.04705880 0.06757880 0.06609530 0.07335250
0.05098040 0.07112450 0.06968190 0.07734130
0.05490200 0.07459470 0.07317920 0.08123310
0.05882350 0.07800830 0.07660010 0.08504280
0.06274510 0.08138550 0.07995720 0.08878320
0.06666670 0.08473440 0.08325910 0.09247250
0.07058820 0.08806880 0.08652340 0.09612540
0.07450980 0.09138960 0.08975180 0.09975180
0.07843140 0.09471250 0.09295910 0.10336900
0.08235290 0.09803200 0.09614420 0.10697300
0.08627450 0.10135000 0.09931110 0.11056800
0.09019610 0.10467900 0.10247500 0.11416300
0.09411760 0.10800900 0.10563100 0.11774800
0.09803920 0.11133200 0.10877900 0.12131900
0.10196100 0.11464600 0.11192000 0.12488300
0.10588200 0.11796300 0.11507700 0.12844600
0.10980400 0.12127400 0.11824300 0.13199700
0.11372500 0.12457900 0.12141900 0.13553700
0.11764700 0.12787200 0.12459600 0.13905400
0.12156900 0.13115900 0.12776500 0.14256900
0.12549000 0.13445200 0.13093800 0.14608300
0.12941200 0.13773600 0.13410300 0.14957800
0.13333300 0.14100600 0.13725100 0.15306300
0.13725500 0.14427400 0.14039500 0.15654100
0.14117600 0.14753300 0.14353200 0.16000500
0.14509800 0.15078400 0.14665600 0.16346500
0.14902000 0.15404300 0.14978500 0.16693700
0.15294100 0.15731900 0.15292400 0.17042200
0.15686300 0.16060200 0.15607300 0.17390800
0.16078400 0.16388600 0.15922700 0.17740000
0.16470600 0.16718200 0.16239200 0.18090800
0.16862700 0.17049600 0.16557700 0.18443300
0.17254900 0.17381300 0.16877700 0.18795300
0.17647100 0.17712200 0.17197500 0.19147400
0.18039200 0.18042900 0.17517500 0.19500300
0.18431400 0.18374400 0.17838400 0.19855400
0.18823500 0.18707600 0.18161100 0.20213300
0.19215700 0.19042400 0.18485600 0.20572600
0.19607800 0.19376700 0.18810300 0.20932100
0.20000000 0.19710100 0.19134400 0.21291400
0.20392200 0.20041900 0.19457100 0.21650600
0.20784300 0.20374100 0.19779500 0.22011300
0.21176500 0.20707600 0.20102800 0.22373700
0.21568600 0.21041400 0.20427200 0.22736400
0.21960800 0.21373400 0.20751400 0.23097800
0.22352900 0.21704700 0.21074700 0.23459600
0.22745100 0.22036600 0.21398800 0.23821500
0.23137300 0.22368200 0.21723800 0.24182600
0.23529400 0.22699700 0.22049500 0.24543900
0.23921600 0.23033400 0.22377700 0.24907400
0.24313700 0.23370700 0.22710400 0.25274300
0.24705900 0.23712700 0.23048600 0.25643300
0.25098000 0.24057500 0.23390300 0.26013500
0.25490200 0.24404900 0.23735000 0.26384600
0.25882400 0.24754600 0.24082100 0.26757200
0.26274500 0.25107000 0.24431900 0.27130200
0.26666700 0.25461000 0.24782400 0.27504300
0.27058800 0.25818400 0.25135200 0.27881300
0.27451000 0.26179600 0.25490600 0.28261800
0.27843100 0.26545400 0.25848600 0.28646300
0.28235300 0.26914500 0.26209100 0.29031600
0.28627500 0.27281300 0.26567900 0.29414000
0.29019600 0.27646200 0.26922800 0.29794600
0.29411800 0.28011700 0.27275400 0.30175700
0.29803900 0.28379200 0.27627200 0.30558500
0.30196100 0.28748800 0.27978900 0.30943100
0.30588200 0.29119300 0.28330000 0.31328400
0.30980400 0.29491500 0.28680200 0.31715800
0.31372500 0.29864900 0.29030200 0.32104500
0.31764700 0.30239200 0.29379300 0.32494000
0.32156900 0.30614800 0.29727400 0.32885100
0.32549000 0.30992000 0.30075100 0.33278300
0.32941200 0.31372800 0.30423000 0.33675400
0.33333300 0.31753500 0.30772700 0.34073300
0.33725500 0.32133200 0.31121800 0.34471000
0.34117600 0.32511300 0.31469700 0.34868300
0.34509800 0.32887500 0.31815700 0.35264900
0.34902000 0.33261400 0.32159900 0.35660800
0.35294100 0.33634600 0.32502700 0.36056800
0.35686300 0.34008100 0.32845500 0.36454300
0.36078400 0.34379400 0.33189500 0.36851300
0.36470600 0.34749300 0.33532800 0.37247700
0.36862700 0.35120000 0.33876000 0.37645600
0.37254900 0.35491800 0.34221600 0.38045200
0.37647100 0.35865100 0.34571100 0.38446800
0.38039200 0.36242300 0.34924900 0.38852000
0.38431400 0.36625600 0.35284500 0.39262400
0.38823500 0.37016300 0.35651000 0.39679100
0.39215700 0.37413700 0.36025600 0.40102000
0.39607800 0.37809700 0.36408600 0.40524600
0.40000000 0.38201700 0.36794900 0.40942300
0.40392200 0.38590600 0.37178700 0.41354800
0.40784300 0.38978700 0.37559400 0.41763500
0.41176500 0.39367700 0.37937600 0.42170200
0.41568600 0.39756200 0.38314100 0.42574000
0.41960800 0.40145700 0.38688800 0.42975100
0.42352900 0.40535000 0.39062000 0.43374800
0.42745100 0.40924100 0.39434400 0.43772500
0.43137300 0.41314300 0.39805000 0.44169600
0.43529400 0.41704500 0.40174800 0.44566900
0.43921600 0.42092000 0.40544800 0.44962400
0.44313700 0.42479200 0.40913700 0.45355800
0.44705900 0.42868600 0.41281800 0.45749600
0.45098000 0.43259600 0.41651600 0.46145900
0.45490200 0.43650800 0.42025300 0.46543700
0.45882400 0.44043000 0.42401400 0.46943100
0.46274500 0.44435500 0.42780100 0.47344500
0.46666700 0.44829200 0.43161500 0.47747600
0.47058800 0.45223600 0.43545900 0.48153100
0.47451000 0.45618000 0.43933300 0.48560200
0.47843100 0.46012400 0.44322500 0.48968400
0.48235300 0.46406900 0.44712600 0.49377600
0.48627500 0.46804800 0.45103800 0.49788200
0.49019600 0.47202300 0.45496800 0.50203300
0.49411800 0.47597600 0.45893200 0.50619600
0.49803900 0.47990800 0.46287600 0.51035700
0.50196100 0.48382200 0.46680100 0.51451700
0.50588200 0.48772700 0.47070600 0.51867700
0.50980400 0.49162000 0.47460200 0.52284700
0.51372500 0.49549600 0.47849900 0.52702900
0.51764700 0.49935900 0.48239600 0.53121400
0.52156900 0.50320200 0.48629300 0.53541200
0.52549000 0.50705000 0.49016900 0.53960700
0.52941200 0.51088900 0.49403400 0.54381600
0.53333300 0.51470100 0.49789400 0.54803700
0.53725500 0.51849600 0.50172700 0.55224400
0.54117600 0.52228200 0.50553900 0.55644600
0.54509800 0.52606400 0.50934100 0.56065400
0.54902000 0.52985900 0.51313700 0.56486800
0.55294100 0.53366400 0.51694100 0.56910700
0.55686300 0.53741800 0.52076400 0.57336400
0.56078400 0.54111300 0.52456300 0.57757400
0.56470600 0.54477200 0.52830400 0.58173300
0.56862700 0.54841800 0.53200300 0.58586000
0.57254900 0.55204000 0.53567700 0.58997200
0.57647100 0.55564200 0.53932600 0.59405600
0.58039200 0.55923100 0.54295300 0.59811400
0.58431400 0.56280900 0.54656100 0.60215600
0.58823500 0.56637200 0.55015200 0.60617700
0.59215700 0.56991600 0.55371800 0.61017400
0.59607800 0.57345100 0.55725900 0.61415000
0.60000000 0.57696200 0.56077700 0.61810400
0.60392200 0.58044200 0.56425700 0.62202300
0.60784300 0.58389600 0.56769100 0.62590400
0.61176500 0.58733000 0.57108500 0.62975500
0.61568600 0.59073100 0.57445500 0.63357200
0.61960800 0.59410000 0.57779200 0.63734600
0.62352900 0.59745400 0.58110300 0.64110500
0.62745100 0.60080400 0.58440700 0.64485500
0.63137300 0.60417500 0.58771500 0.64862200
0.63529400 0.60758600 0.59104700 0.65242300
0.63921600 0.61105400 0.59441800 0.65627200
0.64313700 0.61458500 0.59784500 0.66017800
0.64705900 0.61818200 0.60133700 0.66414200
0.65098000 0.62183100 0.60489800 0.66815100
0.65490200 0.62543700 0.60850600 0.67211800
0.65882400 0.62897700 0.61207500 0.67601600
0.66274500 0.63245200 0.61559500 0.67984300
0.66666700 0.63586700 0.61906400 0.68360600
0.67058800 0.63923400 0.62248800 0.68731500
0.67451000 0.64257100 0.62587500 0.69098800
0.67843100 0.64589000 0.62923900 0.69463700
0.68235300 0.64920600 0.63258800 0.69826900
0.68627500 0.65252000 0.63592700 0.70189400
0.69019600 0.65583800 0.63926400 0.70551900
0.69411800 0.65915200 0.64260400 0.70913300
0.69803900 0.66245000 0.64593400 0.71273000
0.70196100 0.66573700 0.64925400 0.71632400
0.70588200 0.66901600 0.65257700 0.71991400
0.70980400 0.67228300 0.65589000 0.72349900
0.71372500 0.67554900 0.65919300 0.72708800
0.71764700 0.67881600 0.66249300 0.73066900
0.72156900 0.68206200 0.66577800 0.73423000
0.72549000 0.68529100 0.66904200 0.73778200
0.72941200 0.68850500 0.67229600 0.74132100
0.73333300 0.69170200 0.67553500 0.74485000
0.73725500 0.69488700 0.67876500 0.74837000
0.74117600 0.69806900 0.68198600 0.75190200
0.74509800 0.70126900 0.68521700 0.75544400
0.74902000 0.70448100 0.68845300 0.75899200
0.75294100 0.70770300 0.69169200 0.76254600
0.75686300 0.71093300 0.69492700 0.76610800
0.76078400 0.71417500 0.69816200 0.76968900
0.76470600 0.71743600 0.70140200 0.77327900
0.76862700 0.72070200 0.70463500 0.77687200
0.77254900 0.72397500 0.70785900 0.78047600
0.77647100 0.72726100 0.71108400 0.78409300
0.78039200 0.73056100 0.71431200 0.78773100
0.78431400 0.73388500 0.71755500 0.79141100
0.78823500 0.73725500 0.72083000 0.79514500
0.79215700 0.74068500 0.72414900 0.79894100
0.79607800 0.74418000 0.72752000 0.80275400
0.80000000 0.74768900 0.73090600 0.80653400
0.80392200 0.75117300 0.73425500 0.81027900
0.80784300 0.75463300 0.73756900 0.81399700
0.81176500 0.75807600 0.74085400 0.81770200
0.81568600 0.76152000 0.74412400 0.82142100
0.81960800 0.76498400 0.74739700 0.82515900
0.82352900 0.76847100 0.75068300 0.82890500
0.82745100 0.77196700 0.75397600 0.83265800
0.83137300 0.77547400 0.75726800 0.83642900
0.83529400 0.77900100 0.76056700 0.84021800
0.83921600 0.78254400 0.76388100 0.84402400
0.84313700 0.78609800 0.76720900 0.84784300
0.84705900 0.78966400 0.77054800 0.85169200
0.85098000 0.79326500 0.77391000 0.85558100
0.85490200 0.79690900 0.77731100 0.85948500
0.85882400 0.80056500 0.78074700 0.86335700
0.86274500 0.80418800 0.78417200 0.86720000
0.86666700 0.80779100 0.78757500 0.87103100
0.87058800 0.81138800 0.79096400 0.87484900
0.87451000 0.81497700 0.79435000 0.87866200
0.87843100 0.81856700 0.79773600 0.88247200
0.88235300 0.82216200 0.80113900 0.88628900
0.88627500 0.82577700 0.80456100 0.89011200
0.89019600 0.82940300 0.80801100 0.89391600
0.89411800 0.83300900 0.81148000 0.89770400
0.89803900 0.83660500 0.81495400 0.90148400
0.90196100 0.84019800 0.81843800 0.90527100
0.90588200 0.84379800 0.82193800 0.90906600
0.90980400 0.84740200 0.82546200 0.91284800
0.91372500 0.85098600 0.82900800 0.91661000
0.91764700 0.85455500 0.83255500 0.92036700
0.92156900 0.85813200 0.83610900 0.92412400
0.92549000 0.86171000 0.83968300 0.92786600
0.92941200 0.86527300 0.84326600 0.93160600
0.93333300 0.86884700 0.84684800 0.93535100
0.93725500 0.87242400 0.85045500 0.93909300
0.94117600 0.87600800 0.85406900 0.94284100
0.94509800 0.87959300 0.85769600 0.94658700
0.94902000 0.88318000 0.86132900 0.95033000
0.95294100 0.88676700 0.86496700 0.95407400
0.95686300 0.89035800 0.86861500 0.95781900
0.96078400 0.89395100 0.87227200 0.96156400
0.96470600 0.89754600 0.87593600 0.96530800
0.96862700 0.90114200 0.87960900 0.96905100
0.97254900 0.90473800 0.88329400 0.97279100
0.97647100 0.90833500 0.88699000 0.97652900
0.98039200 0.91193300 0.89069900 0.98026400
0.98431400 0.91553200 0.89442000 0.98399800
0.98823500 0.91913100 0.89815300 0.98772800
0.99215700 0.92273000 0.90189900 0.99145700
0.99607800 0.92633100 0.90565700 0.99518300
1.00000000 0.92993200 0.90942700 0.99890700
END_DATA
CAL    

DESCRIPTOR "Argyll Calibration options and model"
ORIGINATOR "Argyll dispcal"
CREATED "Sat Aug 20 16:58:28 202"

NUMBER_OF_FIELDS 3
BEGIN_DATA_FORMAT
R_P G_P B_P
END_DATA_FORMAT

NUMBER_OF_SETS 32
BEGIN_DATA
-0.000198411 0.000232458 0.001215020
1.000198000 0.999768000 0.998785000
1.969055000 1.910072000 1.904797000
0.510997000 0.504033000 0.542048000
0.091928900 0.120148000 0.024632200
0.110748000 0.094502000 0.082047000
0.078466100 0.051386000 0.088908200
0.058119700 0.056186300 0.124860000
0.048846600 0.059827500 0.076748800
0.047751400 0.053415400 0.054754100
0.043693700 0.053439900 0.040806100
0.040670500 0.051326600 0.035318300
0.039331900 0.045608300 0.040876400
0.038549300 0.041970600 0.039650300
0.034830100 0.038537500 0.031401000
0.033332200 0.038308500 0.038771100
0.031827000 0.034602300 0.031637300
0.031285900 0.035178700 0.033053500
0.029129500 0.035295200 0.025509600
0.027111700 0.035981900 0.026194900
0.024635500 0.033876700 0.023571500
0.025817800 0.029635300 0.025858000
0.023120500 0.028682800 0.025808400
0.021331900 0.025840100 0.022792700
0.021536000 0.024158200 0.021796800
0.020441700 0.023930900 0.021362200
0.019056000 0.024722900 0.019904100
0.018429500 0.026039900 0.018027100
0.017273200 0.025662200 0.016736400
0.016362400 0.024376700 0.017046400
0.015453600 0.025012500 0.017286300
0.015266900 0.024880600 0.016790200
END_DATA
