Microsoft/Surface Pro 5/LP123WQ112604 #1 2020-05-26 10-25 0.3127x 0.329y sRGB M-S XYZLUT+MTX/LP123WQ112604 #1 2020-05-26 10-25 0.3127x 0.329y sRGB M-S XYZLUT+MTX.bpc.ti3
CTI3   

DESCRIPTOR "Argyll Calibration Target chart information 3"
ORIGINATOR "Argyll dispread"
CREATED "Tue May 26 10:39:49 2020"
DEVICE_CLASS "DISPLAY"
SINGLE_DIM_STEPS "25"
COMP_GREY_STEPS "73"
DARK_REGION_EMPHASIS "1.6"
COLOR_REP "RGB_XYZ"
TARGET_INSTRUMENT "X-Rite i1 DisplayPro, ColorMunki Display"
DISPLAY_TYPE_REFRESH "NO"
INSTRUMENT_TYPE_SPECTRAL "NO"
LUMINANCE_XYZ_CDM2 "317.515499 334.057455 370.547733"
NORMALIZED_TO_Y_100 "YES"
VIDEO_LUT_CALIBRATION_POSSIBLE "YES"

BEGIN_ARGYLL_COLPROF_ARGS
-v -qh -aX -bn -C "No copyright. Created with DisplayCAL 3.8.9.3 and ArgyllCMS 2.1.2" -M "LP123WQ112604" -A "LG Display"
END_ARGYLL_COLPROF_ARGS

OBSERVER "1931_2"
USE_BLACK_POINT_COMPENSATION "NO"
BLACK_POINT_CORRECTION "0.0"
HIRES_B2A "YES"
HIRES_B2A_SIZE "-1"
SMOOTH_B2A "YES"
PATCH_SEQUENCE "OPTIMIZE_DISPLAY_RESPONSE_DELAY"

NUMBER_OF_FIELDS 7
BEGIN_DATA_FORMAT
SAMPLE_ID RGB_R RGB_G RGB_B XYZ_X XYZ_Y XYZ_Z
END_DATA_FORMAT

NUMBER_OF_SETS 825
BEGIN_DATA
1 100.00000 100.00000 100.00000 95.048170 100.00000 110.92340
2 1.9608000 1.9608000 1.9608000 0.1384641 0.1450035 0.1516605
3 3.9216000 3.9216000 3.9216000 0.3470678 0.3569849 0.4267967
4 5.8824000 5.8824000 5.8824000 0.5260044 0.5509404 0.6538795
5 9.8039000 9.8039000 9.8039000 1.0464509 1.1048556 1.2640068
6 13.726000 13.726000 13.726000 1.6837490 1.7940242 1.9394566
7 17.647000 17.647000 17.647000 2.5441970 2.6877602 2.9563739
8 21.569000 21.569000 21.569000 3.6172803 3.7859467 4.3364663
9 25.490000 25.490000 25.490000 4.9811026 5.2300400 5.8077709
10 29.412000 29.412000 29.412000 6.5652523 6.8696227 7.7619359
11 33.333000 33.333000 33.333000 8.4399465 8.8659693 9.9682290
12 37.255000 37.255000 37.255000 10.759549 11.297869 12.372776
13 41.176000 41.176000 41.176000 13.266304 13.905545 15.524114
14 45.098000 45.098000 45.098000 16.089421 16.926832 18.519700
15 49.020000 49.020000 49.020000 19.194298 20.111919 22.418009
16 52.941000 52.941000 52.941000 22.837686 23.925207 26.055487
17 56.863000 56.863000 56.863000 26.948086 28.181917 31.129809
18 60.784000 60.784000 60.784000 30.911584 32.615877 36.209181
19 64.706000 64.706000 64.706000 35.550395 37.265448 41.018501
20 68.627000 68.627000 68.627000 40.776277 42.722200 47.535466
21 72.549000 72.549000 72.549000 46.085799 48.375213 54.480012
22 76.471000 76.471000 76.471000 51.645512 54.397267 60.312495
23 80.392000 80.392000 80.392000 58.002246 60.993902 67.208231
24 84.314000 84.314000 84.314000 64.791641 67.901727 75.220029
25 88.235000 88.235000 88.235000 71.726547 75.557065 82.765516
26 92.157000 92.157000 92.157000 79.684545 83.922514 92.383398
27 96.078000 96.078000 96.078000 87.853674 92.074502 102.57918
28 0.0000000 71.125200 59.959200 23.929769 37.045377 35.473109
29 34.765600 72.909400 66.047000 26.387534 39.768673 42.452485
30 0.0000000 58.286200 67.974200 20.107340 25.305831 47.791287
31 35.853900 67.939200 74.200600 26.955976 35.112193 57.714839
32 100.00000 75.471800 77.457300 71.905547 63.003476 62.132219
33 26.505800 9.3803000 0.0000000 2.6141363 1.8853634 0.2966502
34 42.729000 13.015600 0.0000000 6.6859853 4.1549586 0.4566952
35 51.733200 22.972000 0.0000000 12.257682 8.2202448 0.9079214
36 58.682700 30.066000 26.075200 16.241051 12.108121 6.7339036
37 6.0976000 0.0000000 0.0000000 0.3736821 0.2312947 0.1203158
38 8.3333000 0.0000000 0.0000000 0.4564669 0.2730618 0.1268642
39 10.683800 0.0000000 0.0000000 0.6001136 0.3457079 0.1365140
40 13.157900 0.0000000 0.0000000 0.7636004 0.4283301 0.1463011
41 15.765800 0.0000000 0.0000000 0.9172568 0.5058713 0.1539257
42 18.518500 0.0000000 0.0000000 1.1213839 0.6091905 0.1639255
43 21.428600 0.0000000 0.0000000 1.4805579 0.7909599 0.1765662
44 24.509800 0.0000000 0.0000000 1.8560998 0.9812624 0.1877812
45 27.777800 0.0000000 0.0000000 2.4820238 1.2982331 0.2063952
46 31.250000 0.0000000 0.0000000 3.3384523 1.7319891 0.2310586
47 34.946200 0.0000000 0.0000000 4.4190528 2.2794963 0.2618978
48 38.888900 0.0000000 0.0000000 5.8826488 3.0221030 0.3043008
49 43.103500 0.0000000 0.0000000 7.4604538 3.8204328 0.3497751
50 47.619100 0.0000000 0.0000000 9.1997811 4.7036288 0.4140958
51 52.469100 0.0000000 0.0000000 11.453850 5.8432124 0.4992194
52 57.692300 0.0000000 0.0000000 13.959086 7.1130693 0.5813697
53 63.333300 0.0000000 0.0000000 16.726412 8.5162455 0.7294220
54 69.444400 0.0000000 0.0000000 20.958872 10.659157 0.9350815
55 76.087000 0.0000000 0.0000000 24.909801 12.662372 1.1270439
56 83.333300 0.0000000 0.0000000 30.248423 15.372938 1.3592634
57 88.102200 31.245200 22.908500 36.215107 22.152243 5.9529819
58 100.00000 40.977800 31.918100 48.588055 31.446664 10.733003
59 100.00000 57.719200 37.577800 53.762756 42.333679 16.393476
60 100.00000 72.312100 46.921100 61.601844 55.576389 24.561174
61 27.331800 25.808100 0.0000000 4.3411692 5.1437908 0.7643999
62 44.310200 30.254500 0.0000000 9.9392889 8.7871661 1.1991601
63 0.0000000 0.0000000 0.0000000 0.0781489 0.0822242 0.0903974
64 3.9683000 0.0000000 0.0000000 0.2404430 0.1639965 0.1083793
65 1.9380000 0.0000000 0.0000000 0.1316999 0.1093034 0.0966865
66 0.0000000 6.0976000 0.0000000 0.3016217 0.5133173 0.1906982
67 0.0000000 13.157900 0.0000000 0.7214613 1.3260021 0.3119802
68 0.0000000 24.509800 0.0000000 1.8806013 3.5729542 0.6309076
69 0.0000000 27.777800 0.0000000 2.4809989 4.7032308 0.8018347
70 0.0000000 31.250000 0.0000000 3.1838706 6.0715349 1.0142526
71 0.0000000 34.946200 0.0000000 3.8441601 7.3880339 1.2320211
72 0.0000000 38.888900 0.0000000 4.8832434 9.3344643 1.5822769
73 0.0000000 43.103500 0.0000000 6.0973122 11.660910 2.0123039
74 0.0000000 47.619100 0.0000000 7.3739111 14.134955 2.4476919
75 0.0000000 52.469100 0.0000000 9.3211445 17.893074 3.1086834
76 0.0000000 57.692300 0.0000000 11.422260 21.881833 3.8338461
77 0.0000000 63.333300 0.0000000 13.973106 26.797074 4.6534269
78 0.0000000 69.444400 0.0000000 17.375754 33.343849 5.7668584
79 0.0000000 76.087000 0.0000000 21.413703 41.111156 7.0639034
80 0.0000000 83.333300 0.0000000 26.120284 50.204047 8.4957136
81 61.702800 100.00000 0.0000000 40.924837 75.845125 12.541957
82 80.362400 100.00000 0.0000000 53.219075 81.571488 12.972918
83 0.0000000 0.0000000 1.9380000 0.0890658 0.0869091 0.1478189
84 0.0000000 0.0000000 3.9683000 0.1380243 0.1070744 0.3931414
85 0.0000000 0.0000000 6.0976000 0.1974116 0.1314604 0.6924152
86 0.0000000 0.0000000 8.3333000 0.2459186 0.1515035 0.9371361
87 0.0000000 0.0000000 10.683800 0.3291173 0.1858686 1.3507991
88 0.0000000 0.0000000 13.157900 0.4300299 0.2274467 1.8475787
89 0.0000000 0.0000000 15.765800 0.5274836 0.2677047 2.3364231
90 0.0000000 0.0000000 18.518500 0.7422198 0.3562949 3.4070401
91 0.0000000 0.0000000 21.428600 1.0366232 0.4787742 4.8873797
92 0.0000000 0.0000000 24.509800 1.2453623 0.5649844 5.9321557
93 0.0000000 0.0000000 27.777800 1.5967166 0.7102847 7.6960338
94 0.0000000 0.0000000 31.250000 1.9315595 0.8487011 9.3749749
95 0.0000000 0.0000000 34.946200 2.4259172 1.0556895 11.856191
96 0.0000000 0.0000000 38.888900 2.8951538 1.2497750 14.194683
97 0.0000000 0.0000000 43.103500 3.5858080 1.5358286 17.647025
98 0.0000000 0.0000000 47.619100 4.3426300 1.8547693 21.416792
99 0.0000000 0.0000000 52.469100 5.3317165 2.2624973 26.353647
100 0.0000000 0.0000000 57.692300 6.5662250 2.7787454 32.511126
101 0.0000000 0.0000000 63.333300 7.9627823 3.3660918 39.464683
102 0.0000000 0.0000000 69.444400 10.042317 4.2426258 49.815318
103 0.0000000 0.0000000 76.087000 12.201002 5.1578708 60.537562
104 0.0000000 0.0000000 83.333300 14.697708 6.2358683 72.958743
105 0.0000000 19.551200 79.899100 14.057736 7.5475643 64.861795
106 17.473100 41.948800 91.497000 22.853366 17.393003 89.638292
107 27.627400 51.036700 100.00000 30.002722 25.627691 101.86708
108 53.417100 64.257800 100.00000 42.634561 40.046524 103.46218
109 70.036100 79.151300 100.00000 58.083416 58.910037 106.59129
110 2.6042000 2.6042000 2.6042000 0.2032634 0.2256486 0.2450886
111 3.2808000 3.2808000 3.2808000 0.2504794 0.2857968 0.3142014
112 3.9683000 3.9683000 3.9683000 0.3460624 0.3559389 0.4268067
113 4.6667000 4.6667000 4.6667000 0.4509714 0.4755822 0.5409700
114 5.3763000 5.3763000 5.3763000 0.5137189 0.5249853 0.5803878
115 6.0976000 6.0976000 6.0976000 0.5791570 0.5960045 0.7061688
116 6.8306000 6.8306000 6.8306000 0.6444271 0.6767467 0.7973733
117 7.5758000 7.5758000 7.5758000 0.7326996 0.7680339 0.9057338
118 8.3333000 8.3333000 8.3333000 0.8171021 0.8667881 0.9640085
119 9.1036000 9.1036000 9.1036000 0.9745144 1.0358855 1.1444227
120 9.8870000 9.8870000 9.8870000 1.0384820 1.0962836 1.2600158
121 10.683800 10.683800 10.683800 1.2164834 1.2878681 1.4670785
122 11.494200 11.494200 11.494200 1.2776205 1.3509772 1.5359794
123 12.318800 12.318800 12.318800 1.4296987 1.4987345 1.6912133
124 13.157900 13.157900 13.157900 1.6385163 1.7215400 1.9228681
125 14.011800 14.011800 14.011800 1.7435709 1.8600364 2.0221884
126 14.881000 14.881000 14.881000 1.8886795 2.0162587 2.1874908
127 15.765800 15.765800 15.765800 2.0631517 2.1439450 2.4429989
128 16.666700 16.666700 16.666700 2.2596147 2.3832875 2.6400675
129 17.584100 17.584100 17.584100 2.5191478 2.6599542 2.9407167
130 18.518500 18.518500 18.518500 2.6500425 2.7729594 3.2346158
131 19.470400 19.470400 19.470400 2.9860652 3.1574323 3.4781089
132 20.440200 20.440200 20.440200 3.2896533 3.4799000 3.8307836
133 21.428600 21.428600 21.428600 3.5905152 3.7453516 4.3062488
134 22.435900 22.435900 22.435900 3.8343929 4.0650554 4.4640948
135 23.462800 23.462800 23.462800 4.1591007 4.3598760 4.9922893
136 24.509800 24.509800 24.509800 4.4561694 4.7185878 5.2864370
137 25.577600 25.577600 25.577600 4.9295885 5.1779349 5.7715977
138 26.666700 26.666700 26.666700 5.3504165 5.6190469 6.2635412
139 27.777800 27.777800 27.777800 5.8399806 6.1248310 6.9527459
140 28.911600 28.911600 28.911600 6.2735576 6.5959561 7.3414079
141 30.068700 30.068700 30.068700 6.8244279 7.1541774 8.1123107
142 31.250000 31.250000 31.250000 7.4500543 7.8868050 8.5800428
143 32.456100 32.456100 32.456100 7.9480074 8.3305220 9.4305337
144 33.687900 33.687900 33.687900 8.5411367 8.9613205 10.153821
145 34.946200 34.946200 34.946200 9.1888342 9.6443270 10.927473
146 36.231900 36.231900 36.231900 9.8204846 10.356377 11.463974
147 37.545800 37.545800 37.545800 10.915109 11.427819 12.851398
148 38.888900 38.888900 38.888900 11.438100 11.985100 13.492679
149 40.262200 40.262200 40.262200 12.659673 13.360613 14.777832
150 41.666700 41.666700 41.666700 13.242864 13.797644 15.416163
151 43.103500 43.103500 43.103500 14.446947 15.262068 16.862547
152 44.573600 44.573600 44.573600 15.563070 16.360640 17.984559
153 46.078400 46.078400 46.078400 16.440332 17.363153 19.214022
154 47.619100 47.619100 47.619100 17.795975 18.632895 20.920626
155 49.196800 49.196800 49.196800 18.987387 19.882688 22.310109
156 50.813000 50.813000 50.813000 20.860362 22.015663 24.344874
157 52.469100 52.469100 52.469100 22.119195 23.139076 25.359316
158 54.166700 54.166700 54.166700 23.624108 24.946200 27.552061
159 55.907200 55.907200 55.907200 25.844473 27.166905 29.902916
160 57.692300 57.692300 57.692300 27.215986 28.737718 31.721080
161 59.523800 59.523800 59.523800 29.362051 30.727293 34.174886
162 61.403500 61.403500 61.403500 31.636336 33.443779 36.852902
163 63.333300 63.333300 63.333300 33.169040 34.870602 38.772706
164 65.315300 65.315300 65.315300 35.991396 37.621678 42.294664
165 67.351600 67.351600 67.351600 39.256883 41.408547 45.351911
166 69.444400 69.444400 69.444400 41.757409 43.733842 48.923199
167 71.596200 71.596200 71.596200 44.884926 46.788619 52.765708
168 73.809500 73.809500 73.809500 47.531432 50.078077 55.343344
169 76.087000 76.087000 76.087000 50.990300 53.414234 60.196375
170 78.431400 78.431400 78.431400 54.585358 57.324193 63.729963
171 80.845800 80.845800 80.845800 58.407267 61.399282 68.113843
172 83.333300 83.333300 83.333300 62.310566 65.536282 72.550973
173 85.897400 85.897400 85.897400 66.858686 70.544013 78.111766
174 88.541700 88.541700 88.541700 71.861117 75.395344 83.717228
175 91.269800 91.269800 91.269800 77.941121 81.832289 90.666594
176 0.0000000 48.267100 30.031400 8.7870963 14.941217 8.8886685
177 0.0000000 56.678700 54.419300 15.748240 22.657565 28.563833
178 0.0000000 70.195700 69.963100 26.507695 37.077097 51.433855
179 82.433100 24.303200 0.0000000 31.581926 17.146352 1.6600291
180 100.00000 23.686200 19.325700 43.851454 23.770137 4.6047288
181 80.243200 0.0000000 16.907000 29.532321 14.964797 3.5916205
182 78.964800 30.145500 43.362500 31.984247 18.932816 17.509998
183 79.964500 49.050000 57.050400 38.781292 29.324700 31.163949
184 56.210700 38.103600 34.827500 17.758965 14.926657 11.290054
185 74.227200 58.410800 36.181500 33.439680 32.531257 13.277578
186 90.712100 62.184000 68.907300 56.105772 45.026175 48.397718
187 100.00000 63.205700 100.00000 73.067490 55.441909 105.33339
188 65.023100 0.0000000 100.00000 35.534365 17.330772 100.31898
189 71.236600 25.429300 100.00000 40.980697 23.362036 100.99948
190 84.885400 45.509700 100.00000 53.566896 36.300645 102.35558
191 100.00000 47.164700 100.00000 67.329367 44.257364 103.87168
192 0.0000000 9.1476000 16.741900 0.9234903 0.9795174 2.6528406
193 0.0000000 20.684800 21.296000 2.1480861 2.9469008 4.2460196
194 0.0000000 21.617600 30.070000 2.9917935 3.3615978 8.2534344
195 0.0000000 73.870200 84.128800 33.503430 42.523440 78.755557
196 23.648400 80.702700 100.00000 43.139132 51.631600 106.43029
197 49.159800 82.361000 100.00000 50.777710 56.854252 106.80329
198 0.0000000 17.770100 100.00000 21.194362 10.976138 99.104863
199 0.0000000 29.020000 100.00000 22.692536 13.890935 99.511524
200 26.465500 70.821900 100.00000 38.338381 41.425337 104.12488
201 51.348700 74.454100 100.00000 46.943831 48.928474 104.79319
202 22.710800 8.9048000 17.360700 2.6569969 1.7626741 2.8760896
203 47.424600 25.411400 26.206400 10.726659 8.0983235 6.3672468
204 77.603100 47.288700 29.647800 30.239593 24.926040 10.073121
205 91.561800 65.352800 34.099200 49.067146 44.399274 13.407679
206 100.00000 100.00000 44.749900 75.999447 91.567491 22.278169
207 39.207100 55.835000 11.360500 12.892684 21.317231 3.6165096
208 58.951900 55.384400 12.698200 21.230843 24.400028 3.8541411
209 100.00000 84.532300 0.0000000 65.643723 67.414656 9.5300570
210 100.00000 84.248100 25.135800 65.843504 67.519716 10.579632
211 0.0000000 91.269800 0.0000000 32.241498 62.033854 10.393702
212 0.0000000 100.00000 0.0000000 38.742212 74.567942 12.386186
213 36.855200 100.00000 0.0000000 38.742212 74.567942 12.386186
214 83.186200 100.00000 80.260300 69.814113 87.557162 68.610254
215 89.260000 100.00000 90.133500 79.854036 92.339403 87.859668
216 100.00000 100.00000 88.617400 89.034956 96.568422 85.432732
217 15.190500 7.5882000 38.291100 3.5733247 1.9203785 12.502129
218 23.077500 33.632000 49.342800 8.8848135 8.9036313 22.340549
219 49.787300 38.228500 48.632000 16.804772 14.091945 21.912498
220 49.907500 55.573000 48.960500 21.104882 24.859140 22.534269
221 80.215300 66.918400 58.355700 45.041717 43.785682 33.157244
222 100.00000 76.546000 66.225900 68.030709 62.311424 45.219091
223 92.527400 16.490400 39.316600 43.626003 21.941173 14.445951
224 100.00000 24.789700 48.618600 47.792843 26.205263 22.176179
225 100.00000 42.684100 55.880900 52.745674 34.118481 29.591465
226 0.0000000 1.9380000 0.0000000 0.1079434 0.1396005 0.1087333
227 14.283200 7.1562000 0.0000000 0.9925819 0.8844371 0.2217704
228 26.162700 43.003300 34.572900 8.5895519 12.524552 10.710843
229 39.085500 52.607900 47.569000 15.865630 20.281689 20.815196
230 45.100600 63.422800 66.808500 25.731393 31.266624 44.430439
231 51.941700 63.004300 81.029600 33.240730 33.981080 68.242473
232 72.350100 68.125600 100.00000 53.909857 48.906554 104.44119
233 51.499300 8.4495000 49.567200 14.735298 7.0902072 23.616542
234 51.466800 27.273400 50.544800 16.299941 10.676087 24.140893
235 75.430700 37.596700 62.555400 34.654653 22.038213 39.795039
236 31.060100 44.281900 26.624900 9.0760600 13.409334 6.8792050
237 32.069900 45.608700 62.057200 15.719070 16.230640 37.372543
238 49.609700 76.405300 66.498100 32.491128 45.516146 43.757228
239 86.482000 78.235700 100.00000 68.450860 64.048108 107.03529
240 100.00000 88.836900 100.00000 86.568931 83.327012 109.18270
241 60.471200 0.0000000 59.528500 21.638693 10.363957 36.023420
242 68.085300 0.0000000 80.973800 32.803649 15.473068 69.344246
243 89.477200 0.0000000 86.257900 52.701084 25.413911 82.934447
244 100.00000 0.0000000 100.00000 60.945693 31.065484 101.21248
245 69.316300 0.0000000 34.991800 23.605098 11.797310 12.170156
246 84.199000 0.0000000 48.645100 37.367729 18.562565 23.759172
247 79.972300 0.0000000 58.807500 35.247864 17.282072 35.822370
248 100.00000 0.0000000 66.167500 50.279038 25.113860 42.102254
249 62.156600 35.843900 0.0000000 18.940387 14.367896 1.8587556
250 100.00000 70.216300 0.0000000 57.121974 50.760258 6.8207988
251 100.00000 72.238600 27.600900 58.995068 53.531015 9.9049538
252 31.243300 67.131100 0.0000000 16.186431 31.039024 5.4111196
253 54.196600 83.525900 0.0000000 28.954650 51.455450 8.6391650
254 100.00000 100.00000 0.0000000 72.964400 90.146658 13.576449
255 100.00000 100.00000 24.860300 73.357201 90.345458 13.575229
256 0.0000000 52.895400 81.485700 22.182065 22.042983 70.976799
257 0.0000000 61.586500 100.00000 32.315008 32.250056 103.02218
258 29.835800 61.415800 100.00000 34.299242 33.265529 103.06928
259 11.328800 20.176500 38.822100 4.0989862 3.5837173 13.323541
260 27.837200 20.377700 50.523500 8.2173040 5.5590377 23.244020
261 62.126800 51.018800 69.656100 30.761214 26.285303 49.484021
262 73.648800 50.667600 78.189900 40.572686 30.540522 63.254292
263 0.6361000 0.6361000 0.6361000 0.0818395 0.0861360 0.0954757
264 1.2821000 1.2821000 1.2821000 0.0916007 0.0953142 0.1106187
265 1.9380000 1.9380000 1.9380000 0.1378781 0.1444435 0.1521000
266 0.0000000 10.776900 10.786800 0.7937598 1.0649586 1.5739189
267 15.775400 12.595400 24.504100 2.4144479 1.9267965 5.2178924
268 30.399900 100.00000 66.081000 44.984266 76.556197 45.445141
269 58.705000 100.00000 78.944500 53.852197 80.706296 64.484965
270 69.124200 100.00000 89.340400 63.992140 85.512697 84.158619
271 0.0000000 61.285000 45.115600 15.800100 25.951302 18.794401
272 0.0000000 82.445000 54.698400 29.317051 49.854516 29.690086
273 0.0000000 85.804800 72.972900 37.164769 57.643884 54.865763
274 0.0000000 100.00000 100.00000 56.058742 78.154910 110.10250
275 27.756700 100.00000 100.00000 56.058742 78.154910 110.10250
276 0.0000000 86.085500 100.00000 45.230767 57.069123 107.30079
277 22.923800 90.499700 100.00000 49.218636 63.814068 108.17169
278 50.271800 100.00000 100.00000 61.042363 80.682366 110.24650
279 0.0000000 14.927700 57.643000 6.8940866 3.9651181 30.881873
280 0.0000000 28.562900 74.157500 13.179134 8.9369254 54.962793
281 23.271200 11.710900 73.608700 12.853594 6.1356021 53.799920
282 53.633900 21.738400 100.00000 31.276975 17.246632 100.68878
283 90.241300 100.00000 100.00000 85.394038 94.210777 111.04310
284 100.00000 100.00000 100.00000 94.424109 99.271368 111.39590
285 0.0000000 35.989700 16.235800 4.3625233 7.8156039 3.1511945
286 54.847700 40.440600 29.317400 16.598422 15.276588 8.1630079
287 68.167700 41.276000 33.493000 23.731308 19.157487 11.187344
288 100.00000 47.673200 46.730700 51.947212 35.949285 21.399697
289 100.00000 26.631800 0.0000000 43.251082 23.500456 2.3028246
290 100.00000 43.362500 0.0000000 46.973061 30.636773 3.5566154
291 100.00000 57.672900 0.0000000 51.358231 39.378232 4.9984467
292 100.00000 60.537600 22.359600 53.157265 42.309559 7.2093967
293 100.00000 63.392300 53.444200 58.495557 48.169752 29.458395
294 11.133500 0.0000000 12.876400 0.9786669 0.5057433 1.8212304
295 25.026700 0.0000000 20.611700 3.1432090 1.5564907 4.3230131
296 25.399800 43.245000 81.171700 19.806679 16.633481 67.772662
297 40.479800 50.723600 89.613800 28.493509 24.221638 84.964861
298 77.542400 36.450400 0.0000000 29.808542 19.636498 2.3170596
299 82.039900 49.722800 0.0000000 36.290297 28.263057 3.7304318
300 0.0000000 100.00000 30.041300 38.733662 73.924121 14.340321
301 0.0000000 100.00000 53.127400 42.040000 75.295424 30.794708
302 0.0000000 100.00000 71.907100 46.799571 77.821300 52.777708
303 31.849400 100.00000 79.120700 48.955835 78.710172 63.605753
304 0.0000000 84.954000 85.846200 41.090778 57.222203 80.789932
305 0.0000000 100.00000 87.535100 52.162143 80.057315 79.635899
306 39.530900 100.00000 90.053800 53.357325 80.565246 85.634053
307 0.0000000 32.626200 24.909200 4.2578050 6.7056853 5.8795836
308 0.0000000 32.077400 35.196900 5.1262250 6.7245574 11.296204
309 0.0000000 44.749600 50.694500 10.611178 13.644484 24.318504
310 0.0000000 35.435200 49.432000 7.9715855 8.7526440 22.720970
311 0.0000000 36.677200 64.752700 11.971732 10.973118 41.094962
312 0.0000000 48.269700 66.128000 15.451689 16.932532 44.561159
313 0.0000000 3.9683000 0.0000000 0.1881608 0.2934448 0.1485292
314 0.0000000 15.765800 0.0000000 0.8658143 1.6088328 0.3522081
315 13.529500 21.170100 8.6250000 1.9253837 2.9374978 1.1400409
316 67.700700 28.024600 35.713500 22.751826 14.253285 11.588005
317 76.212500 33.714000 72.193200 37.088429 21.731762 55.007573
318 56.691000 23.959600 62.498000 21.120972 11.982330 38.875247
319 60.479300 28.308200 76.077000 27.237526 15.802109 60.015055
320 27.633400 0.0000000 60.504100 9.6741091 4.3072919 34.997908
321 39.368500 22.481000 63.904700 14.031746 8.5191965 38.686996
322 0.0000000 11.955600 27.595900 1.8658133 1.5809187 6.7147822
323 0.0000000 11.484600 38.677200 3.0880290 2.0134257 13.041229
324 0.0000000 85.625600 39.422800 29.052250 53.148784 17.799389
325 52.596100 100.00000 26.175400 38.413522 73.752650 12.853518
326 70.729100 100.00000 29.375600 47.137361 78.185761 13.411199
327 0.0000000 18.518500 0.0000000 1.1417827 2.1457980 0.4198445
328 0.0000000 21.428600 0.0000000 1.5128697 2.8586856 0.5321648
329 15.177900 22.247500 0.0000000 2.0969565 3.2241415 0.5580014
330 34.466000 29.978400 58.721300 12.414893 9.4116815 32.135201
331 48.372100 40.455300 63.836300 19.929490 16.529681 38.973027
332 68.345800 40.288600 100.00000 41.801499 27.745226 101.81328
333 84.885200 62.016800 100.00000 59.129289 47.478361 104.98819
334 100.00000 77.434000 100.00000 79.430075 69.063930 107.36329
335 31.137500 0.0000000 13.276800 3.9930074 2.0263137 2.2273297
336 36.063100 9.4971000 13.856100 5.0571519 2.9667409 2.0815571
337 46.189800 70.464800 33.050800 21.681524 35.568994 11.565605
338 60.552900 82.842700 33.129400 32.960569 51.962411 12.735277
339 68.628800 86.673700 56.593400 44.501155 60.745741 32.676812
340 86.564500 100.00000 66.307600 67.024256 86.989420 46.638694
341 100.00000 100.00000 78.308600 84.846757 94.647738 65.897688
342 22.123800 0.0000000 42.147700 4.9516070 2.2614643 15.838794
343 43.052500 0.0000000 53.100200 11.846181 5.5724518 25.962186
344 72.047100 70.472600 61.404700 41.180918 44.251984 36.826242
345 87.063300 74.681500 88.144100 62.974127 57.289693 83.177417
346 44.275500 0.0000000 14.379500 8.2427978 4.1755786 2.5837061
347 43.634600 22.336100 39.518000 10.790449 7.1297343 14.421431
348 41.114300 0.0000000 26.233200 7.7133544 3.8279348 6.7752824
349 54.027500 0.0000000 26.155400 13.157634 6.5900841 6.9168729
350 65.178800 16.191200 37.306700 20.484851 10.517747 12.929118
351 50.147900 0.0000000 39.105300 12.665193 6.1942752 14.753102
352 65.258400 0.0000000 44.505000 21.611063 10.643637 19.664963
353 100.00000 23.684100 64.447800 50.886870 27.271155 39.796459
354 100.00000 41.912100 67.224000 54.964359 34.762332 43.389517
355 100.00000 0.0000000 34.564100 44.150025 22.260454 12.213876
