Microsoft/Surface Pro 5/LP123WQ112604 #1 2020-05-26 10-25 0.3127x 0.329y sRGB M-S XYZLUT+MTX/LP123WQ112604 #1 2020-05-26 10-25 0.3127x 0.329y sRGB M-S XYZLUT+MTX.ti3
CTI3   

DESCRIPTOR "Argyll Calibration Target chart information 3"
ORIGINATOR "Argyll dispread"
CREATED "Tue May 26 10:39:49 2020"
DEVICE_CLASS "DISPLAY"
SINGLE_DIM_STEPS "25"
COMP_GREY_STEPS "73"
DARK_REGION_EMPHASIS "1.6"
COLOR_REP "RGB_XYZ"
TARGET_INSTRUMENT "X-Rite i1 DisplayPro, ColorMunki Display"
DISPLAY_TYPE_REFRESH "NO"
INSTRUMENT_TYPE_SPECTRAL "NO"
LUMINANCE_XYZ_CDM2 "317.515499 334.057455 370.547733"
NORMALIZED_TO_Y_100 "YES"
VIDEO_LUT_CALIBRATION_POSSIBLE "YES"

BEGIN_ARGYLL_COLPROF_ARGS
-v -qh -aX -bn -C "No copyright. Created with DisplayCAL 3.8.9.3 and ArgyllCMS 2.1.2" -M "LP123WQ112604" -A "LG Display"
END_ARGYLL_COLPROF_ARGS

OBSERVER "1931_2"
USE_BLACK_POINT_COMPENSATION "NO"
BLACK_POINT_CORRECTION "0.0"
HIRES_B2A "YES"
HIRES_B2A_SIZE "-1"
SMOOTH_B2A "YES"
PATCH_SEQUENCE "OPTIMIZE_DISPLAY_RESPONSE_DELAY"

NUMBER_OF_FIELDS 7
BEGIN_DATA_FORMAT
SAMPLE_ID RGB_R RGB_G RGB_B XYZ_X XYZ_Y XYZ_Z
END_DATA_FORMAT

NUMBER_OF_SETS 825
BEGIN_DATA
1 100.00000 100.00000 100.00000 95.048170 100.00000 110.92340
2 1.9608000 1.9608000 1.9608000 0.1411130 0.1452300 0.1955220
3 3.9216000 3.9216000 3.9216000 0.3483940 0.3572110 0.4469640
4 5.8824000 5.8824000 5.8824000 0.5267540 0.5511660 0.6637200
5 9.8039000 9.8039000 9.8039000 1.0467400 1.1050800 1.2656460
6 13.726000 13.726000 13.726000 1.6839740 1.7942470 1.9399390
7 17.647000 17.647000 17.647000 2.5444090 2.6879810 2.9566570
8 21.569000 21.569000 21.569000 3.6174880 3.7861650 4.3367140
9 25.490000 25.490000 25.490000 4.9813070 5.2302550 5.8080100
10 29.412000 29.412000 29.412000 6.5654530 6.8698340 7.7621700
11 33.333000 33.333000 33.333000 8.4401430 8.8661760 9.9684580
12 37.255000 37.255000 37.255000 10.759740 11.298070 12.373000
13 41.176000 41.176000 41.176000 13.266490 13.905740 15.524330
14 45.098000 45.098000 45.098000 16.089600 16.927020 18.519910
15 49.020000 49.020000 49.020000 19.194470 20.112100 22.418210
16 52.941000 52.941000 52.941000 22.837850 23.925380 26.055680
17 56.863000 56.863000 56.863000 26.948240 28.182080 31.129990
18 60.784000 60.784000 60.784000 30.911730 32.616030 36.209350
19 64.706000 64.706000 64.706000 35.550530 37.265590 41.018660
20 68.627000 68.627000 68.627000 40.776400 42.722330 47.535610
21 72.549000 72.549000 72.549000 46.085910 48.375330 54.480140
22 76.471000 76.471000 76.471000 51.645610 54.397370 60.312610
23 80.392000 80.392000 80.392000 58.002330 60.993990 67.208330
24 84.314000 84.314000 84.314000 64.791710 67.901800 75.220110
25 88.235000 88.235000 88.235000 71.726600 75.557120 82.765580
26 92.157000 92.157000 92.157000 79.684580 83.922550 92.383440
27 96.078000 96.078000 96.078000 87.853690 92.074520 102.57920
28 0.0000000 71.125200 59.959200 23.929930 37.045520 35.473280
29 34.765600 72.909400 66.047000 26.387690 39.768810 42.452640
30 0.0000000 58.286200 67.974200 20.107510 25.306000 47.791430
31 35.853900 67.939200 74.200600 26.956130 35.112340 57.714960
32 100.00000 75.471800 77.457300 71.905600 63.003560 62.132330
33 26.505800 9.3803000 0.0000000 2.6143600 1.8855860 0.2970190
34 42.729000 13.015600 0.0000000 6.6861860 4.1551760 0.4569470
35 51.733200 22.972000 0.0000000 12.257870 8.2204530 0.9081710
36 58.682700 30.066000 26.075200 16.241230 12.108320 6.7341400
37 6.0976000 0.0000000 0.0000000 0.3756690 0.2315210 0.1523240
38 8.3333000 0.0000000 0.0000000 0.4582000 0.2732880 0.1543280
39 10.683800 0.0000000 0.0000000 0.6014870 0.3459340 0.1575380
40 13.157900 0.0000000 0.0000000 0.7646650 0.4285560 0.1617980
41 15.765800 0.0000000 0.0000000 0.9181430 0.5060970 0.1655560
42 18.518500 0.0000000 0.0000000 1.1221160 0.6094160 0.1718570
43 21.428600 0.0000000 0.0000000 1.4810800 0.7911850 0.1806270
44 24.509800 0.0000000 0.0000000 1.8564840 0.9814870 0.1898600
45 27.777800 0.0000000 0.0000000 2.4823050 1.2984570 0.2072670
46 31.250000 0.0000000 0.0000000 3.3386850 1.7322120 0.2314860
47 34.946200 0.0000000 0.0000000 4.4192660 2.2797180 0.2621940
48 38.888900 0.0000000 0.0000000 5.8828530 3.0223230 0.3045610
49 43.103500 0.0000000 0.0000000 7.4606530 3.8206510 0.3500280
50 47.619100 0.0000000 0.0000000 9.1999760 4.7038450 0.4143470
51 52.469100 0.0000000 0.0000000 11.454040 5.8434260 0.4994700
52 57.692300 0.0000000 0.0000000 13.959270 7.1132800 0.5816200
53 63.333300 0.0000000 0.0000000 16.726590 8.5164530 0.7296720
54 69.444400 0.0000000 0.0000000 20.959040 10.659360 0.9353310
55 76.087000 0.0000000 0.0000000 24.909960 12.662570 1.1272930
56 83.333300 0.0000000 0.0000000 30.248570 15.373130 1.3595120
57 88.102200 31.245200 22.908500 36.215240 22.152420 5.9532200
58 100.00000 40.977800 31.918100 48.588160 31.446820 10.733230
59 100.00000 57.719200 37.577800 53.762850 42.333810 16.393690
60 100.00000 72.312100 46.921100 61.601920 55.576490 24.561370
61 27.331800 25.808100 0.0000000 4.3413750 5.1440060 0.7646500
62 44.310200 30.254500 0.0000000 9.9394820 8.7873730 1.1994090
63 0.0000000 0.0000000 0.0000000 0.0814180 0.0824509 0.1453710
64 3.9683000 0.0000000 0.0000000 0.2429280 0.1642230 0.1493090
65 1.9380000 0.0000000 0.0000000 0.1346880 0.1095300 0.1466270
66 0.0000000 6.0976000 0.0000000 0.3024540 0.5135430 0.2020120
67 0.0000000 13.157900 0.0000000 0.7217070 1.3262260 0.3128000
68 0.0000000 24.509800 0.0000000 1.8808130 3.5731730 0.6311610
69 0.0000000 27.777800 0.0000000 2.4812090 4.7034470 0.8020850
70 0.0000000 31.250000 0.0000000 3.1840790 6.0717480 1.0145020
71 0.0000000 34.946200 0.0000000 3.8443670 7.3882440 1.2322700
72 0.0000000 38.888900 0.0000000 4.8834480 9.3346700 1.5825250
73 0.0000000 43.103500 0.0000000 6.0975140 11.661110 2.0125510
74 0.0000000 47.619100 0.0000000 7.3741100 14.135150 2.4479380
75 0.0000000 52.469100 0.0000000 9.3213390 17.893260 3.1089280
76 0.0000000 57.692300 0.0000000 11.422450 21.882010 3.8340890
77 0.0000000 63.333300 0.0000000 13.973290 26.797240 4.6536680
78 0.0000000 69.444400 0.0000000 17.375930 33.344000 5.7670970
79 0.0000000 76.087000 0.0000000 21.413870 41.111290 7.0641390
80 0.0000000 83.333300 0.0000000 26.120440 50.204160 8.4959460
81 61.702800 100.00000 0.0000000 40.924960 75.845180 12.542180
82 80.362400 100.00000 0.0000000 53.219170 81.571530 12.973140
83 0.0000000 0.0000000 1.9380000 0.0922899 0.0871358 0.2019860
84 0.0000000 0.0000000 3.9683000 0.1410350 0.1073010 0.4434870
85 0.0000000 0.0000000 6.0976000 0.2001840 0.1316870 0.7384910
86 0.0000000 0.0000000 8.3333000 0.2485100 0.1517300 0.9799700
87 0.0000000 0.0000000 10.683800 0.3314270 0.1860950 1.3980060
88 0.0000000 0.0000000 13.157900 0.4320420 0.2276730 1.8973440
89 0.0000000 0.0000000 15.765800 0.5292470 0.2679310 2.3864800
90 0.0000000 0.0000000 18.518500 0.7435480 0.3565210 3.4532420
91 0.0000000 0.0000000 21.428600 1.0376450 0.4790000 4.9244530
92 0.0000000 0.0000000 24.509800 1.2462340 0.5652100 5.9625930
93 0.0000000 0.0000000 27.777800 1.5973740 0.7105100 7.7168300
94 0.0000000 0.0000000 31.250000 1.9320660 0.8489260 9.3888940
95 0.0000000 0.0000000 34.946200 2.4262850 1.0559140 11.863760
96 0.0000000 0.0000000 38.888900 2.8954550 1.2499990 14.199200
97 0.0000000 0.0000000 43.103500 3.5860600 1.5360520 17.649320
98 0.0000000 0.0000000 47.619100 4.3428570 1.8549920 21.417990
99 0.0000000 0.0000000 52.469100 5.3319290 2.2627190 26.354260
100 0.0000000 0.0000000 57.692300 6.5664290 2.7789660 32.511460
101 0.0000000 0.0000000 63.333300 7.9629810 3.3663110 39.464900
102 0.0000000 0.0000000 69.444400 10.042510 4.2428430 49.815470
103 0.0000000 0.0000000 76.087000 12.201190 5.1580860 60.537680
104 0.0000000 0.0000000 83.333300 14.697890 6.2360810 72.958830
105 0.0000000 19.551200 79.899100 14.057920 7.5477740 64.861900
106 17.473100 41.948800 91.497000 22.853530 17.393190 89.638340
107 27.627400 51.036700 100.00000 30.002870 25.627860 101.86710
108 53.417100 64.257800 100.00000 42.634680 40.046660 103.46220
109 70.036100 79.151300 100.00000 58.083500 58.910130 106.59130
110 2.6042000 2.6042000 2.6042000 0.2052880 0.2258750 0.2777650
111 3.2808000 3.2808000 3.2808000 0.2521430 0.2860230 0.3404100
112 3.9683000 3.9683000 3.9683000 0.3473930 0.3561650 0.4470520
113 4.6667000 4.6667000 4.6667000 0.4518980 0.4758080 0.5539800
114 5.3763000 5.3763000 5.3763000 0.5145240 0.5252110 0.5912220
115 6.0976000 6.0976000 6.0976000 0.5798220 0.5962300 0.7144960
116 6.8306000 6.8306000 6.8306000 0.6449720 0.6769720 0.8035500
117 7.5758000 7.5758000 7.5758000 0.7331460 0.7682590 0.9101480
118 8.3333000 8.3333000 8.3333000 0.8174740 0.8670130 0.9670910
119 9.1036000 9.1036000 9.1036000 0.9748200 1.0361100 1.1463310
120 9.8870000 9.8870000 9.8870000 1.0387730 1.0965080 1.2616940
121 10.683800 10.683800 10.683800 1.2167420 1.2880920 1.4681650
122 11.494200 11.494200 11.494200 1.2778720 1.3512010 1.5369370
123 12.318800 12.318800 12.318800 1.4299380 1.4989580 1.6919470
124 13.157900 13.157900 13.157900 1.6387440 1.7217630 1.9233990
125 14.011800 14.011800 14.011800 1.7437940 1.8602590 2.0226390
126 14.881000 14.881000 14.881000 1.8888990 2.0164810 2.1878820
127 15.765800 15.765800 15.765800 2.0633690 2.1441670 2.4433590
128 16.666700 16.666700 16.666700 2.2598290 2.3835090 2.6403820
129 17.584100 17.584100 17.584100 2.5193600 2.6601750 2.9410020
130 18.518500 18.518500 18.518500 2.6502540 2.7731800 3.2348940
131 19.470400 19.470400 19.470400 2.9862750 3.1576520 3.4783690
132 20.440200 20.440200 20.440200 3.2898620 3.4801190 3.8310360
133 21.428600 21.428600 21.428600 3.5907230 3.7455700 4.3064970
134 22.435900 22.435900 22.435900 3.8346000 4.0652730 4.4643400
135 23.462800 23.462800 23.462800 4.1593070 4.3600930 4.9925320
136 24.509800 24.509800 24.509800 4.4563750 4.7188040 5.2866780
137 25.577600 25.577600 25.577600 4.9297930 5.1781500 5.7718370
138 26.666700 26.666700 26.666700 5.3506200 5.6192610 6.2637790
139 27.777800 27.777800 27.777800 5.8401830 6.1250440 6.9529820
140 28.911600 28.911600 28.911600 6.2737590 6.5961680 7.3416430
141 30.068700 30.068700 30.068700 6.8246280 7.1543880 8.1125440
142 31.250000 31.250000 31.250000 7.4502530 7.8870140 8.5802750
143 32.456100 32.456100 32.456100 7.9482050 8.3307300 9.4307640
144 33.687900 33.687900 33.687900 8.5413330 8.9615270 10.154050
145 34.946200 34.946200 34.946200 9.1890290 9.6445320 10.927700
146 36.231900 36.231900 36.231900 9.8206780 10.356580 11.464200
147 37.545800 37.545800 37.545800 10.915300 11.428020 12.851620
148 38.888900 38.888900 38.888900 11.438290 11.985300 13.492900
149 40.262200 40.262200 40.262200 12.659860 13.360810 14.778050
150 41.666700 41.666700 41.666700 13.243050 13.797840 15.416380
151 43.103500 43.103500 43.103500 14.447130 15.262260 16.862760
152 44.573600 44.573600 44.573600 15.563250 16.360830 17.984770
153 46.078400 46.078400 46.078400 16.440510 17.363340 19.214230
154 47.619100 47.619100 47.619100 17.796150 18.633080 20.920830
155 49.196800 49.196800 49.196800 18.987560 19.882870 22.310310
156 50.813000 50.813000 50.813000 20.860530 22.015840 24.345070
157 52.469100 52.469100 52.469100 22.119360 23.139250 25.359510
158 54.166700 54.166700 54.166700 23.624270 24.946370 27.552250
159 55.907200 55.907200 55.907200 25.844630 27.167070 29.903100
160 57.692300 57.692300 57.692300 27.216140 28.737880 31.721260
161 59.523800 59.523800 59.523800 29.362200 30.727450 34.175060
162 61.403500 61.403500 61.403500 31.636480 33.443930 36.853070
163 63.333300 63.333300 63.333300 33.169180 34.870750 38.772870
164 65.315300 65.315300 65.315300 35.991530 37.621820 42.294820
165 67.351600 67.351600 67.351600 39.257010 41.408680 45.352060
166 69.444400 69.444400 69.444400 41.757530 43.733970 48.923340
167 71.596200 71.596200 71.596200 44.885040 46.788740 52.765840
168 73.809500 73.809500 73.809500 47.531540 50.078190 55.343470
169 76.087000 76.087000 76.087000 50.990400 53.414340 60.196490
170 78.431400 78.431400 78.431400 54.585450 57.324290 63.730070
171 80.845800 80.845800 80.845800 58.407350 61.399370 68.113940
172 83.333300 83.333300 83.333300 62.310640 65.536360 72.551060
173 85.897400 85.897400 85.897400 66.858750 70.544080 78.111840
174 88.541700 88.541700 88.541700 71.861170 75.395400 83.717290
175 91.269800 91.269800 91.269800 77.941160 81.832330 90.666640
176 0.0000000 48.267100 30.031400 8.7872920 14.941410 8.8889000
177 0.0000000 56.678700 54.419300 15.748420 22.657740 28.564020
178 0.0000000 70.195700 69.963100 26.507850 37.077240 51.433990
179 82.433100 24.303200 0.0000000 31.582070 17.146540 1.6602770
180 100.00000 23.686200 19.325700 43.851570 23.770310 4.6049700
181 80.243200 0.0000000 16.907000 29.532470 14.964990 3.5918640
182 78.964800 30.145500 43.362500 31.984390 18.933000 17.510210
183 79.964500 49.050000 57.050400 38.781420 29.324860 31.164130
184 56.210700 38.103600 34.827500 17.759140 14.926850 11.290280
185 74.227200 58.410800 36.181500 33.439820 32.531410 13.277800
186 90.712100 62.184000 68.907300 56.105860 45.026300 48.397860
187 100.00000 63.205700 100.00000 73.067540 55.442010 105.33340
188 65.023100 0.0000000 100.00000 35.534500 17.330960 100.31900
189 71.236600 25.429300 100.00000 40.980820 23.362210 100.99950
190 84.885400 45.509700 100.00000 53.566990 36.300790 102.35560
191 100.00000 47.164700 100.00000 67.329430 44.257490 103.87170
192 0.0000000 9.1476000 16.741900 0.9238130 0.9797420 2.6566550
193 0.0000000 20.684800 21.296000 2.1482980 2.9471210 4.2462900
194 0.0000000 21.617600 30.070000 2.9920030 3.3618170 8.2536870
195 0.0000000 73.870200 84.128800 33.503570 42.523570 78.755630
196 23.648400 80.702700 100.00000 43.139250 51.631710 106.43030
197 49.159800 82.361000 100.00000 50.777810 56.854350 106.80330
198 0.0000000 17.770100 100.00000 21.194530 10.976340 99.104890
199 0.0000000 29.020000 100.00000 22.692700 13.891130 99.511550
200 26.465500 70.821900 100.00000 38.338510 41.425470 104.12490
201 51.348700 74.454100 100.00000 46.943940 48.928590 104.79320
202 22.710800 8.9048000 17.360700 2.6572260 1.7628970 2.8766670
203 47.424600 25.411400 26.206400 10.726850 8.0985320 6.3674840
204 77.603100 47.288700 29.647800 30.239740 24.926210 10.073350
205 91.561800 65.352800 34.099200 49.067250 44.399400 13.407900
206 100.00000 100.00000 44.749900 75.999490 91.567510 22.278370
207 39.207100 55.835000 11.360500 12.892870 21.317410 3.6167530
208 58.951900 55.384400 12.698200 21.231010 24.400200 3.8543840
209 100.00000 84.532300 0.0000000 65.643790 67.414730 9.5302870
210 100.00000 84.248100 25.135800 65.843570 67.519790 10.579860
211 0.0000000 91.269800 0.0000000 32.241640 62.033940 10.393930
212 0.0000000 100.00000 0.0000000 38.742340 74.568000 12.386410
213 36.855200 100.00000 0.0000000 38.742340 74.568000 12.386410
214 83.186200 100.00000 80.260300 69.814170 87.557190 68.610350
215 89.260000 100.00000 90.133500 79.854070 92.339420 87.859720
216 100.00000 100.00000 88.617400 89.034970 96.568430 85.432790
217 15.190500 7.5882000 38.291100 3.5735480 1.9206010 12.502940
218 23.077500 33.632000 49.342800 8.8850090 8.9038380 22.340750
219 49.787300 38.228500 48.632000 16.804950 14.092140 21.912700
220 49.907500 55.573000 48.960500 21.105050 24.859310 22.534470
221 80.215300 66.918400 58.355700 45.041830 43.785810 33.157420
222 100.00000 76.546000 66.225900 68.030770 62.311510 45.219240
223 92.527400 16.490400 39.316600 43.626120 21.941350 14.446170
224 100.00000 24.789700 48.618600 47.792950 26.205430 22.176380
225 100.00000 42.684100 55.880900 52.745770 34.118630 29.591650
226 0.0000000 1.9380000 0.0000000 0.1106410 0.1398270 0.1534660
227 14.283200 7.1562000 0.0000000 0.9929600 0.8846620 0.2246650
228 26.162700 43.003300 34.572900 8.5897480 12.524750 10.711070
229 39.085500 52.607900 47.569000 15.865810 20.281870 20.815400
230 45.100600 63.422800 66.808500 25.731550 31.266780 44.430590
231 51.941700 63.004300 81.029600 33.240870 33.981230 68.242570
232 72.350100 68.125600 100.00000 53.909950 48.906670 104.44120
233 51.499300 8.4495000 49.567200 14.735480 7.0904180 23.616740
234 51.466800 27.273400 50.544800 16.300120 10.676290 24.141090
235 75.430700 37.596700 62.555400 34.654790 22.038390 39.795200
236 31.060100 44.281900 26.624900 9.0762550 13.409530 6.8794410
237 32.069900 45.608700 62.057200 15.719250 16.230830 37.372710
238 49.609700 76.405300 66.498100 32.491270 45.516270 43.757380
239 86.482000 78.235700 100.00000 68.450920 64.048190 107.03530
240 100.00000 88.836900 100.00000 86.568950 83.327050 109.18270
241 60.471200 0.0000000 59.528500 21.638860 10.364160 36.023590
242 68.085300 0.0000000 80.973800 32.803790 15.473260 69.344340
243 89.477200 0.0000000 86.257900 52.701180 25.414080 82.934510
244 100.00000 0.0000000 100.00000 60.945770 31.065640 101.21250
245 69.316300 0.0000000 34.991800 23.605260 11.797510 12.170380
246 84.199000 0.0000000 48.645100 37.367860 18.562750 23.759370
247 79.972300 0.0000000 58.807500 35.248000 17.282260 35.822540
248 100.00000 0.0000000 66.167500 50.279140 25.114030 42.102410
249 62.156600 35.843900 0.0000000 18.940560 14.368090 1.8590030
250 100.00000 70.216300 0.0000000 57.122060 50.760370 6.8210350
251 100.00000 72.238600 27.600900 58.995150 53.531120 9.9051830
252 31.243300 67.131100 0.0000000 16.186610 31.039180 5.4113590
253 54.196600 83.525900 0.0000000 28.954800 51.455560 8.6393970
254 100.00000 100.00000 0.0000000 72.964450 90.146680 13.576670
255 100.00000 100.00000 24.860300 73.357250 90.345480 13.575450
256 0.0000000 52.895400 81.485700 22.182230 22.043160 70.976890
257 0.0000000 61.586500 100.00000 32.315150 32.250210 103.02220
258 29.835800 61.415800 100.00000 34.299380 33.265680 103.06930
259 11.328800 20.176500 38.822100 4.0991930 3.5839360 13.323780
260 27.837200 20.377700 50.523500 8.2175010 5.5592520 23.244220
261 62.126800 51.018800 69.656100 30.761360 26.285470 49.484160
262 73.648800 50.667600 78.189900 40.572810 30.540680 63.254400
263 0.6361000 0.6361000 0.6361000 0.0850721 0.0863627 0.1497950
264 1.2821000 1.2821000 1.2821000 0.0947340 0.0955408 0.1631600
265 1.9380000 1.9380000 1.9380000 0.1405320 0.1446700 0.1960510
266 0.0000000 10.776900 10.786800 0.7940490 1.0651830 1.5760170
267 15.775400 12.595400 24.504100 2.4146700 1.9270190 5.2184550
268 30.399900 100.00000 66.081000 44.984380 76.556250 45.445290
269 58.705000 100.00000 78.944500 53.852290 80.706340 64.485070
270 69.124200 100.00000 89.340400 63.992210 85.512730 84.158680
271 0.0000000 61.285000 45.115600 15.800280 25.951470 18.794610
272 0.0000000 82.445000 54.698400 29.317200 49.854630 29.690270
273 0.0000000 85.804800 72.972900 37.164900 57.643980 54.865890
274 0.0000000 100.00000 100.00000 56.058830 78.154960 110.10250
275 27.756700 100.00000 100.00000 56.058830 78.154960 110.10250
276 0.0000000 86.085500 100.00000 45.230880 57.069220 107.30080
277 22.923800 90.499700 100.00000 49.218740 63.814150 108.17170
278 50.271800 100.00000 100.00000 61.042440 80.682410 110.24650
279 0.0000000 14.927700 57.643000 6.8942870 3.9653360 30.882070
280 0.0000000 28.562900 74.157500 13.179320 8.9371320 54.962920
281 23.271200 11.710900 73.608700 12.853780 6.1358150 53.800050
282 53.633900 21.738400 100.00000 31.277120 17.246820 100.68880
283 90.241300 100.00000 100.00000 85.394060 94.210790 111.04310
284 100.00000 100.00000 100.00000 94.424110 99.271370 111.39590
285 0.0000000 35.989700 16.235800 4.3627290 7.8158130 3.1514390
286 54.847700 40.440600 29.317400 16.598600 15.276780 8.1632410
287 68.167700 41.276000 33.493000 23.731470 19.157670 11.187570
288 100.00000 47.673200 46.730700 51.947310 35.949430 21.399900
289 100.00000 26.631800 0.0000000 43.251200 23.500630 2.3030710
290 100.00000 43.362500 0.0000000 46.973170 30.636930 3.5568590
291 100.00000 57.672900 0.0000000 51.358330 39.378370 4.9986870
292 100.00000 60.537600 22.359600 53.157360 42.309690 7.2096320
293 100.00000 63.392300 53.444200 58.495640 48.169870 29.458580
294 11.133500 0.0000000 12.876400 0.9795830 0.5059690 1.8387140
295 25.026700 0.0000000 20.611700 3.1434560 1.5567140 4.3240240
296 25.399800 43.245000 81.171700 19.806850 16.633670 67.772760
297 40.479800 50.723600 89.613800 28.493660 24.221810 84.964920
298 77.542400 36.450400 0.0000000 29.808690 19.636680 2.3173060
299 82.039900 49.722800 0.0000000 36.290430 28.263220 3.7306750
300 0.0000000 100.00000 30.041300 38.733790 73.924180 14.340540
301 0.0000000 100.00000 53.127400 42.040120 75.295480 30.794890
302 0.0000000 100.00000 71.907100 46.799680 77.821350 52.777840
303 31.849400 100.00000 79.120700 48.955940 78.710220 63.605860
304 0.0000000 84.954000 85.846200 41.090900 57.222300 80.790000
305 0.0000000 100.00000 87.535100 52.162240 80.057360 79.635970
306 39.530900 100.00000 90.053800 53.357420 80.565290 85.634110
307 0.0000000 32.626200 24.909200 4.2580110 6.7058970 5.8798220
308 0.0000000 32.077400 35.196900 5.1264290 6.7247690 11.296430
309 0.0000000 44.749600 50.694500 10.611370 13.644680 24.318700
310 0.0000000 35.435200 49.432000 7.9717830 8.7528510 22.721170
311 0.0000000 36.677200 64.752700 11.971920 10.973320 41.095120
312 0.0000000 48.269700 66.128000 15.451870 16.932720 44.561310
313 0.0000000 3.9683000 0.0000000 0.1897840 0.2936710 0.1740120
314 0.0000000 15.765800 0.0000000 0.8660420 1.6090560 0.3527060
315 13.529500 21.170100 8.6250000 1.9255960 2.9377180 1.1403020
316 67.700700 28.024600 35.713500 22.751990 14.253480 11.588230
317 76.212500 33.714000 72.193200 37.088560 21.731940 55.007700
318 56.691000 23.959600 62.498000 21.121140 11.982530 38.875410
319 60.479300 28.308200 76.077000 27.237680 15.802300 60.015170
320 27.633400 0.0000000 60.504100 9.6743030 4.3075090 34.998090
321 39.368500 22.481000 63.904700 14.031930 8.5194040 38.687160
322 0.0000000 11.955600 27.595900 1.8660500 1.5811420 6.7159810
323 0.0000000 11.484600 38.677200 3.0882490 2.0136480 13.041930
324 0.0000000 85.625600 39.422800 29.052400 53.148890 17.799600
325 52.596100 100.00000 26.175400 38.413650 73.752710 12.853740
326 70.729100 100.00000 29.375600 47.137470 78.185810 13.411420
327 0.0000000 18.518500 0.0000000 1.1420000 2.1460200 0.4201570
328 0.0000000 21.428600 0.0000000 1.5130830 2.8589060 0.5324280
329 15.177900 22.247500 0.0000000 2.0971680 3.2243610 0.5582580
330 34.466000 29.978400 58.721300 12.415080 9.4118870 32.135380
331 48.372100 40.455300 63.836300 19.929660 16.529870 38.973190
332 68.345800 40.288600 100.00000 41.801620 27.745390 101.81330
333 84.885200 62.016800 100.00000 59.129370 47.478480 104.98820
334 100.00000 77.434000 100.00000 79.430110 69.064000 107.36330
335 31.137500 0.0000000 13.276800 3.9932270 2.0265360 2.2277190
336 36.063100 9.4971000 13.856100 5.0573580 2.9669610 2.0818210
337 46.189800 70.464800 33.050800 21.681690 35.569140 11.565830
338 60.552900 82.842700 33.129400 32.960710 51.962520 12.735500
339 68.628800 86.673700 56.593400 44.501270 60.745830 32.676990
340 86.564500 100.00000 66.307600 67.024320 86.989450 46.638840
341 100.00000 100.00000 78.308600 84.846780 94.647750 65.897790
342 22.123800 0.0000000 42.147700 4.9518200 2.2616860 15.839310
343 43.052500 0.0000000 53.100200 11.846370 5.5726660 25.962380
344 72.047100 70.472600 61.404700 41.181040 44.252110 36.826410
345 87.063300 74.681500 88.144100 62.974200 57.289790 83.177480
346 44.275500 0.0000000 14.379500 8.2429950 4.1757960 2.5839540
347 43.634600 22.336100 39.518000 10.790640 7.1299450 14.421650
348 41.114300 0.0000000 26.233200 7.7135530 3.8281530 6.7755260
349 54.027500 0.0000000 26.155400 13.157820 6.5902960 6.9171090
350 65.178800 16.191200 37.306700 20.485020 10.517950 12.929340
351 50.147900 0.0000000 39.105300 12.665380 6.1944880 14.753320
352 65.258400 0.0000000 44.505000 21.611230 10.643840 19.665170
353 100.00000 23.684100 64.447800 50.886970 27.271320 39.796620
354 100.00000 41.912100 67.224000 54.964450 34.762480 43.389670
355 100.00000 0.0000000 34.564100 44.150140 22.260630 12.214100
