Microsoft/Surface Pro 5/LP123WQ112604 #1 2020-05-26 10-25 0.3127x 0.329y sRGB M-S XYZLUT+MTX/LP123WQ112604 #1 2020-05-26 10-25 0.3127x 0.329y sRGB M-S XYZLUT+MTX.cal
CAL    

DESCRIPTOR "Argyll Device Calibration Curves"
ORIGINATOR "Argyll dispcal"
CREATED "Tue May 26 10:39:48 2020"
DEVICE_CLASS "DISPLAY"
COLOR_REP "RGB"
VIDEO_LUT_CALIBRATION_POSSIBLE "YES"
TV_OUTPUT_ENCODING "NO"
DEVICE_TYPE "n"
TARGET_WHITE_XYZ "321.927769 338.708782 368.873424"
TARGET_GAMMA "sRGB"
DEGREE_OF_BLACK_OUTPUT_OFFSET "1.0"
BLACK_POINT_CORRECTION "0.0"
BLACK_NEUTRAL_BLEND_RATE "4.0"
BLACK_POINT_HACK "YES"
QUALITY "medium"

BEGIN_ARGYLL_DISPCAL_ARGS
-v2 -d1 -c1 -yn -P0.498740554156,0.5,2.21916508539 -X "Surface Book Pro 5th Gen.ccmx" -qm -m -w0.3127,0.329 -gs -f1.0 -k0 -A4.0 -b
END_ARGYLL_DISPCAL_ARGS


NUMBER_OF_FIELDS 4
BEGIN_DATA_FORMAT
RGB_I RGB_R RGB_G RGB_B
END_DATA_FORMAT

NUMBER_OF_SETS 256
BEGIN_DATA
0.00000000 0.00000000 0.00000000 0.00000000
0.00392157 0.03002790 0.02995900 0.02974130
0.00784314 0.05355030 0.05355300 0.05225150
0.01176470 0.06899770 0.06930320 0.06769910
0.01568630 0.07907960 0.07960050 0.07804330
0.01960780 0.08642080 0.08701180 0.08556670
0.02352940 0.09223560 0.09281830 0.09148800
0.02745100 0.09711380 0.09765080 0.09642530
0.03137250 0.10139500 0.10186200 0.10070900
0.03529410 0.10523500 0.10561700 0.10456600
0.03921570 0.10877800 0.10907100 0.10809800
0.04313730 0.11207800 0.11227600 0.11141500
0.04705880 0.11518800 0.11530000 0.11455300
0.05098040 0.11819800 0.11822300 0.11755100
0.05490200 0.12111200 0.12105500 0.12048900
0.05882350 0.12394300 0.12380300 0.12336700
0.06274510 0.12671600 0.12650100 0.12619200
0.06666670 0.12947800 0.12919300 0.12897600
0.07058820 0.13223700 0.13188300 0.13176600
0.07450980 0.13498900 0.13456600 0.13456600
0.07843140 0.13773500 0.13723900 0.13737500
0.08235290 0.14047200 0.13990300 0.14018500
0.08627450 0.14322900 0.14259200 0.14299500
0.09019610 0.14604400 0.14533600 0.14580700
0.09411760 0.14890900 0.14812500 0.14867100
0.09803920 0.15182200 0.15095700 0.15160000
0.10196100 0.15478000 0.15383200 0.15458100
0.10588200 0.15778000 0.15674500 0.15761100
0.10980400 0.16082300 0.15969600 0.16068600
0.11372500 0.16389300 0.16267400 0.16380800
0.11764700 0.16697400 0.16566500 0.16698000
0.12156900 0.17010000 0.16870700 0.17017500
0.12549000 0.17330000 0.17182500 0.17338900
0.12941200 0.17655800 0.17500700 0.17666600
0.13333300 0.17986200 0.17824700 0.18000300
0.13725500 0.18318700 0.18152500 0.18339300
0.14117600 0.18652500 0.18482900 0.18681200
0.14509800 0.18987400 0.18816200 0.19023800
0.14902000 0.19323300 0.19152100 0.19367300
0.15294100 0.19660200 0.19491200 0.19711400
0.15686300 0.19993800 0.19829500 0.20056300
0.16078400 0.20322400 0.20164700 0.20401600
0.16470600 0.20646900 0.20497300 0.20743200
0.16862700 0.20968500 0.20828200 0.21079700
0.17254900 0.21287000 0.21157000 0.21412000
0.17647100 0.21603200 0.21484800 0.21740600
0.18039200 0.21923600 0.21818400 0.22065200
0.18431400 0.22245800 0.22154100 0.22387500
0.18823500 0.22567800 0.22489100 0.22712400
0.19215700 0.22891300 0.22824900 0.23037200
0.19607800 0.23216800 0.23161800 0.23362600
0.20000000 0.23543700 0.23499500 0.23690600
0.20392200 0.23871700 0.23837600 0.24021000
0.20784300 0.24201600 0.24177400 0.24354100
0.21176500 0.24536200 0.24520800 0.24689800
0.21568600 0.24874300 0.24865600 0.25029900
0.21960800 0.25210100 0.25205700 0.25375900
0.22352900 0.25542900 0.25541000 0.25725200
0.22745100 0.25872100 0.25872000 0.26072100
0.23137300 0.26199000 0.26200100 0.26416600
0.23529400 0.26526600 0.26529600 0.26758100
0.23921600 0.26856900 0.26861400 0.27097300
0.24313700 0.27188600 0.27193200 0.27438200
0.24705900 0.27520400 0.27525000 0.27781500
0.25098000 0.27853800 0.27858600 0.28124800
0.25490200 0.28189900 0.28194100 0.28467200
0.25882400 0.28524100 0.28525000 0.28810500
0.26274500 0.28853600 0.28852800 0.29154800
0.26666700 0.29183300 0.29180700 0.29494400
0.27058800 0.29514400 0.29509900 0.29829700
0.27451000 0.29848200 0.29841300 0.30165100
0.27843100 0.30184000 0.30174200 0.30501100
0.28235300 0.30520200 0.30507800 0.30838900
0.28627500 0.30857400 0.30842100 0.31177800
0.29019600 0.31195300 0.31176500 0.31517300
0.29411800 0.31533300 0.31510700 0.31857600
0.29803900 0.31872100 0.31847400 0.32198500
0.30196100 0.32217000 0.32190900 0.32539800
0.30588200 0.32567000 0.32538900 0.32882800
0.30980400 0.32920200 0.32889700 0.33233100
0.31372500 0.33271300 0.33237700 0.33589700
0.31764700 0.33618400 0.33582300 0.33950300
0.32156900 0.33961900 0.33923500 0.34308900
0.32549000 0.34302200 0.34262000 0.34664000
0.32941200 0.34640600 0.34598400 0.35015300
0.33333300 0.34977500 0.34932500 0.35362600
0.33725500 0.35312800 0.35263800 0.35707100
0.34117600 0.35643600 0.35590200 0.36049200
0.34509800 0.35972300 0.35917400 0.36388500
0.34902000 0.36303700 0.36247700 0.36722000
0.35294100 0.36638200 0.36581600 0.37052600
0.35686300 0.36976200 0.36920000 0.37384700
0.36078400 0.37319800 0.37264700 0.37718600
0.36470600 0.37670400 0.37615300 0.38054700
0.36862700 0.38025600 0.37968900 0.38395100
0.37254900 0.38383100 0.38324600 0.38742100
0.37647100 0.38744000 0.38684900 0.39094000
0.38039200 0.39108000 0.39047400 0.39448900
0.38431400 0.39469500 0.39405300 0.39806600
0.38823500 0.39822800 0.39754800 0.40168300
0.39215700 0.40166500 0.40095100 0.40529500
0.39607800 0.40503700 0.40429100 0.40885300
0.40000000 0.40838100 0.40762600 0.41232800
0.40392200 0.41175700 0.41099200 0.41572200
0.40784300 0.41516800 0.41438600 0.41906700
0.41176500 0.41860500 0.41780300 0.42240500
0.41568600 0.42207500 0.42125200 0.42576800
0.41960800 0.42557000 0.42471500 0.42914800
0.42352900 0.42907600 0.42819400 0.43254200
0.42745100 0.43260500 0.43168100 0.43595900
0.43137300 0.43610300 0.43512400 0.43938800
0.43529400 0.43957000 0.43855000 0.44282400
0.43921600 0.44304500 0.44198600 0.44627500
0.44313700 0.44651900 0.44542500 0.44969000
0.44705900 0.44998400 0.44885900 0.45307400
0.45098000 0.45342300 0.45227300 0.45646800
0.45490200 0.45684100 0.45567900 0.45986600
0.45882400 0.46023700 0.45907100 0.46325500
0.46274500 0.46361200 0.46245200 0.46662500
0.46666700 0.46697600 0.46583800 0.46997900
0.47058800 0.47034300 0.46923500 0.47332500
0.47451000 0.47371500 0.47264200 0.47666400
0.47843100 0.47710000 0.47609300 0.47999800
0.48235300 0.48055500 0.47964000 0.48333700
0.48627500 0.48413400 0.48332600 0.48669800
0.49019600 0.48780700 0.48705300 0.49008100
0.49411800 0.49147500 0.49075200 0.49352600
0.49803900 0.49512200 0.49442100 0.49709300
0.50196100 0.49874700 0.49806000 0.50080400
0.50588200 0.50234800 0.50167200 0.50452800
0.50980400 0.50593000 0.50526000 0.50824300
0.51372500 0.50949200 0.50882800 0.51194900
0.51764700 0.51303700 0.51236700 0.51564800
0.52156900 0.51656200 0.51589000 0.51934200
0.52549000 0.52007600 0.51940700 0.52302900
0.52941200 0.52359500 0.52292100 0.52670900
0.53333300 0.52711300 0.52642000 0.53036800
0.53725500 0.53060400 0.52987800 0.53400200
0.54117600 0.53405600 0.53331100 0.53761800
0.54509800 0.53752600 0.53677900 0.54123400
0.54902000 0.54103800 0.54029000 0.54483800
0.55294100 0.54459300 0.54383000 0.54839400
0.55686300 0.54816600 0.54737700 0.55189600
0.56078400 0.55174800 0.55094100 0.55540900
0.56470600 0.55534500 0.55449700 0.55895000
0.56862700 0.55889700 0.55799200 0.56251600
0.57254900 0.56237900 0.56142500 0.56609500
0.57647100 0.56581600 0.56482100 0.56969200
0.58039200 0.56922400 0.56819100 0.57329800
0.58431400 0.57261000 0.57153500 0.57685600
0.58823500 0.57600100 0.57489700 0.58035500
0.59215700 0.57943400 0.57828100 0.58382900
0.59607800 0.58286400 0.58163900 0.58729500
0.60000000 0.58626700 0.58496800 0.59076100
0.60392200 0.58964300 0.58826800 0.59426400
0.60784300 0.59298300 0.59152500 0.59781200
0.61176500 0.59628000 0.59473800 0.60136100
0.61568600 0.59952500 0.59789700 0.60489600
0.61960800 0.60273300 0.60105200 0.60841700
0.62352900 0.60596700 0.60424300 0.61190600
0.62745100 0.60923400 0.60746900 0.61535200
0.63137300 0.61253900 0.61074400 0.61874200
0.63529400 0.61591600 0.61411500 0.62211200
0.63921600 0.61940100 0.61760800 0.62550900
0.64313700 0.62301400 0.62123300 0.62893100
0.64705900 0.62675800 0.62497900 0.63238900
0.65098000 0.63060600 0.62881400 0.63593600
0.65490200 0.63452300 0.63271500 0.63960200
0.65882400 0.63850000 0.63668000 0.64340400
0.66274500 0.64253900 0.64072000 0.64733100
0.66666700 0.64664300 0.64478800 0.65135100
0.67058800 0.65070900 0.64880700 0.65544300
0.67451000 0.65469900 0.65274600 0.65960900
0.67843100 0.65858400 0.65658300 0.66385800
0.68235300 0.66233500 0.66028800 0.66810100
0.68627500 0.66593000 0.66384200 0.67225700
0.69019600 0.66938100 0.66726300 0.67632000
0.69411800 0.67272100 0.67057600 0.68024600
0.69803900 0.67599300 0.67383600 0.68401500
0.70196100 0.67924300 0.67707200 0.68761800
0.70588200 0.68247300 0.68028900 0.69108400
0.70980400 0.68569300 0.68351400 0.69444100
0.71372500 0.68895300 0.68678800 0.69774700
0.71764700 0.69225700 0.69010800 0.70103400
0.72156900 0.69560700 0.69347800 0.70431200
0.72549000 0.69899700 0.69688200 0.70759500
0.72941200 0.70241100 0.70030700 0.71093000
0.73333300 0.70582200 0.70373100 0.71431100
0.73725500 0.70921300 0.70713700 0.71774000
0.74117600 0.71257900 0.71053000 0.72120900
0.74509800 0.71592600 0.71390900 0.72470000
0.74902000 0.71926900 0.71730500 0.72818300
0.75294100 0.72265400 0.72075700 0.73164400
0.75686300 0.72608600 0.72423400 0.73508600
0.76078400 0.72952200 0.72770500 0.73850900
0.76470600 0.73296300 0.73117000 0.74191500
0.76862700 0.73641200 0.73463700 0.74532400
0.77254900 0.73987000 0.73809200 0.74877900
0.77647100 0.74332200 0.74152800 0.75223400
0.78039200 0.74676000 0.74493300 0.75569000
0.78431400 0.75018900 0.74834300 0.75914300
0.78823500 0.75367000 0.75180600 0.76259600
0.79215700 0.75722100 0.75533900 0.76603600
0.79607800 0.76086200 0.75894500 0.76945200
0.80000000 0.76458500 0.76260100 0.77284100
0.80392200 0.76836400 0.76629800 0.77626600
0.80784300 0.77219900 0.77004200 0.77974900
0.81176500 0.77605900 0.77378100 0.78330500
0.81568600 0.77988100 0.77747400 0.78693600
0.81960800 0.78363800 0.78109500 0.79062700
0.82352900 0.78730500 0.78463200 0.79437700
0.82745100 0.79091300 0.78813600 0.79818200
0.83137300 0.79449900 0.79162900 0.80198200
0.83529400 0.79807100 0.79512000 0.80573700
0.83921600 0.80162500 0.79860600 0.80942300
0.84313700 0.80519200 0.80212400 0.81303500
0.84705900 0.80877900 0.80567300 0.81662700
0.85098000 0.81238100 0.80925200 0.82022100
0.85490200 0.81601200 0.81287500 0.82382300
0.85882400 0.81969800 0.81655900 0.82743000
0.86274500 0.82343200 0.82028400 0.83108400
0.86666700 0.82720200 0.82404600 0.83478200
0.87058800 0.83098400 0.82780300 0.83852100
0.87451000 0.83473200 0.83152000 0.84231700
0.87843100 0.83842100 0.83517100 0.84619800
0.88235300 0.84205700 0.83876700 0.85014500
0.88627500 0.84570000 0.84238600 0.85415400
0.89019600 0.84940800 0.84606700 0.85817000
0.89411800 0.85318200 0.84980500 0.86217000
0.89803900 0.85699900 0.85358200 0.86614300
0.90196100 0.86083600 0.85736700 0.87012100
0.90588200 0.86465400 0.86113000 0.87419500
0.90980400 0.86844900 0.86487900 0.87838500
0.91372500 0.87229400 0.86868300 0.88266800
0.91764700 0.87618800 0.87253500 0.88700800
0.92156900 0.88009900 0.87640600 0.89136400
0.92549000 0.88400000 0.88027700 0.89574100
0.92941200 0.88792100 0.88417500 0.90024200
0.93333300 0.89186400 0.88809800 0.90485100
0.93725500 0.89581900 0.89204000 0.90950900
0.94117600 0.89978900 0.89600000 0.91422800
0.94509800 0.90379200 0.90000100 0.91903700
0.94902000 0.90781800 0.90402900 0.92391000
0.95294100 0.91187500 0.90809500 0.92885600
0.95686300 0.91595500 0.91218800 0.93387600
0.96078400 0.92006500 0.91630500 0.93897000
0.96470600 0.92421000 0.92044400 0.94413000
0.96862700 0.92839300 0.92460600 0.94934200
0.97254900 0.93261200 0.92878700 0.95460900
0.97647100 0.93686400 0.93298600 0.95992900
0.98039200 0.94115000 0.93720200 0.96529400
0.98431400 0.94546900 0.94143500 0.97070700
0.98823500 0.94982200 0.94568600 0.97616800
0.99215700 0.95421000 0.94995400 0.98167800
0.99607800 0.95863200 0.95424000 0.98723800
1.00000000 0.96309000 0.95854400 0.99284700
END_DATA
CAL    

DESCRIPTOR "Argyll Calibration options and model"
ORIGINATOR "Argyll dispcal"
CREATED "Tue May 26 10:39:48 202"

NUMBER_OF_FIELDS 3
BEGIN_DATA_FORMAT
R_P G_P B_P
END_DATA_FORMAT

NUMBER_OF_SETS 32
BEGIN_DATA
-0.000594473 -0.000222855 0.000246843
1.000594000 1.000223000 0.999753000
1.081021000 1.305566000 1.226288000
0.875740000 0.881777000 0.714353000
0.124644000 0.057834700 0.121593000
0.167911000 0.221364000 0.275713000
0.055726800 0.044179400 0.029764200
0.241094000 0.105864000 0.258646000
0.072839600 0.081372200 0.072407300
0.138197000 0.071552700 0.041009300
0.073221600 0.070921000 0.064835100
0.061109900 0.070969400 0.064115800
0.052641100 0.063532800 0.071220600
0.061584000 0.063433600 0.054877200
0.045976400 0.059212500 0.070872400
0.053752100 0.058925400 0.044059300
0.047282500 0.059452400 0.052465600
0.042923200 0.054576200 0.051129100
0.039292800 0.049619700 0.045972600
0.037282800 0.048149800 0.044012700
0.034008500 0.048835600 0.030645000
0.033848200 0.047301700 0.049454400
0.030460300 0.050731600 0.038920800
0.030022300 0.049112200 0.038614000
0.023578400 0.046292800 0.035893900
0.022709800 0.043317500 0.034044100
0.021396000 0.037602900 0.027588800
0.019054000 0.036778300 0.030922500
0.020247200 0.035958900 0.025825000
0.017450700 0.035214500 0.018232700
0.023613700 0.034770000 0.029489500
0.007055210 0.037354300 0.024627300
END_DATA
