Dell/U2718Q/U2718Q #1 2020-05-26 12-58 0.3127x 0.329y sRGB F-S XYZLUT+MTX/U2718Q #1 2020-05-26 12-58 0.3127x 0.329y sRGB F-S XYZLUT+MTX.ti1
CTI1   

DESCRIPTOR "Argyll Calibration Target chart information 1"
ORIGINATOR "Argyll targen"
CREATED "Tue May 26 13:04:39 2020"
APPROX_WHITE_POINT "93.526556 97.361693 108.540048"
COLOR_REP "RGB"
ACCURATE_EXPECTED_VALUES "true"
DARK_REGION_EMPHASIS "1.6"
WHITE_COLOR_PATCHES "4"
BLACK_COLOR_PATCHES "4"
SINGLE_DIM_STEPS "17"
COMP_GREY_STEPS "49"
OFPS_PATCHES "288"

NUMBER_OF_FIELDS 7
BEGIN_DATA_FORMAT
SAMPLE_ID RGB_R RGB_G RGB_B XYZ_X XYZ_Y XYZ_Z
END_DATA_FORMAT

NUMBER_OF_SETS 417
BEGIN_DATA
1 100.0000 100.0000 100.0000 93.52656 97.36169 108.5400
2 1.960800 1.960800 1.960800 1.142800 1.150200 1.163700
3 3.921600 3.921600 3.921600 1.285600 1.300500 1.327300
4 5.882400 5.882400 5.882400 1.449500 1.472900 1.515200
5 9.803900 9.803900 9.803900 1.914800 1.962400 2.048400
6 13.72600 13.72600 13.72600 2.581700 2.663900 2.812600
7 17.64700 17.64700 17.64700 3.469500 3.597900 3.830000
8 21.56900 21.56900 21.56900 4.595300 4.782200 5.120100
9 25.49000 25.49000 25.49000 5.974500 6.233200 6.700700
10 29.41200 29.41200 29.41200 7.621300 7.965600 8.587900
11 33.33300 33.33300 33.33300 9.548800 9.993300 10.79700
12 37.25500 37.25500 37.25500 11.76900 12.32900 13.34100
13 41.17600 41.17600 41.17600 14.29400 14.98500 16.23400
14 45.09800 45.09800 45.09800 17.13400 17.97300 19.48900
15 49.02000 49.02000 49.02000 20.29900 21.30300 23.11700
16 52.94100 52.94100 52.94100 23.80000 24.98600 27.12900
17 56.86300 56.86300 56.86300 27.64600 29.03200 31.53600
18 60.78400 60.78400 60.78400 31.84600 33.45000 36.34900
19 64.70600 64.70600 64.70600 36.40900 38.25000 41.57800
20 68.62700 68.62700 68.62700 41.34300 43.44000 47.23200
21 72.54900 72.54900 72.54900 46.65600 49.03000 53.32100
22 76.47100 76.47100 76.47100 52.35600 55.02700 59.85300
23 80.39200 80.39200 80.39200 58.45200 61.43900 66.83800
24 84.31400 84.31400 84.31400 64.94900 68.27500 74.28500
25 88.23500 88.23500 88.23500 71.85700 75.54100 82.20000
26 92.15700 92.15700 92.15700 79.18100 83.24600 90.59400
27 96.07800 96.07800 96.07800 86.92900 91.39700 99.47200
28 0.000000 17.12330 0.000000 1.115182 1.854931 0.472175
29 21.05490 23.54570 0.000000 3.131836 3.946205 0.774227
30 40.35650 30.49360 0.000000 7.952259 8.172135 1.346777
31 56.85870 45.05770 0.000000 16.80297 17.60757 2.722163
32 74.32640 47.72070 22.40360 26.41992 24.05580 7.469261
33 26.28740 13.39770 8.511500 2.844986 2.409181 1.185805
34 28.54730 14.81970 50.85940 7.235424 4.606139 21.21305
35 42.68880 19.46560 64.19720 13.51291 8.426143 35.49847
36 82.62020 26.78270 100.0000 43.91777 25.62228 97.18530
37 84.33650 75.19980 100.0000 64.18732 59.64069 102.7348
38 29.58730 65.73730 50.94750 22.58531 31.09218 25.63207
39 32.86590 100.0000 86.76650 56.23680 76.80581 80.19114
40 43.64160 100.0000 100.0000 63.96749 80.60703 106.8002
41 0.000000 61.23770 40.99460 16.34459 25.04211 17.10735
42 0.000000 71.64360 79.55630 30.59633 38.87650 62.00498
43 0.000000 81.57090 100.0000 44.79836 53.77830 102.5851
44 0.000000 100.0000 100.0000 58.41851 77.46176 106.4736
45 16.35170 87.55600 87.64450 44.98975 59.51816 79.00675
46 24.58050 88.93720 100.0000 51.86866 64.09206 104.2207
47 0.000000 26.87630 100.0000 21.21825 12.77595 95.85311
48 0.000000 47.42060 100.0000 26.51310 21.98292 97.36476
49 0.000000 24.30980 75.34300 11.86910 7.945666 50.56779
50 14.71240 27.69520 88.28750 17.33275 11.27276 72.27358
51 19.74670 13.79330 86.62820 15.32563 8.039884 68.72979
52 35.12880 25.63770 100.0000 24.53712 14.39680 95.99812
53 60.88100 28.95240 100.0000 32.99586 19.91763 96.63643
54 15.29130 45.52690 45.04500 10.91644 14.10385 18.07165
55 36.05590 56.44970 49.98350 19.18132 23.82911 23.56867
56 44.64540 59.16060 60.35710 24.51580 28.11730 34.24617
57 56.18440 94.69490 59.85760 51.76023 71.21686 40.63752
58 0.000000 31.25000 0.000000 3.356535 5.752315 1.112069
59 0.000000 36.88520 0.000000 4.629179 7.965257 1.475402
60 0.000000 43.10350 0.000000 6.363554 10.98108 1.970556
61 0.000000 50.00000 0.000000 8.770554 15.16650 2.657742
62 0.000000 57.69230 0.000000 12.07135 20.90611 3.600102
63 0.000000 66.32650 0.000000 16.38342 28.40416 4.831173
64 0.000000 76.08700 0.000000 22.26523 38.63177 6.510398
65 0.000000 81.68860 0.000000 26.15156 45.38952 7.619922
66 24.65280 82.42320 17.51790 28.86082 47.47350 10.37364
67 28.82400 18.62970 74.65300 13.21679 7.833922 49.48239
68 44.59760 32.95120 84.36190 22.21395 15.45138 65.95835
69 14.57610 8.675700 36.40090 3.072070 1.948801 10.53872
70 55.83750 12.51510 43.74700 13.07808 7.814453 15.79236
71 58.45760 12.11010 61.73440 17.35153 9.831418 32.65318
72 0.000000 0.000000 21.42860 0.841946 0.443794 3.885133
73 0.000000 0.000000 26.11940 1.150826 0.584495 5.451712
74 0.000000 0.000000 31.25000 1.577175 0.778705 7.614068
75 0.000000 0.000000 36.88520 2.185448 1.055786 10.69911
76 0.000000 0.000000 43.10350 2.957157 1.407314 14.61306
77 0.000000 0.000000 50.00000 4.041166 1.901102 20.11093
78 0.000000 0.000000 57.69230 5.474342 2.553942 27.37971
79 0.000000 0.000000 66.32650 7.452785 3.455161 37.41397
80 0.000000 0.000000 76.08700 10.15355 4.685416 51.11173
81 0.000000 0.000000 87.20930 13.78014 6.337395 69.50503
82 0.000000 0.000000 100.0000 18.84136 8.642882 95.17452
83 31.11780 43.66020 100.0000 27.94923 21.32746 97.16514
84 78.18210 0.000000 46.60270 23.43446 12.95633 18.42718
85 86.39850 16.69730 62.14020 32.49001 18.88139 34.11127
86 3.968300 3.968300 3.968300 0.390665 0.411153 0.484159
87 5.020100 5.020100 5.020100 0.475200 0.501423 0.578510
88 6.097600 6.097600 6.097600 0.569504 0.601853 0.686030
89 7.201600 7.201600 7.201600 0.677199 0.716115 0.810135
90 8.333300 8.333300 8.333300 0.808794 0.854234 0.965532
91 9.493700 9.493700 9.493700 0.957374 1.009830 1.143477
92 10.68380 10.68380 10.68380 1.130475 1.191241 1.355930
93 11.90480 11.90480 11.90480 1.328556 1.399641 1.598772
94 13.15790 13.15790 13.15790 1.553088 1.636288 1.875546
95 14.44440 14.44440 14.44440 1.807616 1.904870 2.185212
96 15.76580 15.76580 15.76580 2.091705 2.203798 2.531297
97 17.12330 17.12330 17.12330 2.406871 2.534450 2.918912
98 18.51850 18.51850 18.51850 2.758397 2.901406 3.359673
99 19.95310 19.95310 19.95310 3.153753 3.311726 3.855752
100 21.42860 21.42860 21.42860 3.603393 3.777238 4.389586
101 22.94690 22.94690 22.94690 4.113270 4.305597 4.953332
102 24.50980 24.50980 24.50980 4.684336 4.902096 5.551004
103 26.11940 26.11940 26.11940 5.308831 5.565724 6.203927
104 27.77780 27.77780 27.77780 5.979482 6.291701 6.942627
105 29.48720 29.48720 29.48720 6.713231 7.084604 7.778987
106 31.25000 31.25000 31.25000 7.534368 7.957384 8.699901
107 33.06880 33.06880 33.06880 8.466028 8.919294 9.742727
108 34.94620 34.94620 34.94620 9.509704 9.979472 10.92191
109 36.88520 36.88520 36.88520 10.65569 11.15049 12.22128
110 38.88890 38.88890 38.88890 11.88972 12.44413 13.60504
111 40.96050 40.96050 40.96050 13.19917 13.84203 15.07951
112 43.10350 43.10350 43.10350 14.62005 15.34442 16.71622
113 45.32160 45.32160 45.32160 16.21545 17.02359 18.57844
114 47.61910 47.61910 47.61910 18.03869 18.95660 20.68999
115 50.00000 50.00000 50.00000 20.08969 21.14516 23.01774
116 52.46910 52.46910 52.46910 22.35242 23.55681 25.53461
117 55.03140 55.03140 55.03140 24.84815 26.19979 28.30334
118 57.69230 57.69230 57.69230 27.58358 29.10198 31.39134
119 60.45750 60.45750 60.45750 30.56589 32.27707 34.85695
120 63.33330 63.33330 63.33330 33.84008 35.72552 38.71407
121 66.32650 66.32650 66.32650 37.51607 39.56560 42.87103
122 69.44440 69.44440 69.44440 41.65933 43.91900 47.56162
123 72.69500 72.69500 72.69500 46.13955 48.66491 52.88799
124 76.08700 76.08700 76.08700 50.98233 53.79163 58.53547
125 79.62960 79.62960 79.62960 56.71423 59.77727 64.83893
126 83.33330 83.33330 83.33330 62.81719 66.15884 71.98085
127 87.20930 87.20930 87.20930 69.42167 73.08444 79.58827
128 91.26980 91.26980 91.26980 76.78730 80.78044 88.48586
129 55.37750 0.000000 17.50980 9.884232 5.595359 3.236465
130 75.16160 0.000000 18.27990 18.82116 10.65625 3.975611
131 89.13920 16.30590 32.73970 29.49219 17.66303 10.19818
132 100.0000 31.81200 44.76270 41.66437 27.26140 18.84186
133 36.88520 0.000000 0.000000 4.066223 2.352556 0.418650
134 43.10350 0.000000 0.000000 5.524498 3.179135 0.504485
135 100.0000 32.09000 0.000000 38.64144 25.95979 3.229030
136 100.0000 54.36400 0.000000 45.68612 38.20945 5.240247
137 100.0000 76.60480 0.000000 57.71935 59.13348 8.675667
138 73.84060 100.0000 0.000000 57.17688 78.84249 12.51429
139 80.29270 100.0000 30.70610 62.40405 81.64787 19.91508
140 43.36610 100.0000 0.000000 45.16832 72.03580 11.80747
141 0.000000 73.40290 30.93540 22.00862 36.34304 13.30895
142 40.14330 80.07680 31.68820 31.22549 46.76522 15.21182
143 78.22080 88.29580 66.52260 58.33220 68.44642 47.64008
144 100.0000 0.000000 21.51790 35.95573 20.34634 5.980716
145 100.0000 0.000000 35.83500 37.17029 20.89960 12.14075
146 100.0000 28.99050 61.57670 44.21544 27.67901 34.55689
147 51.14510 28.99950 22.13850 11.43829 9.707557 5.369801
148 50.81810 31.37400 33.74220 12.75608 10.91995 10.27002
149 68.00180 36.32910 49.43080 22.94603 17.76083 21.72884
150 1.938000 1.938000 1.938000 0.236524 0.245162 0.315899
151 2.941200 2.941200 2.941200 0.313220 0.327592 0.398422
152 16.42870 12.24390 59.70550 7.223333 4.153564 29.76025
153 19.67950 27.15450 65.17980 10.66242 8.151274 36.77244
154 0.000000 13.94400 33.75180 2.528002 2.108964 9.090512
155 0.000000 32.71840 49.38640 7.491397 8.035029 20.59440
156 30.16560 45.57800 50.64030 13.70212 15.60104 22.82090
157 43.89970 47.82840 88.34310 27.63397 23.31097 74.18250
158 57.63790 48.52260 100.0000 37.05361 28.43862 98.07821
159 70.07160 62.71820 100.0000 48.89448 42.54960 100.2060
160 78.15780 100.0000 100.0000 78.35983 88.76489 107.6473
161 43.46940 55.24250 41.65030 19.11628 23.30210 17.05270
162 55.86650 67.43400 43.10790 29.30703 36.13652 19.99453
163 0.000000 87.20930 0.000000 30.15295 52.34735 8.762296
164 0.000000 100.0000 37.05830 41.78294 69.88393 22.10130
165 0.000000 100.0000 63.39900 46.33011 71.95525 45.16361
166 0.000000 100.0000 81.36340 51.38184 74.25642 70.78499
167 0.000000 19.90840 53.31310 5.938317 4.452577 23.44002
168 0.000000 39.91490 73.54630 14.75507 13.62399 48.93005
169 28.92020 40.35810 73.39050 17.16206 15.14101 48.87569
170 65.73370 63.37360 81.63240 40.12424 38.73736 64.94018
171 66.72700 75.33720 88.11540 49.77013 52.09717 78.20163
172 12.19140 21.93770 12.46780 2.410462 3.233458 2.005149
173 15.17000 32.30430 12.16440 4.492265 6.628532 2.498019
174 27.40230 34.56510 23.77930 7.057808 8.595706 5.902946
175 40.35720 44.00680 54.71030 16.16061 16.32211 26.52632
176 49.97180 45.86590 67.46680 22.24175 20.15461 41.32495
177 0.000000 2.941200 0.000000 0.203287 0.269280 0.211835
178 0.000000 6.097600 0.000000 0.318017 0.468777 0.244589
179 0.000000 9.493700 0.000000 0.486040 0.760945 0.292559
180 0.000000 13.15790 0.000000 0.744540 1.210438 0.366359
181 0.000000 21.42860 0.000000 1.621241 2.734893 0.616652
182 0.000000 26.11940 0.000000 2.351756 4.005152 0.825210
183 11.24920 26.82530 50.54600 6.901872 6.287016 21.28347
184 43.81620 32.97600 51.40810 13.48852 11.46102 22.70203
185 53.50060 35.16700 71.65690 21.56937 16.10481 46.34088
186 13.91340 21.67680 33.79010 3.943746 3.898897 9.385802
187 27.96570 32.69110 47.31270 9.325571 9.106098 18.97504
188 42.04920 56.70460 68.29640 24.60481 26.60370 43.51981
189 58.61230 69.23710 75.12340 38.30822 41.69521 55.43449
190 39.32700 26.07700 11.97960 7.109825 6.665895 2.337753
191 45.88710 49.65890 12.16000 15.03878 18.53354 4.264062
192 56.28040 49.77020 26.83670 19.38708 20.95623 8.733970
193 79.49250 78.28130 26.12100 45.59513 53.48554 13.42635
194 81.94780 89.21980 42.22360 56.70799 68.87013 24.33138
195 30.90970 58.30530 0.000000 15.01342 22.91217 3.838716
196 77.21010 60.97870 0.000000 33.00310 34.62124 5.189997
197 100.0000 100.0000 0.000000 74.79778 88.83036 13.55146
198 100.0000 100.0000 28.38070 76.01090 89.38296 19.70416
199 100.0000 100.0000 51.71140 79.02223 90.75468 34.97701
200 100.0000 100.0000 71.28500 83.46075 92.77652 57.48830
201 69.08600 84.90520 72.63590 52.66188 62.09980 55.07040
202 68.51150 84.54790 89.55640 57.61279 63.98868 82.85874
203 82.43810 88.37970 100.0000 72.36253 75.21145 105.3309
204 6.097600 0.000000 0.000000 0.278961 0.205861 0.195731
205 9.493700 0.000000 0.000000 0.419704 0.285637 0.204016
206 13.15790 0.000000 0.000000 0.629564 0.404590 0.216368
207 30.40380 39.82010 0.000000 7.982940 10.79038 1.851506
208 43.88090 39.79920 28.42450 12.23905 13.06053 8.200289
209 47.05100 70.52200 61.06510 31.39763 39.08948 36.82298
210 16.19310 38.27780 85.95330 18.96839 15.04718 68.74124
211 15.47590 52.23060 86.14750 23.65957 23.18670 70.40893
212 34.81380 60.79330 100.0000 35.75588 33.99025 99.21758
213 59.53990 74.59690 100.0000 50.89905 51.66298 101.8665
214 100.0000 0.000000 0.000000 35.22062 20.01149 2.252405
215 100.0000 30.92930 26.63700 39.47354 26.02509 8.619345
216 100.0000 67.05590 29.04390 53.16422 49.58429 13.44878
217 50.30230 15.21370 85.00030 21.32755 11.65300 66.35017
218 55.74670 56.61130 85.84110 34.18507 31.38783 70.93771
219 16.44740 75.16430 62.73520 28.91791 40.98583 39.27167
220 37.89970 76.17390 86.22470 39.83754 47.17694 74.35898
221 0.000000 0.000000 0.000000 0.112580 0.111553 0.185938
222 21.42860 0.000000 0.000000 1.365366 0.821657 0.259677
223 32.06520 15.46810 0.000000 3.821647 3.195834 0.594125
224 45.82480 15.95310 11.07120 7.343897 5.223614 1.884017
225 34.47470 0.000000 27.53400 4.647068 2.554373 6.191674
226 34.87140 13.22420 38.09900 6.446897 4.202513 11.81002
227 64.77750 22.23970 76.90150 25.06228 15.00736 53.55833
228 69.38500 36.59900 90.18260 34.66335 23.25991 77.38021
229 83.10630 51.26470 100.0000 51.01742 37.62403 99.14579
230 25.00640 20.43410 42.32950 5.983558 4.750499 14.57640
231 48.73780 22.06170 52.81230 13.11985 8.861357 23.47216
232 62.03950 36.25060 58.70340 21.89777 16.95029 30.39961
233 69.33570 47.54220 82.44810 35.17319 27.68659 64.43531
234 86.77670 47.19540 84.35940 45.72072 33.44560 68.24069
235 24.57560 0.000000 41.87140 4.481301 2.289585 13.87603
236 48.50720 0.000000 48.30140 10.67545 5.693433 19.06518
237 68.77400 0.000000 55.97980 20.13798 10.90404 26.51085
238 79.39610 0.000000 73.91050 30.26790 16.15621 49.16141
239 85.62690 25.04150 83.64280 39.20079 23.28663 65.40865
240 100.0000 31.19150 82.44390 50.50699 31.12196 64.31436
241 86.34780 36.03470 14.71280 29.81947 21.95965 4.700659
242 90.32800 48.84900 15.16930 36.32539 30.21535 6.070535
243 100.0000 51.70900 30.72890 45.98613 36.91261 12.10822
244 100.0000 52.93870 49.27170 48.88372 38.88734 24.36200
245 100.0000 67.13170 68.56820 59.84592 52.68290 47.13205
246 87.20930 0.000000 0.000000 25.71374 14.62280 1.692828
247 86.39210 19.03690 13.07400 26.68345 16.56118 3.469356
248 0.000000 0.000000 0.000000 0.112580 0.111553 0.185938
249 0.000000 0.000000 2.941200 0.148511 0.127920 0.368170
250 0.000000 0.000000 6.097600 0.197688 0.150321 0.617586
251 0.000000 0.000000 9.493700 0.276791 0.186354 1.018779
252 53.44080 42.92450 38.74500 17.16761 16.78768 14.09001
253 58.83990 67.78570 57.00970 33.00912 38.20516 32.17277
254 72.91740 100.0000 57.71560 62.09436 81.03251 39.70620
255 100.0000 100.0000 86.49890 88.21724 94.94319 81.61226
256 52.04920 23.12470 0.000000 9.933383 7.727203 1.160209
257 66.43860 33.07720 14.11090 17.92368 14.42840 3.716746
258 87.81080 59.17390 12.61970 39.03173 36.98323 6.702253
259 87.99540 71.42760 28.11160 46.66248 48.93094 13.25948
260 20.10040 65.04420 18.91550 17.36979 28.09512 7.607293
261 17.82260 84.65600 53.20340 33.63642 51.60957 31.05322
262 26.98890 87.66820 65.22220 39.60927 57.31758 44.86170
263 75.96910 78.73440 0.000000 42.68089 52.32019 8.121316
264 100.0000 84.15600 26.03070 64.04305 68.80536 15.41942
265 53.98010 60.25750 0.000000 22.05663 28.00295 4.465705
266 62.18300 62.86940 20.64060 27.17326 32.33516 8.466769
267 72.61770 69.66650 37.99210 37.40106 42.32262 17.54661
268 100.0000 85.33920 56.00650 68.89457 72.12126 35.90066
269 71.12830 56.20070 18.18200 28.09042 29.12511 7.048840
270 73.27400 57.22860 37.77940 31.24368 31.27783 15.59669
271 90.90510 62.20370 39.29820 44.62846 41.65313 17.83732
272 84.53110 50.61070 65.85620 40.12559 32.42025 40.78448
273 100.0000 51.55420 66.55210 51.90061 39.52503 42.41015
274 79.81850 21.71970 38.58110 24.94047 15.74557 13.39412
275 100.0000 54.23650 82.21820 57.60983 43.57050 65.97764
276 100.0000 64.37010 100.0000 69.18275 55.03137 101.5900
277 72.87510 51.54020 69.80320 34.65459 29.64831 45.65470
278 84.69130 64.34010 69.45150 47.46357 43.87995 47.26937
279 0.000000 100.0000 0.000000 39.68974 68.93043 11.48500
280 32.60690 100.0000 26.87670 43.76606 71.11915 17.21191
281 39.90080 100.0000 52.41820 48.68862 73.54706 33.81905
282 20.27650 49.47180 15.36100 10.06618 15.61372 4.624181
283 40.75420 62.37570 27.99080 20.36406 28.13056 10.52212
284 85.73460 71.78190 47.33970 47.71281 49.52507 24.86495
285 100.0000 72.85810 56.84360 60.53636 57.37330 34.31350
286 31.25000 0.000000 0.000000 2.825819 1.649470 0.345640
287 34.08700 0.000000 0.000000 3.414341 1.983056 0.380281
288 35.94710 0.000000 58.28910 9.329581 4.725287 28.23183
289 36.06990 31.67680 60.29640 13.12765 10.73677 31.39500
290 40.86230 71.82660 73.00660 33.63818 40.94826 52.47640
291 49.47780 86.59490 72.75130 46.00069 59.78082 55.12496
292 0.000000 42.43480 33.44120 7.849038 11.40428 10.44996
293 0.000000 50.78510 58.37380 14.58870 18.21956 30.66396
294 0.000000 55.14440 76.20450 20.99271 23.48897 54.37090
295 0.000000 64.73020 100.0000 34.26054 35.45459 99.57661
296 26.16140 74.40180 100.0000 41.84565 46.38811 101.3059
297 56.47820 87.62840 100.0000 58.88161 66.90983 104.4097
298 19.22320 50.22490 66.19990 17.18012 19.22404 39.81490
299 37.13860 54.58590 78.87100 25.56840 25.70748 58.62685
300 54.02540 88.27790 87.42630 53.47146 64.96762 79.22694
301 63.71270 100.0000 88.56070 66.42217 82.50633 84.06704
302 0.000000 27.13660 16.75930 2.991573 4.535149 3.180543
303 15.44170 33.30480 27.15890 5.592894 7.410192 6.937272
304 19.31920 62.83040 69.24760 23.67735 29.50565 45.41541
305 100.0000 100.0000 100.0000 93.52656 97.36169 108.5400
306 18.60190 41.88460 25.20550 7.930915 11.34166 6.866395
307 41.54760 49.89220 26.61610 14.83546 18.43462 8.394006
308 57.14070 54.32230 42.30190 23.23781 25.15981 17.62919
309 0.000000 0.000000 0.000000 0.112580 0.111553 0.185938
310 9.658200 11.50980 20.40830 1.598290 1.471207 3.723900
311 19.04970 11.18800 27.51010 2.731124 2.033099 6.178716
312 57.33100 52.49970 63.27430 26.41263 25.62236 37.06746
313 90.93770 64.20980 82.25910 55.29543 47.81283 66.98479
314 100.0000 75.69860 84.40330 69.83262 63.88307 72.97693
315 50.00000 0.000000 0.000000 7.503126 4.300661 0.620947
316 57.69230 0.000000 0.000000 10.26304 5.865035 0.783397
317 71.33700 0.000000 0.000000 16.38601 9.335654 1.143796
318 76.08700 0.000000 0.000000 18.78871 10.69755 1.285219
319 78.89500 29.95980 27.77650 24.66833 17.38987 8.139780
320 86.81280 37.12010 68.73170 37.98529 26.05718 43.31360
321 0.000000 0.000000 0.000000 0.112580 0.111553 0.185938
322 0.957900 0.957900 0.957900 0.152282 0.154516 0.226940
323 0.000000 16.31410 23.98720 1.926262 2.118918 4.979189
324 15.71200 39.91300 51.33350 10.30502 11.67446 22.83917
325 19.12750 39.85590 62.36580 12.82633 12.83558 34.20631
326 21.16760 63.57770 61.56720 22.37200 29.41599 35.99015
327 0.000000 57.26080 52.38510 16.21394 22.53501 25.57317
328 0.000000 80.21960 57.56340 30.44978 46.01675 34.38260
329 0.000000 78.39730 72.30790 32.79261 45.44206 52.38857
330 28.84830 84.22220 77.57600 40.74782 54.60536 61.43181
331 17.32670 66.20070 83.85410 29.68069 34.46700 68.40547
332 45.35070 68.33630 86.66610 36.99666 39.91773 73.85959
333 0.000000 33.06350 36.21570 5.736456 7.331838 11.33483
334 30.79410 42.97500 37.93230 11.15444 13.40767 13.25162
335 59.04310 82.28690 44.41050 40.26438 53.54247 23.73252
336 81.79900 84.25570 53.91850 54.82550 63.26539 32.89297
337 100.0000 83.75950 76.98230 73.03082 72.53346 62.36867
338 32.07760 27.07010 17.93180 5.915852 6.171069 3.665467
339 52.79700 71.01350 19.66980 28.06820 38.15955 9.241447
340 52.27570 79.60350 57.78570 38.21699 49.91012 34.97323
341 64.77410 81.15080 78.11230 49.46532 56.97416 62.27249
342 100.0000 0.000000 50.46370 39.22842 21.83712 22.57916
343 100.0000 0.000000 65.37160 42.33115 23.25047 38.31557
344 2.941200 0.000000 0.000000 0.186582 0.153499 0.190294
345 18.85780 0.000000 12.33090 1.347036 0.782395 1.558989
346 43.04390 0.000000 100.0000 24.23837 11.70202 95.49219
347 74.12410 0.000000 100.0000 36.46898 18.63457 96.21209
348 16.52790 11.04610 0.000000 1.352634 1.367238 0.365822
349 21.13820 20.09420 8.311000 2.800135 3.187410 1.312773
350 35.53660 23.13130 23.16110 6.336783 5.596247 5.158651
351 49.35330 25.56990 42.86750 12.25218 9.191252 15.48264
352 85.27200 29.48270 51.28400 31.49307 20.81287 23.48763
353 17.12330 0.000000 0.000000 0.931351 0.575649 0.234131
354 17.89000 7.724000 17.72730 1.781937 1.326884 2.882164
355 28.43950 16.69360 26.49750 4.391153 3.541388 5.999640
356 33.84430 28.60750 38.21700 8.295622 7.673284 12.45801
357 48.63020 36.48530 44.21140 14.48980 13.10470 17.07590
358 72.62430 69.00880 55.96430 39.82273 42.92330 31.68811
359 82.78600 70.02200 64.44440 48.22251 48.18510 41.72382
360 36.57410 0.000000 16.32310 4.423956 2.507236 2.605669
361 44.27600 13.81920 19.60610 7.128352 4.826218 3.838518
362 26.11940 0.000000 0.000000 2.031409 1.199183 0.298881
363 26.46630 9.370400 15.83620 2.855153 2.049671 2.479570
364 41.37490 16.32870 28.79920 7.274312 5.112499 7.073561
365 57.11900 16.08520 30.68830 12.35723 7.946892 8.195140
366 59.95540 100.0000 35.31090 52.59578 76.03553 21.71651
367 43.80750 77.45540 0.000000 28.77692 43.40107 7.102195
368 61.13830 85.66690 16.69510 40.93845 57.06557 11.39616
369 33.78510 35.57700 13.81460 7.863155 9.389612 3.189775
370 55.02440 37.24910 13.26610 14.16314 13.44490 3.540945
371 65.97160 41.08410 30.94400 20.83347 18.33550 9.890409
372 84.89430 46.25100 35.75330 33.41733 27.27350 13.51625
373 66.32650 0.000000 0.000000 13.90503 7.929384 0.997765
374 73.97690 25.11740 0.000000 19.73259 13.65329 1.808868
375 75.41430 42.08110 0.000000 24.36941 20.83460 2.962212
376 78.87630 60.91410 85.93000 47.24714 41.18580 72.32073
377 0.000000 15.40630 14.30400 1.283702 1.712559 2.144160
378 11.24390 24.45670 25.01690 3.429601 4.176855 5.645179
379 16.43260 30.69230 37.35890 6.128630 6.949654 11.91861
380 68.30620 37.06130 39.23030 21.80051 17.48915 14.28223
381 86.88740 40.43650 44.29040 33.99824 25.40640 18.52129
382 64.22030 18.93380 13.31190 14.40628 9.587251 2.791904
383 63.61100 21.07100 25.22660 15.07165 10.19476 6.289473
384 68.56590 19.27100 44.17510 19.25319 12.07996 16.61000
385 71.09250 22.34740 58.61390 23.45727 14.64114 29.77815
386 73.49130 31.52980 71.93060 29.58045 19.70066 47.02797
387 75.89100 67.47340 77.93730 46.18137 44.86524 59.82669
388 83.48640 86.06570 75.29090 62.35077 68.50598 59.64076
389 95.52850 95.52850 95.52850 85.42824 89.97288 98.03044
390 100.0000 100.0000 100.0000 93.52656 97.36169 108.5400
391 65.95400 50.43070 55.43880 27.46392 25.41662 28.41299
392 81.72910 51.30650 55.07860 36.32365 30.86089 28.66772
393 54.35120 0.000000 32.83820 10.62860 5.891862 8.929206
394 75.04730 0.000000 32.10110 19.77101 11.08218 9.097133
395 100.0000 0.000000 81.76980 47.04859 25.39936 62.24148
396 100.0000 0.000000 100.0000 53.94940 28.54281 97.24099
397 100.0000 38.63710 100.0000 58.92709 37.19829 98.66209
398 0.000000 0.000000 13.15790 0.404145 0.244367 1.664696
399 0.000000 0.000000 17.12330 0.585498 0.326977 2.584482
