Dell/U2718Q/U2718Q #1 2020-05-26 12-58 0.3127x 0.329y sRGB F-S XYZLUT+MTX/U2718Q #1 2020-05-26 12-58 0.3127x 0.329y sRGB F-S XYZLUT+MTX.cal
CAL    

DESCRIPTOR "Argyll Device Calibration Curves"
ORIGINATOR "Argyll dispcal"
CREATED "Tue May 26 13:03:44 2020"
DEVICE_CLASS "DISPLAY"
COLOR_REP "RGB"
VIDEO_LUT_CALIBRATION_POSSIBLE "YES"
TV_OUTPUT_ENCODING "NO"
DEVICE_TYPE "n"
TARGET_WHITE_XYZ "371.764440 391.143271 425.977611"
TARGET_GAMMA "sRGB"
DEGREE_OF_BLACK_OUTPUT_OFFSET "1.0"
BLACK_POINT_CORRECTION "0.0"
BLACK_NEUTRAL_BLEND_RATE "4.0"
BLACK_POINT_HACK "YES"
QUALITY "low"

BEGIN_ARGYLL_DISPCAL_ARGS
-v2 -d1 -c1 -yn -P0.475468687675,0.649334945586,2.11251980983 -F -X "i1 DisplayPro, ColorMunki Display & Dell, DELL U2718Q (i1 Pro).ccmx" -ql -m -w0.3127,0.329 -gs -f1.0 -k0 -A4.0 -b
END_ARGYLL_DISPCAL_ARGS


NUMBER_OF_FIELDS 4
BEGIN_DATA_FORMAT
RGB_I RGB_R RGB_G RGB_B
END_DATA_FORMAT

NUMBER_OF_SETS 256
BEGIN_DATA
0.00000000 0.00000000 0.00000000 0.00000000
0.00392157 0.00521351 0.00505893 0.00527818
0.00784314 0.01036590 0.01005540 0.01046210
0.01176470 0.01545830 0.01499060 0.01555420
0.01568630 0.02049160 0.01986560 0.02055700
0.01960780 0.02546700 0.02468150 0.02547270
0.02352940 0.03038550 0.02943950 0.03030370
0.02745100 0.03524800 0.03413960 0.03504990
0.03137250 0.04003850 0.03876170 0.03969100
0.03529410 0.04471640 0.04328100 0.04420390
0.03921570 0.04926790 0.04768080 0.04857780
0.04313730 0.05369320 0.05196600 0.05282480
0.04705880 0.05799980 0.05614010 0.05695250
0.05098040 0.06219180 0.06020270 0.06096160
0.05490200 0.06627360 0.06416420 0.06487000
0.05882350 0.07027530 0.06805070 0.06869870
0.06274510 0.07422850 0.07188510 0.07246450
0.06666670 0.07815030 0.07568010 0.07618560
0.07058820 0.08205580 0.07944640 0.07988280
0.07450980 0.08596150 0.08320550 0.08357490
0.07843140 0.08989110 0.08697350 0.08727620
0.08235290 0.09386210 0.09076250 0.09099390
0.08627450 0.09788390 0.09457310 0.09472790
0.09019610 0.10194800 0.09840090 0.09846780
0.09411760 0.10604900 0.10224000 0.10220100
0.09803920 0.11017600 0.10607800 0.10592200
0.10196100 0.11430000 0.10990200 0.10963400
0.10588200 0.11840100 0.11371000 0.11334100
0.10980400 0.12247800 0.11750000 0.11703900
0.11372500 0.12653200 0.12127100 0.12072500
0.11764700 0.13056000 0.12501300 0.12440000
0.12156900 0.13455400 0.12871700 0.12805700
0.12549000 0.13848200 0.13236600 0.13168800
0.12941200 0.14233300 0.13596200 0.13529000
0.13333300 0.14612500 0.13952900 0.13886500
0.13725500 0.14989300 0.14307500 0.14242500
0.14117600 0.15364500 0.14660400 0.14597400
0.14509800 0.15738500 0.15011800 0.14952000
0.14902000 0.16111900 0.15361300 0.15305600
0.15294100 0.16485100 0.15709300 0.15658200
0.15686300 0.16858000 0.16055800 0.16010400
0.16078400 0.17228400 0.16400300 0.16361800
0.16470600 0.17595800 0.16742700 0.16711000
0.16862700 0.17960300 0.17083100 0.17058100
0.17254900 0.18320600 0.17420500 0.17403400
0.17647100 0.18676000 0.17754400 0.17746600
0.18039200 0.19026100 0.18085000 0.18087700
0.18431400 0.19371700 0.18412400 0.18427200
0.18823500 0.19712100 0.18736400 0.18765200
0.19215700 0.20047300 0.19057500 0.19101200
0.19607800 0.20380400 0.19376800 0.19435400
0.20000000 0.20713300 0.19694900 0.19768800
0.20392200 0.21046200 0.20011700 0.20101500
0.20784300 0.21379300 0.20327300 0.20433500
0.21176500 0.21712800 0.20642200 0.20765000
0.21568600 0.22046900 0.20956400 0.21096400
0.21960800 0.22381200 0.21269800 0.21427300
0.22352900 0.22717300 0.21583500 0.21757600
0.22745100 0.23055200 0.21897200 0.22087100
0.23137300 0.23395200 0.22211500 0.22416000
0.23529400 0.23737900 0.22526500 0.22745400
0.23921600 0.24084200 0.22842500 0.23075100
0.24313700 0.24434500 0.23159600 0.23405800
0.24705900 0.24789000 0.23477900 0.23737400
0.25098000 0.25147900 0.23798400 0.24070500
0.25490200 0.25510100 0.24121300 0.24405500
0.25882400 0.25875200 0.24446400 0.24741800
0.26274500 0.26243000 0.24773900 0.25079500
0.26666700 0.26613700 0.25103900 0.25418300
0.27058800 0.26986600 0.25436300 0.25758800
0.27451000 0.27359100 0.25769900 0.26100600
0.27843100 0.27731800 0.26104800 0.26443400
0.28235300 0.28105600 0.26441800 0.26787500
0.28627500 0.28480500 0.26780800 0.27132700
0.29019600 0.28855900 0.27121400 0.27478500
0.29411800 0.29232100 0.27463300 0.27824700
0.29803900 0.29609100 0.27806400 0.28170500
0.30196100 0.29986800 0.28150300 0.28515800
0.30588200 0.30365200 0.28494800 0.28861000
0.30980400 0.30743500 0.28839700 0.29205400
0.31372500 0.31121500 0.29184400 0.29548100
0.31764700 0.31499400 0.29528300 0.29888500
0.32156900 0.31878500 0.29871300 0.30226000
0.32549000 0.32258400 0.30213900 0.30561600
0.32941200 0.32638100 0.30556000 0.30895100
0.33333300 0.33017000 0.30897000 0.31226500
0.33725500 0.33395500 0.31236800 0.31555400
0.34117600 0.33772700 0.31576200 0.31882000
0.34509800 0.34148200 0.31915400 0.32207000
0.34902000 0.34522000 0.32253900 0.32531300
0.35294100 0.34894100 0.32591600 0.32854500
0.35686300 0.35264900 0.32928700 0.33176700
0.36078400 0.35634800 0.33265800 0.33497800
0.36470600 0.36004700 0.33603400 0.33818300
0.36862700 0.36375000 0.33941800 0.34138400
0.37254900 0.36745500 0.34282000 0.34458400
0.37647100 0.37116100 0.34623600 0.34778800
0.38039200 0.37487600 0.34966100 0.35099500
0.38431400 0.37859800 0.35309500 0.35420700
0.38823500 0.38232600 0.35653800 0.35742200
0.39215700 0.38605600 0.35998400 0.36064700
0.39607800 0.38979500 0.36342800 0.36387900
0.40000000 0.39354300 0.36687200 0.36711900
0.40392200 0.39728200 0.37031900 0.37036200
0.40784300 0.40100600 0.37376200 0.37361700
0.41176500 0.40469700 0.37718800 0.37688700
0.41568600 0.40833800 0.38059500 0.38016400
0.41960800 0.41192300 0.38397100 0.38344100
0.42352900 0.41544200 0.38731000 0.38672000
0.42745100 0.41889700 0.39061000 0.39000100
0.43137300 0.42230500 0.39386900 0.39328500
0.43529400 0.42567000 0.39709500 0.39656500
0.43921600 0.42898800 0.40030300 0.39984000
0.44313700 0.43227900 0.40349200 0.40311600
0.44705900 0.43556100 0.40666500 0.40640500
0.45098000 0.43884200 0.40983700 0.40970400
0.45490200 0.44213500 0.41301500 0.41301500
0.45882400 0.44544200 0.41620600 0.41634500
0.46274500 0.44877700 0.41941500 0.41969500
0.46666700 0.45214300 0.42264200 0.42307200
0.47058800 0.45553900 0.42589800 0.42648700
0.47451000 0.45897400 0.42918000 0.42993300
0.47843100 0.46245500 0.43249400 0.43341400
0.48235300 0.46598500 0.43584500 0.43693000
0.48627500 0.46956800 0.43923000 0.44048600
0.49019600 0.47322100 0.44264200 0.44408300
0.49411800 0.47695600 0.44609100 0.44771500
0.49803900 0.48076900 0.44958400 0.45137800
0.50196100 0.48465400 0.45311900 0.45508000
0.50588200 0.48860900 0.45669300 0.45882300
0.50980400 0.49263500 0.46030400 0.46260100
0.51372500 0.49673600 0.46395600 0.46640900
0.51764700 0.50091400 0.46765100 0.47024500
0.52156900 0.50510700 0.47139900 0.47411100
0.52549000 0.50929200 0.47519300 0.47800800
0.52941200 0.51347100 0.47900400 0.48194600
0.53333300 0.51764200 0.48282900 0.48586900
0.53725500 0.52180700 0.48666800 0.48974400
0.54117600 0.52597500 0.49052200 0.49357400
0.54509800 0.53015800 0.49438700 0.49735900
0.54902000 0.53434600 0.49826800 0.50109900
0.55294100 0.53850600 0.50217000 0.50479900
0.55686300 0.54261500 0.50609100 0.50846700
0.56078400 0.54667900 0.51001000 0.51210600
0.56470600 0.55070100 0.51391600 0.51571300
0.56862700 0.55467500 0.51780800 0.51928400
0.57254900 0.55860200 0.52168100 0.52283100
0.57647100 0.56246500 0.52553600 0.52635800
0.58039200 0.56626800 0.52937400 0.52986900
0.58431400 0.57001800 0.53319000 0.53336600
0.58823500 0.57371500 0.53699000 0.53685700
0.59215700 0.57736800 0.54077000 0.54035200
0.59607800 0.58096200 0.54453100 0.54386200
0.60000000 0.58449700 0.54826600 0.54739100
0.60392200 0.58799100 0.55196900 0.55093300
0.60784300 0.59145000 0.55565300 0.55448000
0.61176500 0.59488000 0.55932800 0.55802800
0.61568600 0.59828500 0.56299400 0.56157600
0.61960800 0.60167100 0.56665200 0.56513900
0.62352900 0.60507000 0.57030900 0.56872000
0.62745100 0.60849700 0.57398200 0.57231700
0.63137300 0.61194400 0.57766900 0.57593400
0.63529400 0.61541700 0.58136900 0.57957800
0.63921600 0.61891900 0.58507900 0.58325700
0.64313700 0.62245600 0.58879900 0.58697000
0.64705900 0.62603700 0.59253500 0.59071700
0.65098000 0.62966100 0.59628200 0.59449300
0.65490200 0.63332200 0.60003700 0.59829300
0.65882400 0.63701500 0.60379900 0.60212800
0.66274500 0.64075400 0.60757900 0.60599800
0.66666700 0.64454500 0.61138700 0.60989300
0.67058800 0.64839700 0.61523000 0.61380500
0.67451000 0.65230700 0.61910900 0.61773900
0.67843100 0.65626700 0.62301200 0.62170500
0.68235300 0.66025800 0.62693400 0.62571300
0.68627500 0.66427900 0.63087500 0.62976300
0.69019600 0.66832900 0.63482300 0.63384400
0.69411800 0.67236900 0.63875200 0.63795100
0.69803900 0.67638200 0.64265500 0.64208300
0.70196100 0.68036600 0.64652300 0.64620700
0.70588200 0.68430600 0.65034400 0.65029900
0.70980400 0.68819300 0.65412000 0.65435400
0.71372500 0.69204000 0.65786600 0.65836200
0.71764700 0.69586400 0.66159100 0.66231900
0.72156900 0.69967800 0.66530200 0.66624300
0.72549000 0.70348700 0.66899400 0.67015700
0.72941200 0.70728000 0.67266400 0.67407800
0.73333300 0.71105800 0.67631000 0.67799300
0.73725500 0.71482400 0.67995100 0.68188900
0.74117600 0.71860900 0.68359800 0.68576400
0.74509800 0.72243000 0.68725400 0.68962200
0.74902000 0.72629300 0.69091100 0.69347600
0.75294100 0.73019300 0.69456300 0.69732600
0.75686300 0.73412400 0.69822300 0.70116900
0.76078400 0.73810300 0.70189800 0.70500500
0.76470600 0.74213600 0.70558200 0.70883800
0.76862700 0.74622200 0.70927800 0.71267100
0.77254900 0.75037200 0.71299800 0.71650100
0.77647100 0.75458200 0.71674700 0.72033100
0.78039200 0.75883500 0.72052500 0.72416100
0.78431400 0.76313600 0.72433400 0.72799500
0.78823500 0.76747800 0.72816800 0.73183300
0.79215700 0.77185300 0.73202400 0.73567200
0.79607800 0.77626900 0.73589800 0.73950600
0.80000000 0.78071400 0.73978500 0.74332700
0.80392200 0.78516400 0.74368100 0.74712500
0.80784300 0.78963000 0.74760000 0.75090300
0.81176500 0.79412800 0.75154800 0.75467400
0.81568600 0.79865600 0.75551400 0.75844800
0.81960800 0.80320100 0.75949200 0.76223600
0.82352900 0.80772400 0.76346300 0.76603600
0.82745100 0.81221700 0.76742200 0.76984600
0.83137300 0.81668900 0.77137200 0.77366800
0.83529400 0.82117200 0.77532200 0.77750500
0.83921600 0.82567700 0.77928500 0.78135200
0.84313700 0.83019900 0.78325200 0.78522600
0.84705900 0.83473200 0.78722100 0.78914200
0.85098000 0.83925300 0.79119000 0.79310400
0.85490200 0.84374300 0.79515400 0.79710500
0.85882400 0.84819900 0.79910900 0.80114300
0.86274500 0.85263200 0.80305500 0.80520700
0.86666700 0.85703300 0.80700100 0.80928400
0.87058800 0.86140100 0.81094700 0.81337000
0.87451000 0.86572900 0.81489200 0.81747300
0.87843100 0.87001800 0.81882800 0.82161100
0.88235300 0.87430200 0.82275300 0.82577700
0.88627500 0.87858900 0.82669100 0.82996000
0.89019600 0.88287600 0.83064700 0.83415400
0.89411800 0.88716000 0.83461400 0.83836600
0.89803900 0.89142900 0.83859600 0.84261200
0.90196100 0.89570300 0.84258900 0.84689100
0.90588200 0.89997100 0.84660600 0.85120700
0.90980400 0.90423400 0.85064100 0.85555600
0.91372500 0.90848600 0.85469100 0.85993400
0.91764700 0.91273000 0.85875300 0.86433600
0.92156900 0.91695700 0.86282800 0.86875800
0.92549000 0.92117400 0.86690600 0.87318500
0.92941200 0.92539700 0.87099000 0.87762400
0.93333300 0.92962700 0.87509400 0.88207500
0.93725500 0.93386400 0.87921300 0.88655300
0.94117600 0.93808600 0.88335100 0.89105700
0.94509800 0.94228400 0.88749800 0.89557400
0.94902000 0.94647400 0.89164600 0.90010700
0.95294100 0.95066300 0.89580200 0.90466000
0.95686300 0.95484700 0.89996700 0.90924900
0.96078400 0.95902000 0.90414400 0.91386900
0.96470600 0.96318800 0.90833200 0.91851600
0.96862700 0.96735200 0.91253500 0.92318500
0.97254900 0.97150800 0.91675000 0.92788200
0.97647100 0.97565500 0.92097400 0.93260600
0.98039200 0.97979500 0.92520500 0.93735300
0.98431400 0.98392700 0.92944600 0.94212200
0.98823500 0.98805100 0.93369400 0.94691400
0.99215700 0.99216800 0.93795100 0.95172900
0.99607800 0.99627700 0.94221700 0.95656600
1.00000000 1.00000000 0.94649100 0.96142700
END_DATA
CAL    

DESCRIPTOR "Argyll Calibration options and model"
ORIGINATOR "Argyll dispcal"
CREATED "Tue May 26 13:03:44 202"

NUMBER_OF_FIELDS 3
BEGIN_DATA_FORMAT
R_P G_P B_P
END_DATA_FORMAT

NUMBER_OF_SETS 32
BEGIN_DATA
0.000409086 0.000759615 0.001331490
0.999591000 0.999240000 0.998669000
1.369092000 1.538661000 1.528683000
0.526000000 0.290181000 0.306678000
0.120117000 0.190873000 0.190468000
0.146868000 0.150877000 0.150824000
0.127657000 0.131682000 0.125481000
0.095992900 0.107959000 0.108689000
0.061953700 0.100540000 0.098225000
0.064877700 0.085638000 0.086452200
0.062922600 0.069025400 0.076212900
0.059222700 0.072901900 0.073897200
0.055051600 0.063124800 0.065548300
0.042372700 0.051313400 0.056793700
0.052371000 0.052122900 0.053539600
0.049110200 0.047347000 0.047613200
0.036243400 0.046801600 0.047262400
0.032487300 0.046237900 0.046408200
0.024562000 0.030086100 0.034179600
0.028274400 0.035595000 0.037095600
0.031361300 0.038484600 0.037607400
0.023880100 0.030368500 0.031436400
0.022587600 0.030873500 0.030068000
0.016876900 0.030232400 0.029659600
0.017575000 0.026307900 0.027937600
0.019260900 0.026016700 0.026739200
0.013782200 0.022632400 0.024017300
0.012887800 0.021970500 0.023210200
0.013545000 0.019664700 0.020120600
0.012593700 0.017705600 0.019980600
0.011404200 0.016723300 0.017721000
0.008967510 0.019582100 0.018209200
END_DATA
