Dell/U2718Q/U2718Q #1 2020-05-26 12-58 0.3127x 0.329y sRGB F-S XYZLUT+MTX/U2718Q #1 2020-05-26 12-58 0.3127x 0.329y sRGB F-S XYZLUT+MTX.ti3
CTI3   

DESCRIPTOR "Argyll Calibration Target chart information 3"
ORIGINATOR "Argyll dispread"
CREATED "Tue May 26 13:04:45 2020"
DEVICE_CLASS "DISPLAY"
SINGLE_DIM_STEPS "17"
COMP_GREY_STEPS "49"
DARK_REGION_EMPHASIS "1.6"
COLOR_REP "RGB_XYZ"
TARGET_INSTRUMENT "X-Rite i1 DisplayPro, ColorMunki Display"
DISPLAY_TYPE_REFRESH "YES"
INSTRUMENT_TYPE_SPECTRAL "NO"
LUMINANCE_XYZ_CDM2 "371.829794 391.232405 426.418188"
NORMALIZED_TO_Y_100 "YES"
VIDEO_LUT_CALIBRATION_POSSIBLE "YES"

BEGIN_ARGYLL_COLPROF_ARGS
-v -qh -aX -bn -C "No copyright. Created with DisplayCAL 3.8.9.3 and ArgyllCMS 2.1.2" -M "DELL U2718Q" -A "Dell, Inc."
END_ARGYLL_COLPROF_ARGS

OBSERVER "1931_2"
USE_BLACK_POINT_COMPENSATION "NO"
BLACK_POINT_CORRECTION "0.0"
HIRES_B2A "YES"
HIRES_B2A_SIZE "-1"
SMOOTH_B2A "YES"
PATCH_SEQUENCE "OPTIMIZE_DISPLAY_RESPONSE_DELAY"

NUMBER_OF_FIELDS 7
BEGIN_DATA_FORMAT
SAMPLE_ID RGB_R RGB_G RGB_B XYZ_X XYZ_Y XYZ_Z
END_DATA_FORMAT

NUMBER_OF_SETS 417
BEGIN_DATA
1 100.0000 100.0000 100.0000 95.04064 100.0000 108.9936
2 1.960800 1.960800 1.960800 0.241967 0.250879 0.321340
3 3.921600 3.921600 3.921600 0.374578 0.393451 0.468736
4 5.882400 5.882400 5.882400 0.526258 0.558281 0.632157
5 9.803900 9.803900 9.803900 0.981885 1.033149 1.171558
6 13.72600 13.72600 13.72600 1.656024 1.745623 2.009049
7 17.64700 17.64700 17.64700 2.528783 2.664659 3.049246
8 21.56900 21.56900 21.56900 3.620221 3.793895 4.493001
9 25.49000 25.49000 25.49000 5.086537 5.309722 5.904982
10 29.41200 29.41200 29.41200 6.660077 7.047169 7.735375
11 33.33300 33.33300 33.33300 8.591412 9.061209 9.867165
12 37.25500 37.25500 37.25500 10.90753 11.37737 12.52260
13 41.17600 41.17600 41.17600 13.35460 14.02647 15.22276
14 45.09800 45.09800 45.09800 15.98810 16.77155 18.32482
15 49.02000 49.02000 49.02000 19.23092 20.22416 22.08312
16 52.94100 52.94100 52.94100 22.79628 24.04308 26.02673
17 56.86300 56.86300 56.86300 26.73104 28.17714 30.38060
18 60.78400 60.78400 60.78400 30.93687 32.69440 35.26541
19 64.70600 64.70600 64.70600 35.45444 37.41149 40.66968
20 68.62700 68.62700 68.62700 40.53976 42.72620 46.15238
21 72.54900 72.54900 72.54900 46.04014 48.55130 52.77106
22 76.47100 76.47100 76.47100 51.39137 54.25075 59.15700
23 80.39200 80.39200 80.39200 58.12217 61.23459 66.21447
24 84.31400 84.31400 84.31400 64.43946 67.85867 74.06227
25 88.23500 88.23500 88.23500 71.28813 75.06054 81.50163
26 92.15700 92.15700 92.15700 78.39772 82.41281 90.68954
27 96.07800 96.07800 96.07800 86.60902 91.24855 99.25025
28 0.000000 17.12330 0.000000 1.143698 1.890067 0.478416
29 21.05490 23.54570 0.000000 3.159165 3.959316 0.729803
30 40.35650 30.49360 0.000000 7.792055 7.974664 1.226329
31 56.85870 45.05770 0.000000 16.86104 17.69670 2.531417
32 74.32640 47.72070 22.40360 26.56102 24.08360 7.882317
33 26.28740 13.39770 8.511500 2.850270 2.387392 1.236710
34 28.54730 14.81970 50.85940 7.342415 4.668698 21.75459
35 42.68880 19.46560 64.19720 13.56625 8.493015 35.91467
36 82.62020 26.78270 100.0000 44.09921 25.73897 98.03256
37 84.33650 75.19980 100.0000 64.19853 59.65438 103.1523
38 29.58730 65.73730 50.94750 22.66381 31.28696 25.79262
39 32.86590 100.0000 86.76650 58.04056 80.05716 80.56514
40 43.64160 100.0000 100.0000 65.47897 83.61322 107.1631
41 0.000000 61.23770 40.99460 16.41930 25.16425 17.39805
42 0.000000 71.64360 79.55630 30.71374 39.19412 62.21681
43 0.000000 81.57090 100.0000 44.70691 53.71671 102.9772
44 0.000000 100.0000 100.0000 60.04779 80.59058 106.9436
45 16.35170 87.55600 87.64450 44.84702 59.47866 78.60001
46 24.58050 88.93720 100.0000 51.91186 64.27361 104.9916
47 0.000000 26.87630 100.0000 21.38763 12.86721 96.61732
48 0.000000 47.42060 100.0000 26.43648 21.83579 97.64575
49 0.000000 24.30980 75.34300 11.98191 8.100924 50.87238
50 14.71240 27.69520 88.28750 17.38311 11.36737 72.60572
51 19.74670 13.79330 86.62820 15.26718 8.030958 69.14217
52 35.12880 25.63770 100.0000 24.28398 14.18429 96.68306
53 60.88100 28.95240 100.0000 33.06932 19.87382 97.26432
54 15.29130 45.52690 45.04500 10.90063 14.09425 18.14905
55 36.05590 56.44970 49.98350 19.09750 23.71347 23.80805
56 44.64540 59.16060 60.35710 24.46746 28.04437 34.61044
57 56.18440 94.69490 59.85760 51.95524 71.40347 41.24689
58 0.000000 31.25000 0.000000 3.328018 5.723026 1.016461
59 0.000000 36.88520 0.000000 4.566333 7.874238 1.340728
60 0.000000 43.10350 0.000000 6.366048 11.02758 1.800130
61 0.000000 50.00000 0.000000 8.664629 15.04239 2.394758
62 0.000000 57.69230 0.000000 11.91744 20.73075 3.267570
63 0.000000 66.32650 0.000000 16.34440 28.45123 4.449717
64 0.000000 76.08700 0.000000 22.11155 38.43394 6.135784
65 0.000000 81.68860 0.000000 25.98150 45.18235 7.226653
66 24.65280 82.42320 17.51790 29.08069 47.46775 11.31598
67 28.82400 18.62970 74.65300 13.14642 7.821506 49.48378
68 44.59760 32.95120 84.36190 22.18038 15.44420 66.43079
69 14.57610 8.675700 36.40090 3.130825 1.966324 10.84721
70 55.83750 12.51510 43.74700 13.17773 7.929894 16.16706
71 58.45760 12.11010 61.73440 17.48109 9.952205 33.13082
72 0.000000 0.000000 21.42860 0.863821 0.459445 3.986148
73 0.000000 0.000000 26.11940 1.175799 0.603597 5.566096
74 0.000000 0.000000 31.25000 1.607001 0.802253 7.752516
75 0.000000 0.000000 36.88520 2.190054 1.071878 10.70310
76 0.000000 0.000000 43.10350 2.958345 1.423443 14.59879
77 0.000000 0.000000 50.00000 4.113473 1.954036 20.44246
78 0.000000 0.000000 57.69230 5.445145 2.562754 27.17397
79 0.000000 0.000000 66.32650 7.490103 3.505517 37.54380
80 0.000000 0.000000 76.08700 10.26178 4.775066 51.57984
81 0.000000 0.000000 87.20930 13.81604 6.399161 69.62593
82 0.000000 0.000000 100.0000 18.91976 8.684407 95.54658
83 31.11780 43.66020 100.0000 27.77666 21.21097 98.12260
84 78.18210 0.000000 46.60270 23.51819 12.96343 18.76426
85 86.39850 16.69730 62.14020 32.99865 19.46481 34.31954
86 3.968300 3.968300 3.968300 0.377327 0.395346 0.481406
87 5.020100 5.020100 5.020100 0.463565 0.487670 0.571280
88 6.097600 6.097600 6.097600 0.580872 0.606288 0.704898
89 7.201600 7.201600 7.201600 0.653930 0.682253 0.792733
90 8.333300 8.333300 8.333300 0.785359 0.822498 0.955573
91 9.493700 9.493700 9.493700 0.933083 0.981984 1.117518
92 10.68380 10.68380 10.68380 1.110188 1.166948 1.365585
93 11.90480 11.90480 11.90480 1.322821 1.395846 1.635578
94 13.15790 13.15790 13.15790 1.576468 1.652704 1.970006
95 14.44440 14.44440 14.44440 1.843019 1.936966 2.226162
96 15.76580 15.76580 15.76580 2.073432 2.200673 2.465617
97 17.12330 17.12330 17.12330 2.424953 2.559362 2.954066
98 18.51850 18.51850 18.51850 2.739354 2.902437 3.334909
99 19.95310 19.95310 19.95310 3.213628 3.367384 3.832824
100 21.42860 21.42860 21.42860 3.623642 3.794607 4.507956
101 22.94690 22.94690 22.94690 4.085463 4.303410 4.931458
102 24.50980 24.50980 24.50980 4.533855 4.820514 5.314406
103 26.11940 26.11940 26.11940 5.399935 5.679595 6.284592
104 27.77780 27.77780 27.77780 5.945728 6.255008 6.963443
105 29.48720 29.48720 29.48720 6.654556 7.043642 7.765281
106 31.25000 31.25000 31.25000 7.527151 7.911210 8.796875
107 33.06880 33.06880 33.06880 8.497599 8.899233 9.861753
108 34.94620 34.94620 34.94620 9.356952 9.826716 10.86847
109 36.88520 36.88520 36.88520 10.65764 11.06005 12.22607
110 38.88890 38.88890 38.88890 11.77234 12.36698 13.59221
111 40.96050 40.96050 40.96050 13.10843 13.70018 15.06923
112 43.10350 43.10350 43.10350 14.71272 15.39715 16.76134
113 45.32160 45.32160 45.32160 16.32511 17.09682 18.73969
114 47.61910 47.61910 47.61910 17.94958 18.73183 20.79993
115 50.00000 50.00000 50.00000 20.24925 21.20783 23.35089
116 52.46910 52.46910 52.46910 22.51912 23.70619 25.58893
117 55.03140 55.03140 55.03140 24.69040 26.08093 28.25156
118 57.69230 57.69230 57.69230 27.57486 29.08688 31.44923
119 60.45750 60.45750 60.45750 30.63446 32.22612 35.19441
120 63.33330 63.33330 63.33330 33.50855 35.26568 38.45151
121 66.32650 66.32650 66.32650 37.46096 39.47016 42.80977
122 69.44440 69.44440 69.44440 41.57238 43.83305 47.71738
123 72.69500 72.69500 72.69500 46.00425 48.51543 52.72181
124 76.08700 76.08700 76.08700 50.87120 53.66845 58.51614
125 79.62960 79.62960 79.62960 56.62340 59.74128 64.71497
126 83.33330 83.33330 83.33330 62.63492 65.92764 71.74451
127 87.20930 87.20930 87.20930 69.17154 72.87882 79.34976
128 91.26980 91.26980 91.26980 77.00486 81.05435 88.97060
129 55.37750 0.000000 17.50980 9.855207 5.558227 3.336943
130 75.16160 0.000000 18.27990 18.72685 10.57904 4.330169
131 89.13920 16.30590 32.73970 30.29700 18.46787 10.73602
132 100.0000 31.81200 44.76270 42.31717 27.90185 19.70221
133 36.88520 0.000000 0.000000 4.161457 2.412131 0.427292
134 43.10350 0.000000 0.000000 5.630640 3.238042 0.495500
135 100.0000 32.09000 0.000000 39.16573 26.56431 3.320712
136 100.0000 54.36400 0.000000 46.04350 38.60278 5.229457
137 100.0000 76.60480 0.000000 57.83783 59.19573 8.631683
138 73.84060 100.0000 0.000000 59.02355 81.88765 13.28748
139 80.29270 100.0000 30.70610 64.43241 84.74744 21.42789
140 43.36610 100.0000 0.000000 47.26053 75.37005 12.44148
141 0.000000 73.40290 30.93540 22.08691 36.45152 13.56433
142 40.14330 80.07680 31.68820 31.19817 46.53207 15.65021
143 78.22080 88.29580 66.52260 58.26404 68.28155 47.70545
144 100.0000 0.000000 21.51790 36.40956 20.59674 6.794556
145 100.0000 0.000000 35.83500 37.51068 21.07624 12.49340
146 100.0000 28.99050 61.57670 44.73951 28.20199 34.97883
147 51.14510 28.99950 22.13850 11.44500 9.746441 5.236308
148 50.81810 31.37400 33.74220 12.88985 10.99485 10.36694
149 68.00180 36.32910 49.43080 22.96121 17.90032 21.69490
150 1.938000 1.938000 1.938000 0.242831 0.251496 0.325420
151 2.941200 2.941200 2.941200 0.289704 0.296892 0.373397
152 16.42870 12.24390 59.70550 7.288520 4.177468 30.22991
153 19.67950 27.15450 65.17980 10.69262 8.260511 36.82686
154 0.000000 13.94400 33.75180 2.605455 2.173509 9.411335
155 0.000000 32.71840 49.38640 7.470251 7.986134 20.79736
156 30.16560 45.57800 50.64030 13.70688 15.56539 22.83475
157 43.89970 47.82840 88.34310 27.43091 23.14342 74.16620
158 57.63790 48.52260 100.0000 37.18262 28.40928 98.86211
159 70.07160 62.71820 100.0000 48.83321 42.24249 101.1049
160 78.15780 100.0000 100.0000 79.75803 91.53811 107.5449
161 43.46940 55.24250 41.65030 19.04687 23.15626 17.36465
162 55.86650 67.43400 43.10790 29.48886 36.53855 20.38248
163 0.000000 87.20930 0.000000 29.99862 52.16069 8.415600
164 0.000000 100.0000 37.05830 43.81402 73.25015 23.50700
165 0.000000 100.0000 63.39900 48.16295 75.23713 45.93549
166 0.000000 100.0000 81.36340 53.07770 77.48481 71.08543
167 0.000000 19.90840 53.31310 6.016205 4.549536 23.66795
168 0.000000 39.91490 73.54630 14.86131 13.71839 49.61139
169 28.92020 40.35810 73.39050 17.20808 15.19943 49.24129
170 65.73370 63.37360 81.63240 40.15192 38.74591 64.69140
171 66.72700 75.33720 88.11540 49.32664 51.54729 78.29737
172 12.19140 21.93770 12.46780 2.439863 3.267512 2.086230
173 15.17000 32.30430 12.16440 4.456309 6.546623 2.571147
174 27.40230 34.56510 23.77930 7.051841 8.534009 6.019103
175 40.35720 44.00680 54.71030 16.18887 16.38890 26.86093
176 49.97180 45.86590 67.46680 22.18749 20.14057 41.36558
177 0.000000 2.941200 0.000000 0.190577 0.244539 0.220992
178 0.000000 6.097600 0.000000 0.326515 0.472043 0.275819
179 0.000000 9.493700 0.000000 0.491345 0.750184 0.321118
180 0.000000 13.15790 0.000000 0.769337 1.232004 0.392633
181 0.000000 21.42860 0.000000 1.630015 2.754949 0.590001
182 0.000000 26.11940 0.000000 2.407043 4.102447 0.769118
183 11.24920 26.82530 50.54600 6.988032 6.360150 21.65973
184 43.81620 32.97600 51.40810 13.56623 11.48630 22.91828
185 53.50060 35.16700 71.65690 21.64163 16.18471 46.64715
186 13.91340 21.67680 33.79010 3.937998 3.872886 9.592647
187 27.96570 32.69110 47.31270 9.299310 9.037899 19.35538
188 42.04920 56.70460 68.29640 24.49168 26.56273 43.48501
189 58.61230 69.23710 75.12340 38.33035 41.87668 55.72443
190 39.32700 26.07700 11.97960 7.024060 6.557749 2.435458
191 45.88710 49.65890 12.16000 15.16948 18.62007 4.648391
192 56.28040 49.77020 26.83670 19.58440 21.16095 8.878202
193 79.49250 78.28130 26.12100 45.82502 53.70758 13.80519
194 81.94780 89.21980 42.22360 56.93530 69.02103 25.47816
195 30.90970 58.30530 0.000000 14.93536 22.80206 3.475866
196 77.21010 60.97870 0.000000 33.11254 34.64966 4.954565
197 100.0000 100.0000 0.000000 76.36708 91.51616 14.38320
198 100.0000 100.0000 28.38070 77.72506 92.13708 21.22931
199 100.0000 100.0000 51.71140 80.65984 93.50104 36.12582
200 100.0000 100.0000 71.28500 85.08391 95.53033 58.52637
201 69.08600 84.90520 72.63590 52.53759 62.02847 54.80736
202 68.51150 84.54790 89.55640 57.24209 63.77654 81.70834
203 82.43810 88.37970 100.0000 71.90863 74.69188 105.4414
204 6.097600 0.000000 0.000000 0.292650 0.216711 0.202090
205 9.493700 0.000000 0.000000 0.430114 0.304439 0.228049
206 13.15790 0.000000 0.000000 0.653682 0.434743 0.250184
207 30.40380 39.82010 0.000000 7.992653 10.78142 1.690069
208 43.88090 39.79920 28.42450 12.23871 13.03691 8.123465
209 47.05100 70.52200 61.06510 31.39455 39.17379 36.80738
210 16.19310 38.27780 85.95330 19.06728 15.24005 69.21095
211 15.47590 52.23060 86.14750 23.51563 22.95020 70.78212
212 34.81380 60.79330 100.0000 35.63487 33.93735 99.67409
213 59.53990 74.59690 100.0000 50.75903 51.24906 102.2080
214 100.0000 0.000000 0.000000 35.50425 20.17437 2.202435
215 100.0000 30.92930 26.63700 40.07532 26.64232 9.146967
216 100.0000 67.05590 29.04390 53.67801 50.10063 14.21687
217 50.30230 15.21370 85.00030 21.18449 11.59050 66.46126
218 55.74670 56.61130 85.84110 33.98934 31.07212 71.29231
219 16.44740 75.16430 62.73520 28.91660 40.94252 39.40001
220 37.89970 76.17390 86.22470 39.56559 46.84668 74.87567
221 0.000000 0.000000 0.000000 0.112524 0.111331 0.186057
222 21.42860 0.000000 0.000000 1.381664 0.842672 0.282087
223 32.06520 15.46810 0.000000 3.873515 3.234285 0.604106
224 45.82480 15.95310 11.07120 7.484566 5.327031 2.009135
225 34.47470 0.000000 27.53400 4.597552 2.530795 6.265236
226 34.87140 13.22420 38.09900 6.401043 4.169038 11.84266
227 64.77750 22.23970 76.90150 25.27091 15.26095 53.98145
228 69.38500 36.59900 90.18260 34.64830 23.27293 77.35540
229 83.10630 51.26470 100.0000 51.11774 37.52700 99.66409
230 25.00640 20.43410 42.32950 6.038292 4.795580 14.92162
231 48.73780 22.06170 52.81230 13.05043 8.860432 23.58077
232 62.03950 36.25060 58.70340 22.16437 17.11257 30.91472
233 69.33570 47.54220 82.44810 35.11127 27.53813 64.73632
234 86.77670 47.19540 84.35940 45.96068 33.70446 68.81823
235 24.57560 0.000000 41.87140 4.388203 2.229206 13.95350
236 48.50720 0.000000 48.30140 10.61548 5.645339 19.21554
237 68.77400 0.000000 55.97980 20.17220 10.89182 27.19650
238 79.39610 0.000000 73.91050 30.13660 16.04218 49.36163
239 85.62690 25.04150 83.64280 39.30114 23.50072 65.95264
240 100.0000 31.19150 82.44390 51.07762 31.66049 64.94613
241 86.34780 36.03470 14.71280 30.43953 22.50374 5.639067
242 90.32800 48.84900 15.16930 36.86751 30.62561 7.074539
243 100.0000 51.70900 30.72890 46.44181 37.30259 12.67543
244 100.0000 52.93870 49.27170 49.29009 39.24186 24.80156
245 100.0000 67.13170 68.56820 60.22779 53.12506 47.27465
246 87.20930 0.000000 0.000000 25.75353 14.63178 1.612585
247 86.39210 19.03690 13.07400 27.31600 17.23525 4.069080
248 0.000000 0.000000 0.000000 0.112501 0.111268 0.186029
249 0.000000 0.000000 2.941200 0.144490 0.126338 0.349806
250 0.000000 0.000000 6.097600 0.200502 0.152384 0.631152
251 0.000000 0.000000 9.493700 0.270376 0.184779 0.986194
252 53.44080 42.92450 38.74500 17.22305 16.83491 14.32379
253 58.83990 67.78570 57.00970 33.15151 38.56487 31.97941
254 72.91740 100.0000 57.71560 64.09492 84.19947 40.78491
255 100.0000 100.0000 86.49890 89.88327 97.71531 82.64479
256 52.04920 23.12470 0.000000 10.10889 7.832322 1.113816
257 66.43860 33.07720 14.11090 18.02692 14.47550 4.087940
258 87.81080 59.17390 12.61970 39.63744 37.22586 7.590260
259 87.99540 71.42760 28.11160 47.13027 49.21003 13.85968
260 20.10040 65.04420 18.91550 17.58295 28.26209 7.987687
261 17.82260 84.65600 53.20340 33.82334 51.71607 31.40345
262 26.98890 87.66820 65.22220 39.73820 57.66304 44.46182
263 75.96910 78.73440 0.000000 42.94136 52.58172 7.910174
264 100.0000 84.15600 26.03070 64.45692 69.20114 16.29620
265 53.98010 60.25750 0.000000 22.24517 28.33522 4.143371
266 62.18300 62.86940 20.64060 27.55196 32.49220 9.087301
267 72.61770 69.66650 37.99210 37.78798 42.79074 18.08741
268 100.0000 85.33920 56.00650 69.28231 72.46277 36.89754
269 71.12830 56.20070 18.18200 28.04763 28.96511 7.556040
270 73.27400 57.22860 37.77940 31.64238 31.45263 16.17521
271 90.90510 62.20370 39.29820 45.11474 41.93746 18.24030
272 84.53110 50.61070 65.85620 40.12629 32.31035 40.81876
273 100.0000 51.55420 66.55210 52.16637 39.64735 42.73604
274 79.81850 21.71970 38.58110 25.09896 16.02989 13.49337
275 100.0000 54.23650 82.21820 57.94868 43.78736 66.48606
276 100.0000 64.37010 100.0000 69.66436 55.38439 102.5221
277 72.87510 51.54020 69.80320 34.52123 29.32566 45.90156
278 84.69130 64.34010 69.45150 47.54429 43.97891 47.38667
279 0.000000 100.0000 0.000000 41.58466 72.21770 11.96257
280 32.60690 100.0000 26.87670 45.89422 74.49747 18.40614
281 39.90080 100.0000 52.41820 50.65921 76.83319 34.74740
282 20.27650 49.47180 15.36100 10.13788 15.59481 4.876697
283 40.75420 62.37570 27.99080 20.25738 27.91032 10.56767
284 85.73460 71.78190 47.33970 48.46794 50.02041 25.64107
285 100.0000 72.85810 56.84360 61.04492 58.00865 34.74017
286 31.25000 0.000000 0.000000 2.851948 1.672331 0.355893
287 34.08700 0.000000 0.000000 3.432356 2.000385 0.385770
288 35.94710 0.000000 58.28910 9.346087 4.735776 28.69698
289 36.06990 31.67680 60.29640 13.23369 10.77868 32.24644
290 40.86230 71.82660 73.00660 33.52567 40.92951 52.23176
291 49.47780 86.59490 72.75130 45.85895 59.73738 54.85933
292 0.000000 42.43480 33.44120 7.925673 11.54085 10.57091
293 0.000000 50.78510 58.37380 14.53290 18.14577 30.83651
294 0.000000 55.14440 76.20450 20.87745 23.45539 54.18272
295 0.000000 64.73020 100.0000 34.28949 35.53958 99.91201
296 26.16140 74.40180 100.0000 41.64126 46.18210 101.6989
297 56.47820 87.62840 100.0000 58.71445 66.60956 104.8535
298 19.22320 50.22490 66.19990 17.05835 19.00925 40.01690
299 37.13860 54.58590 78.87100 25.41102 25.50602 58.40359
300 54.02540 88.27790 87.42630 53.33997 64.93376 78.80242
301 63.71270 100.0000 88.56070 67.86176 85.44770 83.68160
302 0.000000 27.13660 16.75930 3.035836 4.635464 3.144770
303 15.44170 33.30480 27.15890 5.602723 7.459423 6.954810
304 19.31920 62.83040 69.24760 23.57190 29.32069 45.72619
305 100.0000 100.0000 100.0000 95.01257 99.99131 108.8220
306 18.60190 41.88460 25.20550 8.054343 11.54516 6.989753
307 41.54760 49.89220 26.61610 14.73342 18.30641 8.626284
308 57.14070 54.32230 42.30190 23.62177 25.50004 18.05163
309 0.000000 0.000000 0.000000 0.112541 0.111293 0.186310
310 9.658200 11.50980 20.40830 1.594523 1.467448 3.717843
311 19.04970 11.18800 27.51010 2.800140 2.088893 6.310193
312 57.33100 52.49970 63.27430 26.34210 25.39325 36.79047
313 90.93770 64.20980 82.25910 55.77679 48.18105 67.19003
314 100.0000 75.69860 84.40330 70.00505 64.10102 72.72785
315 50.00000 0.000000 0.000000 7.635973 4.366120 0.597151
316 57.69230 0.000000 0.000000 10.29886 5.873812 0.741754
317 71.33700 0.000000 0.000000 16.25239 9.237915 1.055642
318 76.08700 0.000000 0.000000 18.66895 10.60217 1.201500
319 78.89500 29.95980 27.77650 24.65106 17.39917 8.229226
320 86.81280 37.12010 68.73170 38.14159 26.33201 43.29782
321 0.000000 0.000000 0.000000 0.112485 0.111328 0.185951
322 0.957900 0.957900 0.957900 0.175190 0.179326 0.250740
323 0.000000 16.31410 23.98720 1.927468 2.133840 4.977581
324 15.71200 39.91300 51.33350 10.30432 11.67729 23.03366
325 19.12750 39.85590 62.36580 12.90597 12.90699 34.60941
326 21.16760 63.57770 61.56720 22.20733 29.29899 35.65118
327 0.000000 57.26080 52.38510 16.06138 22.36983 25.46166
328 0.000000 80.21960 57.56340 30.54828 46.17817 34.85389
329 0.000000 78.39730 72.30790 32.60644 45.31477 52.19046
330 28.84830 84.22220 77.57600 40.67627 54.62371 61.44161
331 17.32670 66.20070 83.85410 29.74040 34.66870 68.62065
332 45.35070 68.33630 86.66610 37.04671 40.00597 73.96813
333 0.000000 33.06350 36.21570 5.682550 7.313805 11.12417
334 30.79410 42.97500 37.93230 11.20715 13.51141 13.35627
335 59.04310 82.28690 44.41050 40.65551 53.86314 24.41182
336 81.79900 84.25570 53.91850 54.89148 63.22494 33.06474
337 100.0000 83.75950 76.98230 73.34427 72.93252 62.56619
338 32.07760 27.07010 17.93180 6.012579 6.271388 3.737950
339 52.79700 71.01350 19.66980 28.38474 38.56473 9.961189
340 52.27570 79.60350 57.78570 38.27877 50.01364 35.06672
341 64.77410 81.15080 78.11230 49.28555 56.69095 61.87584
342 100.0000 0.000000 50.46370 39.62946 22.05815 23.15004
343 100.0000 0.000000 65.37160 42.68728 23.44010 38.73178
344 2.941200 0.000000 0.000000 0.181007 0.149257 0.188172
345 18.85780 0.000000 12.33090 1.325771 0.767563 1.462024
346 43.04390 0.000000 100.0000 24.08842 11.54189 96.16345
347 74.12410 0.000000 100.0000 36.29120 18.43536 96.56281
348 16.52790 11.04610 0.000000 1.373006 1.373156 0.396488
349 21.13820 20.09420 8.311000 2.835834 3.195332 1.339434
350 35.53660 23.13130 23.16110 6.295371 5.546729 5.040441
351 49.35330 25.56990 42.86750 12.29027 9.189822 15.22957
352 85.27200 29.48270 51.28400 31.56596 20.98553 23.84818
353 17.12330 0.000000 0.000000 0.959506 0.603831 0.260504
354 17.89000 7.724000 17.72730 1.748108 1.301345 2.795764
355 28.43950 16.69360 26.49750 4.479359 3.592417 6.214540
356 33.84430 28.60750 38.21700 8.271577 7.640601 12.22793
357 48.63020 36.48530 44.21140 14.60349 13.24692 17.29862
358 72.62430 69.00880 55.96430 40.18861 43.32976 32.31907
359 82.78600 70.02200 64.44440 48.34144 48.48848 41.52994
360 36.57410 0.000000 16.32310 4.403055 2.497681 2.569715
361 44.27600 13.81920 19.60610 7.237780 4.911354 3.854421
362 26.11940 0.000000 0.000000 2.084730 1.239971 0.315574
363 26.46630 9.370400 15.83620 2.806957 2.004584 2.336904
364 41.37490 16.32870 28.79920 7.285915 5.149880 7.097762
365 57.11900 16.08520 30.68830 12.65816 8.181465 8.149322
366 59.95540 100.0000 35.31090 54.89986 79.39913 23.46008
367 43.80750 77.45540 0.000000 28.71064 43.31591 6.686234
368 61.13830 85.66690 16.69510 41.17674 56.91129 12.43706
369 33.78510 35.57700 13.81460 7.937462 9.444839 3.326588
370 55.02440 37.24910 13.26610 14.15474 13.43957 3.857203
371 65.97160 41.08410 30.94400 21.03985 18.50120 10.23727
372 84.89430 46.25100 35.75330 33.66558 27.57629 13.84407
373 66.32650 0.000000 0.000000 13.95611 7.930600 0.923879
374 73.97690 25.11740 0.000000 19.95188 13.83131 1.727168
375 75.41430 42.08110 0.000000 24.36705 20.99607 2.806174
376 78.87630 60.91410 85.93000 47.18983 41.18578 72.94158
377 0.000000 15.40630 14.30400 1.263747 1.710253 2.048176
378 11.24390 24.45670 25.01690 3.427141 4.191996 5.621552
379 16.43260 30.69230 37.35890 6.046784 6.798969 11.88766
380 68.30620 37.06130 39.23030 21.82487 17.55846 14.54479
381 86.88740 40.43650 44.29040 34.52304 25.83320 19.07719
382 64.22030 18.93380 13.31190 14.58350 9.771252 3.010144
383 63.61100 21.07100 25.22660 15.06057 10.29603 6.239870
384 68.56590 19.27100 44.17510 19.44665 12.31745 16.93227
385 71.09250 22.34740 58.61390 23.44509 14.80982 29.97958
386 73.49130 31.52980 71.93060 29.53400 19.68726 46.80845
387 75.89100 67.47340 77.93730 46.34478 45.07180 60.04480
388 83.48640 86.06570 75.29090 62.27521 68.19558 59.77396
389 95.52850 95.52850 95.52850 85.76090 90.34226 98.17597
390 100.0000 100.0000 100.0000 95.01237 99.98288 108.7929
391 65.95400 50.43070 55.43880 27.56306 25.43974 28.43423
