Dell/U2718Q/U2718Q #1 2020-05-26 12-58 0.3127x 0.329y sRGB F-S XYZLUT+MTX/U2718Q #1 2020-05-26 12-58 0.3127x 0.329y sRGB F-S XYZLUT+MTX.bpc.ti3
CTI3   

DESCRIPTOR "Argyll Calibration Target chart information 3"
ORIGINATOR "Argyll dispread"
CREATED "Tue May 26 13:04:45 2020"
DEVICE_CLASS "DISPLAY"
SINGLE_DIM_STEPS "17"
COMP_GREY_STEPS "49"
DARK_REGION_EMPHASIS "1.6"
COLOR_REP "RGB_XYZ"
TARGET_INSTRUMENT "X-Rite i1 DisplayPro, ColorMunki Display"
DISPLAY_TYPE_REFRESH "YES"
INSTRUMENT_TYPE_SPECTRAL "NO"
LUMINANCE_XYZ_CDM2 "371.829794 391.232405 426.418188"
NORMALIZED_TO_Y_100 "YES"
VIDEO_LUT_CALIBRATION_POSSIBLE "YES"

BEGIN_ARGYLL_COLPROF_ARGS
-v -qh -aX -bn -C "No copyright. Created with DisplayCAL 3.8.9.3 and ArgyllCMS 2.1.2" -M "DELL U2718Q" -A "Dell, Inc."
END_ARGYLL_COLPROF_ARGS

OBSERVER "1931_2"
USE_BLACK_POINT_COMPENSATION "NO"
BLACK_POINT_CORRECTION "0.0"
HIRES_B2A "YES"
HIRES_B2A_SIZE "-1"
SMOOTH_B2A "YES"
PATCH_SEQUENCE "OPTIMIZE_DISPLAY_RESPONSE_DELAY"

NUMBER_OF_FIELDS 7
BEGIN_DATA_FORMAT
SAMPLE_ID RGB_R RGB_G RGB_B XYZ_X XYZ_Y XYZ_Z
END_DATA_FORMAT

NUMBER_OF_SETS 417
BEGIN_DATA
1 100.0000 100.0000 100.0000 95.04064 100.0000 108.9936
2 1.960800 1.960800 1.960800 0.237921 0.250853 0.282553
3 3.921600 3.921600 3.921600 0.372188 0.393425 0.445907
4 5.882400 5.882400 5.882400 0.524964 0.558255 0.619892
5 9.803900 9.803900 9.803900 0.981632 1.033123 1.169273
6 13.72600 13.72600 13.72600 1.655963 1.745597 2.008658
7 17.64700 17.64700 17.64700 2.528753 2.664634 3.049164
8 21.56900 21.56900 21.56900 3.620196 3.793870 4.492966
9 25.49000 25.49000 25.49000 5.086514 5.309697 5.904954
10 29.41200 29.41200 29.41200 6.660054 7.047145 7.735349
11 33.33300 33.33300 33.33300 8.591389 9.061185 9.867139
12 37.25500 37.25500 37.25500 10.90751 11.37735 12.52257
13 41.17600 41.17600 41.17600 13.35458 14.02645 15.22274
14 45.09800 45.09800 45.09800 15.98808 16.77153 18.32480
15 49.02000 49.02000 49.02000 19.23090 20.22414 22.08310
16 52.94100 52.94100 52.94100 22.79626 24.04306 26.02671
17 56.86300 56.86300 56.86300 26.73102 28.17712 30.38058
18 60.78400 60.78400 60.78400 30.93685 32.69438 35.26539
19 64.70600 64.70600 64.70600 35.45442 37.41147 40.66966
20 68.62700 68.62700 68.62700 40.53975 42.72619 46.15236
21 72.54900 72.54900 72.54900 46.04013 48.55129 52.77105
22 76.47100 76.47100 76.47100 51.39136 54.25074 59.15699
23 80.39200 80.39200 80.39200 58.12216 61.23458 66.21446
24 84.31400 84.31400 84.31400 64.43945 67.85866 74.06226
25 88.23500 88.23500 88.23500 71.28812 75.06053 81.50162
26 92.15700 92.15700 92.15700 78.39772 82.41281 90.68954
27 96.07800 96.07800 96.07800 86.60902 91.24855 99.25025
28 0.000000 17.12330 0.000000 1.143654 1.890041 0.478235
29 21.05490 23.54570 0.000000 3.159141 3.959291 0.729773
30 40.35650 30.49360 0.000000 7.792032 7.974640 1.226301
31 56.85870 45.05770 0.000000 16.86102 17.69668 2.531389
32 74.32640 47.72070 22.40360 26.56100 24.08358 7.882291
33 26.28740 13.39770 8.511500 2.850235 2.387367 1.236627
34 28.54730 14.81970 50.85940 7.342392 4.668673 21.75456
35 42.68880 19.46560 64.19720 13.56623 8.492991 35.91465
36 82.62020 26.78270 100.0000 44.09920 25.73895 98.03256
37 84.33650 75.19980 100.0000 64.19852 59.65437 103.1523
38 29.58730 65.73730 50.94750 22.66379 31.28694 25.79260
39 32.86590 100.0000 86.76650 58.04055 80.05715 80.56513
40 43.64160 100.0000 100.0000 65.47896 83.61322 107.1631
41 0.000000 61.23770 40.99460 16.41928 25.16423 17.39803
42 0.000000 71.64360 79.55630 30.71372 39.19410 62.21680
43 0.000000 81.57090 100.0000 44.70690 53.71670 102.9772
44 0.000000 100.0000 100.0000 60.04778 80.59057 106.9436
45 16.35170 87.55600 87.64450 44.84701 59.47865 78.60000
46 24.58050 88.93720 100.0000 51.91185 64.27360 104.9916
47 0.000000 26.87630 100.0000 21.38761 12.86719 96.61732
48 0.000000 47.42060 100.0000 26.43646 21.83577 97.64575
49 0.000000 24.30980 75.34300 11.98189 8.100900 50.87236
50 14.71240 27.69520 88.28750 17.38309 11.36735 72.60571
51 19.74670 13.79330 86.62820 15.26716 8.030934 69.14216
52 35.12880 25.63770 100.0000 24.28396 14.18427 96.68306
53 60.88100 28.95240 100.0000 33.06930 19.87380 97.26432
54 15.29130 45.52690 45.04500 10.90061 14.09423 18.14903
55 36.05590 56.44970 49.98350 19.09748 23.71345 23.80803
56 44.64540 59.16060 60.35710 24.46744 28.04435 34.61042
57 56.18440 94.69490 59.85760 51.95523 71.40346 41.24687
58 0.000000 31.25000 0.000000 3.327994 5.723001 1.016433
59 0.000000 36.88520 0.000000 4.566309 7.874214 1.340700
60 0.000000 43.10350 0.000000 6.366025 11.02756 1.800102
61 0.000000 50.00000 0.000000 8.664607 15.04237 2.394730
62 0.000000 57.69230 0.000000 11.91742 20.73073 3.267542
63 0.000000 66.32650 0.000000 16.34438 28.45121 4.449690
64 0.000000 76.08700 0.000000 22.11153 38.43392 6.135757
65 0.000000 81.68860 0.000000 25.98148 45.18234 7.226627
66 24.65280 82.42320 17.51790 29.08067 47.46774 11.31595
67 28.82400 18.62970 74.65300 13.14640 7.821482 49.48376
68 44.59760 32.95120 84.36190 22.18036 15.44418 66.43078
69 14.57610 8.675700 36.40090 3.130770 1.966298 10.84655
70 55.83750 12.51510 43.74700 13.17771 7.929870 16.16704
71 58.45760 12.11010 61.73440 17.48107 9.952182 33.13080
72 0.000000 0.000000 21.42860 0.861920 0.459419 3.940500
73 0.000000 0.000000 26.11940 1.174440 0.603571 5.533031
74 0.000000 0.000000 31.25000 1.606213 0.802227 7.733322
75 0.000000 0.000000 36.88520 2.189690 1.071852 10.69448
76 0.000000 0.000000 43.10350 2.958188 1.423417 14.59538
77 0.000000 0.000000 50.00000 4.113411 1.954010 20.44144
78 0.000000 0.000000 57.69230 5.445110 2.562729 27.17366
79 0.000000 0.000000 66.32650 7.490078 3.505492 37.54373
80 0.000000 0.000000 76.08700 10.26176 4.775041 51.57982
81 0.000000 0.000000 87.20930 13.81602 6.399137 69.62592
82 0.000000 0.000000 100.0000 18.91974 8.684383 95.54658
83 31.11780 43.66020 100.0000 27.77664 21.21095 98.12260
84 78.18210 0.000000 46.60270 23.51817 12.96341 18.76424
85 86.39850 16.69730 62.14020 32.99863 19.46479 34.31952
86 3.968300 3.968300 3.968300 0.374953 0.395320 0.458739
87 5.020100 5.020100 5.020100 0.461881 0.487644 0.555257
88 6.097600 6.097600 6.097600 0.579790 0.606262 0.694680
89 7.201600 7.201600 7.201600 0.653115 0.682227 0.785091
90 8.333300 8.333300 8.333300 0.784876 0.822472 0.951124
91 9.493700 9.493700 9.493700 0.932793 0.981958 1.114855
92 10.68380 10.68380 10.68380 1.110008 1.166922 1.363985
93 11.90480 11.90480 11.90480 1.322712 1.395820 1.634694
94 13.15790 13.15790 13.15790 1.576398 1.652678 1.969517
95 14.44440 14.44440 14.44440 1.842971 1.936940 2.225898
96 15.76580 15.76580 15.76580 2.073394 2.200648 2.465456
97 17.12330 17.12330 17.12330 2.424922 2.559337 2.953972
98 18.51850 18.51850 18.51850 2.739326 2.902412 3.334846
99 19.95310 19.95310 19.95310 3.213603 3.367359 3.832781
100 21.42860 21.42860 21.42860 3.623617 3.794582 4.507921
101 22.94690 22.94690 22.94690 4.085439 4.303385 4.931427
102 24.50980 24.50980 24.50980 4.533831 4.820489 5.314377
103 26.11940 26.11940 26.11940 5.399912 5.679570 6.284565
104 27.77780 27.77780 27.77780 5.945705 6.254984 6.963416
105 29.48720 29.48720 29.48720 6.654533 7.043618 7.765255
106 31.25000 31.25000 31.25000 7.527128 7.911186 8.796849
107 33.06880 33.06880 33.06880 8.497576 8.899209 9.861727
108 34.94620 34.94620 34.94620 9.356930 9.826693 10.86844
109 36.88520 36.88520 36.88520 10.65762 11.06003 12.22604
110 38.88890 38.88890 38.88890 11.77232 12.36696 13.59219
111 40.96050 40.96050 40.96050 13.10841 13.70016 15.06921
112 43.10350 43.10350 43.10350 14.71270 15.39713 16.76132
113 45.32160 45.32160 45.32160 16.32509 17.09680 18.73967
114 47.61910 47.61910 47.61910 17.94956 18.73181 20.79991
115 50.00000 50.00000 50.00000 20.24923 21.20781 23.35087
116 52.46910 52.46910 52.46910 22.51910 23.70617 25.58891
117 55.03140 55.03140 55.03140 24.69038 26.08091 28.25154
118 57.69230 57.69230 57.69230 27.57484 29.08686 31.44921
119 60.45750 60.45750 60.45750 30.63444 32.22610 35.19439
120 63.33330 63.33330 63.33330 33.50853 35.26566 38.45149
121 66.32650 66.32650 66.32650 37.46095 39.47014 42.80975
122 69.44440 69.44440 69.44440 41.57237 43.83304 47.71736
123 72.69500 72.69500 72.69500 46.00424 48.51542 52.72180
124 76.08700 76.08700 76.08700 50.87119 53.66844 58.51613
125 79.62960 79.62960 79.62960 56.62339 59.74127 64.71496
126 83.33330 83.33330 83.33330 62.63491 65.92763 71.74450
127 87.20930 87.20930 87.20930 69.17153 72.87881 79.34975
128 91.26980 91.26980 91.26980 77.00486 81.05435 88.97059
129 55.37750 0.000000 17.50980 9.855185 5.558202 3.336915
130 75.16160 0.000000 18.27990 18.72683 10.57902 4.330142
131 89.13920 16.30590 32.73970 30.29698 18.46785 10.73599
132 100.0000 31.81200 44.76270 42.31716 27.90183 19.70219
133 36.88520 0.000000 0.000000 4.161420 2.412106 0.427220
134 43.10350 0.000000 0.000000 5.630614 3.238017 0.495464
135 100.0000 32.09000 0.000000 39.16572 26.56429 3.320684
136 100.0000 54.36400 0.000000 46.04349 38.60276 5.229430
137 100.0000 76.60480 0.000000 57.83782 59.19572 8.631657
138 73.84060 100.0000 0.000000 59.02354 81.88765 13.28746
139 80.29270 100.0000 30.70610 64.43240 84.74744 21.42787
140 43.36610 100.0000 0.000000 47.26052 75.37004 12.44145
141 0.000000 73.40290 30.93540 22.08689 36.45150 13.56431
142 40.14330 80.07680 31.68820 31.19815 46.53206 15.65019
143 78.22080 88.29580 66.52260 58.26403 68.28154 47.70543
144 100.0000 0.000000 21.51790 36.40954 20.59672 6.794529
145 100.0000 0.000000 35.83500 37.51067 21.07622 12.49337
146 100.0000 28.99050 61.57670 44.73950 28.20197 34.97881
147 51.14510 28.99950 22.13850 11.44498 9.746418 5.236281
148 50.81810 31.37400 33.74220 12.88983 10.99483 10.36691
149 68.00180 36.32910 49.43080 22.96119 17.90030 21.69488
150 1.938000 1.938000 1.938000 0.238794 0.251470 0.286721
151 2.941200 2.941200 2.941200 0.286288 0.296866 0.340685
152 16.42870 12.24390 59.70550 7.288497 4.177443 30.22988
153 19.67950 27.15450 65.17980 10.69260 8.260487 36.82684
154 0.000000 13.94400 33.75180 2.605414 2.173484 9.410962
155 0.000000 32.71840 49.38640 7.470228 7.986110 20.79734
156 30.16560 45.57800 50.64030 13.70686 15.56537 22.83473
157 43.89970 47.82840 88.34310 27.43089 23.14340 74.16619
158 57.63790 48.52260 100.0000 37.18260 28.40926 98.86211
159 70.07160 62.71820 100.0000 48.83320 42.24247 101.1049
160 78.15780 100.0000 100.0000 79.75803 91.53811 107.5449
161 43.46940 55.24250 41.65030 19.04685 23.15624 17.36463
162 55.86650 67.43400 43.10790 29.48884 36.53853 20.38246
163 0.000000 87.20930 0.000000 29.99860 52.16068 8.415574
164 0.000000 100.0000 37.05830 43.81401 73.25014 23.50698
165 0.000000 100.0000 63.39900 48.16294 75.23712 45.93547
166 0.000000 100.0000 81.36340 53.07769 77.48480 71.08542
167 0.000000 19.90840 53.31310 6.016182 4.549511 23.66792
168 0.000000 39.91490 73.54630 14.86129 13.71837 49.61137
169 28.92020 40.35810 73.39050 17.20806 15.19941 49.24127
170 65.73370 63.37360 81.63240 40.15191 38.74589 64.69139
171 66.72700 75.33720 88.11540 49.32663 51.54728 78.29736
172 12.19140 21.93770 12.46780 2.439837 3.267487 2.086190
173 15.17000 32.30430 12.16440 4.456285 6.546599 2.571119
174 27.40230 34.56510 23.77930 7.051818 8.533985 6.019076
175 40.35720 44.00680 54.71030 16.18885 16.38888 26.86091
176 49.97180 45.86590 67.46680 22.18747 20.14055 41.36556
177 0.000000 2.941200 0.000000 0.186436 0.244513 0.181286
178 0.000000 6.097600 0.000000 0.324730 0.472017 0.258824
179 0.000000 9.493700 0.000000 0.490713 0.750158 0.315234
180 0.000000 13.15790 0.000000 0.769208 1.231978 0.391598
181 0.000000 21.42860 0.000000 1.629987 2.754924 0.589952
182 0.000000 26.11940 0.000000 2.407019 4.102422 0.769088
183 11.24920 26.82530 50.54600 6.988009 6.360126 21.65971
184 43.81620 32.97600 51.40810 13.56621 11.48628 22.91826
185 53.50060 35.16700 71.65690 21.64161 16.18469 46.64713
186 13.91340 21.67680 33.79010 3.937974 3.872861 9.592610
187 27.96570 32.69110 47.31270 9.299288 9.037875 19.35536
188 42.04920 56.70460 68.29640 24.49166 26.56271 43.48499
189 58.61230 69.23710 75.12340 38.33034 41.87666 55.72442
190 39.32700 26.07700 11.97960 7.024037 6.557725 2.435430
191 45.88710 49.65890 12.16000 15.16946 18.62005 4.648364
192 56.28040 49.77020 26.83670 19.58438 21.16093 8.878176
193 79.49250 78.28130 26.12100 45.82501 53.70757 13.80517
194 81.94780 89.21980 42.22360 56.93529 69.02102 25.47814
195 30.90970 58.30530 0.000000 14.93534 22.80204 3.475839
196 77.21010 60.97870 0.000000 33.11252 34.64964 4.954538
197 100.0000 100.0000 0.000000 76.36708 91.51616 14.38318
198 100.0000 100.0000 28.38070 77.72506 92.13708 21.22929
199 100.0000 100.0000 51.71140 80.65984 93.50104 36.12580
200 100.0000 100.0000 71.28500 85.08391 95.53033 58.52636
201 69.08600 84.90520 72.63590 52.53758 62.02846 54.80735
202 68.51150 84.54790 89.55640 57.24208 63.77653 81.70833
203 82.43810 88.37970 100.0000 71.90862 74.69187 105.4414
204 6.097600 0.000000 0.000000 0.288063 0.216685 0.158093
205 9.493700 0.000000 0.000000 0.426792 0.304413 0.196240
206 13.15790 0.000000 0.000000 0.651631 0.434717 0.230629
207 30.40380 39.82010 0.000000 7.992630 10.78140 1.690041
208 43.88090 39.79920 28.42450 12.23869 13.03689 8.123439
209 47.05100 70.52200 61.06510 31.39453 39.17377 36.80736
210 16.19310 38.27780 85.95330 19.06726 15.24003 69.21094
211 15.47590 52.23060 86.14750 23.51561 22.95018 70.78211
212 34.81380 60.79330 100.0000 35.63485 33.93733 99.67409
213 59.53990 74.59690 100.0000 50.75902 51.24905 102.2080
214 100.0000 0.000000 0.000000 35.50423 20.17435 2.202407
215 100.0000 30.92930 26.63700 40.07531 26.64230 9.146941
216 100.0000 67.05590 29.04390 53.67800 50.10062 14.21685
217 50.30230 15.21370 85.00030 21.18447 11.59048 66.46125
218 55.74670 56.61130 85.84110 33.98932 31.07210 71.29230
219 16.44740 75.16430 62.73520 28.91658 40.94250 39.39999
220 37.89970 76.17390 86.22470 39.56558 46.84667 74.87566
221 0.000000 0.000000 0.000000 0.105785 0.111305 0.121315
222 21.42860 0.000000 0.000000 1.381050 0.842646 0.277973
223 32.06520 15.46810 0.000000 3.873489 3.234260 0.604070
224 45.82480 15.95310 11.07120 7.484543 5.327006 2.009107
225 34.47470 0.000000 27.53400 4.597518 2.530770 6.265092
226 34.87140 13.22420 38.09900 6.401019 4.169013 11.84263
227 64.77750 22.23970 76.90150 25.27089 15.26093 53.98144
228 69.38500 36.59900 90.18260 34.64828 23.27291 77.35539
229 83.10630 51.26470 100.0000 51.11773 37.52698 99.66409
230 25.00640 20.43410 42.32950 6.038269 4.795555 14.92159
231 48.73780 22.06170 52.81230 13.05041 8.860408 23.58075
232 62.03950 36.25060 58.70340 22.16435 17.11255 30.91470
233 69.33570 47.54220 82.44810 35.11125 27.53811 64.73631
234 86.77670 47.19540 84.35940 45.96067 33.70444 68.81822
235 24.57560 0.000000 41.87140 4.388159 2.229181 13.95308
236 48.50720 0.000000 48.30140 10.61546 5.645314 19.21552
237 68.77400 0.000000 55.97980 20.17218 10.89180 27.19648
238 79.39610 0.000000 73.91050 30.13658 16.04216 49.36161
239 85.62690 25.04150 83.64280 39.30113 23.50070 65.95263
240 100.0000 31.19150 82.44390 51.07761 31.66047 64.94612
241 86.34780 36.03470 14.71280 30.43951 22.50372 5.639040
242 90.32800 48.84900 15.16930 36.86749 30.62559 7.074512
243 100.0000 51.70900 30.72890 46.44180 37.30257 12.67540
244 100.0000 52.93870 49.27170 49.29008 39.24184 24.80154
245 100.0000 67.13170 68.56820 60.22778 53.12505 47.27463
246 87.20930 0.000000 0.000000 25.75351 14.63176 1.612557
247 86.39210 19.03690 13.07400 27.31598 17.23523 4.069053
248 0.000000 0.000000 0.000000 0.105762 0.111242 0.121287
249 0.000000 0.000000 2.941200 0.138109 0.126312 0.288516
250 0.000000 0.000000 6.097600 0.194699 0.152358 0.575431
251 0.000000 0.000000 9.493700 0.265221 0.184753 0.936566
252 53.44080 42.92450 38.74500 17.22303 16.83489 14.32377
253 58.83990 67.78570 57.00970 33.15149 38.56485 31.97939
254 72.91740 100.0000 57.71560 64.09491 84.19947 40.78489
255 100.0000 100.0000 86.49890 89.88327 97.71531 82.64478
256 52.04920 23.12470 0.000000 10.10887 7.832298 1.113788
257 66.43860 33.07720 14.11090 18.02690 14.47548 4.087913
258 87.81080 59.17390 12.61970 39.63743 37.22584 7.590234
259 87.99540 71.42760 28.11160 47.13026 49.21002 13.85966
260 20.10040 65.04420 18.91550 17.58293 28.26207 7.987661
261 17.82260 84.65600 53.20340 33.82332 51.71606 31.40343
262 26.98890 87.66820 65.22220 39.73819 57.66303 44.46180
263 75.96910 78.73440 0.000000 42.94135 52.58171 7.910148
264 100.0000 84.15600 26.03070 64.45691 69.20113 16.29618
265 53.98010 60.25750 0.000000 22.24515 28.33520 4.143344
266 62.18300 62.86940 20.64060 27.55194 32.49218 9.087275
267 72.61770 69.66650 37.99210 37.78797 42.79073 18.08739
268 100.0000 85.33920 56.00650 69.28230 72.46276 36.89752
269 71.12830 56.20070 18.18200 28.04761 28.96509 7.556014
270 73.27400 57.22860 37.77940 31.64236 31.45261 16.17519
271 90.90510 62.20370 39.29820 45.11473 41.93744 18.24028
272 84.53110 50.61070 65.85620 40.12628 32.31033 40.81874
273 100.0000 51.55420 66.55210 52.16636 39.64733 42.73602
274 79.81850 21.71970 38.58110 25.09894 16.02987 13.49335
275 100.0000 54.23650 82.21820 57.94867 43.78735 66.48605
276 100.0000 64.37010 100.0000 69.66435 55.38438 102.5221
277 72.87510 51.54020 69.80320 34.52121 29.32564 45.90154
278 84.69130 64.34010 69.45150 47.54428 43.97890 47.38665
279 0.000000 100.0000 0.000000 41.58465 72.21769 11.96254
280 32.60690 100.0000 26.87670 45.89421 74.49746 18.40612
281 39.90080 100.0000 52.41820 50.65920 76.83318 34.74738
282 20.27650 49.47180 15.36100 10.13786 15.59479 4.876670
283 40.75420 62.37570 27.99080 20.25736 27.91030 10.56764
284 85.73460 71.78190 47.33970 48.46793 50.02040 25.64105
285 100.0000 72.85810 56.84360 61.04491 58.00864 34.74015
286 31.25000 0.000000 0.000000 2.851860 1.672305 0.355593
287 34.08700 0.000000 0.000000 3.432302 2.000359 0.385626
288 35.94710 0.000000 58.28910 9.346064 4.735751 28.69695
289 36.06990 31.67680 60.29640 13.23367 10.77866 32.24642
290 40.86230 71.82660 73.00660 33.52565 40.92949 52.23175
291 49.47780 86.59490 72.75130 45.85894 59.73737 54.85932
292 0.000000 42.43480 33.44120 7.925650 11.54083 10.57088
293 0.000000 50.78510 58.37380 14.53288 18.14575 30.83649
294 0.000000 55.14440 76.20450 20.87743 23.45537 54.18271
295 0.000000 64.73020 100.0000 34.28947 35.53956 99.91201
296 26.16140 74.40180 100.0000 41.64125 46.18209 101.6989
297 56.47820 87.62840 100.0000 58.71444 66.60955 104.8535
298 19.22320 50.22490 66.19990 17.05833 19.00923 40.01688
299 37.13860 54.58590 78.87100 25.41100 25.50600 58.40358
300 54.02540 88.27790 87.42630 53.33996 64.93375 78.80241
301 63.71270 100.0000 88.56070 67.86175 85.44770 83.68159
302 0.000000 27.13660 16.75930 3.035812 4.635439 3.144741
303 15.44170 33.30480 27.15890 5.602700 7.459399 6.954783
304 19.31920 62.83040 69.24760 23.57188 29.32067 45.72617
305 100.0000 100.0000 100.0000 95.01257 99.99131 108.8220
306 18.60190 41.88460 25.20550 8.054320 11.54514 6.989726
307 41.54760 49.89220 26.61610 14.73340 18.30639 8.626258
308 57.14070 54.32230 42.30190 23.62175 25.50002 18.05161
309 0.000000 0.000000 0.000000 0.105802 0.111267 0.121568
310 9.658200 11.50980 20.40830 1.594421 1.467422 3.716621
311 19.04970 11.18800 27.51010 2.800094 2.088868 6.309841
312 57.33100 52.49970 63.27430 26.34208 25.39323 36.79045
313 90.93770 64.20980 82.25910 55.77678 48.18104 67.19002
314 100.0000 75.69860 84.40330 70.00504 64.10101 72.72784
315 50.00000 0.000000 0.000000 7.635950 4.366095 0.597122
316 57.69230 0.000000 0.000000 10.29884 5.873787 0.741726
317 71.33700 0.000000 0.000000 16.25237 9.237891 1.055614
318 76.08700 0.000000 0.000000 18.66893 10.60215 1.201472
319 78.89500 29.95980 27.77650 24.65104 17.39915 8.229200
320 86.81280 37.12010 68.73170 38.14158 26.33199 43.29780
321 0.000000 0.000000 0.000000 0.105746 0.111302 0.121209
322 0.957900 0.957900 0.957900 0.169931 0.179300 0.200260
323 0.000000 16.31410 23.98720 1.927429 2.133815 4.977305
324 15.71200 39.91300 51.33350 10.30430 11.67727 23.03364
325 19.12750 39.85590 62.36580 12.90595 12.90697 34.60939
326 21.16760 63.57770 61.56720 22.20731 29.29897 35.65116
327 0.000000 57.26080 52.38510 16.06136 22.36981 25.46164
328 0.000000 80.21960 57.56340 30.54826 46.17816 34.85387
329 0.000000 78.39730 72.30790 32.60642 45.31476 52.19045
330 28.84830 84.22220 77.57600 40.67626 54.62370 61.44160
331 17.32670 66.20070 83.85410 29.74038 34.66868 68.62064
332 45.35070 68.33630 86.66610 37.04669 40.00595 73.96812
333 0.000000 33.06350 36.21570 5.682527 7.313781 11.12414
334 30.79410 42.97500 37.93230 11.20713 13.51139 13.35625
335 59.04310 82.28690 44.41050 40.65550 53.86313 24.41180
336 81.79900 84.25570 53.91850 54.89147 63.22493 33.06472
337 100.0000 83.75950 76.98230 73.34426 72.93251 62.56618
338 32.07760 27.07010 17.93180 6.012556 6.271364 3.737922
339 52.79700 71.01350 19.66980 28.38472 38.56471 9.961163
340 52.27570 79.60350 57.78570 38.27876 50.01363 35.06670
341 64.77410 81.15080 78.11230 49.28554 56.69094 61.87583
342 100.0000 0.000000 50.46370 39.62945 22.05813 23.15002
343 100.0000 0.000000 65.37160 42.68727 23.44008 38.73176
344 2.941200 0.000000 0.000000 0.175137 0.149231 0.131809
345 18.85780 0.000000 12.33090 1.324978 0.767537 1.454788
346 43.04390 0.000000 100.0000 24.08840 11.54187 96.16345
347 74.12410 0.000000 100.0000 36.29118 18.43534 96.56281
348 16.52790 11.04610 0.000000 1.372889 1.373130 0.395815
349 21.13820 20.09420 8.311000 2.835808 3.195307 1.339395
350 35.53660 23.13130 23.16110 6.295348 5.546704 5.040413
351 49.35330 25.56990 42.86750 12.29025 9.189798 15.22955
352 85.27200 29.48270 51.28400 31.56594 20.98551 23.84816
353 17.12330 0.000000 0.000000 0.958317 0.603805 0.250190
354 17.89000 7.724000 17.72730 1.747948 1.301319 2.794098
355 28.43950 16.69360 26.49750 4.479334 3.592392 6.214499
356 33.84430 28.60750 38.21700 8.271554 7.640577 12.22790
357 48.63020 36.48530 44.21140 14.60347 13.24690 17.29860
358 72.62430 69.00880 55.96430 40.18860 43.32975 32.31905
359 82.78600 70.02200 64.44440 48.34143 48.48847 41.52992
360 36.57410 0.000000 16.32310 4.403020 2.497656 2.569618
361 44.27600 13.81920 19.60610 7.237757 4.911329 3.854393
362 26.11940 0.000000 0.000000 2.084520 1.239945 0.314565
363 26.46630 9.370400 15.83620 2.806906 2.004558 2.336670
364 41.37490 16.32870 28.79920 7.285892 5.149855 7.097734
365 57.11900 16.08520 30.68830 12.65814 8.181441 8.149296
366 59.95540 100.0000 35.31090 54.89985 79.39912 23.46006
367 43.80750 77.45540 0.000000 28.71062 43.31590 6.686207
368 61.13830 85.66690 16.69510 41.17673 56.91128 12.43703
369 33.78510 35.57700 13.81460 7.937439 9.444815 3.326560
370 55.02440 37.24910 13.26610 14.15472 13.43955 3.857176
371 65.97160 41.08410 30.94400 21.03983 18.50118 10.23724
372 84.89430 46.25100 35.75330 33.66556 27.57627 13.84405
373 66.32650 0.000000 0.000000 13.95609 7.930576 0.923851
374 73.97690 25.11740 0.000000 19.95186 13.83129 1.727140
375 75.41430 42.08110 0.000000 24.36703 20.99605 2.806146
376 78.87630 60.91410 85.93000 47.18982 41.18576 72.94157
377 0.000000 15.40630 14.30400 1.263689 1.710227 2.047743
378 11.24390 24.45670 25.01690 3.427117 4.191971 5.621521
379 16.43260 30.69230 37.35890 6.046761 6.798945 11.88763
380 68.30620 37.06130 39.23030 21.82485 17.55844 14.54477
381 86.88740 40.43650 44.29040 34.52302 25.83318 19.07717
382 64.22030 18.93380 13.31190 14.58348 9.771229 3.010116
383 63.61100 21.07100 25.22660 15.06055 10.29601 6.239843
384 68.56590 19.27100 44.17510 19.44663 12.31743 16.93225
385 71.09250 22.34740 58.61390 23.44507 14.80980 29.97956
386 73.49130 31.52980 71.93060 29.53398 19.68724 46.80843
387 75.89100 67.47340 77.93730 46.34477 45.07179 60.04479
388 83.48640 86.06570 75.29090 62.27520 68.19557 59.77395
389 95.52850 95.52850 95.52850 85.76090 90.34226 98.17597
390 100.0000 100.0000 100.0000 95.01237 99.98288 108.7929
391 65.95400 50.43070 55.43880 27.56304 25.43972 28.43421
