Apple/MacBook Pro 13' (2013 Late)/Color LCD #1 2018-06-21 10-42 0.3127x 0.329y sRGB F-S XYZLUT+MTX/Color LCD #1 2018-06-21 10-42 0.3127x 0.329y sRGB F-S XYZLUT+MTX.ti1
CTI1   

DESCRIPTOR "Argyll Calibration Target chart information 1"
ORIGINATOR "Argyll targen"
CREATED "Thu Jun 21 10:51:04 2018"
APPROX_WHITE_POINT "95.304871 100.000000 106.396484"
COLOR_REP "RGB"
ACCURATE_EXPECTED_VALUES "true"
DARK_REGION_EMPHASIS "1.6"
WHITE_COLOR_PATCHES "4"
BLACK_COLOR_PATCHES "4"
SINGLE_DIM_STEPS "17"
COMP_GREY_STEPS "49"
OFPS_PATCHES "288"

NUMBER_OF_FIELDS 7
BEGIN_DATA_FORMAT
SAMPLE_ID RGB_R RGB_G RGB_B XYZ_X XYZ_Y XYZ_Z
END_DATA_FORMAT

NUMBER_OF_SETS 417
BEGIN_DATA
1 100.0000 100.0000 100.0000 95.30487 100.0000 106.3965
2 1.960800 1.960800 1.960800 1.142800 1.150200 1.163700
3 3.921600 3.921600 3.921600 1.285600 1.300500 1.327300
4 5.882400 5.882400 5.882400 1.449500 1.472900 1.515200
5 9.803900 9.803900 9.803900 1.914800 1.962400 2.048400
6 13.72600 13.72600 13.72600 2.581700 2.663900 2.812600
7 17.64700 17.64700 17.64700 3.469500 3.597900 3.830000
8 21.56900 21.56900 21.56900 4.595300 4.782200 5.120100
9 25.49000 25.49000 25.49000 5.974500 6.233200 6.700700
10 29.41200 29.41200 29.41200 7.621300 7.965600 8.587900
11 33.33300 33.33300 33.33300 9.548800 9.993300 10.79700
12 37.25500 37.25500 37.25500 11.76900 12.32900 13.34100
13 41.17600 41.17600 41.17600 14.29400 14.98500 16.23400
14 45.09800 45.09800 45.09800 17.13400 17.97300 19.48900
15 49.02000 49.02000 49.02000 20.29900 21.30300 23.11700
16 52.94100 52.94100 52.94100 23.80000 24.98600 27.12900
17 56.86300 56.86300 56.86300 27.64600 29.03200 31.53600
18 60.78400 60.78400 60.78400 31.84600 33.45000 36.34900
19 64.70600 64.70600 64.70600 36.40900 38.25000 41.57800
20 68.62700 68.62700 68.62700 41.34300 43.44000 47.23200
21 72.54900 72.54900 72.54900 46.65600 49.03000 53.32100
22 76.47100 76.47100 76.47100 52.35600 55.02700 59.85300
23 80.39200 80.39200 80.39200 58.45200 61.43900 66.83800
24 84.31400 84.31400 84.31400 64.94900 68.27500 74.28500
25 88.23500 88.23500 88.23500 71.85700 75.54100 82.20000
26 92.15700 92.15700 92.15700 79.18100 83.24600 90.59400
27 96.07800 96.07800 96.07800 86.92900 91.39700 99.47200
28 0.000000 100.0000 64.74400 44.80364 74.76261 48.06117
29 0.000000 100.0000 100.0000 55.96226 79.09889 105.1931
30 69.82090 67.60500 15.77840 33.35834 39.37858 7.715688
31 85.11350 68.92700 21.84750 43.57836 45.71824 9.954344
32 90.05220 80.07730 41.66470 56.37989 61.80374 21.93465
33 40.03160 30.39870 0.000000 8.025865 8.248916 1.258552
34 62.25600 35.21910 13.52980 17.58680 14.65988 3.451503
35 78.29710 50.05980 30.08970 31.54207 27.89866 10.49973
36 83.49030 67.17860 53.51700 45.38948 44.86433 29.67238
37 0.000000 87.20930 0.000000 28.63762 54.64417 8.981283
38 0.000000 100.0000 0.000000 37.71517 72.00800 11.76836
39 42.69370 100.0000 0.000000 43.49265 75.07734 11.94508
40 48.82930 100.0000 29.34190 46.80434 76.64829 18.76849
41 78.79340 100.0000 33.41390 61.54747 84.42802 21.09904
42 0.000000 43.10350 0.000000 6.035286 11.40967 2.041705
43 0.000000 52.79490 25.78660 10.34504 18.07479 8.349961
44 0.000000 57.26880 47.00000 14.58508 22.43016 21.50903
45 0.000000 57.00850 59.87270 16.92033 23.17259 33.98669
46 21.37660 65.74340 72.30670 25.44177 32.66076 51.28931
47 89.64790 67.13960 81.74890 57.79866 50.34619 68.69779
48 100.0000 75.06930 83.30110 72.39860 64.34606 73.59127
49 50.93860 0.000000 21.56610 9.422689 4.959075 4.291522
50 58.32120 12.11070 33.60360 13.89604 7.918017 9.492485
51 86.23690 16.59440 47.88000 31.86946 17.71288 20.03191
52 100.0000 33.87140 62.51420 49.56920 30.35054 36.03719
53 100.0000 88.27730 84.55120 82.13315 82.19751 79.00858
54 100.0000 100.0000 100.0000 95.30487 100.0000 106.3965
55 0.000000 17.12330 0.000000 1.092800 1.955521 0.524217
56 0.000000 21.42860 0.000000 1.580045 2.887541 0.673815
57 0.000000 26.11940 0.000000 2.244680 4.158875 0.877878
58 0.000000 31.25000 0.000000 3.144868 5.880786 1.154262
59 0.000000 36.88520 0.000000 4.367483 8.219445 1.529641
60 0.000000 46.69320 0.000000 7.157298 13.55590 2.386195
61 0.000000 50.00000 0.000000 8.283834 15.71077 2.732075
62 0.000000 57.69230 0.000000 11.26376 21.41088 3.647001
63 0.000000 66.32650 0.000000 15.17621 28.89473 4.848235
64 0.000000 76.08700 0.000000 20.80665 39.66482 6.576945
65 28.13480 77.90200 13.55690 24.79809 43.34769 8.651424
66 59.67860 89.31030 18.17420 42.77806 64.12504 12.58026
67 64.48990 100.0000 51.53460 56.38250 81.31115 34.24593
68 84.23250 100.0000 63.03080 70.03241 88.22535 46.70162
69 72.28420 0.000000 21.39830 19.33483 10.22650 4.540646
70 74.09130 0.000000 62.52630 26.14923 13.01681 34.35685
71 75.06890 23.13460 100.0000 40.05667 21.03600 94.77944
72 0.000000 0.000000 17.12330 0.626413 0.322467 2.720617
73 0.000000 0.000000 21.42860 0.873501 0.418486 3.985701
74 0.000000 0.000000 26.11940 1.201265 0.545857 5.663850
75 0.000000 0.000000 36.88520 2.195210 0.932107 10.75283
76 0.000000 0.000000 43.10350 3.010878 1.249079 14.92903
77 0.000000 0.000000 50.00000 4.166117 1.698009 20.84383
78 0.000000 0.000000 57.69230 5.621980 2.263763 28.29781
79 0.000000 0.000000 66.32650 7.624273 3.041861 38.54951
80 0.000000 0.000000 76.08700 10.38125 4.113233 52.66518
81 17.21500 15.93250 83.49560 14.92373 7.293581 66.92818
82 53.51650 32.70180 84.91060 26.51695 16.76619 70.86106
83 71.13080 43.93360 100.0000 42.36516 28.45201 96.08854
84 78.54270 77.26870 100.0000 61.80315 59.88374 100.9061
85 2.941200 2.941200 2.941200 0.299068 0.306384 0.409303
86 3.968300 3.968300 3.968300 0.376018 0.388514 0.497549
87 5.020100 5.020100 5.020100 0.466760 0.485087 0.604232
88 6.097600 6.097600 6.097600 0.574264 0.598819 0.731159
89 7.201600 7.201600 7.201600 0.698357 0.729852 0.877842
90 8.333300 8.333300 8.333300 0.841446 0.880189 1.047227
91 46.03340 8.239200 51.35280 11.50369 5.948505 22.39370
92 2.941200 0.000000 0.000000 0.201622 0.166138 0.233650
93 11.90480 11.90480 11.90480 1.403854 1.468318 1.710884
94 13.15790 13.15790 13.15790 1.642381 1.717225 1.991049
95 14.44440 14.44440 14.44440 1.910281 1.996197 2.304151
96 15.76580 15.76580 15.76580 2.209962 2.308288 2.653487
97 17.12330 17.12330 17.12330 2.544994 2.657667 3.042610
98 18.51850 18.51850 18.51850 2.917863 3.046196 3.472757
99 19.95310 19.95310 19.95310 3.331900 3.477986 3.948768
100 21.42860 21.42860 21.42860 3.790936 3.957502 4.472942
101 22.94690 22.94690 22.94690 4.297641 4.487645 5.050073
102 24.50980 24.50980 24.50980 4.857485 5.074990 5.683133
103 26.11940 26.11940 26.11940 5.473883 5.723067 6.376275
104 27.77780 27.77780 27.77780 6.151211 6.438017 7.134328
105 29.48720 29.48720 29.48720 6.895795 7.226544 7.962879
106 31.25000 31.25000 31.25000 7.712054 8.094883 8.866607
107 33.06880 33.06880 33.06880 8.607192 9.051383 9.854771
108 34.94620 34.94620 34.94620 9.596760 10.11257 10.95152
109 36.88520 36.88520 36.88520 10.69190 11.28620 12.18129
110 38.88890 38.88890 38.88890 11.91157 12.59021 13.56976
111 40.96050 40.96050 40.96050 13.27576 14.04161 15.14077
112 43.10350 43.10350 43.10350 14.80306 15.65813 16.91934
113 45.32160 45.32160 45.32160 16.51620 17.45961 18.93201
114 47.61910 47.61910 47.61910 18.41486 19.44539 21.16603
115 50.00000 50.00000 50.00000 20.50066 21.62676 23.59467
116 52.46910 52.46910 52.46910 22.79333 24.02745 26.21147
117 55.03140 55.03140 55.03140 25.28516 26.64821 29.01480
118 57.69230 57.69230 57.69230 28.00186 29.52115 32.05735
119 60.45750 60.45750 60.45750 30.99195 32.67004 35.48511
120 63.33330 63.33330 63.33330 34.29099 36.11555 39.35550
121 66.32650 66.32650 66.32650 37.94733 39.92446 43.63357
122 69.44440 69.44440 69.44440 41.99842 44.19489 48.28356
123 72.69500 72.69500 72.69500 46.56328 49.10326 53.55570
124 76.08700 76.08700 76.08700 51.62661 54.57727 59.63981
125 79.62960 79.62960 79.62960 57.20636 60.56368 66.59648
126 83.33330 83.33330 83.33330 63.70663 67.50435 74.94783
127 87.20930 87.20930 87.20930 71.00493 75.09507 83.66686
128 91.26980 91.26980 91.26980 78.65125 82.93250 91.71721
129 95.52850 95.52850 95.52850 86.89971 91.41208 99.21175
130 67.27210 41.83540 0.000000 21.44372 19.08632 2.411124
131 100.0000 55.68760 0.000000 49.78002 40.73132 4.596691
132 100.0000 77.07870 0.000000 60.78178 61.77584 7.974552
133 100.0000 83.09200 29.48710 66.28894 70.27799 16.08211
134 71.38150 0.000000 40.04350 20.55066 10.62857 13.27771
135 71.17710 15.08520 48.88170 22.58543 12.56197 20.60363
136 70.82890 0.000000 81.56850 30.00399 14.25927 63.20902
137 85.99850 9.517600 88.66730 42.42432 20.95141 77.66089
138 60.96750 17.55420 60.77350 19.97554 11.17123 32.37998
139 88.84940 15.62180 61.61180 36.56851 19.69930 33.80788
140 0.000000 0.000000 0.000000 0.140309 0.133565 0.231774
141 6.097600 0.000000 0.000000 0.309712 0.223562 0.236956
142 46.27060 22.27960 10.87970 8.798664 6.842937 2.039460
143 48.53520 30.01960 24.25170 11.49901 9.864933 6.044002
144 34.09090 21.74970 31.30110 6.765017 5.485688 8.439672
145 33.86910 61.35540 51.26870 20.71174 28.01562 26.03349
146 57.37020 70.27420 72.52750 37.51739 42.33194 52.63598
147 63.91860 75.29870 85.87830 48.30996 51.60182 78.12102
148 85.87180 100.0000 85.35550 78.32426 91.62531 82.81588
149 39.95800 72.34370 49.65120 27.45645 39.40207 26.30440
150 56.45440 86.71680 53.35290 43.66363 61.47847 32.96952
151 0.000000 74.48980 31.54960 21.31459 38.32716 14.02471
152 16.10350 86.97750 47.53850 32.92617 56.18173 27.34666
153 37.23070 86.04890 54.29040 36.97277 57.23303 33.53080
154 0.000000 16.55260 55.60670 6.105917 3.817734 26.46252
155 17.60710 20.51090 68.58750 10.54517 6.343520 41.94262
156 26.28130 30.63410 85.21940 18.88332 12.12924 71.13621
157 46.46670 69.26030 84.43580 36.99735 40.67622 73.88099
158 54.54900 88.81320 85.06960 53.32855 67.38525 79.28256
159 34.82730 0.000000 81.60300 16.15830 6.901634 62.85636
160 53.24710 17.31200 86.88300 24.84637 12.56112 74.03148
161 58.02360 0.000000 100.0000 29.78498 13.27951 94.00512
162 0.000000 100.0000 80.17360 49.36488 76.53513 71.41464
163 34.39720 100.0000 85.40710 55.16800 79.32045 82.21063
164 64.00790 100.0000 85.24550 65.51400 84.82591 82.20404
165 13.04870 53.24260 36.65190 12.09711 19.09878 13.50357
166 19.42650 65.20310 37.53790 17.98647 29.33078 15.62537
167 18.80510 71.09870 56.85460 24.19385 36.45357 32.87147
168 86.29030 81.34440 59.03060 57.30288 63.08931 37.98335
169 89.49030 85.40260 74.23370 66.80360 71.73991 58.91225
170 75.43400 61.51770 34.77210 34.95906 36.03097 14.12502
171 92.16280 66.59020 40.55910 49.94869 47.18914 18.71852
172 53.69860 49.47040 0.000000 17.71118 20.46087 2.968760
173 79.05840 59.78810 0.000000 34.46019 34.97475 4.604756
174 31.63090 38.70520 28.84690 9.252040 11.25668 8.314096
175 34.04460 53.10590 54.14760 17.86096 21.69481 27.72853
176 35.59280 52.44000 81.34920 25.25887 24.23386 65.11272
177 74.27290 51.77030 84.97090 42.05162 32.60277 72.97621
178 0.000000 0.000000 13.15790 0.444362 0.251721 1.788519
179 12.83000 4.675300 14.96540 1.216812 0.820859 2.240769
180 25.97200 25.40100 14.38090 4.633062 5.223049 2.729550
181 72.78020 25.62300 26.37850 21.98390 14.38442 6.961035
182 83.53620 39.82710 40.38560 32.74742 23.97160 15.25589
183 100.0000 0.000000 0.000000 39.48292 21.03467 1.435178
184 100.0000 0.000000 24.54190 40.42696 21.40153 6.268675
185 100.0000 0.000000 80.21490 51.14809 25.56780 61.16059
186 100.0000 0.000000 100.0000 57.73001 28.12556 94.85990
187 100.0000 41.66730 100.0000 63.20842 38.60485 96.54193
188 0.000000 0.000000 31.25000 1.628236 0.711779 7.849931
189 14.66180 8.887600 33.16600 2.848208 1.770058 8.881645
190 17.65770 24.03670 53.40650 7.607182 5.911905 24.63261
191 43.37550 39.16670 61.51530 17.22945 14.94152 34.20626
192 46.09110 85.76510 72.38520 43.52994 59.82055 55.47012
193 77.66050 31.32330 0.000000 24.64090 17.32032 1.815696
194 100.0000 31.36710 0.000000 42.51011 26.82519 2.364615
195 76.08700 0.000000 0.000000 20.71933 11.06635 0.861241
196 87.20930 0.000000 0.000000 28.08750 14.98076 1.086617
197 88.28060 42.56230 12.23000 34.95996 26.51836 4.244696
198 100.0000 65.53200 50.13960 58.18326 50.63073 26.67375
199 9.493700 0.000000 0.000000 0.481225 0.314680 0.242202
200 13.15790 0.000000 0.000000 0.738254 0.451229 0.250064
201 17.12330 0.000000 0.000000 1.106399 0.646809 0.261325
202 21.42860 0.000000 0.000000 1.618007 0.918605 0.276974
203 100.0000 0.000000 42.79990 42.30834 22.13264 15.90128
204 100.0000 0.000000 60.20190 45.49857 23.37238 32.23520
205 91.71330 18.42680 31.39040 34.46026 19.65537 9.219160
206 100.0000 31.09380 45.96110 45.78143 28.01594 19.36788
207 100.0000 48.98280 45.69190 50.54912 37.20375 20.61691
208 63.43610 35.46660 28.59830 19.14231 15.43007 8.294472
209 64.15900 42.84200 42.67830 22.96594 19.89745 16.82664
210 0.957900 0.957900 0.957900 0.182044 0.179374 0.277420
211 1.938000 1.938000 1.938000 0.234330 0.236576 0.335432
212 0.000000 12.13760 16.94120 1.140404 1.319871 2.833514
213 11.16840 13.79580 24.30890 2.166834 1.976539 5.192973
214 30.86960 75.20780 31.05340 24.72735 40.77020 14.02616
215 50.30420 85.55080 34.64090 37.55688 57.47083 18.14898
216 0.000000 35.49160 23.44350 4.907400 7.931439 5.865934
217 20.81470 38.26150 43.12960 8.978563 10.72783 16.39369
218 26.91580 36.41180 48.98080 10.39785 10.71895 21.24717
219 25.67070 36.38560 68.13460 14.28838 12.19248 42.22946
220 59.07150 36.27120 71.31950 24.86968 17.65522 46.88619
221 82.07990 46.52000 72.00480 40.25789 29.78025 49.14646
222 86.02340 74.21130 69.01980 54.81051 54.93119 48.89060
223 88.63230 77.01370 81.97800 62.86297 61.06067 70.93130
224 25.59970 0.000000 42.86230 5.059677 2.342638 14.80916
225 25.86920 12.88550 54.03700 7.617903 4.225464 24.90174
226 59.65170 38.65130 59.39150 22.74990 17.75813 31.92532
227 0.000000 6.097600 0.000000 0.319056 0.475478 0.286655
228 0.000000 9.493700 0.000000 0.490243 0.802931 0.339214
229 0.000000 21.59970 17.88560 2.127959 3.133677 3.374245
230 0.000000 29.58850 56.14590 8.006517 7.294137 27.54853
231 23.04610 43.53220 64.65790 14.93067 15.30477 38.31697
232 12.70610 26.55790 44.47570 5.958912 5.788417 16.69832
233 12.60140 47.45490 43.95060 10.96279 15.49715 17.83959
234 81.76910 49.96320 56.08680 37.39642 30.42256 29.89191
235 92.13450 49.88220 66.72960 47.93552 35.63610 42.53892
236 100.0000 59.15870 65.65740 58.54807 46.35185 42.50032
237 100.0000 78.50960 68.42710 69.73059 66.66980 49.31976
238 20.45110 18.99650 0.000000 2.642031 3.052472 0.626411
239 21.15270 29.79360 0.000000 4.311246 6.120512 1.113920
240 22.83030 90.43110 27.27820 33.73050 60.32505 15.62422
241 38.25050 100.0000 49.30730 46.21118 75.96495 31.88671
242 39.24270 100.0000 69.38280 50.82482 77.79298 54.25466
243 67.52110 100.0000 71.61760 62.50343 83.91005 57.72608
244 100.0000 100.0000 80.73990 88.92293 97.51996 73.72110
245 26.11940 0.000000 0.000000 2.308555 1.285465 0.298096
246 36.58770 11.93310 14.12530 5.194421 3.472215 2.279940
247 51.35380 24.25640 33.10400 12.32175 8.886933 9.557930
248 68.00030 28.17090 37.57910 20.87526 14.21840 12.40742
249 32.44630 15.48240 0.000000 4.249721 3.415810 0.577390
250 54.29720 21.83610 0.000000 11.48593 8.221826 0.991161
251 85.00790 54.58100 13.19960 36.53038 33.04034 5.625729
252 100.0000 66.99270 27.69960 56.03372 50.88760 12.21943
253 100.0000 83.11750 56.09450 70.13861 71.80304 35.70058
254 0.000000 85.76090 100.0000 45.84163 59.73982 102.0858
255 40.46060 86.00130 100.0000 51.17363 62.81407 102.2972
256 77.42790 100.0000 100.0000 77.30966 90.43988 105.8461
257 100.0000 100.0000 100.0000 95.30487 100.0000 106.3965
258 42.90820 31.26580 15.26840 9.383364 9.142860 3.358261
259 57.88560 43.59390 18.99870 18.10853 17.94309 5.441077
260 62.97080 47.97230 36.56190 23.22653 22.39175 13.26805
261 84.13590 55.49460 48.29600 39.66104 34.71741 23.21608
262 32.87580 44.04490 0.000000 9.719564 13.75907 2.232853
263 32.77450 59.86970 0.000000 15.57718 24.99205 4.036982
264 58.42970 68.83710 0.000000 28.03436 37.50204 5.596962
265 62.27010 79.01420 30.20260 37.39357 50.89806 14.70886
266 15.71940 55.33310 73.46740 20.53961 23.65693 51.60227
267 21.73560 62.21560 88.53950 29.65123 31.77992 80.56764
268 21.13210 68.94860 64.80190 25.06330 34.99314 41.67162
269 20.96590 86.95010 69.95550 38.29134 58.31593 52.08628
270 23.25260 89.62190 85.14020 45.69793 64.11124 79.34793
271 15.88140 37.87790 15.41130 5.853304 9.287432 3.688617
272 26.74310 47.81100 14.77840 10.17126 15.61556 4.479965
273 28.36150 49.59070 30.62310 12.11803 17.34357 10.09721
274 43.95280 53.62940 30.96260 17.24181 22.11734 10.81901
275 64.46290 65.30950 31.40370 30.53380 36.15715 12.82451
276 64.25090 60.28580 41.33830 29.23972 32.12832 17.81766
277 68.26310 59.83530 52.58460 32.97656 33.57318 27.46039
278 100.0000 60.97920 83.09320 64.83513 50.00590 70.86645
279 100.0000 64.72020 100.0000 71.98997 55.40248 99.23813
280 0.000000 0.000000 0.000000 0.140309 0.133565 0.231774
281 0.000000 2.941200 0.000000 0.207475 0.262044 0.252396
282 9.493700 9.493700 9.493700 1.005298 1.051717 1.241225
283 10.68380 10.68380 10.68380 1.192042 1.247320 1.461488
284 30.79340 11.49630 68.52390 11.65468 5.763612 41.65830
285 43.38880 38.84610 76.36310 21.16871 16.34627 54.75478
286 0.000000 14.36900 34.36420 2.622972 2.162514 9.582682
287 0.000000 25.34790 35.47590 4.025205 4.668740 10.56899
288 0.000000 37.67400 39.48510 6.928419 9.507945 13.71541
289 0.000000 43.57420 57.81760 11.68379 13.81985 30.28258
290 21.16180 49.34790 58.20490 15.08366 18.20874 31.31134
291 42.65660 60.06590 100.0000 36.29659 33.51448 97.56096
292 24.83260 47.06090 89.90320 24.60177 20.79897 81.12145
293 54.75200 51.25650 92.17550 34.85506 28.15946 85.50973
294 73.67870 62.92420 100.0000 51.03848 43.11108 98.36501
295 21.12320 25.28410 34.07360 5.308327 5.357766 9.868734
296 48.93150 62.28910 46.28740 24.45322 30.70736 21.80061
297 53.78430 64.37530 57.20120 29.26778 34.31500 32.41411
298 69.02000 71.26870 59.29880 40.34057 45.09685 35.96115
299 80.20660 88.96340 67.15030 60.55369 72.21245 49.44567
300 0.000000 100.0000 27.85370 38.91243 72.47326 17.89830
301 0.000000 100.0000 48.25080 41.43073 73.45189 30.79194
302 44.58960 100.0000 100.0000 62.31107 82.47175 105.3873
303 0.000000 0.000000 87.20930 14.56044 5.737279 74.06251
304 0.000000 0.000000 100.0000 18.38740 7.224453 93.65650
305 0.000000 25.12670 100.0000 20.33898 10.95749 94.25569
306 0.000000 43.35710 100.0000 24.35830 18.64579 95.48974
307 0.000000 58.52830 100.0000 29.86566 29.18044 97.18066
308 0.000000 71.74850 100.0000 36.35781 41.59885 99.17394
309 0.000000 28.80050 77.31760 13.33482 9.149558 55.50879
310 3.008400 38.55180 77.02050 15.38879 13.14074 55.64971
311 74.25090 38.04790 84.31990 37.50596 24.32112 70.33184
312 88.96800 49.16350 87.30410 51.82866 36.37607 77.54954
313 17.38260 0.000000 19.78910 1.766866 0.907381 3.503334
314 30.96200 9.954400 35.93160 5.490800 3.219996 10.41903
315 42.56500 26.00580 49.27340 11.86322 8.688453 20.99512
316 42.78060 58.24770 66.26230 24.76952 27.84565 42.13167
317 44.46120 72.01900 66.93560 32.21878 41.13703 45.09522
318 43.96280 76.15750 79.27270 38.32639 47.41947 64.73481
319 0.000000 46.60050 76.11830 17.37822 17.48178 54.86233
320 0.000000 65.17960 79.24480 25.92933 32.22545 62.58164
321 26.98100 73.30870 87.87570 36.03486 43.25370 81.18371
322 44.81120 73.97590 100.0000 44.14347 47.62402 99.79005
323 75.78700 87.92270 100.0000 67.79957 73.54527 103.1856
324 88.86920 19.13910 78.35590 41.60442 22.20492 57.78287
325 100.0000 34.06260 79.65950 54.52440 32.33931 61.20828
326 16.98040 9.329400 0.000000 1.431819 1.289864 0.365356
327 22.70180 12.32440 12.94970 2.624108 2.152798 1.960650
328 22.35580 12.04560 24.81210 3.223615 2.348026 5.373175
329 27.33310 21.26880 41.73270 6.599717 5.145118 14.41601
330 41.58950 23.84800 61.54180 13.68707 8.866976 33.29014
331 76.61460 29.20130 68.20320 31.60400 19.33616 42.43863
332 86.82740 28.94940 89.18680 45.47898 25.62420 79.27353
333 86.12670 68.30320 90.96210 58.97256 51.30587 86.38099
334 0.000000 13.15790 0.000000 0.740382 1.281405 0.416014
335 30.43830 18.66200 12.02820 4.438761 3.918802 1.994805
336 41.95140 28.45220 30.65490 9.630457 8.411397 8.512783
337 61.99800 57.04260 68.57960 32.21906 31.01788 45.22833
338 77.10190 70.73090 82.88690 51.40109 49.55643 71.36986
339 38.14050 20.61960 100.0000 24.29406 12.21290 94.20743
340 41.01420 42.03860 100.0000 29.27779 20.72552 95.53341
341 66.28500 53.76280 15.56960 25.35386 26.64794 5.723907
342 75.08110 87.35860 13.19640 49.06114 65.59753 11.19075
343 84.28920 88.77680 38.47950 57.67576 71.28009 21.58955
344 100.0000 100.0000 59.85510 82.99685 95.21706 43.37968
345 44.22520 78.97990 0.000000 28.91610 46.56160 7.342944
346 75.33920 100.0000 0.000000 57.87166 82.71632 12.38490
347 100.0000 100.0000 0.000000 77.05778 92.90911 12.97176
348 0.000000 0.000000 0.000000 0.140309 0.133565 0.231774
349 0.000000 0.000000 2.941200 0.170589 0.145332 0.386806
350 20.08070 59.83370 18.62200 14.05255 24.07963 6.867726
351 43.56060 66.04940 31.37910 22.57412 32.42405 12.66873
352 62.57590 72.72150 47.70570 35.75880 44.18044 24.87888
353 73.99960 85.33840 47.84660 50.33953 63.78511 27.82240
354 91.41520 20.45910 11.43930 33.16556 19.46803 2.820746
355 100.0000 29.85410 26.30990 43.29912 26.69511 7.783259
356 100.0000 49.25550 24.68420 48.31877 36.48164 8.740921
357 100.0000 100.0000 33.18740 78.72603 93.55740 21.51315
358 0.000000 76.39780 54.16090 25.79845 41.90565 31.18447
359 0.000000 77.50340 75.01890 31.61059 45.24406 57.53291
360 21.00950 82.44000 87.75900 41.16905 54.36420 82.80299
361 58.60490 85.33120 93.08150 55.28129 64.59032 92.64712
362 91.55630 87.95800 98.40510 78.59433 79.37340 101.4193
363 14.39380 27.80140 28.19040 4.446555 5.533099 7.254667
364 20.13810 41.24160 32.93490 8.455060 11.71992 10.33447
365 37.19980 48.91110 42.96450 15.09506 18.39571 17.33920
366 72.56190 58.73020 61.24990 36.57219 34.57425 36.35889
367 89.55460 64.92780 64.88140 51.49468 46.23803 42.02129
368 57.69230 0.000000 0.000000 11.39673 6.113638 0.576083
369 58.63230 14.36920 12.18060 12.76460 7.767027 2.163461
370 72.92710 27.04230 14.16080 21.55518 14.57274 3.270219
371 88.01120 40.63890 29.44540 35.25750 25.77327 9.508188
372 100.0000 100.0000 100.0000 95.30487 100.0000 106.3965
373 60.44080 26.97710 47.62100 18.44570 12.44111 19.76390
374 62.14590 38.48710 48.63690 21.78461 17.48030 21.42727
375 0.000000 0.000000 6.097600 0.226114 0.166909 0.671097
376 0.000000 0.000000 9.493700 0.314447 0.201236 1.123357
377 11.71760 20.13990 9.723100 2.091022 2.915016 1.567776
378 16.01210 30.25130 19.06060 4.398520 6.199409 4.147310
379 42.58940 33.06320 44.43900 12.33326 10.82673 17.19409
380 43.53050 45.58570 55.63330 17.89942 18.04546 28.44258
381 36.88520 0.000000 0.000000 4.409821 2.401781 0.362369
382 43.10350 0.000000 0.000000 6.037513 3.266507 0.412157
383 50.00000 0.000000 0.000000 8.331326 4.485115 0.482319
384 52.30970 14.24830 19.51380 10.51252 6.506308 3.878948
385 77.55030 13.78450 34.09950 23.96572 13.43764 10.08603
386 87.33940 37.52990 50.33770 36.66257 25.01029 23.35977
387 24.83560 0.000000 13.53040 2.424888 1.301717 1.926721
388 38.71740 0.000000 28.59970 6.107633 3.124217 6.819653
389 41.90060 0.000000 61.79070 12.06694 5.560133 33.04624
390 58.81680 13.41510 72.57260 21.65637 11.11486 47.65754
391 31.62070 37.39240 14.28840 7.993336 10.26565 3.463569
392 45.63740 43.32250 20.22240 13.44249 15.34137 5.639262
393 46.37810 53.86780 71.83760 25.58877 25.61134 49.17699
394 61.10710 54.47360 78.37820 33.71698 29.96135 59.97148
395 60.29600 67.88640 90.76750 43.99375 43.05701 85.54626
396 53.73630 0.000000 46.50600 13.18518 6.576516 18.01400
397 80.10740 34.39820 58.22980 32.31443 21.47867 30.68745
398 0.000000 0.000000 0.000000 0.140309 0.133565 0.231774
399 39.86760 34.25390 26.18960 9.831430 10.13624 6.956740
400 50.12770 49.58550 38.32130 18.59864 20.67102 14.32323
401 74.37610 53.18150 66.31290 36.55507 31.28241 41.99226
402 29.15680 0.000000 0.000000 2.828638 1.561763 0.314004
403 31.25000 0.000000 0.000000 3.219567 1.769448 0.325962
404 66.32650 0.000000 0.000000 15.42746 8.255001 0.699375
405 80.95320 13.80430 17.25270 24.73061 14.02669 3.671656
406 80.31470 79.63400 0.000000 46.17421 56.34013 7.992889
407 90.76990 87.44620 17.61060 60.22037 71.58265 12.59625
