Apple/MacBook Pro 13' (2013 Late)/Color LCD #1 2018-06-21 10-42 0.3127x 0.329y sRGB F-S XYZLUT+MTX/Color LCD #1 2018-06-21 10-42 0.3127x 0.329y sRGB F-S XYZLUT+MTX.cal
CAL    

DESCRIPTOR "Argyll Device Calibration Curves"
ORIGINATOR "Argyll dispcal"
CREATED "Thu Jun 21 10:50:07 2018"
DEVICE_CLASS "DISPLAY"
COLOR_REP "RGB"
VIDEO_LUT_CALIBRATION_POSSIBLE "YES"
TV_OUTPUT_ENCODING "NO"
DEVICE_TYPE "n"
TARGET_WHITE_XYZ "79.521793 83.666997 91.118192"
TARGET_GAMMA "sRGB"
DEGREE_OF_BLACK_OUTPUT_OFFSET "1.0"
BLACK_POINT_CORRECTION "0.0"
BLACK_NEUTRAL_BLEND_RATE "4.0"
BLACK_POINT_HACK "YES"
QUALITY "low"

BEGIN_ARGYLL_DISPCAL_ARGS
-v2 -d1 -c1 -yn -P0.501639344262,0.176923076923,1.49553571429 -ql -w0.3127,0.329 -gs -f1.0 -k0 -A4.0 -b
END_ARGYLL_DISPCAL_ARGS


NUMBER_OF_FIELDS 4
BEGIN_DATA_FORMAT
RGB_I RGB_R RGB_G RGB_B
END_DATA_FORMAT

NUMBER_OF_SETS 256
BEGIN_DATA
0.00000000 0.00000000 0.00000000 0.00000000
0.00392157 0.02153540 0.01973540 0.01988690
0.00784314 0.03642580 0.03406420 0.03414430
0.01176470 0.04739970 0.04500140 0.04492630
0.01568630 0.05603600 0.05375960 0.05354240
0.01960780 0.06325170 0.06107840 0.06075010
0.02352940 0.06952710 0.06740420 0.06703090
0.02745100 0.07511640 0.07300350 0.07262770
0.03137250 0.08021340 0.07805460 0.07771820
0.03529410 0.08493790 0.08268880 0.08243810
0.03921570 0.08936790 0.08702090 0.08685820
0.04313730 0.09357980 0.09111700 0.09103690
0.04705880 0.09759840 0.09502440 0.09502150
0.05098040 0.10147300 0.09878220 0.09885550
0.05490200 0.10520700 0.10242600 0.10256800
0.05882350 0.10883200 0.10596700 0.10616900
0.06274510 0.11237500 0.10944200 0.10970600
0.06666670 0.11582600 0.11285600 0.11318300
0.07058820 0.11919200 0.11620600 0.11659200
0.07450980 0.12251000 0.11952200 0.11996400
0.07843140 0.12578500 0.12282700 0.12331200
0.08235290 0.12901400 0.12612000 0.12663800
0.08627450 0.13219300 0.12938800 0.12993700
0.09019610 0.13534800 0.13263500 0.13322000
0.09411760 0.13850900 0.13589400 0.13652100
0.09803920 0.14167600 0.13916700 0.13984200
0.10196100 0.14485000 0.14245300 0.14318300
0.10588200 0.14802300 0.14574500 0.14652800
0.10980400 0.15119000 0.14903200 0.14986900
0.11372500 0.15436700 0.15231500 0.15321700
0.11764700 0.15757800 0.15561300 0.15658600
0.12156900 0.16081400 0.15893200 0.15996500
0.12549000 0.16407500 0.16227600 0.16335000
0.12941200 0.16736100 0.16564400 0.16674200
0.13333300 0.17067600 0.16903900 0.17013700
0.13725500 0.17400100 0.17243600 0.17352000
0.14117600 0.17733800 0.17583100 0.17690000
0.14509800 0.18070400 0.17923100 0.18029900
0.14902000 0.18410100 0.18263800 0.18371200
0.15294100 0.18753000 0.18603900 0.18714100
0.15686300 0.19099400 0.18945900 0.19060300
0.16078400 0.19449000 0.19290300 0.19409500
0.16470600 0.19801100 0.19636900 0.19762000
0.16862700 0.20156100 0.19985800 0.20118200
0.17254900 0.20513600 0.20337400 0.20475300
0.17647100 0.20869600 0.20688000 0.20831200
0.18039200 0.21223600 0.21036300 0.21186100
0.18431400 0.21575500 0.21382000 0.21541500
0.18823500 0.21927900 0.21727000 0.21898500
0.19215700 0.22281200 0.22072100 0.22256900
0.19607800 0.22634500 0.22416600 0.22614100
0.20000000 0.22984800 0.22758300 0.22967300
0.20392200 0.23332300 0.23096100 0.23319500
0.20784300 0.23680700 0.23432500 0.23671500
0.21176500 0.24030500 0.23769700 0.24024500
0.21568600 0.24382300 0.24108400 0.24378300
0.21960800 0.24736300 0.24449100 0.24733300
0.22352900 0.25093500 0.24792100 0.25091800
0.22745100 0.25456600 0.25140800 0.25452300
0.23137300 0.25821700 0.25493300 0.25810600
0.23529400 0.26186200 0.25846000 0.26166500
0.23921600 0.26550000 0.26198700 0.26520500
0.24313700 0.26913400 0.26552000 0.26872000
0.24705900 0.27276100 0.26904800 0.27223600
0.25098000 0.27641300 0.27259400 0.27576600
0.25490200 0.28009500 0.27616800 0.27932100
0.25882400 0.28382200 0.27977500 0.28291200
0.26274500 0.28759400 0.28342200 0.28652100
0.26666700 0.29136500 0.28709600 0.29010500
0.27058800 0.29508200 0.29075500 0.29364300
0.27451000 0.29875600 0.29436600 0.29716800
0.27843100 0.30243400 0.29795800 0.30071400
0.28235300 0.30611500 0.30155900 0.30427500
0.28627500 0.30979900 0.30517100 0.30784100
0.29019600 0.31346200 0.30879100 0.31138700
0.29411800 0.31711100 0.31240400 0.31492200
0.29803900 0.32075600 0.31602600 0.31845100
0.30196100 0.32440900 0.31967000 0.32198500
0.30588200 0.32807100 0.32333800 0.32552500
0.30980400 0.33174600 0.32703200 0.32907600
0.31372500 0.33547700 0.33077000 0.33267900
0.31764700 0.33924700 0.33458100 0.33630900
0.32156900 0.34302300 0.33841900 0.33993200
0.32549000 0.34677600 0.34224600 0.34353300
0.32941200 0.35050400 0.34605600 0.34711300
0.33333300 0.35421400 0.34984200 0.35067700
0.33725500 0.35789100 0.35360300 0.35420900
0.34117600 0.36155600 0.35734300 0.35772200
0.34509800 0.36522100 0.36108400 0.36123000
0.34902000 0.36885200 0.36481300 0.36471800
0.35294100 0.37243400 0.36849800 0.36816600
0.35686300 0.37601400 0.37215700 0.37160600
0.36078400 0.37960600 0.37582700 0.37506500
0.36470600 0.38320600 0.37949800 0.37853800
0.36862700 0.38681400 0.38317400 0.38202700
0.37254900 0.39045400 0.38687900 0.38556000
0.37647100 0.39414500 0.39062900 0.38915700
0.38039200 0.39789600 0.39443600 0.39283100
0.38431400 0.40170500 0.39829900 0.39658500
0.38823500 0.40550300 0.40216800 0.40037400
0.39215700 0.40922500 0.40596500 0.40411200
0.39607800 0.41286500 0.40968200 0.40779200
0.40000000 0.41645000 0.41333700 0.41143500
0.40392200 0.42001100 0.41696600 0.41506900
0.40784300 0.42355100 0.42058300 0.41870100
0.41176500 0.42709100 0.42420100 0.42234200
0.41568600 0.43066700 0.42785000 0.42603200
0.41960800 0.43427000 0.43151600 0.42975100
0.42352900 0.43789800 0.43519700 0.43349700
0.42745100 0.44156000 0.43890800 0.43727900
0.43137300 0.44526600 0.44265300 0.44111300
0.43529400 0.44898500 0.44639000 0.44496000
0.43921600 0.45268600 0.45010300 0.44878900
0.44313700 0.45639900 0.45382700 0.45263000
0.44705900 0.46015100 0.45757500 0.45651200
0.45098000 0.46393900 0.46133800 0.46042300
0.45490200 0.46773500 0.46509300 0.46433300
0.45882400 0.47154700 0.46884900 0.46824500
0.46274500 0.47535700 0.47259800 0.47213600
0.46666700 0.47916100 0.47634300 0.47600300
0.47058800 0.48294900 0.48008700 0.47983700
0.47451000 0.48671500 0.48382800 0.48363300
0.47843100 0.49045900 0.48756600 0.48739200
0.48235300 0.49419400 0.49131300 0.49112800
0.48627500 0.49794200 0.49509400 0.49485800
0.49019600 0.50175500 0.49897300 0.49864500
0.49411800 0.50563000 0.50289300 0.50244900
0.49803900 0.50948800 0.50680300 0.50621400
0.50196100 0.51332800 0.51070000 0.50994000
0.50588200 0.51714800 0.51458400 0.51362700
0.50980400 0.52095300 0.51845700 0.51728100
0.51372500 0.52474800 0.52231600 0.52091000
0.51764700 0.52854400 0.52616000 0.52451700
0.52156900 0.53234700 0.52999300 0.52811700
0.52549000 0.53617000 0.53380400 0.53171600
0.52941200 0.54000800 0.53760200 0.53532600
0.53333300 0.54389200 0.54140500 0.53897900
0.53725500 0.54781300 0.54519600 0.54266500
0.54117600 0.55172300 0.54893900 0.54635400
0.54509800 0.55564000 0.55264400 0.55006700
0.54902000 0.55959100 0.55634100 0.55383500
0.55294100 0.56356900 0.56003200 0.55765000
0.55686300 0.56758800 0.56373600 0.56152100
0.56078400 0.57165800 0.56746400 0.56545800
0.56470600 0.57573200 0.57118700 0.56942300
0.56862700 0.57972400 0.57484900 0.57333900
0.57254900 0.58363900 0.57844900 0.57721100
0.57647100 0.58751100 0.58202100 0.58106400
0.58039200 0.59134600 0.58559100 0.58490300
0.58431400 0.59513100 0.58915300 0.58870600
0.58823500 0.59887300 0.59270500 0.59247300
0.59215700 0.60259100 0.59626800 0.59622300
0.59607800 0.60627400 0.59984300 0.59995000
0.60000000 0.60991300 0.60341000 0.60364000
0.60392200 0.61350900 0.60696700 0.60729900
0.60784300 0.61707600 0.61051800 0.61093900
0.61176500 0.62059100 0.61405600 0.61453200
0.61568600 0.62405800 0.61756400 0.61806800
0.61960800 0.62750000 0.62105200 0.62157000
0.62352900 0.63094500 0.62454900 0.62506600
0.62745100 0.63438800 0.62805900 0.62855300
0.63137300 0.63783200 0.63157700 0.63203100
0.63529400 0.64130500 0.63513300 0.63553000
0.63921600 0.64481500 0.63873900 0.63905900
0.64313700 0.64839100 0.64241500 0.64264300
0.64705900 0.65206000 0.64618200 0.64631200
0.65098000 0.65584600 0.65006100 0.65008500
0.65490200 0.65976400 0.65406800 0.65397400
0.65882400 0.66382200 0.65821300 0.65798600
0.66274500 0.66801800 0.66250200 0.66211100
0.66666700 0.67218200 0.66678400 0.66619100
0.67058800 0.67622300 0.67093000 0.67015100
0.67451000 0.68013800 0.67494100 0.67399400
0.67843100 0.68393800 0.67882600 0.67773200
0.68235300 0.68764600 0.68260200 0.68138200
0.68627500 0.69128000 0.68629500 0.68496100
0.69019600 0.69486100 0.68992700 0.68849600
0.69411800 0.69840800 0.69351400 0.69200400
0.69803900 0.70193700 0.69707200 0.69551000
0.70196100 0.70546800 0.70063300 0.69902900
0.70588200 0.70898900 0.70419200 0.70254800
0.70980400 0.71249200 0.70774600 0.70606000
0.71372500 0.71602200 0.71133200 0.70960400
0.71764700 0.71958200 0.71494200 0.71317200
0.72156900 0.72316700 0.71857800 0.71675800
0.72549000 0.72679300 0.72225200 0.72037700
0.72941200 0.73044800 0.72594200 0.72401000
0.73333300 0.73409300 0.72962200 0.72763700
0.73725500 0.73773900 0.73330000 0.73126700
0.74117600 0.74138100 0.73697300 0.73489700
0.74509800 0.74502200 0.74063800 0.73852700
0.74902000 0.74868800 0.74432200 0.74218500
0.75294100 0.75240000 0.74804200 0.74588500
0.75686300 0.75613500 0.75177500 0.74959500
0.76078400 0.75988400 0.75551700 0.75331100
0.76470600 0.76364200 0.75926500 0.75703300
0.76862700 0.76740800 0.76302100 0.76077100
0.77254900 0.77119400 0.76678400 0.76453200
0.77647100 0.77497400 0.77053400 0.76827800
0.78039200 0.77875300 0.77429300 0.77201700
0.78431400 0.78255800 0.77808300 0.77577700
0.78823500 0.78638800 0.78190500 0.77956200
0.79215700 0.79027200 0.78578500 0.78339700
0.79607800 0.79423000 0.78974000 0.78730200
0.80000000 0.79827800 0.79377600 0.79129000
0.80392200 0.80239400 0.79784000 0.79532900
0.80784300 0.80644700 0.80183100 0.79930500
0.81176500 0.81042100 0.80574700 0.80321200
0.81568600 0.81433800 0.80960700 0.80706900
0.81960800 0.81822200 0.81343200 0.81089200
0.82352900 0.82210700 0.81725500 0.81471700
0.82745100 0.82600100 0.82107300 0.81855000
0.83137300 0.82988400 0.82488000 0.82236700
0.83529400 0.83375800 0.82868100 0.82617400
0.83921600 0.83765000 0.83249000 0.82998800
0.84313700 0.84155900 0.83630600 0.83380900
0.84705900 0.84548400 0.84012500 0.83763800
0.85098000 0.84943700 0.84396600 0.84149600
0.85490200 0.85345000 0.84785000 0.84541400
0.85882400 0.85753500 0.85178200 0.84940100
0.86274500 0.86161600 0.85570300 0.85338500
0.86666700 0.86562300 0.85957300 0.85731400
0.87058800 0.86957700 0.86340900 0.86119800
0.87451000 0.87348600 0.86721500 0.86504400
0.87843100 0.87737000 0.87099700 0.86887600
0.88235300 0.88126800 0.87479000 0.87272800
0.88627500 0.88518900 0.87859700 0.87660600
0.89019600 0.88915200 0.88243100 0.88053500
0.89411800 0.89311400 0.88625900 0.88446900
0.89803900 0.89704000 0.89004200 0.88837400
0.90196100 0.90094000 0.89378600 0.89226300
0.90588200 0.90484900 0.89752300 0.89617100
0.90980400 0.90878600 0.90127700 0.90011300
0.91372500 0.91273200 0.90504300 0.90406700
0.91764700 0.91664800 0.90877900 0.90800800
0.92156900 0.92056000 0.91250400 0.91195500
0.92549000 0.92448800 0.91625900 0.91592000
0.92941200 0.92840000 0.92002800 0.91986000
0.93333300 0.93231000 0.92380500 0.92379000
0.93725500 0.93623400 0.92761700 0.92772100
0.94117600 0.94016500 0.93145300 0.93165200
0.94509800 0.94410400 0.93532400 0.93558000
0.94902000 0.94804500 0.93922800 0.93949700
0.95294100 0.95199200 0.94316800 0.94340900
0.95686300 0.95594800 0.94714400 0.94731700
0.96078400 0.95991000 0.95115300 0.95122000
0.96470600 0.96387600 0.95519100 0.95512000
0.96862700 0.96784700 0.95925000 0.95901800
0.97254900 0.97182000 0.96332600 0.96291500
0.97647100 0.97579700 0.96741800 0.96681200
0.98039200 0.97977600 0.97152800 0.97070700
0.98431400 0.98375800 0.97565400 0.97460200
0.98823500 0.98774300 0.97979800 0.97849500
0.99215700 0.99173100 0.98395900 0.98238800
0.99607800 0.99572100 0.98813800 0.98628000
1.00000000 0.99971500 0.99233400 0.99017100
END_DATA
CAL    

DESCRIPTOR "Argyll Calibration options and model"
ORIGINATOR "Argyll dispcal"
CREATED "Thu Jun 21 10:50:07 201"

NUMBER_OF_FIELDS 3
BEGIN_DATA_FORMAT
R_P G_P B_P
END_DATA_FORMAT

NUMBER_OF_SETS 32
BEGIN_DATA
-0.000172283 0.000596023 0.001452410
1.000172000 0.999404000 0.998548000
1.825334000 1.772116000 1.787506000
0.537433000 0.522155000 0.602899000
0.125969000 0.203613000 0.088042700
0.142316000 0.137601000 0.120911000
0.125516000 0.068378700 0.116365000
0.123692000 0.075257200 0.161077000
0.064423500 0.070316500 0.091930400
0.049033600 0.065092200 0.062967300
0.043532700 0.066292600 0.048045300
0.040378900 0.062036100 0.041925900
0.040575600 0.054442500 0.051300100
0.044126900 0.050429200 0.048102000
0.028856900 0.048528500 0.033448300
0.037713300 0.045355500 0.049821100
0.032317100 0.043041000 0.036617100
0.033786500 0.046103800 0.038733300
0.024874900 0.045968300 0.026117400
0.026769800 0.044231100 0.031231400
0.019887200 0.041720200 0.028959500
0.022799300 0.038070000 0.030030800
0.023257500 0.036473700 0.029764600
0.019896400 0.031700800 0.026577900
0.019881100 0.028511200 0.026055600
0.019438300 0.028999900 0.025064700
0.016371500 0.029286100 0.020920600
0.014963400 0.028961400 0.018660500
0.014482100 0.028417500 0.019556700
0.015103200 0.029543800 0.019431200
0.015079800 0.031231200 0.020335500
0.013243400 0.030003400 0.018718000
END_DATA