Apple/MacBook Pro 13' (2013 Late)/Color LCD #1 2018-06-21 10-42 0.3127x 0.329y sRGB F-S XYZLUT+MTX/Color LCD #1 2018-06-21 10-42 0.3127x 0.329y sRGB F-S XYZLUT+MTX.ti3
CTI3   

DESCRIPTOR "Argyll Calibration Target chart information 3"
ORIGINATOR "Argyll dispread"
CREATED "Thu Jun 21 10:51:10 2018"
DEVICE_CLASS "DISPLAY"
SINGLE_DIM_STEPS "17"
COMP_GREY_STEPS "49"
DARK_REGION_EMPHASIS "1.6"
COLOR_REP "RGB_XYZ"
TARGET_INSTRUMENT "X-Rite i1 DisplayPro, ColorMunki Display"
DISPLAY_TYPE_REFRESH "NO"
DISPLAY_TYPE_BASE_ID "1"
INSTRUMENT_TYPE_SPECTRAL "NO"
LUMINANCE_XYZ_CDM2 "79.991952 84.123970 91.697252"
NORMALIZED_TO_Y_100 "YES"
VIDEO_LUT_CALIBRATION_POSSIBLE "YES"

BEGIN_ARGYLL_COLPROF_ARGS
-v -qh -aX -bn -C "No copyright. Created with DisplayCAL 3.5.3.0 and ArgyllCMS 2.0.0" -M "Color LCD" -A "Apple Computer Inc"
END_ARGYLL_COLPROF_ARGS

OBSERVER "1931_2"
USE_BLACK_POINT_COMPENSATION "YES"
BLACK_POINT_CORRECTION "0.0"
HIRES_B2A "YES"
HIRES_B2A_SIZE "-1"
SMOOTH_B2A "YES"
PATCH_SEQUENCE "OPTIMIZE_DISPLAY_RESPONSE_DELAY"

NUMBER_OF_FIELDS 7
BEGIN_DATA_FORMAT
SAMPLE_ID RGB_R RGB_G RGB_B XYZ_X XYZ_Y XYZ_Z
END_DATA_FORMAT

NUMBER_OF_SETS 417
BEGIN_DATA
1 100.0000 100.0000 100.0000 95.08818 100.0000 109.0025
2 1.960800 1.960800 1.960800 0.207761 0.206993 0.308620
3 3.921600 3.921600 3.921600 0.391877 0.404112 0.522529
4 5.882400 5.882400 5.882400 0.570658 0.594747 0.722276
5 9.803900 9.803900 9.803900 1.036502 1.074144 1.230152
6 13.72600 13.72600 13.72600 1.717972 1.814811 2.025908
7 17.64700 17.64700 17.64700 2.556586 2.666068 3.016042
8 21.56900 21.56900 21.56900 3.652768 3.810441 4.320904
9 25.49000 25.49000 25.49000 4.993603 5.209237 5.882213
10 29.41200 29.41200 29.41200 6.750047 7.096363 7.758464
11 33.33300 33.33300 33.33300 8.631196 9.083828 9.937850
12 37.25500 37.25500 37.25500 10.83738 11.49836 12.34771
13 41.17600 41.17600 41.17600 13.37071 14.07361 15.36468
14 45.09800 45.09800 45.09800 16.17326 17.16407 18.55087
15 49.02000 49.02000 49.02000 19.36562 20.44544 22.20850
16 52.94100 52.94100 52.94100 22.94448 24.11891 26.42770
17 56.86300 56.86300 56.86300 26.97055 28.53643 30.78252
18 60.78400 60.78400 60.78400 31.06137 32.78063 35.79577
19 64.70600 64.70600 64.70600 35.62821 37.50165 40.84137
20 68.62700 68.62700 68.62700 40.64946 42.85126 46.79132
21 72.54900 72.54900 72.54900 45.44972 47.93063 52.23004
22 76.47100 76.47100 76.47100 51.13682 54.02629 58.57673
23 80.39200 80.39200 80.39200 57.51217 60.78103 65.60233
24 84.31400 84.31400 84.31400 64.14410 67.80717 73.30691
25 88.23500 88.23500 88.23500 71.30663 74.91023 81.68301
26 92.15700 92.15700 92.15700 79.03416 83.22252 90.74914
27 96.07800 96.07800 96.07800 87.13898 91.81906 98.90982
28 0.000000 100.0000 64.74400 43.54968 73.89555 47.22639
29 0.000000 100.0000 100.0000 55.20284 78.52611 107.2185
30 69.82090 67.60500 15.77840 32.78418 38.57349 7.225149
31 85.11350 68.92700 21.84750 43.70134 45.66402 9.680210
32 90.05220 80.07730 41.66470 55.95799 60.60344 21.92166
33 40.03160 30.39870 0.000000 7.841046 7.980480 1.146157
34 62.25600 35.21910 13.52980 17.56508 14.58703 3.358644
35 78.29710 50.05980 30.08970 31.61286 27.81168 10.51018
36 83.49030 67.17860 53.51700 45.42915 44.64660 29.37009
37 0.000000 87.20930 0.000000 26.65628 51.56321 8.102205
38 0.000000 100.0000 0.000000 36.53740 70.90068 11.22868
39 42.69370 100.0000 0.000000 42.52695 74.19969 11.43549
40 48.82930 100.0000 29.34190 46.16054 76.09643 18.57242
41 78.79340 100.0000 33.41390 61.22223 84.07948 21.10850
42 0.000000 43.10350 0.000000 5.636229 10.82013 1.835659
43 0.000000 52.79490 25.78660 9.763617 17.31641 7.925015
44 0.000000 57.26880 47.00000 13.94167 21.84654 20.88247
45 0.000000 57.00850 59.87270 16.23699 22.53911 33.43867
46 21.37660 65.74340 72.30670 24.65156 32.06623 49.74941
47 89.64790 67.13960 81.74890 57.48255 50.26465 65.81873
48 100.0000 75.06930 83.30110 70.87692 63.15862 70.12286
49 50.93860 0.000000 21.56610 9.275375 4.889554 4.100498
50 58.32120 12.11070 33.60360 14.03001 8.004037 9.542752
51 86.23690 16.59440 47.88000 32.27526 17.98948 19.96038
52 100.0000 33.87140 62.51420 49.53366 30.49241 36.23180
53 100.0000 88.27730 84.55120 79.87010 79.81582 75.68709
54 100.0000 100.0000 100.0000 95.08818 100.0000 109.0025
55 0.000000 17.12330 0.000000 1.024803 1.868249 0.484252
56 0.000000 21.42860 0.000000 1.424314 2.644927 0.601261
57 0.000000 26.11940 0.000000 2.049410 3.857224 0.782658
58 0.000000 31.25000 0.000000 2.882854 5.478339 1.029422
59 0.000000 36.88520 0.000000 4.070283 7.779782 1.375673
60 0.000000 46.69320 0.000000 6.538269 12.57465 2.101950
61 0.000000 50.00000 0.000000 7.719485 14.84976 2.447574
62 0.000000 57.69230 0.000000 10.62912 20.39220 3.294947
63 0.000000 66.32650 0.000000 14.20468 27.48970 4.370684
64 0.000000 76.08700 0.000000 19.31858 37.37612 5.896754
65 28.13480 77.90200 13.55690 23.64706 41.69296 8.064531
66 59.67860 89.31030 18.17420 41.23480 61.67150 11.72858
67 64.48990 100.0000 51.53460 55.66179 80.80043 34.00435
68 84.23250 100.0000 63.03080 70.05060 88.21920 46.83586
69 72.28420 0.000000 21.39830 19.15913 10.13677 4.421946
70 74.09130 0.000000 62.52630 25.85010 12.93563 33.82024
71 75.06890 23.13460 100.0000 40.50429 21.28456 97.21909
72 0.000000 0.000000 17.12330 0.569015 0.300984 2.523257
73 0.000000 0.000000 21.42860 0.800508 0.394148 3.734238
74 0.000000 0.000000 26.11940 1.120809 0.522099 5.382718
75 0.000000 0.000000 36.88520 2.059520 0.897076 10.24649
76 0.000000 0.000000 43.10350 2.846157 1.210259 14.32105
77 0.000000 0.000000 50.00000 3.922700 1.638872 19.91910
78 0.000000 0.000000 57.69230 5.329506 2.198891 27.19543
79 0.000000 0.000000 66.32650 7.250781 2.958345 37.17452
80 0.000000 0.000000 76.08700 9.760389 3.938960 50.18227
81 17.21500 15.93250 83.49560 14.08217 7.073535 63.27173
82 53.51650 32.70180 84.91060 25.64089 16.48434 67.31949
83 71.13080 43.93360 100.0000 43.07869 29.03110 98.66535
84 78.54270 77.26870 100.0000 61.89626 59.34024 103.1792
85 2.941200 2.941200 2.941200 0.273884 0.273351 0.382549
86 3.968300 3.968300 3.968300 0.391759 0.403863 0.521982
87 5.020100 5.020100 5.020100 0.511977 0.524505 0.643232
88 6.097600 6.097600 6.097600 0.607910 0.636093 0.765648
89 7.201600 7.201600 7.201600 0.669517 0.691293 0.816247
90 8.333300 8.333300 8.333300 0.821723 0.848162 0.996159
91 46.03340 8.239200 51.35280 11.30753 5.899140 21.95085
92 2.941200 0.000000 0.000000 0.191566 0.156826 0.222437
93 11.90480 11.90480 11.90480 1.357075 1.405910 1.652248
94 13.15790 13.15790 13.15790 1.646206 1.740917 1.944682
95 14.44440 14.44440 14.44440 1.867446 1.937941 2.221201
96 15.76580 15.76580 15.76580 2.102939 2.219057 2.445416
97 17.12330 17.12330 17.12330 2.492748 2.634175 2.910660
98 18.51850 18.51850 18.51850 2.776143 2.899519 3.278160
99 19.95310 19.95310 19.95310 3.178738 3.356593 3.700453
100 21.42860 21.42860 21.42860 3.652268 3.809418 4.319789
101 22.94690 22.94690 22.94690 4.151283 4.378700 4.846905
102 24.50980 24.50980 24.50980 4.514494 4.727298 5.294875
103 26.11940 26.11940 26.11940 5.330601 5.578982 6.265984
104 27.77780 27.77780 27.77780 6.050153 6.333048 7.085578
105 29.48720 29.48720 29.48720 6.750448 7.097303 7.761603
106 31.25000 31.25000 31.25000 7.597591 7.962426 8.917907
107 33.06880 33.06880 33.06880 8.416530 8.843354 9.687938
108 34.94620 34.94620 34.94620 9.472853 9.975480 10.89245
109 36.88520 36.88520 36.88520 10.68655 11.27705 12.05176
110 38.88890 38.88890 38.88890 11.78746 12.38787 13.58840
111 40.96050 40.96050 40.96050 13.09821 13.79923 15.11369
112 43.10350 43.10350 43.10350 14.69777 15.60382 16.80920
113 45.32160 45.32160 45.32160 16.38800 17.27376 18.89482
114 47.61910 47.61910 47.61910 18.07096 19.02508 20.73134
115 50.00000 50.00000 50.00000 20.36764 21.49238 23.28042
116 52.46910 52.46910 52.46910 22.52479 23.74767 26.05525
117 55.03140 55.03140 55.03140 24.97843 26.29830 28.37148
118 57.69230 57.69230 57.69230 27.87374 29.38895 31.70970
119 60.45750 60.45750 60.45750 30.89512 32.43288 35.31757
120 63.33330 63.33330 63.33330 34.27811 36.05108 39.06937
121 66.32650 66.32650 66.32650 37.46472 39.50164 43.07407
122 69.44440 69.44440 69.44440 41.66966 44.00868 48.10843
123 72.69500 72.69500 72.69500 45.49409 47.97769 52.40895
124 76.08700 76.08700 76.08700 50.65284 53.48836 57.84453
125 79.62960 79.62960 79.62960 56.23884 59.45095 64.41073
126 83.33330 83.33330 83.33330 62.84777 66.33178 71.88036
127 87.20930 87.20930 87.20930 69.28216 73.22092 79.35280
128 91.26980 91.26980 91.26980 77.59112 81.64127 88.85550
129 95.52850 95.52850 95.52850 86.33495 90.98876 98.14122
130 67.27210 41.83540 0.000000 21.38707 18.86161 2.238470
131 100.0000 55.68760 0.000000 49.37538 40.36758 4.362991
132 100.0000 77.07870 0.000000 59.61202 60.36674 7.428132
133 100.0000 83.09200 29.48710 65.00437 68.58840 15.77141
134 71.38150 0.000000 40.04350 20.48167 10.61045 13.33097
135 71.17710 15.08520 48.88170 22.67475 12.62516 20.47550
136 70.82890 0.000000 81.56850 29.38661 14.11324 60.21910
137 85.99850 9.517600 88.66730 42.05708 20.92097 73.92032
138 60.96750 17.55420 60.77350 19.86735 11.16037 32.31744
139 88.84940 15.62180 61.61180 37.14492 20.09352 33.99035
140 0.000000 0.000000 0.000000 0.123177 0.120341 0.220178
141 6.097600 0.000000 0.000000 0.319733 0.224710 0.226189
142 46.27060 22.27960 10.87970 8.650353 6.680440 1.994166
143 48.53520 30.01960 24.25170 11.42296 9.757000 5.808320
144 34.09090 21.74970 31.30110 6.662218 5.321132 8.466801
145 33.86910 61.35540 51.26870 20.21789 27.38331 25.63052
146 57.37020 70.27420 72.52750 37.12954 42.02008 51.75904
147 63.91860 75.29870 85.87830 47.07795 50.48951 74.11446
148 85.87180 100.0000 85.35550 77.67934 91.45000 79.75658
149 39.95800 72.34370 49.65120 26.55439 38.13862 25.70007
150 56.45440 86.71680 53.35290 42.32144 59.43454 32.51897
151 0.000000 74.48980 31.54960 20.07757 36.51549 13.38953
152 16.10350 86.97750 47.53850 31.26809 53.96760 26.56921
153 37.23070 86.04890 54.29040 35.26729 54.82861 32.41926
154 0.000000 16.55260 55.60670 5.836508 3.722549 25.64720
155 17.60710 20.51090 68.58750 10.30240 6.271155 41.41748
156 26.28130 30.63410 85.21940 17.81075 11.71749 66.90732
157 46.46670 69.26030 84.43580 35.93583 40.38857 69.82282
158 54.54900 88.81320 85.06960 50.94996 64.64040 75.19667
159 34.82730 0.000000 81.60300 15.43626 6.709428 59.63031
160 53.24710 17.31200 86.88300 24.09302 12.40039 70.21139
161 58.02360 0.000000 100.0000 30.29596 13.47806 96.34039
162 0.000000 100.0000 80.17360 47.63538 75.60091 68.42826
163 34.39720 100.0000 85.40710 53.72221 78.65524 78.55252
164 64.00790 100.0000 85.24550 64.41767 84.35451 78.48471
165 13.04870 53.24260 36.65190 11.63502 18.56176 13.06763
166 19.42650 65.20310 37.53790 17.43060 28.56678 15.47792
167 18.80510 71.09870 56.85460 23.39795 35.63610 32.30266
168 86.29030 81.34440 59.03060 56.79446 61.74385 38.12644
169 89.49030 85.40260 74.23370 65.88088 70.30094 57.89414
170 75.43400 61.51770 34.77210 34.64179 35.70408 14.19973
171 92.16280 66.59020 40.55910 49.98547 47.06383 18.96023
172 53.69860 49.47040 0.000000 17.16133 19.72489 2.699362
173 79.05840 59.78810 0.000000 34.06727 34.20378 4.237920
174 31.63090 38.70520 28.84690 9.076302 11.05524 8.176479
175 34.04460 53.10590 54.14760 17.33316 21.11070 27.04641
176 35.59280 52.44000 81.34920 24.40791 23.90444 62.04114
177 74.27290 51.77030 84.97090 41.24963 32.34130 69.60633
178 0.000000 0.000000 13.15790 0.408667 0.236426 1.701516
179 12.83000 4.675300 14.96540 1.205418 0.838796 2.142730
180 25.97200 25.40100 14.38090 4.413789 4.967147 2.630308
181 72.78020 25.62300 26.37850 21.84512 14.18375 6.816327
182 83.53620 39.82710 40.38560 33.27200 24.33284 15.64297
183 100.0000 0.000000 0.000000 39.24429 20.88804 1.411313
184 100.0000 0.000000 24.54190 40.22520 21.29310 6.209310
185 100.0000 0.000000 80.21490 50.57592 25.39744 59.18099
186 100.0000 0.000000 100.0000 58.05826 28.19656 97.51858
187 100.0000 41.66730 100.0000 63.69907 39.11829 99.19721
188 0.000000 0.000000 31.25000 1.556910 0.696763 7.643644
189 14.66180 8.887600 33.16600 2.795296 1.740470 8.816169
190 17.65770 24.03670 53.40650 7.314895 5.663256 24.15705
191 43.37550 39.16670 61.51530 17.17498 14.91134 34.22219
192 46.09110 85.76510 72.38520 42.24315 58.00039 54.66029
193 77.66050 31.32330 0.000000 24.44299 17.07979 1.682601
194 100.0000 31.36710 0.000000 42.26712 26.61265 2.270584
195 76.08700 0.000000 0.000000 20.42270 10.90543 0.818259
196 87.20930 0.000000 0.000000 28.09728 14.97893 1.049024
197 88.28060 42.56230 12.23000 35.27944 26.75730 4.101249
198 100.0000 65.53200 50.13960 57.78914 50.49516 26.71329
199 9.493700 0.000000 0.000000 0.474293 0.307080 0.230846
200 13.15790 0.000000 0.000000 0.729049 0.442516 0.238228
201 17.12330 0.000000 0.000000 1.067866 0.622194 0.248055
202 21.42860 0.000000 0.000000 1.539247 0.872951 0.261698
203 100.0000 0.000000 42.79990 42.13302 22.05376 15.98226
204 100.0000 0.000000 60.20190 45.32603 23.32853 32.62049
205 91.71330 18.42680 31.39040 34.82715 19.84267 9.431613
206 100.0000 31.09380 45.96110 45.65551 27.97611 19.61943
207 100.0000 48.98280 45.69190 50.49139 37.24532 21.10400
208 63.43610 35.46660 28.59830 19.27160 15.40142 8.151073
209 64.15900 42.84200 42.67830 22.89624 19.85489 16.85381
210 0.957900 0.957900 0.957900 0.138127 0.136160 0.236839
211 1.938000 1.938000 1.938000 0.207773 0.206934 0.308680
212 0.000000 12.13760 16.94120 1.043686 1.247307 2.593044
213 11.16840 13.79580 24.30890 2.073897 1.933179 4.886176
214 30.86960 75.20780 31.05340 23.71057 39.29236 13.63069
215 50.30420 85.55080 34.64090 35.99736 55.22342 17.61859
216 0.000000 35.49160 23.44350 4.649636 7.668406 5.500629
217 20.81470 38.26150 43.12960 8.728472 10.52080 16.17962
218 26.91580 36.41180 48.98080 10.22978 10.66169 20.88271
219 25.67070 36.38560 68.13460 14.01971 12.16639 41.82481
220 59.07150 36.27120 71.31950 24.87445 17.73925 46.11659
221 82.07990 46.52000 72.00480 40.40808 29.98688 48.56985
222 86.02340 74.21130 69.01980 54.49745 54.19486 48.76113
223 88.63230 77.01370 81.97800 61.99667 60.01223 68.17260
224 25.59970 0.000000 42.86230 4.842803 2.271597 14.36019
225 25.86920 12.88550 54.03700 7.418709 4.211543 24.30442
226 59.65170 38.65130 59.39150 22.80981 17.86468 31.72655
227 0.000000 6.097600 0.000000 0.309110 0.482442 0.274554
228 0.000000 9.493700 0.000000 0.431451 0.719524 0.310262
229 0.000000 21.59970 17.88560 1.941610 2.887874 3.162228
230 0.000000 29.58850 56.14590 7.612641 7.026173 26.62767
231 23.04610 43.53220 64.65790 14.58271 15.14029 37.84538
232 12.70610 26.55790 44.47570 5.777982 5.660113 16.26329
233 12.60140 47.45490 43.95060 10.55153 15.02396 17.38386
234 81.76910 49.96320 56.08680 37.75001 30.51823 29.68185
235 92.13450 49.88220 66.72960 48.15220 35.76707 42.34685
236 100.0000 59.15870 65.65740 58.22778 46.29954 42.38085
237 100.0000 78.50960 68.42710 68.74577 65.53314 49.18556
238 20.45110 18.99650 0.000000 2.454094 2.828069 0.564538
239 21.15270 29.79360 0.000000 4.025158 5.724320 0.996695
240 22.83030 90.43110 27.27820 32.05599 57.94895 15.05926
241 38.25050 100.0000 49.30730 45.41660 75.44724 31.68601
242 39.24270 100.0000 69.38280 50.13444 77.37118 54.18735
243 67.52110 100.0000 71.61760 62.05340 83.65863 57.49939
244 100.0000 100.0000 80.73990 87.83464 97.13574 72.01581
245 26.11940 0.000000 0.000000 2.188598 1.218020 0.280720
246 36.58770 11.93310 14.12530 5.137643 3.410166 2.197441
247 51.35380 24.25640 33.10400 12.20229 8.739981 9.437972
248 68.00030 28.17090 37.57910 20.99341 14.30426 12.58214
249 32.44630 15.48240 0.000000 4.116424 3.276369 0.530973
250 54.29720 21.83610 0.000000 11.18698 7.963551 0.912256
251 85.00790 54.58100 13.19960 36.74048 32.96475 5.424365
252 100.0000 66.99270 27.69960 55.72481 50.62155 12.33074
253 100.0000 83.11750 56.09450 68.96790 70.27586 35.57242
254 0.000000 85.76090 100.0000 44.69177 57.90472 104.0959
255 40.46060 86.00130 100.0000 50.51331 61.12463 104.5128
256 77.42790 100.0000 100.0000 77.49321 90.53919 108.4349
257 100.0000 100.0000 100.0000 95.24207 100.0418 109.2268
258 42.90820 31.26580 15.26840 9.176031 8.929946 3.154431
259 57.88560 43.59390 18.99870 18.02223 17.77905 5.192781
260 62.97080 47.97230 36.56190 23.23119 22.14291 13.10008
261 84.13590 55.49460 48.29600 40.32866 35.17977 23.22289
262 32.87580 44.04490 0.000000 9.338677 13.24129 2.031529
263 32.77450 59.86970 0.000000 14.99035 24.17935 3.699652
264 58.42970 68.83710 0.000000 27.54263 36.88480 5.214158
265 62.27010 79.01420 30.20260 36.42340 49.21195 14.27127
266 15.71940 55.33310 73.46740 19.87594 23.19644 50.35115
267 21.73560 62.21560 88.53950 28.35740 31.03408 76.78480
268 21.13210 68.94860 64.80190 24.46649 34.50867 40.95835
269 20.96590 86.95010 69.95550 36.57769 56.29799 50.65192
270 23.25260 89.62190 85.14020 43.31098 61.74120 75.26478
271 15.88140 37.87790 15.41130 5.572310 8.975201 3.394793
272 26.74310 47.81100 14.77840 9.720330 15.03617 4.260862
273 28.36150 49.59070 30.62310 11.60333 16.70546 9.903059
274 43.95280 53.62940 30.96260 16.94041 21.71420 10.72813
275 64.46290 65.30950 31.40370 30.09486 35.80425 12.75658
276 64.25090 60.28580 41.33830 29.01944 31.81753 17.78396
277 68.26310 59.83530 52.58460 32.72464 33.34320 27.29042
278 100.0000 60.97920 83.09320 64.00411 49.72439 68.19494
279 100.0000 64.72020 100.0000 72.28311 55.83594 101.8319
280 0.000000 0.000000 0.000000 0.123061 0.120338 0.220112
281 0.000000 2.941200 0.000000 0.176444 0.223407 0.235747
282 9.493700 9.493700 9.493700 0.957872 0.991311 1.143353
283 10.68380 10.68380 10.68380 1.150252 1.205529 1.399160
284 30.79340 11.49630 68.52390 11.49976 5.793187 41.24754
285 43.38880 38.84610 76.36310 20.79120 16.23522 53.15703
286 0.000000 14.36900 34.36420 2.512480 2.092590 9.373230
287 0.000000 25.34790 35.47590 3.779865 4.404829 10.23397
288 0.000000 37.67400 39.48510 6.614568 9.097708 13.59500
289 0.000000 43.57420 57.81760 11.17205 13.39856 29.32880
290 21.16180 49.34790 58.20490 14.64186 17.81803 30.69839
291 42.65660 60.06590 100.0000 36.70978 33.61303 99.96930
292 24.83260 47.06090 89.90320 23.48913 20.26542 77.35605
293 54.75200 51.25650 92.17550 34.39411 28.08945 82.96853
294 73.67870 62.92420 100.0000 51.31011 43.03892 100.8080
295 21.12320 25.28410 34.07360 5.083288 5.073880 9.772207
296 48.93150 62.28910 46.28740 23.96425 30.08015 21.45454
297 53.78430 64.37530 57.20120 28.85784 33.83480 32.14764
298 69.02000 71.26870 59.29880 40.07395 44.82831 35.84789
299 80.20660 88.96340 67.15030 59.55098 70.21900 48.72719
300 0.000000 100.0000 27.85370 37.74375 71.49331 17.50416
301 0.000000 100.0000 48.25080 40.24270 72.54296 30.31377
302 44.58960 100.0000 100.0000 62.20845 82.32791 107.8530
303 0.000000 0.000000 87.20930 13.41851 5.354071 69.12669
304 0.000000 0.000000 100.0000 18.54135 7.248014 95.73775
305 0.000000 25.12670 100.0000 20.43264 10.86862 96.44740
306 0.000000 43.35710 100.0000 24.46424 18.76927 97.64805
307 0.000000 58.52830 100.0000 29.66980 28.67996 99.31635
308 0.000000 71.74850 100.0000 35.76556 40.70106 101.2324
309 0.000000 28.80050 77.31760 12.57475 8.812526 52.93206
310 3.008400 38.55180 77.02050 14.58760 12.68077 53.19219
311 74.25090 38.04790 84.31990 36.75648 24.12583 66.82606
312 88.96800 49.16350 87.30410 51.48737 36.41674 74.03647
313 17.38260 0.000000 19.78910 1.645004 0.857379 3.163092
314 30.96200 9.954400 35.93160 5.405360 3.170559 10.50677
315 42.56500 26.00580 49.27340 11.72618 8.550166 20.61536
316 42.78060 58.24770 66.26230 24.40597 27.49975 41.56265
317 44.46120 72.01900 66.93560 31.48449 40.26254 44.54594
318 43.96280 76.15750 79.27270 36.96381 45.96492 62.21980
319 0.000000 46.60050 76.11830 16.45826 16.82174 52.55542
320 0.000000 65.17960 79.24480 24.74885 31.28186 59.90077
321 26.98100 73.30870 87.87570 34.31706 41.94351 76.87697
322 44.81120 73.97590 100.0000 44.12321 47.16130 102.1168
323 75.78700 87.92270 100.0000 66.91402 71.54860 105.1149
324 88.86920 19.13910 78.35590 41.69100 22.42373 56.10414
325 100.0000 34.06260 79.65950 54.07820 32.42367 59.47140
326 16.98040 9.329400 0.000000 1.351599 1.215804 0.338638
327 22.70180 12.32440 12.94970 2.541825 2.074924 1.872436
328 22.35580 12.04560 24.81210 3.102819 2.295875 5.050947
329 27.33310 21.26880 41.73270 6.431574 4.974754 14.29661
330 41.58950 23.84800 61.54180 13.65282 8.813574 33.22244
331 76.61460 29.20130 68.20320 31.51406 19.35873 42.20638
332 86.82740 28.94940 89.18680 45.07862 25.72760 75.53626
333 86.12670 68.30320 90.96210 58.79456 51.40648 83.43897
334 0.000000 13.15790 0.000000 0.705318 1.250642 0.390300
335 30.43830 18.66200 12.02820 4.396921 3.856309 1.909609
336 41.95140 28.45220 30.65490 9.685185 8.452425 8.454062
337 61.99800 57.04260 68.57960 32.10593 30.90877 45.02535
338 77.10190 70.73090 82.88690 50.72559 49.17432 68.16287
339 38.14050 20.61960 100.0000 24.69545 12.36337 96.63323
340 41.01420 42.03860 100.0000 29.86447 21.08380 98.05617
341 66.28500 53.76280 15.56960 24.90802 26.09464 5.406005
342 75.08110 87.35860 13.19640 47.54985 63.48143 10.51697
343 84.28920 88.77680 38.47950 56.59152 68.94522 21.36951
344 100.0000 100.0000 59.85510 82.30099 94.84388 44.22524
345 44.22520 78.97990 0.000000 27.52308 44.38505 6.650792
346 75.33920 100.0000 0.000000 56.85892 81.91023 11.88800
347 100.0000 100.0000 0.000000 75.96407 92.16161 12.53058
348 0.000000 0.000000 0.000000 0.123034 0.120295 0.220148
349 0.000000 0.000000 2.941200 0.150561 0.131882 0.361773
350 20.08070 59.83370 18.62200 13.44344 23.39260 6.428021
351 43.56060 66.04940 31.37910 21.99332 31.56181 12.46771
352 62.57590 72.72150 47.70570 35.18807 43.05740 24.60857
353 73.99960 85.33840 47.84660 49.13188 62.01618 27.42603
354 91.41520 20.45910 11.43930 33.41971 19.56650 2.798977
355 100.0000 29.85410 26.30990 43.09962 26.55027 7.831330
356 100.0000 49.25550 24.68420 48.13750 36.37561 8.624841
357 100.0000 100.0000 33.18740 77.85828 93.09013 21.84203
358 0.000000 76.39780 54.16090 24.35435 40.12684 29.95790
359 0.000000 77.50340 75.01890 29.97889 43.54678 55.05682
360 21.00950 82.44000 87.75900 38.94452 52.08209 78.55793
361 58.60490 85.33120 93.08150 53.87491 62.94066 90.03354
362 91.55630 87.95800 98.40510 77.44368 77.37591 101.4371
363 14.39380 27.80140 28.19040 4.301967 5.382114 6.980452
364 20.13810 41.24160 32.93490 8.126645 11.35371 10.15349
365 37.19980 48.91110 42.96450 14.92555 18.16741 17.27707
366 72.56190 58.73020 61.24990 36.17520 34.28412 36.33185
367 89.55460 64.92780 64.88140 51.53215 46.42396 41.71747
368 57.69230 0.000000 0.000000 11.20880 6.006161 0.544741
369 58.63230 14.36920 12.18060 12.83940 7.786820 2.066501
370 72.92710 27.04230 14.16080 21.27202 14.35980 3.150291
371 88.01120 40.63890 29.44540 35.40486 25.89811 9.484787
372 100.0000 100.0000 100.0000 95.15662 99.95143 109.0007
373 60.44080 26.97710 47.62100 18.50079 12.49553 19.44447
374 62.14590 38.48710 48.63690 21.58775 17.31195 21.21837
375 0.000000 0.000000 6.097600 0.214595 0.158090 0.692370
376 0.000000 0.000000 9.493700 0.277832 0.183710 1.018377
377 11.71760 20.13990 9.723100 2.000355 2.763943 1.484530
378 16.01210 30.25130 19.06060 4.146746 5.876964 3.857107
379 42.58940 33.06320 44.43900 12.22459 10.70553 16.91388
380 43.53050 45.58570 55.63330 17.53509 17.66158 28.01203
381 36.88520 0.000000 0.000000 4.346070 2.362820 0.342907
382 43.10350 0.000000 0.000000 5.874597 3.174066 0.387486
383 50.00000 0.000000 0.000000 8.186894 4.401866 0.456369
384 52.30970 14.24830 19.51380 10.29525 6.345140 3.665173
385 77.55030 13.78450 34.09950 24.13956 13.55183 10.17360
386 87.33940 37.52990 50.33770 37.00719 25.27631 23.03855
387 24.83560 0.000000 13.53040 2.257737 1.215573 1.852957
388 38.71740 0.000000 28.59970 6.036976 3.104892 6.558299
389 41.90060 0.000000 61.79070 12.04700 5.621384 32.89323
390 58.81680 13.41510 72.57260 21.57358 11.20109 46.73495
391 31.62070 37.39240 14.28840 7.799809 10.04863 3.265401
392 45.63740 43.32250 20.22240 13.15932 15.01388 5.374058
393 46.37810 53.86780 71.83760 25.05190 25.17771 48.04616
394 61.10710 54.47360 78.37820 33.30881 29.89226 57.93922
395 60.29600 67.88640 90.76750 43.34253 42.82535 81.94972
396 53.73630 0.000000 46.50600 12.97309 6.508872 17.70736
397 80.10740 34.39820 58.22980 32.47771 21.68200 30.46858
398 0.000000 0.000000 0.000000 0.122821 0.120077 0.220060
