Lenovo/ThinkPad X61/N121X5-L06 #1 2017-04-19 15-14 D6500 2.2 F-S XYZLUT+MTX/N121X5-L06 #1 2017-04-19 15-14 D6500 2.2 F-S XYZLUT+MTX.cal
CAL    

DESCRIPTOR "Argyll Device Calibration Curves"
ORIGINATOR "Argyll dispcal"
CREATED "Wed Apr 19 15:21:37 2017"
DEVICE_CLASS "DISPLAY"
COLOR_REP "RGB"
VIDEO_LUT_CALIBRATION_POSSIBLE "YES"
TV_OUTPUT_ENCODING "NO"
DEVICE_TYPE "n"
TARGET_WHITE_XYZ "70.911914 74.631232 81.159493"
TARGET_GAMMA 2.2
DEGREE_OF_BLACK_OUTPUT_OFFSET 1.0
BLACK_POINT_CORRECTION 0.0
BLACK_NEUTRAL_BLEND_RATE 4.0
BLACK_POINT_HACK "YES"
QUALITY "low"

BEGIN_ARGYLL_DISPCAL_ARGS
-v2 -d1 -c1 -yn -P0.5,0.5,1.49868073879 -ql -m -t6500 -g2.2 -f1.0 -k0 -A4.0 -b
END_ARGYLL_DISPCAL_ARGS


NUMBER_OF_FIELDS 4
BEGIN_DATA_FORMAT
RGB_I RGB_R RGB_G RGB_B
END_DATA_FORMAT

NUMBER_OF_SETS 256
BEGIN_DATA
0.00000000 0.00000000 0.00000000 0.00000000
0.00392157 0.00360749 0.00313399 0.00258048
0.00784314 0.00726224 0.00631029 0.00519677
0.01176470 0.01096520 0.00952977 0.00784961
0.01568630 0.01471730 0.01279330 0.01053980
0.01960780 0.01851950 0.01610180 0.01326810
0.02352940 0.02237280 0.01945620 0.01603530
0.02745100 0.02627840 0.02285750 0.01884230
0.03137250 0.03023470 0.02630620 0.02168990
0.03529410 0.03422830 0.02979070 0.02457900
0.03921570 0.03823250 0.03330210 0.02751060
0.04313730 0.04222050 0.03682430 0.03048560
0.04705880 0.04618000 0.04032560 0.03350310
0.05098040 0.05010780 0.04379070 0.03655860
0.05490200 0.05398030 0.04721490 0.03964190
0.05882350 0.05778120 0.05059110 0.04274830
0.06274510 0.06152900 0.05392750 0.04587590
0.06666670 0.06521150 0.05723560 0.04901290
0.07058820 0.06881110 0.06050040 0.05214860
0.07450980 0.07233620 0.06371040 0.05527710
0.07843140 0.07580020 0.06687340 0.05839250
0.08235290 0.07921250 0.06999040 0.06148890
0.08627450 0.08258220 0.07306940 0.06456290
0.09019610 0.08590860 0.07612730 0.06761120
0.09411760 0.08917480 0.07915640 0.07062970
0.09803920 0.09237750 0.08214470 0.07361980
0.10196100 0.09551900 0.08508780 0.07657860
0.10588200 0.09860070 0.08798490 0.07950590
0.10980400 0.10163300 0.09084380 0.08239420
0.11372500 0.10461400 0.09366250 0.08524340
0.11764700 0.10755100 0.09643760 0.08805000
0.12156900 0.11045600 0.09917020 0.09081780
0.12549000 0.11332700 0.10186200 0.09355110
0.12941200 0.11616200 0.10451100 0.09625530
0.13333300 0.11895700 0.10712100 0.09893300
0.13725500 0.12173200 0.10969600 0.10158600
0.14117600 0.12450200 0.11224600 0.10421500
0.14509800 0.12726700 0.11476700 0.10682600
0.14902000 0.13003300 0.11726100 0.10941800
0.15294100 0.13281900 0.11973500 0.11199300
0.15686300 0.13562800 0.12219200 0.11454800
0.16078400 0.13847200 0.12463500 0.11708900
0.16470600 0.14136000 0.12708100 0.11962400
0.16862700 0.14429200 0.12953500 0.12215600
0.17254900 0.14726700 0.13199300 0.12469000
0.17647100 0.15027700 0.13445000 0.12722700
0.18039200 0.15331500 0.13690100 0.12976900
0.18431400 0.15638400 0.13935000 0.13232200
0.18823500 0.15948100 0.14180100 0.13489600
0.19215700 0.16260500 0.14425700 0.13749100
0.19607800 0.16575600 0.14673300 0.14010700
0.20000000 0.16894200 0.14924000 0.14274500
0.20392200 0.17217800 0.15179600 0.14541600
0.20784300 0.17546600 0.15440700 0.14811700
0.21176500 0.17880200 0.15707800 0.15085200
0.21568600 0.18217600 0.15980600 0.15362100
0.21960800 0.18557500 0.16259400 0.15643000
0.22352900 0.18900200 0.16544600 0.15928000
0.22745100 0.19245700 0.16836900 0.16217000
0.23137300 0.19592000 0.17136700 0.16509700
0.23529400 0.19938100 0.17442800 0.16806200
0.23921600 0.20285300 0.17753600 0.17107100
0.24313700 0.20634400 0.18068600 0.17412100
0.24705900 0.20985500 0.18386200 0.17721000
0.25098000 0.21338500 0.18706300 0.18033600
0.25490200 0.21693400 0.19027700 0.18349000
0.25882400 0.22050200 0.19349900 0.18667400
0.26274500 0.22409100 0.19673100 0.18988800
0.26666700 0.22769600 0.19997300 0.19313100
0.27058800 0.23132300 0.20322500 0.19640700
0.27451000 0.23497500 0.20649600 0.19971300
0.27843100 0.23863800 0.20979000 0.20304600
0.28235300 0.24232100 0.21310400 0.20640300
0.28627500 0.24601100 0.21644300 0.20978800
0.29019600 0.24968200 0.21981100 0.21319900
0.29411800 0.25331600 0.22319200 0.21662700
0.29803900 0.25689500 0.22657500 0.22007400
0.30196100 0.26044300 0.22995100 0.22353500
0.30588200 0.26396700 0.23333300 0.22701300
0.30980400 0.26745900 0.23671900 0.23050500
0.31372500 0.27092100 0.24010300 0.23399000
0.31764700 0.27435800 0.24348200 0.23746000
0.32156900 0.27777000 0.24685400 0.24091300
0.32549000 0.28116800 0.25021800 0.24434100
0.32941200 0.28455100 0.25356800 0.24774800
0.33333300 0.28791300 0.25688600 0.25113400
0.33725500 0.29125600 0.26017900 0.25449300
0.34117600 0.29458000 0.26345200 0.25781800
0.34509800 0.29790100 0.26670100 0.26110400
0.34902000 0.30121100 0.26993000 0.26435600
0.35294100 0.30449400 0.27313600 0.26758100
0.35686300 0.30775100 0.27632600 0.27076800
0.36078400 0.31097800 0.27949500 0.27391300
0.36470600 0.31418000 0.28264100 0.27702200
0.36862700 0.31737300 0.28576100 0.28010200
0.37254900 0.32056000 0.28886200 0.28315900
0.37647100 0.32373000 0.29192500 0.28620900
0.38039200 0.32687100 0.29494700 0.28924800
0.38431400 0.32997900 0.29792500 0.29227800
0.38823500 0.33305500 0.30087000 0.29530200
0.39215700 0.33610500 0.30380300 0.29832100
0.39607800 0.33914500 0.30671300 0.30133500
0.40000000 0.34217300 0.30959300 0.30434600
0.40392200 0.34517800 0.31244800 0.30735900
0.40784300 0.34815000 0.31528200 0.31037500
0.41176500 0.35109500 0.31809700 0.31339300
0.41568600 0.35401500 0.32089800 0.31641100
0.41960800 0.35690800 0.32369900 0.31942800
0.42352900 0.35979300 0.32650000 0.32243800
0.42745100 0.36268200 0.32929600 0.32543400
0.43137300 0.36557300 0.33208200 0.32841800
0.43529400 0.36845900 0.33486000 0.33138500
0.43921600 0.37132900 0.33762700 0.33433000
0.44313700 0.37418500 0.34037300 0.33726000
0.44705900 0.37702600 0.34309900 0.34017200
0.45098000 0.37985100 0.34580000 0.34306700
0.45490200 0.38266500 0.34848300 0.34595700
0.45882400 0.38546800 0.35114900 0.34884900
0.46274500 0.38827500 0.35380300 0.35174600
0.46666700 0.39109800 0.35645200 0.35464900
0.47058800 0.39394800 0.35910900 0.35755300
0.47451000 0.39684000 0.36178600 0.36045400
0.47843100 0.39977900 0.36449100 0.36335100
0.48235300 0.40277200 0.36722500 0.36624500
0.48627500 0.40582600 0.36998800 0.36915800
0.49019600 0.40894700 0.37279300 0.37210200
0.49411800 0.41213500 0.37564400 0.37507600
0.49803900 0.41539700 0.37855000 0.37807700
0.50196100 0.41871900 0.38151100 0.38110000
0.50588200 0.42207300 0.38453100 0.38414000
0.50980400 0.42546000 0.38760900 0.38719200
0.51372500 0.42887900 0.39073200 0.39025800
0.51764700 0.43233000 0.39388200 0.39334000
0.52156900 0.43580800 0.39704300 0.39645200
0.52549000 0.43930100 0.40021000 0.39959500
0.52941200 0.44280300 0.40337200 0.40276200
0.53333300 0.44629500 0.40650200 0.40594800
0.53725500 0.44976800 0.40959000 0.40914900
0.54117600 0.45320300 0.41264400 0.41236600
0.54509800 0.45658700 0.41566200 0.41558900
0.54902000 0.45992400 0.41864700 0.41881200
0.55294100 0.46321600 0.42160000 0.42202800
0.55686300 0.46646700 0.42452400 0.42524100
0.56078400 0.46968400 0.42741900 0.42846700
0.56470600 0.47286700 0.43030400 0.43170000
0.56862700 0.47600700 0.43317100 0.43494500
0.57254900 0.47911100 0.43602600 0.43820000
0.57647100 0.48218400 0.43887100 0.44147300
0.58039200 0.48521100 0.44170400 0.44476600
0.58431400 0.48819800 0.44452300 0.44807800
0.58823500 0.49115000 0.44732500 0.45140900
0.59215700 0.49408000 0.45013000 0.45475900
0.59607800 0.49698700 0.45295800 0.45812200
0.60000000 0.49987000 0.45580600 0.46149600
0.60392200 0.50274000 0.45866600 0.46488600
0.60784300 0.50560900 0.46154800 0.46829500
0.61176500 0.50847500 0.46445100 0.47172400
0.61568600 0.51134000 0.46736900 0.47517300
0.61960800 0.51421000 0.47030200 0.47864400
0.62352900 0.51710200 0.47325000 0.48213000
0.62745100 0.52001900 0.47621300 0.48562800
0.63137300 0.52297300 0.47919300 0.48913600
0.63529400 0.52597400 0.48219700 0.49266100
0.63921600 0.52901900 0.48522400 0.49620400
0.64313700 0.53210800 0.48826300 0.49975600
0.64705900 0.53524900 0.49131200 0.50332500
0.65098000 0.53844500 0.49436600 0.50690900
0.65490200 0.54168300 0.49742500 0.51050400
0.65882400 0.54494700 0.50050500 0.51412100
0.66274500 0.54823100 0.50360900 0.51776400
0.66666700 0.55153100 0.50673600 0.52142800
0.67058800 0.55484600 0.50987700 0.52511200
0.67451000 0.55817500 0.51302000 0.52881900
0.67843100 0.56151900 0.51616300 0.53254000
0.68235300 0.56487700 0.51930000 0.53626300
0.68627500 0.56824700 0.52241400 0.53997500
0.69019600 0.57161100 0.52549900 0.54367900
0.69411800 0.57496300 0.52855300 0.54738100
0.69803900 0.57829700 0.53157900 0.55108300
0.70196100 0.58159500 0.53457600 0.55477700
0.70588200 0.58485200 0.53755700 0.55845700
0.70980400 0.58805400 0.54052900 0.56211800
0.71372500 0.59120700 0.54348900 0.56576200
0.71764700 0.59431600 0.54644200 0.56940700
0.72156900 0.59739200 0.54939600 0.57305000
0.72549000 0.60046100 0.55235800 0.57671200
0.72941200 0.60353200 0.55532600 0.58039600
0.73333300 0.60660500 0.55830000 0.58410100
0.73725500 0.60968400 0.56127400 0.58781900
0.74117600 0.61277000 0.56423600 0.59154800
0.74509800 0.61587600 0.56718400 0.59527800
0.74902000 0.61900000 0.57012500 0.59899200
0.75294100 0.62214200 0.57306800 0.60267900
0.75686300 0.62530200 0.57601500 0.60633400
0.76078400 0.62848200 0.57897100 0.60995800
0.76470600 0.63168000 0.58193400 0.61357200
0.76862700 0.63489600 0.58490000 0.61720800
0.77254900 0.63812100 0.58786600 0.62087700
0.77647100 0.64134200 0.59083400 0.62458000
0.78039200 0.64457000 0.59379600 0.62831000
0.78431400 0.64780800 0.59674100 0.63205600
0.78823500 0.65105600 0.59968000 0.63581000
0.79215700 0.65431300 0.60262300 0.63956200
0.79607800 0.65757500 0.60556700 0.64331300
0.80000000 0.66083100 0.60850100 0.64707000
0.80392200 0.66407200 0.61141700 0.65083600
0.80784300 0.66729800 0.61431700 0.65461100
0.81176500 0.67052700 0.61719800 0.65841900
0.81568600 0.67376200 0.62006900 0.66226900
0.81960800 0.67700100 0.62294300 0.66616200
0.82352900 0.68023200 0.62584000 0.67010600
0.82745100 0.68345300 0.62876000 0.67409800
0.83137300 0.68667100 0.63169600 0.67813600
0.83529400 0.68990000 0.63463200 0.68223100
0.83921600 0.69314700 0.63755200 0.68639100
0.84313700 0.69641700 0.64045600 0.69059900
0.84705900 0.69971800 0.64335400 0.69483000
0.85098000 0.70304500 0.64624000 0.69908300
0.85490200 0.70638700 0.64911000 0.70336000
0.85882400 0.70972400 0.65196600 0.70766500
0.86274500 0.71304900 0.65480600 0.71202000
0.86666700 0.71636600 0.65763000 0.71643900
0.87058800 0.71967300 0.66044000 0.72093100
0.87451000 0.72296400 0.66323600 0.72547700
0.87843100 0.72624900 0.66602400 0.73006100
0.88235300 0.72953500 0.66880200 0.73469200
0.88627500 0.73283900 0.67157200 0.73943700
0.89019600 0.73617500 0.67433300 0.74429600
0.89411800 0.73953200 0.67707500 0.74924300
0.89803900 0.74290500 0.67978700 0.75426900
0.90196100 0.74629500 0.68247800 0.75937700
0.90588200 0.74970400 0.68514900 0.76458100
0.90980400 0.75312500 0.68780300 0.76989900
0.91372500 0.75654100 0.69044000 0.77533500
0.91764700 0.75995100 0.69306900 0.78087800
0.92156900 0.76336100 0.69569100 0.78648300
0.92549000 0.76677100 0.69830300 0.79214700
0.92941200 0.77018400 0.70090100 0.79785700
0.93333300 0.77361900 0.70348600 0.80360500
0.93725500 0.77707300 0.70606100 0.80944700
0.94117600 0.78053200 0.70862700 0.81538400
0.94509800 0.78398700 0.71117900 0.82139600
0.94902000 0.78744400 0.71372400 0.82747500
0.95294100 0.79091300 0.71626000 0.83363700
0.95686300 0.79439200 0.71878500 0.83989600
0.96078400 0.79788100 0.72130100 0.84624100
0.96470600 0.80137500 0.72380700 0.85268700
0.96862700 0.80487900 0.72630300 0.85922800
0.97254900 0.80839100 0.72879000 0.86588000
0.97647100 0.81190700 0.73126800 0.87264600
0.98039200 0.81542700 0.73373600 0.87952000
0.98431400 0.81895000 0.73619500 0.88650200
0.98823500 0.82247800 0.73864400 0.89359200
0.99215700 0.82601000 0.74108500 0.90078800
0.99607800 0.82954500 0.74351600 0.90809300
1.00000000 0.83308400 0.74593800 0.91550900
END_DATA
CAL    

DESCRIPTOR "Argyll Calibration options and model"
ORIGINATOR "Argyll dispcal"
CREATED "Wed Apr 19 15:21:37 201"

NUMBER_OF_FIELDS 3
BEGIN_DATA_FORMAT
R_P G_P B_P
END_DATA_FORMAT

NUMBER_OF_SETS 32
BEGIN_DATA
0.00170347 0.00146292 0.00659631
0.99829700 0.99853700 0.99340400
1.76279000 1.45570500 0.59559300
0.54613800 0.64183700 0.76255100
0.12491200 0.09113670 0.08426880
0.13121800 0.08831840 0.08350670
0.09761660 0.09124660 0.05788060
0.05615690 0.10456100 0.08575950
0.04068620 0.07174620 0.06779420
0.04454860 0.06194790 0.05037380
0.04722650 0.05388300 0.04378110
0.04443190 0.04872730 0.03832970
0.04015430 0.04716800 0.04644210
0.03641770 0.04252300 0.03260100
0.03154880 0.03220560 0.03304340
0.03472060 0.03989840 0.02813140
0.02942120 0.03227250 0.03111960
0.03023800 0.03442540 0.03041290
0.02667740 0.02741980 0.02994120
0.02636330 0.02781310 0.02779630
0.02126170 0.02158460 0.02455960
0.02361200 0.02140060 0.02255400
0.01869740 0.02502510 0.02342940
0.01782780 0.02258100 0.02112220
0.02006050 0.02032250 0.02311040
0.01806080 0.01991340 0.02014070
0.01537400 0.01810310 0.01903260
0.01579190 0.01776140 0.01796650
0.01645010 0.01829310 0.01765420
0.01544580 0.01884640 0.01677870
0.01416560 0.01882430 0.01613910
0.01414490 0.01685370 0.01725240
END_DATA