Lenovo/ThinkPad X61/N121X5-L06 #1 2017-04-19 15-14 D6500 2.2 F-S XYZLUT+MTX/N121X5-L06 #1 2017-04-19 15-14 D6500 2.2 F-S XYZLUT+MTX.ti1
CTI1   

DESCRIPTOR "Argyll Calibration Target chart information 1"
ORIGINATOR "Argyll targen"
CREATED "Wed Apr 19 15:22:40 2017"
APPROX_WHITE_POINT "95.347595 100.000000 111.935425"
COLOR_REP "RGB"
ACCURATE_EXPECTED_VALUES "true"
DARK_REGION_EMPHASIS "1.600000"
WHITE_COLOR_PATCHES "4"
BLACK_COLOR_PATCHES "4"
SINGLE_DIM_STEPS "17"
COMP_GREY_STEPS "49"
OFPS_PATCHES "288"

NUMBER_OF_FIELDS 7
BEGIN_DATA_FORMAT
SAMPLE_ID RGB_R RGB_G RGB_B XYZ_X XYZ_Y XYZ_Z 
END_DATA_FORMAT

NUMBER_OF_SETS 391
BEGIN_DATA
1 100.0000 100.0000 100.0000 95.34760 100.0000 111.9354 
2 26.08407 0.00000 57.04454 7.993129 6.996966 25.94320 
3 27.26996 0.00000 83.43214 15.26155 13.96313 58.68189 
4 42.23230 17.54539 89.90039 21.93129 19.50958 69.71475 
5 46.87252 55.31075 90.05863 31.51928 34.01097 73.52479 
6 90.67932 84.95807 100.0000 76.39646 77.59396 106.6160 
7 60.12892 42.25760 0.00000 18.37498 16.32314 4.246761 
8 60.36921 100.0000 0.00000 46.29018 63.51263 16.09652 
9 78.93338 100.0000 33.36165 58.99349 71.62326 25.01798 
10 100.0000 100.0000 51.78617 79.78182 84.90287 39.70049 
11 9.493671 0.00000 0.00000 0.732678 0.671952 0.768376 
12 13.15789 0.00000 0.00000 0.965527 0.809066 0.794630 
13 17.12329 0.00000 0.00000 1.329725 1.023526 0.835694 
14 21.42857 0.00000 0.00000 1.865296 1.338898 0.896079 
15 26.11940 0.00000 0.00000 2.620335 1.783505 0.981210 
16 31.25000 0.00000 0.00000 3.652526 2.391313 1.097589 
17 34.22464 0.00000 0.00000 4.347207 2.800378 1.175915 
18 36.88525 0.00000 0.00000 5.027425 3.200927 1.252609 
19 43.10345 0.00000 0.00000 6.859135 4.279534 1.459134 
20 50.00000 0.00000 0.00000 9.285486 5.708298 1.732705 
21 75.76865 0.00000 24.98905 23.52282 14.42267 7.267343 
22 88.03786 16.90527 28.60349 33.55177 21.15709 10.00516 
23 87.88999 22.25101 47.25915 36.33345 24.29616 21.20463 
24 100.0000 33.72974 48.88421 49.59512 34.13123 24.54181 
25 100.0000 34.64834 67.97232 53.78724 38.32173 43.27172 
26 100.0000 53.04497 86.04950 64.14423 51.89179 70.84717 
27 0.00000 9.493671 0.00000 0.692760 0.841726 0.818571 
28 0.00000 13.15789 0.00000 0.883609 1.165226 0.899834 
29 0.00000 17.12329 0.00000 1.178947 1.665843 1.025587 
30 0.00000 21.42857 0.00000 1.607427 2.392142 1.208031 
31 0.00000 26.11940 0.00000 2.201626 3.399346 1.461037 
32 0.00000 31.25000 0.00000 2.997579 4.748534 1.799948 
33 23.16924 35.81255 0.00000 5.438056 7.108379 2.336243 
34 86.66404 46.43098 20.35374 37.01967 28.77664 9.153540 
35 0.00000 0.00000 0.00000 0.518038 0.545561 0.744176 
36 33.72636 11.64346 14.53930 4.749948 3.437991 2.423537 
37 44.86478 14.14241 26.22087 8.836492 6.288705 6.201061 
38 46.49399 15.70750 36.54380 10.55397 7.823944 11.15315 
39 78.19447 35.42667 40.96985 30.07849 22.51260 16.71831 
40 87.20930 0.00000 0.00000 31.02840 18.51167 4.184219 
41 100.0000 41.03990 0.00000 47.30120 33.02179 7.413494 
42 100.0000 60.10995 23.45626 53.95825 43.76174 13.41076 
43 0.00000 0.00000 6.097561 0.552295 0.578787 0.903152 
44 0.00000 0.00000 9.493671 0.609996 0.634751 1.170922 
45 0.00000 0.00000 13.15789 0.713219 0.734866 1.649941 
46 0.00000 0.00000 17.12329 0.879016 0.895671 2.419343 
47 0.00000 0.00000 21.42857 1.126995 1.136184 3.570121 
48 0.00000 0.00000 26.11940 1.477928 1.476551 5.198666 
49 0.00000 0.00000 31.25000 1.952533 1.936866 7.401129 
50 0.00000 0.00000 36.88525 2.569163 2.534931 10.26268 
51 0.00000 0.00000 50.00000 4.556406 4.462343 19.48473 
52 0.00000 0.00000 57.69231 6.023848 5.885604 26.29458 
53 0.00000 0.00000 66.32653 7.939921 7.743989 35.18635 
54 14.39453 22.16659 78.35090 13.16548 13.45474 52.00483 
55 28.63475 23.85268 100.0000 24.42447 23.74930 94.17932 
56 53.52699 46.92084 100.0000 36.67990 36.12926 97.02228 
57 100.0000 48.63972 100.0000 69.35316 55.93786 100.8672 
58 0.00000 19.56492 19.04165 1.870553 2.502781 3.269340 
59 30.32311 24.01162 34.53292 6.632261 6.373959 9.940373 
60 48.38497 43.96067 55.35957 18.94464 19.08238 27.35987 
61 75.58181 68.72073 60.60051 42.58066 43.06702 37.46333 
62 84.20579 72.17683 74.88476 54.23030 53.28761 56.71873 
63 7.201646 7.201646 7.201646 0.776911 0.819988 1.026363 
64 8.333333 8.333333 8.333333 0.876862 0.926520 1.134725 
65 9.493671 9.493671 9.493671 0.999359 1.057307 1.269518 
66 10.68376 10.68376 10.68376 1.147155 1.214532 1.432331 
67 11.90476 11.90476 11.90476 1.321678 1.400193 1.626704 
68 13.15789 13.15789 13.15789 1.526280 1.618036 1.856053 
69 14.44444 14.44444 14.44444 1.764166 1.870610 2.124401 
70 15.76577 15.76577 15.76577 2.037634 2.161115 2.434198 
71 17.12329 17.12329 17.12329 2.351614 2.493918 2.792272 
72 18.51852 18.51852 18.51852 2.708070 2.871423 3.200529 
73 19.95305 19.95305 19.95305 3.110463 3.297372 3.662889 
74 21.42857 21.42857 21.42857 3.563643 3.776103 4.185879 
75 22.94686 22.94686 22.94686 4.070734 4.311326 4.771694 
76 24.50980 24.50980 24.50980 4.635928 4.907138 5.425521 
77 26.11940 26.11940 26.11940 5.263814 5.568280 6.152561 
78 27.77778 27.77778 27.77778 5.957923 6.297910 6.955492 
79 29.48718 29.48718 29.48718 6.724170 7.102508 7.840405 
80 31.25000 31.25000 31.25000 7.566562 7.985592 8.810315 
81 33.06878 33.06878 33.06878 8.488860 8.951102 9.866343 
82 34.94624 34.94624 34.94624 9.499384 10.00988 11.01911 
83 36.88525 36.88525 36.88525 10.60767 11.17238 12.27379 
84 38.88889 38.88889 38.88889 11.83070 12.45731 13.64474 
85 40.96045 40.96045 40.96045 13.19202 13.89326 15.18341 
86 43.10345 43.10345 43.10345 14.71085 15.50347 16.92199 
87 45.32164 45.32164 45.32164 16.39920 17.30288 18.87024 
88 47.61905 47.61905 47.61905 18.26169 19.28742 21.03632 
89 50.00000 50.00000 50.00000 20.30466 21.45797 23.44564 
90 52.46914 52.46914 52.46914 22.53165 23.81670 26.08638 
91 55.03145 55.03145 55.03145 24.91166 26.32088 28.81697 
92 57.69231 57.69231 57.69231 27.48531 29.02636 31.68661 
93 60.45752 60.45752 60.45752 30.33444 32.01911 34.86297 
94 63.33333 63.33333 63.33333 33.54376 35.37905 38.44874 
95 66.32653 66.32653 66.32653 37.19967 39.19955 42.51114 
96 69.44444 69.44444 69.44444 41.33954 43.54386 47.23135 
97 72.69504 72.69504 72.69504 45.94245 48.44694 52.80822 
98 76.08696 76.08696 76.08696 50.85308 53.68426 58.57752 
99 79.62963 79.62963 79.62963 56.02368 59.07529 64.13596 
100 83.33333 83.33333 83.33333 61.81819 65.10452 70.49969 
101 87.20930 87.20930 87.20930 68.48848 72.03256 78.11845 
102 91.26984 91.26984 91.26984 75.85457 79.60781 85.71705 
103 0.00000 75.10756 76.46673 28.11583 39.78092 56.34582 
104 0.00000 100.0000 82.96070 45.34689 67.63351 71.55884 
105 32.40083 100.0000 90.24681 51.23053 72.04638 83.49048 
106 100.0000 100.0000 100.0000 95.34760 100.0000 111.9354 
107 0.00000 57.69231 0.00000 10.01274 16.63965 4.786956 
108 0.00000 66.32653 0.00000 13.37807 22.34410 6.219895 
109 0.00000 87.20930 0.00000 24.22099 40.72351 10.83674 
110 0.00000 100.0000 0.00000 33.07432 55.73043 14.60643 
111 36.14970 100.0000 0.00000 37.38986 58.27165 15.09301 
112 80.57252 100.0000 0.00000 58.49728 70.70082 17.47287 
113 100.0000 100.0000 0.00000 75.40277 80.65567 19.37896 
114 100.0000 100.0000 30.12992 76.72614 81.93919 25.52021 
115 37.85542 52.37555 29.01465 14.24231 17.64673 10.22116 
116 47.92339 61.06172 52.99041 23.83903 27.89003 27.61360 
117 61.68030 72.29286 58.74494 35.81945 40.90215 35.52382 
118 85.84581 84.06375 73.81559 61.40315 64.26001 57.99268 
119 16.19407 31.34095 13.25200 3.926752 5.388353 2.808278 
120 33.52772 34.10597 45.92374 10.48462 10.98256 17.83448 
121 33.23291 58.30569 83.19373 26.16761 31.09634 62.59103 
122 0.00000 0.00000 87.20930 14.27516 13.88849 64.58585 
123 0.00000 0.00000 100.0000 20.46286 19.88990 93.30064 
124 0.00000 31.62191 100.0000 23.00571 24.20017 94.38337 
125 0.00000 38.93809 54.69337 9.420385 12.05661 25.33649 
126 70.62916 44.54619 69.11434 33.03125 28.74013 43.07394 
127 85.51318 50.56079 72.15386 45.90032 38.65155 49.28428 
128 89.72271 55.71543 89.29215 56.47848 48.76322 75.26471 
129 0.00000 6.097561 0.00000 0.582169 0.654267 0.771482 
130 18.23541 19.16584 0.00000 2.304104 2.537657 1.211667 
131 30.09842 56.14200 0.00000 12.36597 17.43829 4.886150 
132 39.26516 68.85696 22.47455 20.38109 28.00172 10.44932 
133 41.00997 78.35778 37.83746 27.20805 37.92612 19.45284 
134 50.00496 82.23612 59.18349 35.94329 46.68423 37.54397 
135 48.90810 88.73727 72.94219 42.82039 56.23233 55.52282 
136 50.89793 100.0000 100.0000 62.13261 80.44126 108.1904 
137 0.00000 0.00000 76.08696 10.81390 10.53144 48.52343 
138 29.28027 41.37008 77.11129 18.35082 20.09664 52.10063 
139 13.59287 62.08573 70.43669 20.66248 27.95450 45.23275 
140 36.51411 62.43155 72.13679 25.26099 31.01511 48.21153 
141 50.33831 60.34848 76.46101 30.26680 33.58616 54.46967 
142 71.67772 72.22622 81.99747 47.77997 50.28804 65.15504 
143 0.00000 36.88525 0.00000 4.047162 6.527642 2.246854 
144 0.00000 43.10345 0.00000 5.494281 8.980596 2.863028 
145 26.29425 49.53253 15.42258 9.770140 13.66302 5.206657 
146 48.12088 63.50354 14.19543 20.48406 25.29928 7.702640 
147 71.66951 66.63845 27.19337 34.17325 35.14258 13.36936 
148 71.50524 88.23105 68.67339 52.37310 61.03140 50.62243 
149 20.22668 66.60144 18.68505 15.12496 23.67579 8.459057 
150 21.12591 83.31094 19.28792 23.74642 38.13020 12.23461 
151 46.70494 86.59057 24.07889 32.20917 45.32900 15.23281 
152 28.02977 11.48815 22.39127 3.922471 3.104557 4.264762 
153 64.63458 14.49102 50.46743 20.53153 14.40519 21.82601 
154 81.55749 14.38399 55.31999 32.14986 21.59131 27.32572 
155 90.10665 23.05577 71.02781 43.56454 30.63975 45.56456 
156 100.0000 31.23043 87.87912 59.30835 43.23271 71.47317 
157 100.0000 70.26768 87.73617 71.48135 63.90182 76.45212 
158 71.31179 53.04482 61.64654 34.18059 31.57081 35.66111 
159 100.0000 59.35360 67.69142 60.70871 50.10869 45.90120 
160 0.00000 0.00000 0.00000 0.518038 0.545561 0.744176 
161 0.00000 0.00000 2.941176 0.525699 0.552992 0.779731 
162 53.16208 0.00000 20.61413 11.09383 6.985197 4.456381 
163 79.73397 0.00000 43.72023 28.31412 18.04475 17.32237 
164 100.0000 0.00000 65.84386 50.14724 32.55173 39.39674 
165 100.0000 0.00000 82.26502 54.89492 37.15647 61.42894 
166 17.93428 0.00000 16.97765 1.773117 1.419433 2.487687 
167 18.93863 12.99196 25.05399 2.765773 2.594736 5.061622 
168 27.21889 55.79845 32.01694 13.18439 18.36877 11.79161 
169 25.39005 86.73578 37.71276 28.06532 43.49851 20.91723 
170 55.83336 89.28904 51.38407 40.89930 53.54504 32.57869 
171 83.68541 88.84947 65.15490 60.03096 65.59791 47.46839 
172 13.36124 44.14564 20.76268 6.803196 10.27666 5.660605 
173 0.00000 100.0000 27.89894 34.18849 56.81107 19.77691 
174 0.00000 100.0000 47.41870 36.64682 59.19537 31.18506 
175 37.62798 100.0000 51.95329 42.19627 62.78291 35.60997 
176 41.69351 19.34128 13.82163 7.500926 5.700485 2.793542 
177 53.35220 20.37620 22.09926 12.24326 8.776744 5.332500 
178 58.97417 34.87420 28.67855 17.38834 14.39510 8.993301 
179 57.89660 41.16220 54.00868 21.86825 19.90985 26.31995 
180 67.36883 58.75076 70.20057 35.88711 35.52202 46.23656 
181 81.07610 62.54178 79.01174 48.69103 45.62694 59.98286 
182 0.00000 0.00000 0.00000 0.518038 0.545561 0.744176 
183 0.00000 35.65314 21.27614 4.399277 6.690158 4.921262 
184 17.39542 36.53846 28.30101 5.968522 8.019728 7.651605 
185 29.21801 40.13281 27.98200 8.578801 10.40886 8.058986 
186 42.23847 0.00000 100.0000 26.52906 23.46199 93.98460 
187 71.84384 0.00000 100.0000 40.17403 31.49687 95.52307 
188 100.0000 0.00000 100.0000 62.79132 44.81513 98.07317 
189 76.90853 0.00000 84.37514 36.15253 26.38745 62.49429 
190 89.05755 17.68649 88.65902 47.57263 34.46846 70.77900 
191 90.74119 34.71092 100.0000 57.16346 44.93065 98.40914 
192 38.97452 37.70159 25.46729 10.21037 10.68995 7.098189 
193 52.55034 42.01967 29.93511 16.28929 15.52534 9.899285 
194 53.64815 65.43363 36.93648 25.26767 29.70090 16.75404 
195 38.97174 100.0000 29.33011 39.40711 59.93443 20.96380 
196 60.73851 100.0000 39.60120 48.85510 65.93167 27.18342 
197 0.00000 19.96473 33.59657 3.128550 3.752727 8.933885 
198 17.60504 24.51640 35.97936 4.793397 5.425935 10.49514 
199 40.75593 34.57710 58.40120 14.84907 14.53729 28.88810 
200 57.51345 40.17774 68.58025 24.67234 22.52508 41.10414 
201 76.70521 0.00000 62.23479 29.72164 20.20158 33.26179 
202 76.59871 15.58363 71.57119 32.64188 23.44871 44.87804 
203 81.00699 18.62900 100.0000 46.99572 36.39674 96.54207 
204 13.93827 61.99120 90.55048 26.95469 34.01983 74.46035 
205 32.58985 72.06998 100.0000 39.50841 48.36935 100.3336 
206 0.00000 100.0000 64.29343 39.99979 62.44739 46.74494 
207 37.38849 100.0000 72.36823 46.88280 67.35310 57.65271 
208 36.53281 32.84232 0.00000 7.689927 7.817400 2.415538 
209 46.81600 33.65240 14.22132 11.24830 10.16395 3.921696 
210 64.19157 37.23773 14.68114 19.55963 15.83866 5.159697 
211 73.49481 49.29447 37.93169 30.17278 26.31755 16.05812 
212 79.12470 69.13347 88.71833 53.32700 52.72475 75.72187 
213 90.70051 78.82627 89.67851 67.73469 66.78096 80.30927 
214 44.81836 50.33322 38.55477 16.75982 18.80539 14.99136 
215 60.58360 60.84009 48.55009 28.24306 30.07085 24.27671 
216 36.33068 76.84642 0.00000 22.96150 33.76235 8.934686 
217 61.54757 89.84100 17.67193 39.97226 51.87849 14.86129 
218 78.81582 90.15962 44.52606 53.26074 60.95184 28.67427 
219 44.38830 66.93713 44.93149 23.56912 29.84877 21.75696 
220 71.13633 73.48604 49.68782 40.12839 43.46923 28.34830 
221 94.39689 85.82919 68.09915 68.23737 68.75370 51.25650 
222 58.34204 75.26674 0.00000 30.05608 37.05018 9.482789 
223 76.07496 85.75699 14.00320 45.93146 52.65314 14.03973 
224 81.93127 100.0000 63.38739 66.19523 77.79252 48.74623 
225 100.0000 100.0000 70.22458 83.89424 88.89148 58.78471 
226 23.79245 17.62499 64.17479 9.825992 9.434872 33.24610 
227 32.82416 32.17112 86.45638 20.14412 20.16222 64.88502 
228 36.39343 74.85377 88.99885 36.31886 45.97306 75.13766 
229 60.73241 88.48682 100.0000 58.31109 69.22940 105.2235 
230 2.941176 2.941176 2.941176 0.556458 0.585742 0.787342 
231 3.968254 3.968254 3.968254 0.588516 0.619578 0.822540 
232 5.020080 5.020080 5.020080 0.634999 0.668999 0.872524 
233 6.097561 6.097561 6.097561 0.697126 0.735013 0.939557 
234 0.00000 0.00000 0.00000 0.518038 0.545561 0.744176 
235 0.00000 2.941176 0.00000 0.531271 0.567992 0.749810 
236 55.69846 28.90900 78.56133 24.68556 21.28199 53.85039 
237 57.76864 47.82177 83.11975 31.15885 30.27037 61.97974 
238 72.87735 52.23670 86.28827 41.98227 38.58814 68.65888 
239 89.19777 63.12102 100.0000 64.19842 58.38143 101.8364 
240 49.91694 0.00000 79.74133 20.55602 16.65161 54.17884 
241 59.48211 12.40399 91.48357 28.77733 23.31190 72.61941 
242 58.13174 24.26107 100.0000 34.06103 29.48173 95.28223 
243 73.80985 44.26420 100.0000 46.66085 41.16700 97.91004 
244 0.00000 23.29022 57.55481 7.306241 8.078948 26.72663 
245 13.22269 36.33751 64.54138 11.37308 13.38025 34.66227 
246 22.34983 48.42899 66.73088 16.02188 19.73051 38.59931 
247 56.35838 52.81081 70.21304 28.25481 28.82299 44.76887 
248 100.0000 0.00000 0.00000 42.84649 25.47079 5.516709 
249 100.0000 0.00000 28.39152 44.00545 26.59485 10.89498 
250 100.0000 0.00000 48.09665 46.53766 29.05083 22.64603 
251 0.00000 56.06236 24.47094 10.28224 16.49672 8.387670 
252 0.00000 57.90589 40.98141 12.65712 19.25865 16.74332 
253 27.59111 62.67943 48.08912 17.92321 24.74411 22.96339 
254 0.00000 55.65402 55.33499 14.37290 20.36476 27.94892 
255 9.650956 64.52024 55.29003 17.87463 26.05981 29.33489 
256 10.68375 77.18257 89.07868 33.43229 45.59556 75.30199 
257 82.01070 100.0000 100.0000 79.48303 90.65811 110.1467 
258 66.32653 0.00000 0.00000 16.91775 10.20258 2.593243 
259 76.08696 0.00000 0.00000 22.86105 13.70231 3.263350 
260 78.89933 29.02539 0.00000 26.87568 18.40729 4.378462 
261 83.15148 51.69979 0.00000 35.34448 29.37043 7.024530 
262 85.30320 78.57050 0.00000 48.42740 49.71436 12.07660 
263 84.74717 80.62868 27.33499 50.10666 52.27226 17.41302 
264 88.50846 83.65098 46.72389 57.23025 59.19460 29.55109 
265 100.0000 87.34902 90.04184 81.32788 80.04196 83.84325 
266 2.941176 0.00000 0.00000 0.535563 0.555881 0.746152 
267 6.097561 0.00000 0.00000 0.598737 0.593081 0.753275 
268 8.422381 17.01180 24.35857 2.152291 2.540311 4.837859 
269 15.46462 47.94879 38.70372 9.786355 13.89639 14.05977 
270 17.17491 66.79595 38.13356 16.60393 25.31235 16.61290 
271 30.77309 76.75097 52.74430 26.14508 37.32328 29.94918 
272 29.29976 92.03197 57.41495 35.36890 52.66144 37.70943 
273 63.34138 100.0000 66.85440 55.35848 71.73208 51.33658 
274 64.26488 100.0000 88.19920 62.39543 78.36632 81.72463 
275 10.76249 24.96512 17.57175 2.711538 3.670509 3.204526 
276 17.42773 30.02489 31.74326 5.123204 6.340874 8.697626 
277 100.0000 58.66852 47.66142 56.30027 45.65448 26.48069 
278 100.0000 80.31709 50.00941 66.72135 63.01035 32.71095 
279 0.00000 50.00000 0.00000 7.498841 12.37845 3.716557 
280 0.00000 77.73671 33.86372 20.75321 33.60655 16.56070 
281 4.690048 81.06565 48.79319 24.60561 38.55790 27.06820 
282 3.339494 85.22051 74.02230 32.76072 48.15495 55.25996 
283 28.46356 73.12674 65.71255 26.49037 36.48168 41.64036 
284 39.96122 77.81802 78.49446 35.42288 45.81665 60.13509 
285 67.06147 87.49291 78.25113 52.11898 61.48878 63.37917 
286 84.02335 100.0000 85.68041 74.25739 85.01648 79.08381 
287 73.37059 33.95879 25.15064 24.99781 18.56923 8.418400 
288 72.74506 42.71204 50.13282 29.71347 24.67701 23.95968 
289 87.96040 44.16989 61.20596 43.15504 33.84718 35.39626 
290 57.69231 0.00000 0.00000 12.48480 7.592224 2.093428 
291 64.12702 17.56269 15.19258 16.64284 10.91854 4.016648 
292 88.22672 21.93186 13.84284 33.25931 21.17751 5.788796 
293 100.0000 33.66884 26.88616 46.77695 31.38986 11.51053 
294 100.0000 78.80081 70.36824 70.44230 66.05795 53.24104 
295 100.0000 100.0000 86.32095 88.84942 93.69747 81.77982 
296 100.0000 100.0000 100.0000 95.34760 100.0000 111.9354 
297 37.27455 44.33671 14.42537 10.68295 12.49577 4.647280 
298 56.11178 50.56449 13.97419 19.16738 19.53088 6.103988 
299 70.10361 51.54766 20.10912 27.17529 24.70653 8.466335 
300 88.05593 53.74970 51.57718 44.26116 37.00124 27.88059 
301 87.72902 66.55351 57.35163 49.86653 46.01382 34.99208 
302 31.41422 18.42988 0.00000 4.467880 3.733021 1.433338 
303 43.28606 28.76937 39.49988 11.36579 10.13361 13.35608 
304 57.00206 33.33911 41.76108 17.70051 14.83185 15.70153 
305 74.99549 32.87336 57.53726 30.39909 23.28215 29.76931 
306 82.64806 37.22589 76.90343 41.57729 32.71618 54.16386 
307 49.17472 0.00000 41.83872 11.66272 8.133101 14.18031 
308 58.31489 0.00000 64.02877 19.63091 14.41546 33.97586 
309 66.96215 15.74925 82.63990 30.00833 23.15358 59.33747 
310 75.82663 36.68229 85.96502 39.49841 32.43233 66.53309 
311 59.76734 0.00000 36.35931 15.43438 10.08730 11.43569 
312 65.20394 23.24315 40.22676 20.04253 14.42472 14.52473 
313 35.14965 0.00000 19.71226 5.078846 3.422281 3.528950 
314 37.22227 12.91934 70.87942 14.16121 12.27939 41.74917 
315 38.44655 32.66292 71.36593 17.02435 16.64910 43.50626 
316 51.28377 52.61223 27.96567 18.71361 20.32674 10.31293 
317 63.45399 73.56730 27.14702 32.74217 38.04997 14.25130 
318 63.20869 81.14689 43.17627 38.32954 46.33249 24.42191 
319 19.84723 24.39988 14.27805 3.337657 3.900378 2.585269 
320 31.59139 25.80600 13.89080 5.589738 5.430334 2.831552 
321 39.42503 26.71593 26.84801 8.525094 7.606072 6.826839 
322 44.33505 53.47063 61.64978 21.67166 24.35651 34.29679 
323 48.81055 72.78025 65.59899 32.05221 39.54495 42.08356 
324 0.00000 35.63734 34.69986 5.597837 7.850384 10.49639 
325 14.04995 37.06931 42.16706 7.341175 9.552310 15.02379 
326 17.06012 41.12977 92.25581 21.19620 23.54059 74.19136 
327 32.40746 52.34219 100.0000 31.58330 34.98245 96.97239 
328 100.0000 78.54217 100.0000 81.72222 76.90415 106.1338 
329 71.90952 16.91452 31.92260 22.41507 14.72379 10.21968 
330 89.71096 43.61020 34.25986 40.05530 30.14830 14.73396 
331 53.09584 24.34250 0.00000 11.95317 8.875354 2.485187 
332 55.16963 43.87411 42.72456 19.37949 18.45872 17.25686 
333 70.26132 54.35962 50.84954 31.84714 29.85648 25.90957 
334 0.957854 0.957854 0.957854 0.524477 0.552505 0.751057 
335 1.937984 1.937984 1.937984 0.535225 0.563588 0.764291 
336 17.98408 11.79945 6.721818 1.753036 1.604885 1.165057 
337 25.91268 15.02719 15.33526 3.354986 2.867849 2.480867 
338 29.61452 17.13749 46.43443 7.367310 6.608696 17.14157 
339 14.36833 13.56346 34.56702 3.241297 3.262646 9.259489 
340 15.34348 15.13386 48.42579 5.401609 5.404229 18.42935 
341 20.75551 0.00000 34.50504 3.550289 3.008921 9.140451 
342 32.01694 14.45335 36.09829 6.235916 5.158663 10.40230 
343 46.87261 14.77223 46.94145 12.09718 9.218929 18.00380 
344 48.41941 34.88579 88.59893 26.05244 24.46870 69.02068 
345 57.14715 89.50306 88.91512 51.63485 63.83141 79.24366 
346 0.00000 34.57380 78.47513 14.55089 16.38525 52.90808 
347 7.493251 48.49418 84.97952 20.12546 24.24074 63.68933 
348 0.00000 78.12790 100.0000 39.18592 51.62661 101.2728 
349 0.00000 100.0000 100.0000 53.01914 75.07477 107.1629 
350 45.83804 52.06515 0.00000 15.40467 17.75790 4.812845 
351 67.60969 61.43581 0.00000 28.53662 29.05517 7.302179 
352 100.0000 71.48024 0.00000 58.15180 51.41422 12.03361 
353 100.0000 83.61513 23.44069 65.21488 62.84325 18.19894 
354 64.93851 56.27489 37.41811 27.24510 27.05524 16.15223 
355 82.97942 67.46130 45.72926 44.35205 42.39639 24.75819 
356 0.00000 71.32152 0.00000 15.74276 26.35239 7.226764 
357 0.00000 76.08696 0.00000 18.21420 30.54163 8.279086 
358 0.00000 77.94138 57.49838 24.61521 37.42674 34.05003 
359 24.36763 88.85408 70.50082 35.56578 51.74470 51.24815 
360 82.29892 64.15426 14.75688 39.38361 36.73180 10.01727 
361 89.46168 64.11385 33.17203 46.52401 41.44337 17.06012 
362 90.68477 64.67882 71.59690 55.13871 49.55128 51.08868 
363 26.82853 33.04679 13.67327 5.755840 6.800267 3.174750 
364 31.07800 43.31413 48.22173 12.35959 14.49978 20.46770 
365 66.75086 67.12904 88.56677 44.60046 46.54139 74.22003 
366 74.57994 66.82728 100.0000 54.92919 54.65703 101.2820 
367 0.00000 0.00000 43.10345 3.393512 3.334462 14.08818 
368 46.06484 28.05583 52.25770 14.28498 12.53090 23.15518 
369 61.82528 27.86003 57.54840 21.87000 17.34813 28.55933 
370 32.69467 0.00000 30.41661 5.332681 3.895584 7.405640 
371 38.97998 0.00000 50.95514 9.825805 7.634060 20.89659 
372 44.05902 16.97112 61.18208 14.04008 11.59573 30.64531 
373 59.54744 22.38060 68.44094 22.51948 17.86855 39.73303 
374 79.69594 89.51580 90.53621 65.24104 72.05056 83.13953 
375 95.52846 95.52846 95.52846 84.42156 88.60879 95.04010 
376 100.0000 100.0000 100.0000 95.34760 100.0000 111.9354 
377 33.09208 48.51387 42.12253 13.32944 16.34665 16.59535 
378 32.94085 58.94082 57.74332 19.49156 24.81171 30.96927 
379 53.29230 72.66405 89.71047 41.09491 47.60323 76.36326 
380 16.97761 49.11095 55.26134 13.06144 17.27087 27.08351 
381 23.04924 87.65364 88.01156 40.10058 55.70980 76.23582 
382 28.58704 89.25776 100.0000 47.94976 63.63668 104.1992 
383 0.00000 55.44674 75.47049 19.36622 25.15779 51.41142 
384 0.00000 56.76146 100.0000 29.63663 35.43998 97.20677 
385 58.99300 71.18023 100.0000 48.17892 52.97347 101.1693 
386 14.04145 31.42362 46.56474 6.972193 8.427416 17.77432 
387 27.05621 32.18351 55.16749 10.45610 11.23203 25.43784 
388 38.24468 45.80102 67.38741 18.81723 20.58321 39.44631 
389 55.95966 66.62734 68.66705 32.75439 36.96543 44.86143 
390 63.45636 78.44202 84.20614 46.87911 53.56745 69.34914 
391 80.00319 88.70199 100.0000 70.06250 76.29012 106.5884 
END_DATA
CTI1   

DESCRIPTOR "Argyll Calibration Target chart information 1"
ORIGINATOR "Argyll targen"
DENSITY_EXTREME_VALUES "8"
CREATED "April 19, 2017"

NUMBER_OF_FIELDS 7
BEGIN_DATA_FORMAT
INDEX RGB_R RGB_G RGB_B XYZ_X XYZ_Y XYZ_Z 
END_DATA_FORMAT

NUMBER_OF_SETS 8
BEGIN_DATA
0 100.0000 100.0000 100.0000 95.34760 100.0000 111.9354 
1 0.00000 0.00000 100.0000 20.46286 19.88990 93.30064 
2 100.0000 0.00000 61.10232 49.05161 31.48909 34.31234 
3 0.00000 0.00000 46.06360 3.861160 3.788029 16.25835 
4 100.0000 68.75181 0.00000 56.80908 49.13823 11.46189 
5 0.00000 36.62859 0.00000 3.995112 6.439414 2.224692 
6 58.81427 0.00000 0.00000 12.99752 7.894138 2.151237 
