Lenovo/ThinkPad X61/N121X5-L06 #1 2017-04-19 15-14 D6500 2.2 F-S XYZLUT+MTX/N121X5-L06 #1 2017-04-19 15-14 D6500 2.2 F-S XYZLUT+MTX.ti3
CTI3   

DESCRIPTOR "Argyll Calibration Target chart information 3"
ORIGINATOR "Argyll dispread"
CREATED "Wed Apr 19 15:22:56 2017"
DEVICE_CLASS "DISPLAY"
SINGLE_DIM_STEPS 17
COMP_GREY_STEPS 49
DARK_REGION_EMPHASIS 1.6
COLOR_REP "RGB_XYZ"
TARGET_INSTRUMENT "X-Rite i1 DisplayPro, ColorMunki Display"
DISPLAY_TYPE_REFRESH "NO"
DISPLAY_TYPE_BASE_ID 1
INSTRUMENT_TYPE_SPECTRAL "NO"
LUMINANCE_XYZ_CDM2 "69.817770 73.285456 80.363003"
NORMALIZED_TO_Y_100 "YES"
VIDEO_LUT_CALIBRATION_POSSIBLE "YES"

BEGIN_ARGYLL_COLPROF_ARGS
-v -qh -aX -bn -C "No copyright. Created with DisplayCAL 3.2.4.0 and Argyll CMS 1.9.2" -M "N121X5-L06" -A "Lenovo Group Limited"
END_ARGYLL_COLPROF_ARGS

KEYWORD "OBSERVER"
OBSERVER "1931_2"
KEYWORD "USE_BLACK_POINT_COMPENSATION"
USE_BLACK_POINT_COMPENSATION "NO"
KEYWORD "HIRES_B2A"
HIRES_B2A "YES"
KEYWORD "HIRES_B2A_SIZE"
HIRES_B2A_SIZE "-1"
KEYWORD "SMOOTH_B2A"
SMOOTH_B2A "YES"

NUMBER_OF_FIELDS 7
BEGIN_DATA_FORMAT
SAMPLE_ID RGB_R RGB_G RGB_B XYZ_X XYZ_Y XYZ_Z
END_DATA_FORMAT

NUMBER_OF_SETS 413
BEGIN_DATA
1 100.0000 100.0000 100.0000 95.26825 100.0000 109.6575
2 4.166700 4.166700 4.166700 0.597291 0.627871 0.827889
3 8.333300 8.333300 8.333300 0.849759 0.904523 1.113033
4 12.50000 12.50000 12.50000 1.470944 1.556887 1.780205
5 16.66700 16.66700 16.66700 2.397371 2.541035 2.826964
6 20.83300 20.83300 20.83300 3.471781 3.689611 4.140508
7 25.00000 25.00000 25.00000 4.853134 5.135498 5.724373
8 29.16700 29.16700 29.16700 6.360276 6.718472 7.604843
9 33.33300 33.33300 33.33300 8.553693 8.965348 9.831356
10 37.50000 37.50000 37.50000 11.25967 11.89430 12.90322
11 41.66700 41.66700 41.66700 13.91136 14.61504 16.00442
12 45.83300 45.83300 45.83300 16.90366 17.89873 19.54080
13 54.16700 54.16700 54.16700 24.54952 25.84538 28.11721
14 58.33300 58.33300 58.33300 28.74130 30.39536 33.11903
15 62.50000 62.50000 62.50000 32.74076 34.48013 37.65125
16 66.66700 66.66700 66.66700 38.02329 40.13595 43.68373
17 70.83300 70.83300 70.83300 44.21501 46.39062 50.90098
18 75.00000 75.00000 75.00000 49.51257 52.30548 56.97146
19 79.16700 79.16700 79.16700 56.48528 59.41339 64.73650
20 83.33300 83.33300 83.33300 63.03925 66.38136 72.24719
21 87.50000 87.50000 87.50000 70.54417 74.25020 80.53369
22 91.66700 91.66700 91.66700 78.52995 82.37718 90.10922
23 95.83300 95.83300 95.83300 86.21835 90.41026 99.42931
24 26.08407 0.000000 57.04454 7.583810 6.010422 24.78325
25 27.26996 0.000000 83.43214 15.19366 13.00439 59.37107
26 42.23230 17.54539 89.90039 22.23679 19.09607 71.03524
27 46.87252 55.31075 90.05863 32.22562 34.65080 75.81165
28 90.67932 84.95807 100.0000 77.62893 80.07054 105.7026
29 60.12892 42.25760 0.000000 18.67520 16.98488 5.026257
30 60.36921 100.0000 0.000000 45.45178 61.97746 15.86673
31 78.93338 100.0000 33.36165 58.57448 70.60211 24.44792
32 100.0000 100.0000 51.78617 79.31051 83.58849 38.57238
33 9.493671 0.000000 0.000000 0.751256 0.691028 0.798429
34 13.15789 0.000000 0.000000 1.024767 0.856008 0.843879
35 17.12329 0.000000 0.000000 1.452913 1.110680 0.912655
36 21.42857 0.000000 0.000000 1.973933 1.420871 0.993420
37 26.11940 0.000000 0.000000 2.626000 1.808909 1.096771
38 31.25000 0.000000 0.000000 3.604367 2.389252 1.241381
39 34.22464 0.000000 0.000000 4.317287 2.811876 1.347724
40 36.88525 0.000000 0.000000 5.070986 3.258414 1.456370
41 43.10345 0.000000 0.000000 6.993807 4.394136 1.734170
42 50.00000 0.000000 0.000000 9.272842 5.740572 2.047048
43 75.76865 0.000000 24.98905 23.14050 14.09550 7.536339
44 88.03786 16.90527 28.60349 33.53206 21.07320 10.19408
45 87.88999 22.25101 47.25915 36.29010 23.89177 21.18629
46 100.0000 33.72974 48.88421 49.61406 33.73895 24.11707
47 100.0000 34.64834 67.97232 53.68850 37.39715 43.02264
48 100.0000 53.04497 86.04950 64.62780 51.76941 71.71389
49 0.000000 9.493671 0.000000 0.681414 0.837045 0.843120
50 0.000000 13.15789 0.000000 0.879640 1.206409 0.949657
51 0.000000 17.12329 0.000000 1.215399 1.812313 1.123213
52 0.000000 21.42857 0.000000 1.589985 2.483686 1.311977
53 0.000000 26.11940 0.000000 2.113658 3.415766 1.572733
54 0.000000 31.25000 0.000000 2.845171 4.700459 1.927283
55 23.16924 35.81255 0.000000 5.411073 7.273122 2.632302
56 86.66404 46.43098 20.35374 37.21510 29.27481 9.878265
57 0.000000 0.000000 0.000000 0.528955 0.556602 0.756666
58 33.72636 11.64346 14.53930 4.874478 3.548080 2.573893
59 44.86478 14.14241 26.22087 8.939746 6.307614 6.403389
60 46.49399 15.70750 36.54380 10.49312 7.570290 11.00705
61 78.19447 35.42667 40.96985 29.91534 22.28097 16.82242
62 87.20930 0.000000 0.000000 30.58912 18.28674 4.488771
63 100.0000 41.03990 0.000000 47.52959 33.42520 7.651913
64 100.0000 60.10995 23.45626 54.54819 44.66432 13.87868
65 0.000000 0.000000 6.097561 0.553364 0.576530 0.889040
66 0.000000 0.000000 9.493671 0.600183 0.611402 1.100574
67 0.000000 0.000000 13.15789 0.698386 0.691393 1.597567
68 0.000000 0.000000 17.12329 0.873804 0.833322 2.434980
69 0.000000 0.000000 21.42857 1.078647 1.001456 3.443725
70 0.000000 0.000000 26.11940 1.394018 1.264335 4.972761
71 0.000000 0.000000 31.25000 1.781945 1.588042 6.840814
72 0.000000 0.000000 36.88525 2.363649 2.074707 9.610153
73 0.000000 0.000000 50.00000 4.202158 3.645094 18.38759
74 0.000000 0.000000 57.69231 5.527107 4.802158 24.68538
75 0.000000 0.000000 66.32653 7.476528 6.545272 33.94520
76 14.39453 22.16659 78.35090 12.89717 12.37206 51.47857
77 28.63475 23.85268 100.0000 24.12694 23.70234 92.08888
78 53.52699 46.92084 100.0000 36.71362 36.85555 95.74791
79 100.0000 48.63972 100.0000 69.58366 56.67997 99.20883
80 0.000000 19.56492 19.04165 1.874126 2.566425 3.344776
81 30.32311 24.01162 34.53292 6.311201 5.960494 9.489652
82 48.38497 43.96067 55.35957 18.49610 18.54961 26.88737
83 75.58181 68.72073 60.60051 43.02180 43.64562 38.25036
84 84.20579 72.17683 74.88476 54.76760 53.75298 56.85730
85 7.201646 7.201646 7.201646 0.746317 0.783117 0.979695
86 8.333333 8.333333 8.333333 0.846505 0.901275 1.109353
87 9.493671 9.493671 9.493671 0.970338 1.026620 1.226869
88 10.68376 10.68376 10.68376 1.130546 1.211104 1.385217
89 11.90476 11.90476 11.90476 1.357869 1.439221 1.643672
90 13.15789 13.15789 13.15789 1.559048 1.652608 1.889766
91 14.44444 14.44444 14.44444 1.849910 1.944415 2.155143
92 15.76577 15.76577 15.76577 2.104480 2.216437 2.478073
93 17.12329 17.12329 17.12329 2.508725 2.669049 2.990936
94 18.51852 18.51852 18.51852 2.793462 2.982082 3.351572
95 19.95305 19.95305 19.95305 3.170518 3.355752 3.876986
96 21.42857 21.42857 21.42857 3.643839 3.849335 4.296679
97 22.94686 22.94686 22.94686 4.102728 4.347717 4.860857
98 24.50980 24.50980 24.50980 4.506214 4.753770 5.420509
99 26.11940 26.11940 26.11940 5.162943 5.464928 6.228683
100 27.77778 27.77778 27.77778 5.815065 6.181320 6.902722
101 29.48718 29.48718 29.48718 6.450518 6.816757 7.565979
102 31.25000 31.25000 31.25000 7.316858 7.710924 8.673125
103 33.06878 33.06878 33.06878 8.208019 8.623247 9.448422
104 34.94624 34.94624 34.94624 9.337805 9.794289 10.81187
105 36.88525 36.88525 36.88525 10.56734 11.13223 12.29975
106 38.88889 38.88889 38.88889 11.85844 12.52282 13.81940
107 40.96045 40.96045 40.96045 13.16305 13.92736 15.06486
108 43.10345 43.10345 43.10345 14.85039 15.63270 17.06787
109 45.32164 45.32164 45.32164 16.50148 17.38474 19.21711
110 47.61905 47.61905 47.61905 17.93892 19.03862 20.74020
111 50.00000 50.00000 50.00000 20.22385 21.44012 23.55721
112 52.46914 52.46914 52.46914 22.24183 23.52183 25.66424
113 55.03145 55.03145 55.03145 24.87810 26.18811 28.37532
114 57.69231 57.69231 57.69231 27.45292 28.98130 31.62005
115 60.45752 60.45752 60.45752 30.45756 32.01582 34.96261
116 63.33333 63.33333 63.33333 33.50024 35.31103 38.45147
117 66.32653 66.32653 66.32653 37.17763 39.27253 43.14032
118 69.44444 69.44444 69.44444 41.35185 43.51981 47.66781
119 72.69504 72.69504 72.69504 45.91418 48.28255 53.01094
120 76.08696 76.08696 76.08696 51.05820 53.75215 58.72928
121 79.62963 79.62963 79.62963 56.44163 59.53123 64.96780
122 83.33333 83.33333 83.33333 62.71662 65.95289 71.72212
123 87.20930 87.20930 87.20930 69.22686 72.90107 79.51899
124 91.26984 91.26984 91.26984 77.52813 81.39411 88.35172
125 0.000000 75.10756 76.46673 27.93946 39.70143 54.95691
126 0.000000 100.0000 82.96070 44.07293 65.40941 70.44219
127 32.40083 100.0000 90.24681 50.56818 70.47808 83.91281
128 100.0000 100.0000 100.0000 94.87547 99.44211 109.3948
129 0.000000 57.69231 0.000000 9.840366 16.88852 5.176412
130 0.000000 66.32653 0.000000 13.21574 22.68078 6.666055
131 0.000000 87.20930 0.000000 23.94631 41.07281 11.07978
132 0.000000 100.0000 0.000000 31.38591 53.45616 13.83613
133 36.14970 100.0000 0.000000 35.95475 56.16395 14.53453
134 80.57252 100.0000 0.000000 57.25672 68.66898 17.14977
135 100.0000 100.0000 0.000000 74.16974 78.65719 18.56177
136 100.0000 100.0000 30.12992 75.96077 80.44099 24.50355
137 37.85542 52.37555 29.01465 14.36797 17.98137 10.53113
138 47.92339 61.06172 52.99041 23.74985 27.98962 27.19252
139 61.68030 72.29286 58.74494 35.98489 41.23534 35.93719
140 85.84581 84.06375 73.81559 61.92626 64.71336 57.70995
141 16.19407 31.34095 13.25200 3.798842 5.324853 2.913600
142 33.52772 34.10597 45.92374 10.08292 10.32889 17.27981
143 33.23291 58.30569 83.19373 26.51967 31.17466 63.39301
144 0.000000 0.000000 87.20930 13.86431 12.65501 63.53470
145 0.000000 0.000000 100.0000 20.08213 19.54317 90.52492
146 0.000000 31.62191 100.0000 22.58106 23.99042 91.85804
147 0.000000 38.93809 54.69337 8.868003 11.33067 23.50371
148 70.62916 44.54619 69.11434 32.86992 28.29674 43.20415
149 85.51318 50.56079 72.15386 45.79703 38.03748 49.58211
150 89.72271 55.71543 89.29215 57.16831 49.20385 77.48997
151 0.000000 6.097561 0.000000 0.590011 0.669929 0.788133
152 18.23541 19.16584 0.000000 2.410756 2.709408 1.372109
153 30.09842 56.14200 0.000000 12.16865 17.62922 5.373171
154 39.26516 68.85696 22.47455 20.79622 29.15941 11.21609
155 41.00997 78.35778 37.83746 27.54609 38.81052 19.61012
156 50.00496 82.23612 59.18349 36.12103 47.18104 37.34330
157 48.90810 88.73727 72.94219 43.21129 56.66951 55.52711
158 50.89793 100.0000 100.0000 61.27095 79.70029 105.6872
159 0.000000 0.000000 76.08696 10.12996 8.991254 46.37141
160 29.28027 41.37008 77.11129 17.92800 19.15552 51.60238
161 13.59287 62.08573 70.43669 20.37514 27.46141 44.94914
162 36.51411 62.43155 72.13679 25.08849 30.72482 48.15711
163 50.33831 60.34848 76.46101 29.95810 33.14634 54.29725
164 71.67772 72.22622 81.99747 48.19384 50.63884 66.50045
165 0.000000 36.88525 0.000000 3.936620 6.620240 2.452748
166 0.000000 43.10345 0.000000 5.406005 9.194821 3.149319
167 26.29425 49.53253 15.42258 9.548449 13.71216 5.598523
168 48.12088 63.50354 14.19543 20.44106 25.80122 8.448630
169 71.66951 66.63845 27.19337 34.37368 35.89673 14.01769
170 71.50524 88.23105 68.67339 52.40415 61.35528 50.82159
171 20.22668 66.60144 18.68505 15.32797 24.49548 9.182449
172 21.12591 83.31094 19.28792 24.08299 39.11814 12.73192
173 46.70494 86.59057 24.07889 32.44651 46.26211 15.76420
174 28.02977 11.48815 22.39127 3.787213 2.953215 4.294517
175 64.63458 14.49102 50.46743 20.06312 13.60750 21.18709
176 81.55749 14.38399 55.31999 31.59738 20.64751 26.64352
177 90.10665 23.05577 71.02781 43.26947 29.64292 45.42173
178 100.0000 31.23043 87.87912 59.23648 42.41142 72.15775
179 100.0000 70.26768 87.73617 72.05112 64.41745 77.77731
180 71.31179 53.04482 61.64654 33.78160 30.98812 35.77059
181 100.0000 59.35360 67.69142 60.69125 49.85670 45.98744
182 0.000000 0.000000 0.000000 0.527836 0.555218 0.755188
183 0.000000 0.000000 2.941176 0.528609 0.556271 0.769664
184 53.16208 0.000000 20.61413 11.05037 6.903027 4.798041
185 79.73397 0.000000 43.72023 27.50263 17.14517 17.09177
186 100.0000 0.000000 65.84386 49.25613 31.15877 38.98075
187 100.0000 0.000000 82.26502 54.27545 35.81382 61.74985
188 17.93428 0.000000 16.97765 1.810723 1.387812 2.461084
189 18.93863 12.99196 25.05399 2.749561 2.498053 4.903269
190 27.21889 55.79845 32.01694 13.10974 18.70001 11.91561
191 25.39005 86.73578 37.71276 28.04486 44.05812 20.72661
192 55.83336 89.28904 51.38407 41.06969 54.14155 32.26837
193 83.68541 88.84947 65.15490 60.75587 66.62886 47.77037
194 13.36124 44.14564 20.76268 6.811034 10.57057 5.960480
195 0.000000 100.0000 27.89894 32.80101 54.92607 18.61445
196 0.000000 100.0000 47.41870 35.06512 56.97436 29.22187
197 37.62798 100.0000 51.95329 40.87199 60.62740 33.93011
198 41.69351 19.34128 13.82163 7.597084 5.833674 3.066975
199 53.35220 20.37620 22.09926 12.26851 8.815696 5.631117
200 58.97417 34.87420 28.67855 17.37876 14.36873 9.225773
201 57.89660 41.16220 54.00868 21.74539 19.56620 26.04956
202 67.36883 58.75076 70.20057 36.00495 35.48683 46.63409
203 81.07610 62.54178 79.01174 48.88781 45.45482 60.17899
204 0.000000 0.000000 0.000000 0.528048 0.554819 0.753579
205 0.000000 35.65314 21.27614 4.305905 6.755850 5.028654
206 17.39542 36.53846 28.30101 5.841806 7.929935 7.495158
207 29.21801 40.13281 27.98200 8.428191 10.43078 8.025790
208 42.23847 0.000000 100.0000 26.16991 23.29872 91.79153
209 71.84384 0.000000 100.0000 39.22815 31.03083 93.53700
210 100.0000 0.000000 100.0000 61.99403 44.29176 95.74555
211 76.90853 0.000000 84.37514 35.54230 25.12834 62.89410
212 89.05755 17.68649 88.65902 47.20288 33.45167 71.41327
213 90.74119 34.71092 100.0000 56.84352 45.01821 96.61449
214 38.97452 37.70159 25.46729 10.20100 10.87773 7.340720
215 52.55034 42.01967 29.93511 16.22754 15.66461 9.984162
216 53.64815 65.43363 36.93648 25.41831 30.13276 17.13222
217 38.97174 100.0000 29.33011 38.02065 58.08349 20.04667
218 60.73851 100.0000 39.60120 47.63398 64.08140 26.46051
219 0.000000 19.96473 33.59657 2.869694 3.387317 8.173572
220 17.60504 24.51640 35.97936 4.597135 5.103476 9.966773
221 40.75593 34.57710 58.40120 14.46085 13.66872 28.27105
222 57.51345 40.17774 68.58025 24.45569 21.84570 40.98884
223 76.70521 0.000000 62.23479 29.05406 19.02515 32.70818
224 76.59871 15.58363 71.57119 32.14362 22.33369 44.94330
225 81.00699 18.62900 100.0000 46.93188 36.51213 94.80790
226 13.93827 61.99120 90.55048 27.19321 34.11003 75.87953
227 32.58985 72.06998 100.0000 39.67192 49.66348 98.77043
228 0.000000 100.0000 64.29343 38.32867 59.83334 44.43973
229 37.38849 100.0000 72.36823 45.55331 64.94612 56.40833
230 36.53281 32.84232 0.000000 7.549285 7.794917 2.735732
231 46.81600 33.65240 14.22132 11.05081 10.13398 4.309712
232 64.19157 37.23773 14.68114 19.32066 15.97146 5.687071
233 73.49481 49.29447 37.93169 29.68989 26.07516 16.37855
234 79.12470 69.13347 88.71833 53.91648 53.24682 76.82967
235 90.70051 78.82627 89.67851 68.42722 67.68152 82.29607
236 44.81836 50.33322 38.55477 16.56264 18.72683 15.08313
237 60.58360 60.84009 48.55009 28.18313 30.12607 24.47630
238 36.33068 76.84642 0.000000 22.82189 34.07908 9.512656
239 61.54757 89.84100 17.67193 40.28040 52.75343 15.62213
240 78.81582 90.15962 44.52606 53.83598 61.95904 29.01888
241 44.38830 66.93713 44.93149 23.70448 30.40211 22.11573
242 71.13633 73.48604 49.68782 40.02112 43.57037 28.47535
243 94.39689 85.82919 68.09915 68.85905 69.42790 51.45541
244 58.34204 75.26674 0.000000 30.16166 37.48895 10.27938
245 76.07496 85.75699 14.00320 46.32081 53.80793 14.92674
246 81.93127 100.0000 63.38739 65.02938 75.52786 47.80887
247 100.0000 100.0000 70.22458 82.67931 86.55722 57.50027
248 23.79245 17.62499 64.17479 9.463043 8.452651 32.36649
249 32.82416 32.17112 86.45638 19.73459 19.03116 64.33002
250 36.39343 74.85377 88.99885 36.66209 46.30855 76.45833
251 60.73241 88.48682 100.0000 58.85870 71.04536 103.7634
252 2.941176 2.941176 2.941176 0.546901 0.577191 0.775553
253 3.968254 3.968254 3.968254 0.584451 0.618404 0.803255
254 5.020080 5.020080 5.020080 0.627694 0.660225 0.849818
255 6.097561 6.097561 6.097561 0.698389 0.739619 0.936167
256 0.000000 0.000000 0.000000 0.527344 0.554461 0.753863
257 0.000000 2.941176 0.000000 0.535254 0.569451 0.758017
258 55.69846 28.90900 78.56133 24.18057 20.10377 53.12917
259 57.76864 47.82177 83.11975 30.95900 29.49371 62.51890
260 72.87735 52.23670 86.28827 41.95629 38.13547 69.23831
261 89.19777 63.12102 100.0000 64.06399 59.30102 100.3746
262 49.91694 0.000000 79.74133 19.83604 15.23136 53.63239
263 59.48211 12.40399 91.48357 28.88570 22.71524 74.10624
264 58.13174 24.26107 100.0000 33.78716 29.41274 93.33370
265 73.80985 44.26420 100.0000 46.28745 41.45881 96.45681
266 0.000000 23.29022 57.55481 6.710189 7.006257 25.00425
267 13.22269 36.33751 64.54138 10.95982 12.50858 33.76302
268 22.34983 48.42899 66.73088 15.40763 18.72440 37.47588
269 56.35838 52.81081 70.21304 28.15714 28.28523 44.71228
270 100.0000 0.000000 0.000000 42.19640 25.06072 5.407878
271 100.0000 0.000000 28.39152 43.22950 25.90648 10.39391
272 100.0000 0.000000 48.09665 45.56111 27.91750 21.91238
273 0.000000 56.06236 24.47094 10.12123 16.69542 8.497104
274 0.000000 57.90589 40.98141 12.49179 19.41447 16.40751
275 27.59111 62.67943 48.08912 17.68649 24.82093 22.73206
276 0.000000 55.65402 55.33499 13.95325 20.03929 26.45272
277 9.650956 64.52024 55.29003 17.59967 26.01034 28.24706
278 10.68375 77.18257 89.07868 33.38213 45.46315 75.71632
279 82.01070 100.0000 100.0000 78.46206 89.58089 107.6649
280 66.32653 0.000000 0.000000 16.30911 9.881771 2.944224
281 76.08696 0.000000 0.000000 22.29311 13.42200 3.642113
282 78.89933 29.02539 0.000000 26.67661 18.33200 4.895044
283 83.15148 51.69979 0.000000 35.22406 29.55005 7.735507
284 85.30320 78.57050 0.000000 48.50784 50.08031 12.80371
285 84.74717 80.62868 27.33499 50.32861 53.04578 17.97628
286 88.50846 83.65098 46.72389 57.48273 59.61245 29.61757
287 100.0000 87.34902 90.04184 82.21228 81.07093 85.42209
288 2.941176 0.000000 0.000000 0.538010 0.560845 0.755006
289 6.097561 0.000000 0.000000 0.611488 0.605015 0.767361
290 8.422381 17.01180 24.35857 2.051871 2.411633 4.681732
291 15.46462 47.94879 38.70372 9.488536 13.58126 13.92193
292 17.17491 66.79595 38.13356 16.57572 25.54739 16.45216
293 30.77309 76.75097 52.74430 25.76103 37.28311 28.85254
294 29.29976 92.03197 57.41495 34.98970 52.47203 36.46244
295 63.34138 100.0000 66.85440 53.95846 69.22011 49.74892
296 64.26488 100.0000 88.19920 61.16123 76.12461 81.51177
297 10.76249 24.96512 17.57175 2.653998 3.675839 3.371896
298 17.42773 30.02489 31.74326 4.947610 6.102826 8.302356
299 100.0000 58.66852 47.66142 56.33191 45.88217 26.31298
300 100.0000 80.31709 50.00941 66.94849 63.58246 32.55520
301 0.000000 50.00000 0.000000 7.303965 12.48531 4.023142
302 0.000000 77.73671 33.86372 20.27028 33.58074 15.95865
303 4.690048 81.06565 48.79319 24.43367 38.86101 26.18955
304 3.339494 85.22051 74.02230 32.20772 47.53040 53.20793
305 28.46356 73.12674 65.71255 26.09092 35.97145 41.39666
306 39.96122 77.81802 78.49446 35.19755 45.36498 59.60889
307 67.06147 87.49291 78.25113 52.12535 61.68704 63.51409
308 84.02335 100.0000 85.68041 72.85868 82.58974 78.32963
309 73.37059 33.95879 25.15064 24.39356 18.15303 8.675743
310 72.74506 42.71204 50.13282 29.17887 24.15256 23.76728
311 87.96040 44.16989 61.20596 42.76745 33.15266 35.15527
312 57.69231 0.000000 0.000000 12.26516 7.503188 2.437638
313 64.12702 17.56269 15.19258 16.45331 10.87457 4.511174
314 88.22672 21.93186 13.84284 33.07541 21.15437 6.120024
315 100.0000 33.66884 26.88616 46.42316 31.07202 11.29810
316 100.0000 78.80081 70.36824 70.47731 66.09573 52.67526
317 100.0000 100.0000 86.32095 87.71587 91.28974 80.84182
318 100.0000 100.0000 100.0000 94.18424 98.79000 108.8758
319 37.27455 44.33671 14.42537 10.63238 12.69418 5.054328
320 56.11178 50.56449 13.97419 18.96257 19.56741 6.759513
321 70.10361 51.54766 20.10912 26.85708 24.70119 9.205475
322 88.05593 53.74970 51.57718 44.30792 36.85418 27.71095
323 87.72902 66.55351 57.35163 49.84249 46.06942 34.60578
324 31.41422 18.42988 0.000000 4.373180 3.801543 1.651343
325 43.28606 28.76937 39.49988 11.09605 9.647942 13.14369
326 57.00206 33.33911 41.76108 17.46429 14.39633 15.51966
327 74.99549 32.87336 57.53726 29.49106 22.13666 29.19902
328 82.64806 37.22589 76.90343 41.20141 31.71815 53.58265
329 49.17472 0.000000 41.83872 11.20957 7.485710 13.96357
330 58.31489 0.000000 64.02877 19.08233 13.24445 33.07915
331 66.96215 15.74925 82.63990 29.53454 22.00545 59.82163
332 75.82663 36.68229 85.96502 38.99864 31.47003 66.57831
333 59.76734 0.000000 36.35931 14.87752 9.474100 11.21182
334 65.20394 23.24315 40.22676 19.58434 13.88769 14.64492
335 35.14965 0.000000 19.71226 5.053014 3.346398 3.649035
336 37.22227 12.91934 70.87942 13.77962 11.15977 40.99026
337 38.44655 32.66292 71.36593 16.43984 15.39787 42.70608
338 51.28377 52.61223 27.96567 18.44406 20.25810 10.52452
339 63.45399 73.56730 27.14702 32.83669 38.68633 14.76881
340 63.20869 81.14689 43.17627 38.28290 46.70776 24.62606
341 19.84723 24.39988 14.27805 3.282808 3.863530 2.676201
342 31.59139 25.80600 13.89080 5.491193 5.450225 3.007344
343 39.42503 26.71593 26.84801 8.427838 7.434149 6.672722
344 44.33505 53.47063 61.64978 21.24910 23.64331 33.79727
345 48.81055 72.78025 65.59899 31.65314 39.25079 41.77099
346 0.000000 35.63734 34.69986 5.246354 7.532681 9.618508
347 14.04995 37.06931 42.16706 7.217527 9.386586 14.75629
348 17.06012 41.12977 92.25581 21.35427 23.35571 75.52880
349 32.40746 52.34219 100.0000 31.28470 35.28015 95.02650
350 100.0000 78.54217 100.0000 81.78564 77.97813 104.3072
351 71.90952 16.91452 31.92260 21.70251 14.18237 10.06226
352 89.71096 43.61020 34.25986 39.66763 29.99309 14.53043
353 53.09584 24.34250 0.000000 11.75401 8.806114 2.883134
354 55.16963 43.87411 42.72456 19.30427 18.31026 17.17002
355 70.26132 54.35962 50.84954 31.36552 29.36927 25.53111
356 0.957854 0.957854 0.957854 0.526125 0.553446 0.752547
357 1.937984 1.937984 1.937984 0.534837 0.561932 0.755514
358 17.98408 11.79945 6.721818 1.807118 1.679608 1.229203
359 25.91268 15.02719 15.33526 3.282873 2.852834 2.618549
360 29.61452 17.13749 46.43443 7.012548 6.009150 16.23033
361 14.36833 13.56346 34.56702 3.104872 2.938469 8.466092
362 15.34348 15.13386 48.42579 5.109357 4.763178 17.21929
363 20.75551 0.000000 34.50504 3.347265 2.592409 8.376928
364 32.01694 14.45335 36.09829 5.965850 4.743000 9.816603
365 46.87261 14.77223 46.94145 11.83291 8.658702 17.63563
366 48.41941 34.88579 88.59893 25.61988 23.46360 69.24163
367 57.14715 89.50306 88.91512 52.28965 64.25742 80.67008
368 0.000000 34.57380 78.47513 13.72083 14.82157 50.88541
369 7.493251 48.49418 84.97952 19.76577 23.32487 63.10508
370 0.000000 78.12790 100.0000 38.94943 52.29877 98.82576
371 0.000000 100.0000 100.0000 51.47772 73.41658 103.3975
372 45.83804 52.06515 0.000000 15.19966 17.90828 5.404612
373 67.60969 61.43581 0.000000 28.19591 29.27706 8.126740
374 100.0000 71.48024 0.000000 57.68555 51.19721 12.27691
375 100.0000 83.61513 23.44069 65.00616 63.12184 18.32749
376 64.93851 56.27489 37.41811 27.02660 27.12829 16.17505
377 82.97942 67.46130 45.72926 44.21846 42.42680 24.87294
378 0.000000 71.32152 0.000000 15.35752 26.33893 7.568907
379 0.000000 76.08696 0.000000 17.64184 30.30343 8.535514
380 0.000000 77.94138 57.49838 24.14645 37.16360 32.64476
381 24.36763 88.85408 70.50082 35.60170 52.00616 50.60937
382 82.29892 64.15426 14.75688 39.37767 37.16692 10.87528
383 89.46168 64.11385 33.17203 46.00501 41.27509 17.11682
384 90.68477 64.67882 71.59690 54.81748 49.13111 51.22409
385 26.82853 33.04679 13.67327 5.486776 6.615757 3.337650
386 31.07800 43.31413 48.22173 11.82524 13.93023 19.79594
387 66.75086 67.12904 88.56677 44.29575 46.39147 75.04636
388 74.57994 66.82728 100.0000 54.79274 55.41161 99.67305
389 0.000000 0.000000 43.10345 3.063897 2.675236 13.00142
390 46.06484 28.05583 52.25770 13.67345 11.65310 21.78210
391 61.82528 27.86003 57.54840 21.34249 16.42808 27.85242
392 32.69467 0.000000 30.41661 5.044955 3.514891 7.026112
393 38.97998 0.000000 50.95514 9.264730 6.681374 19.63881
394 44.05902 16.97112 61.18208 13.53907 10.58354 29.72182
395 59.54744 22.38060 68.44094 22.02190 16.72876 39.27442
396 79.69594 89.51580 90.53621 65.42515 72.34180 85.01352
397 95.52846 95.52846 95.52846 85.03507 89.06257 98.47935
