Microsoft/Surface Pro 2017/LP123WQ112604 #1 2023-02-19 20-42 0.3127x 0.329y sRGB F-S XYZLUT+MTX/LP123WQ112604 #1 2023-02-19 20-42 0.3127x 0.329y sRGB F-S XYZLUT+MTX.ti3
CTI3   

DESCRIPTOR "Argyll Calibration Target chart information 3"
ORIGINATOR "Argyll dispread"
CREATED "Sun Feb 19 20:54:23 2023"
DEVICE_CLASS "DISPLAY"
SINGLE_DIM_STEPS "5"
COMP_GREY_STEPS "52"
MULTI_DIM_STEPS "5"
COLOR_REP "RGB_XYZ"
TARGET_INSTRUMENT "X-Rite ColorMunki"
DISPLAY_TYPE_REFRESH "YES"
INSTRUMENT_TYPE_SPECTRAL "YES"
SPECTRAL_BANDS "106"
SPECTRAL_START_NM "380.0"
SPECTRAL_END_NM "730.0"
LUMINANCE_XYZ_CDM2 "253.031602 267.226322 289.495036"
NORMALIZED_TO_Y_100 "YES"
VIDEO_LUT_CALIBRATION_POSSIBLE "YES"

BEGIN_ARGYLL_COLPROF_ARGS
-v -qh -aX -bn -C "No copyright. Created with DisplayCAL 3.8.9.3 and ArgyllCMS 2.3.1d" -M "LP123WQ112604" -A "LG Display"
END_ARGYLL_COLPROF_ARGS

OBSERVER "1931_2"
USE_BLACK_POINT_COMPENSATION "NO"
BLACK_POINT_CORRECTION "0.0"
HIRES_B2A "YES"
HIRES_B2A_SIZE "-1"
SMOOTH_B2A "YES"
PATCH_SEQUENCE "OPTIMIZE_DISPLAY_RESPONSE_DELAY"

NUMBER_OF_FIELDS 113
BEGIN_DATA_FORMAT
SAMPLE_ID RGB_R RGB_G RGB_B XYZ_X XYZ_Y XYZ_Z SPEC_380 SPEC_383 SPEC_387 SPEC_390 SPEC_393 SPEC_397 SPEC_400 SPEC_403 SPEC_407 SPEC_410 SPEC_413 SPEC_417 SPEC_420 SPEC_423 SPEC_427 SPEC_430 SPEC_433 SPEC_437 SPEC_440 SPEC_443 SPEC_447 SPEC_450 SPEC_453 SPEC_457 SPEC_460 SPEC_463 SPEC_467 SPEC_470 SPEC_473 SPEC_477 SPEC_480 SPEC_483 SPEC_487 SPEC_490 SPEC_493 SPEC_497 SPEC_500 SPEC_503 SPEC_507 SPEC_510 SPEC_513 SPEC_517 SPEC_520 SPEC_523 SPEC_527 SPEC_530 SPEC_533 SPEC_537 SPEC_540 SPEC_543 SPEC_547 SPEC_550 SPEC_553 SPEC_557 SPEC_560 SPEC_563 SPEC_567 SPEC_570 SPEC_573 SPEC_577 SPEC_580 SPEC_583 SPEC_587 SPEC_590 SPEC_593 SPEC_597 SPEC_600 SPEC_603 SPEC_607 SPEC_610 SPEC_613 SPEC_617 SPEC_620 SPEC_623 SPEC_627 SPEC_630 SPEC_633 SPEC_637 SPEC_640 SPEC_643 SPEC_647 SPEC_650 SPEC_653 SPEC_657 SPEC_660 SPEC_663 SPEC_667 SPEC_670 SPEC_673 SPEC_677 SPEC_680 SPEC_683 SPEC_687 SPEC_690 SPEC_693 SPEC_697 SPEC_700 SPEC_703 SPEC_707 SPEC_710 SPEC_713 SPEC_717 SPEC_720 SPEC_723 SPEC_727 SPEC_730
END_DATA_FORMAT

NUMBER_OF_SETS 175
BEGIN_DATA
1 100.00000000 100.00000000 100.00000000 94.688100000 100.00000000 108.33300000 0.0053915600 0.0053915600 0.0053915600 0.0053915600 0.0053915600 0.0053915600 0.0053916400 0.0076947700 0.0123727000 0.0225728000 0.0431407000 0.0821239000 0.1498930000 0.2570600000 0.4189770000 0.6541350000 0.9940870000 1.4655900000 2.0819100000 2.7761900000 3.2971900000 3.3623400000 2.9480300000 2.3318900000 1.7878100000 1.3795300000 1.0690900000 0.8279810000 0.6529050000 0.5366420000 0.4656040000 0.4259790000 0.4149140000 0.4378160000 0.4948440000 0.5790620000 0.6848340000 0.8037890000 0.9377350000 1.1098600000 1.3041300000 1.4805800000 1.6208600000 1.7194300000 1.7614700000 1.7541600000 1.7447400000 1.7682900000 1.8118600000 1.8397100000 1.8425300000 1.8286700000 1.7826800000 1.6854200000 1.5613300000 1.4511200000 1.3593500000 1.2696000000 1.1763700000 1.0965700000 1.0543900000 1.0589600000 1.1021400000 1.1686600000 1.2434300000 1.3127500000 1.3599800000 1.3734600000 1.3455700000 1.2926300000 1.2495500000 1.2247100000 1.2039100000 1.1790700000 1.1428300000 1.0972400000 1.0513300000 1.0046700000 0.9486200000 0.8860020000 0.8089080000 0.7280290000 0.6609750000 0.6064020000 0.5635540000 0.5301640000 0.5005680000 0.4735750000 0.4475540000 0.4216190000 0.3957600000 0.3690750000 0.3395840000 0.3076760000 0.2759630000 0.2465940000 0.2199160000 0.1963670000 0.1773230000 0.1633490000 0.1532070000 0.1451270000 0.1371500000 0.1286490000 0.1200160000 0.1113670000
2 100.00000000 100.00000000 75.000000000 85.347400000 96.113200000 61.556600000 0.0032955600 0.0032955600 0.0032955600 0.0032955600 0.0032955600 0.0032955600 0.0032956100 0.0046679300 0.0068501900 0.0123945000 0.0242396000 0.0457737000 0.0821004000 0.1391570000 0.2263990000 0.3536460000 0.5380300000 0.7930580000 1.1250400000 1.5009100000 1.7869900000 1.8268500000 1.6028400000 1.2674000000 0.9746050000 0.7616550000 0.6073670000 0.4918440000 0.4111310000 0.3608000000 0.3320590000 0.3189650000 0.3232730000 0.3526860000 0.4095950000 0.4897390000 0.5893690000 0.7021790000 0.8314280000 0.9983620000 1.1875100000 1.3619600000 1.5055400000 1.6119500000 1.6640000000 1.6690600000 1.6722200000 1.7067800000 1.7598200000 1.7959700000 1.8067900000 1.7997100000 1.7591200000 1.6665800000 1.5457000000 1.4379200000 1.3478400000 1.2592000000 1.1668900000 1.0880500000 1.0463900000 1.0511500000 1.0948500000 1.1620500000 1.2380600000 1.3077600000 1.3551900000 1.3689200000 1.3415300000 1.2890100000 1.2457000000 1.2208900000 1.1998200000 1.1741600000 1.1375400000 1.0918900000 1.0453700000 0.9978890000 0.9412720000 0.8782040000 0.8006130000 0.7196780000 0.6526040000 0.5976570000 0.5546290000 0.5211600000 0.4919180000 0.4654430000 0.4397430000 0.4141950000 0.3892750000 0.3632020000 0.3341080000 0.3024210000 0.2711650000 0.2424060000 0.2160640000 0.1929520000 0.1743470000 0.1606320000 0.1509500000 0.1429170000 0.1349950000 0.1267820000 0.1183750000 0.1098510000
3 100.00000000 100.00000000 100.00000000 94.674600000 99.987000000 108.30900000 0.0049873700 0.0049873700 0.0049873700 0.0049873700 0.0049873700 0.0049873700 0.0049874400 0.0071234600 0.0117946000 0.0222700000 0.0432371000 0.0817458000 0.1489740000 0.2560990000 0.4182980000 0.6536240000 0.9936930000 1.4651400000 2.0816900000 2.7758800000 3.2968600000 3.3621800000 2.9476800000 2.3316200000 1.7875200000 1.3792300000 1.0691200000 0.8279380000 0.6525670000 0.5364680000 0.4653900000 0.4255550000 0.4144690000 0.4376040000 0.4945740000 0.5785930000 0.6842210000 0.8033500000 0.9375240000 1.1098800000 1.3039100000 1.4800000000 1.6205200000 1.7193900000 1.7612100000 1.7540700000 1.7446100000 1.7682000000 1.8121200000 1.8397500000 1.8424100000 1.8284900000 1.7825700000 1.6854000000 1.5611100000 1.4507800000 1.3588100000 1.2691500000 1.1761000000 1.0964600000 1.0543400000 1.0587400000 1.1019300000 1.1683300000 1.2431500000 1.3125900000 1.3600800000 1.3735300000 1.3456200000 1.2925700000 1.2494300000 1.2248300000 1.2038200000 1.1788100000 1.1426700000 1.0970400000 1.0512300000 1.0044200000 0.9483070000 0.8857670000 0.8085680000 0.7278800000 0.6609010000 0.6061170000 0.5633270000 0.5300030000 0.5004280000 0.4735710000 0.4472690000 0.4210640000 0.3953340000 0.3686290000 0.3393460000 0.3073690000 0.2759080000 0.2465150000 0.2196200000 0.1961830000 0.1773730000 0.1634950000 0.1533780000 0.1451230000 0.1370070000 0.1285620000 0.1199810000 0.1111510000
4 100.00000000 100.00000000 100.00000000 94.694600000 100.00900000 108.33300000 0.0054347200 0.0054347200 0.0054347200 0.0054347200 0.0054347200 0.0054347200 0.0054347900 0.0075433400 0.0118531000 0.0223974000 0.0432676000 0.0821218000 0.1495730000 0.2563860000 0.4187280000 0.6540930000 0.9941550000 1.4652600000 2.0819000000 2.7767300000 3.2977800000 3.3627400000 2.9479600000 2.3317600000 1.7877000000 1.3793700000 1.0691700000 0.8280150000 0.6527160000 0.5366600000 0.4656460000 0.4259370000 0.4146740000 0.4375840000 0.4946170000 0.5786670000 0.6843380000 0.8037460000 0.9377120000 1.1100000000 1.3041600000 1.4804500000 1.6208900000 1.7197800000 1.7619900000 1.7545700000 1.7448500000 1.7684600000 1.8124600000 1.8399800000 1.8426300000 1.8288800000 1.7829000000 1.6856900000 1.5613900000 1.4510600000 1.3594200000 1.2697100000 1.1764900000 1.0970200000 1.0549300000 1.0590600000 1.1021600000 1.1684900000 1.2432800000 1.3127400000 1.3602100000 1.3734900000 1.3456200000 1.2928000000 1.2496200000 1.2249300000 1.2040600000 1.1791300000 1.1430000000 1.0974600000 1.0515500000 1.0045600000 0.9485630000 0.8859020000 0.8085170000 0.7278680000 0.6609890000 0.6063190000 0.5635940000 0.5302450000 0.5006530000 0.4737620000 0.4477730000 0.4216480000 0.3957240000 0.3689150000 0.3394690000 0.3076110000 0.2760820000 0.2466510000 0.2199160000 0.1964020000 0.1773620000 0.1634400000 0.1535170000 0.1454250000 0.1373280000 0.1288510000 0.1202530000 0.1113700000
5 0.0000000000 0.0000000000 0.0000000000 0.0858824000 0.0869945000 0.1540070000 0.0002174780 0.0002174780 0.0002174780 0.0002174780 0.0002174780 0.0002174780 0.0002174790 0.0002469960 0.0001083140 0.0001022800 0.0002932250 0.0003992930 0.0003867660 0.0004213290 0.0007002190 0.0010918600 0.0015263900 0.0021899300 0.0030707300 0.0039684200 0.0053666800 0.0054853600 0.0039386400 0.0028622600 0.0021476600 0.0016912900 0.0013557700 0.0010014000 0.0008240560 0.0007710530 0.0006035170 0.0004917260 0.0003891750 0.0004371180 0.0005510630 0.0007287510 0.0008497010 0.0010734600 0.0011533400 0.0012990900 0.0014192900 0.0015330300 0.0016350200 0.0016349000 0.0016434100 0.0016206300 0.0015920900 0.0016196000 0.0016257100 0.0016038400 0.0015746400 0.0015011100 0.0013662300 0.0013437500 0.0013629100 0.0012663700 0.0011512200 0.0009994070 0.0008962230 0.0008758640 0.0008846910 0.0010441800 0.0010302200 0.0008427150 0.0008530000 0.0008854070 0.0009292240 0.0009381550 0.0009335230 0.0009222680 0.0009140970 0.0008736500 0.0008678690 0.0008605020 0.0008060090 0.0007246520 0.0006805520 0.0006803900 0.0006410460 0.0005561830 0.0005050660 0.0004798080 0.0004425690 0.0003917390 0.0004170590 0.0004275580 0.0004448080 0.0004012800 0.0005096470 0.0005506480 0.0002938520 0.0002309760 0.0001821530 0.0003176440 0.0003156480 0.0002353100 0.0002559290 0.0003761600 0.0003557270 0.0003588990 0.0003238850 0.0004064070 0.0006055630 0.0010725900 0.0008170530 0.0007552240
6 25.000000000 0.0000000000 0.0000000000 2.0221100000 1.0924900000 0.2023590000 0.0005128110 0.0005128110 0.0005128110 0.0005128110 0.0005128110 0.0005128110 0.0005128100 0.0004915120 0.0003218420 0.0004744840 0.0006619020 0.0008341960 0.0008744500 0.0009487790 0.0014016300 0.0019309100 0.0025366300 0.0034370100 0.0045395400 0.0054557100 0.0058713900 0.0058323300 0.0050841100 0.0038470700 0.0028870000 0.0021787000 0.0016564900 0.0012491400 0.0009456550 0.0008485360 0.0007516200 0.0006082920 0.0005265280 0.0005395450 0.0006012970 0.0008136170 0.0009629090 0.0011107000 0.0012682000 0.0014964100 0.0015740500 0.0016899900 0.0017931300 0.0017932800 0.0018154200 0.0017615800 0.0016977600 0.0017237000 0.0017235300 0.0016982100 0.0016743900 0.0015786100 0.0014153300 0.0013346500 0.0013745100 0.0014106500 0.0014498100 0.0015994900 0.0022556700 0.0039991900 0.0075151800 0.0131962000 0.0209351000 0.0301103000 0.0399340000 0.0492118000 0.0566008000 0.0610432000 0.0622996000 0.0615958000 0.0610832000 0.0613315000 0.0610014000 0.0598017000 0.0576618000 0.0552046000 0.0529830000 0.0506947000 0.0476067000 0.0439929000 0.0398432000 0.0356542000 0.0323839000 0.0300697000 0.0282737000 0.0265578000 0.0248896000 0.0234061000 0.0221128000 0.0208516000 0.0194977000 0.0181426000 0.0164686000 0.0147120000 0.0132466000 0.0119295000 0.0106319000 0.0095799000 0.0087741400 0.0081399600 0.0076066300 0.0072390000 0.0069031700 0.0066847000 0.0063237500 0.0060492800
7 50.000000000 0.0000000000 0.0000000000 8.2409900000 4.3127800000 0.3607910000 0.0004971160 0.0004971160 0.0004971160 0.0004971160 0.0004971160 0.0004971160 0.0004971160 0.0004975270 0.0002505060 0.0004085200 0.0007789580 0.0012299400 0.0017139800 0.0022430400 0.0031511100 0.0042073400 0.0054258500 0.0070854900 0.0090401900 0.0105805000 0.0110603000 0.0104231000 0.0085295100 0.0061044500 0.0043869800 0.0032674700 0.0024250500 0.0017026900 0.0011847500 0.0009605780 0.0008104690 0.0006841150 0.0005279460 0.0005386410 0.0005972720 0.0007698130 0.0009675330 0.0011536100 0.0012566400 0.0014870100 0.0016132700 0.0017357200 0.0018098100 0.0018575900 0.0018892900 0.0018621700 0.0018592400 0.0018718700 0.0018066200 0.0017624900 0.0017337000 0.0016848600 0.0015392600 0.0015048700 0.0015882800 0.0017098800 0.0020433500 0.0030848100 0.0061883400 0.0137724000 0.0286141000 0.0526381000 0.0853629000 0.1242710000 0.1658250000 0.2050170000 0.2360810000 0.2549760000 0.2599790000 0.2565920000 0.2543330000 0.2548350000 0.2532160000 0.2482300000 0.2396100000 0.2295200000 0.2204290000 0.2110430000 0.1987220000 0.1844610000 0.1669900000 0.1490310000 0.1351940000 0.1250850000 0.1170020000 0.1096570000 0.1026320000 0.0964488000 0.0908888000 0.0858127000 0.0811424000 0.0757703000 0.0690055000 0.0617087000 0.0551130000 0.0493163000 0.0439974000 0.0393395000 0.0356230000 0.0328243000 0.0306137000 0.0288120000 0.0271623000 0.0256824000 0.0241072000 0.0225429000
8 75.000000000 0.0000000000 0.0000000000 19.985400000 10.396400000 0.6601060000 0.0002289610 0.0002289610 0.0002289610 0.0002289610 0.0002289610 0.0002289610 0.0002289640 0.0003070140 0.0003549220 0.0006876880 0.0011603300 0.0020829800 0.0032171300 0.0046569600 0.0065883500 0.0086147000 0.0111585000 0.0141743000 0.0174536000 0.0200338000 0.0203399000 0.0186786000 0.0151149000 0.0106515000 0.0074511700 0.0052399400 0.0036233600 0.0024226600 0.0017053300 0.0013096800 0.0010761300 0.0009126560 0.0007279060 0.0006905540 0.0006753580 0.0008737940 0.0010482500 0.0012201500 0.0013373100 0.0017047800 0.0018361200 0.0020226800 0.0020771300 0.0020041300 0.0020629100 0.0020617800 0.0020186300 0.0020577700 0.0020116000 0.0018959100 0.0018599100 0.0018916000 0.0017613900 0.0016881900 0.0018639500 0.0022905400 0.0032902100 0.0059913800 0.0136648000 0.0321803000 0.0684028000 0.1270660000 0.2072750000 0.3026320000 0.4039120000 0.4990690000 0.5746770000 0.6211510000 0.6339670000 0.6259600000 0.6197510000 0.6193740000 0.6149120000 0.6032160000 0.5831020000 0.5588930000 0.5365190000 0.5135060000 0.4838290000 0.4498840000 0.4078800000 0.3641340000 0.3296240000 0.3038690000 0.2835640000 0.2659710000 0.2494430000 0.2346750000 0.2213030000 0.2088790000 0.1971110000 0.1841070000 0.1683050000 0.1508960000 0.1347230000 0.1202980000 0.1071000000 0.0955187000 0.0862156000 0.0792867000 0.0740194000 0.0695552000 0.0654819000 0.0615764000 0.0578155000 0.0537830000
9 100.00000000 0.0000000000 0.0000000000 38.460500000 19.963000000 1.1183900000 -0.0001876460 -0.0001876460 -0.0001876460 -0.0001876460 -0.0001876460 -0.0001876460 -0.0001876400 -0.0000179427 -0.0001317020 0.0007100930 0.0022157800 0.0037777600 0.0057088900 0.0081800400 0.0115277000 0.0152052000 0.0197607000 0.0250201000 0.0304150000 0.0344659000 0.0348137000 0.0314918000 0.0251617000 0.0176138000 0.0117515000 0.0080105600 0.0056988600 0.0038709600 0.0025984100 0.0019394000 0.0016016000 0.0012119800 0.0008641280 0.0008405980 0.0008530920 0.0010412800 0.0011377100 0.0013067200 0.0015210700 0.0018845700 0.0021550200 0.0023248300 0.0024611300 0.0024079600 0.0024475000 0.0025214300 0.0024643200 0.0024028400 0.0022958900 0.0022245100 0.0021692000 0.0021504400 0.0020118100 0.0019678600 0.0022422800 0.0031140200 0.0051647600 0.0105748000 0.0255981000 0.0613343000 0.1309890000 0.2438030000 0.3989040000 0.5836860000 0.7781780000 0.9582150000 1.1005200000 1.1911800000 1.2236100000 1.2146400000 1.2001000000 1.1922100000 1.1802600000 1.1595300000 1.1255500000 1.0812700000 1.0353700000 0.9879760000 0.9310320000 0.8676530000 0.7901670000 0.7092470000 0.6416960000 0.5865960000 0.5434260000 0.5100970000 0.4811130000 0.4551250000 0.4300380000 0.4047850000 0.3800850000 0.3543170000 0.3254820000 0.2940330000 0.2630230000 0.2343110000 0.2079120000 0.1848650000 0.1662640000 0.1525680000 0.1428190000 0.1349620000 0.1273170000 0.1194920000 0.1115930000 0.1034320000
10 100.00000000 0.0000000000 25.000000000 39.462300000 20.377000000 6.0915000000 0.0010083300 0.0010083300 0.0010083300 0.0010083300 0.0010083300 0.0010083300 0.0010083400 0.0011200400 0.0009183650 0.0017169800 0.0038998200 0.0074047400 0.0129100000 0.0208616000 0.0320433000 0.0475091000 0.0688128000 0.0968393000 0.1313800000 0.1684630000 0.1947860000 0.1956890000 0.1693890000 0.1315090000 0.0984259000 0.0733983000 0.0543582000 0.0393734000 0.0281482000 0.0204801000 0.0155751000 0.0124519000 0.0105480000 0.0097703100 0.0097723900 0.0103513000 0.0112295000 0.0120318000 0.0126118000 0.0134032000 0.0141142000 0.0146761000 0.0145753000 0.0138753000 0.0128367000 0.0115244000 0.0099492100 0.0087458400 0.0077897300 0.0068272400 0.0059299800 0.0051576900 0.0044099200 0.0039791000 0.0039000000 0.0043647700 0.0063075300 0.0117716000 0.0267526000 0.0622323000 0.1317340000 0.2447770000 0.3998880000 0.5845240000 0.7789290000 0.9588260000 1.1012100000 1.1921900000 1.2245200000 1.2154100000 1.2006800000 1.1927800000 1.1810200000 1.1603700000 1.1265000000 1.0821800000 1.0360600000 0.9886850000 0.9318340000 0.8685990000 0.7911080000 0.7101710000 0.6428940000 0.5877280000 0.5445470000 0.5112310000 0.4822210000 0.4560410000 0.4309430000 0.4057900000 0.3807410000 0.3549710000 0.3263530000 0.2948020000 0.2637180000 0.2349020000 0.2083550000 0.1851400000 0.1665270000 0.1527560000 0.1429990000 0.1352050000 0.1275330000 0.1196450000 0.1118640000 0.1036970000
11 100.00000000 25.000000000 25.000000000 41.340100000 24.047700000 6.6063400000 0.0008631590 0.0008631590 0.0008631590 0.0008631590 0.0008631590 0.0008631590 0.0008631610 0.0009080540 0.0009191040 0.0017099200 0.0039544600 0.0074078800 0.0129875000 0.0210363000 0.0324306000 0.0481293000 0.0699261000 0.0988205000 0.1347810000 0.1736770000 0.2013340000 0.2025030000 0.1754700000 0.1365700000 0.1029220000 0.0781193000 0.0600871000 0.0462542000 0.0360123000 0.0292477000 0.0251915000 0.0228982000 0.0221350000 0.0231012000 0.0259815000 0.0305442000 0.0360100000 0.0422394000 0.0494310000 0.0586628000 0.0686756000 0.0777197000 0.0848671000 0.0898528000 0.0919101000 0.0915089000 0.0912573000 0.0926462000 0.0948380000 0.0961671000 0.0962355000 0.0954866000 0.0927751000 0.0874013000 0.0812244000 0.0765802000 0.0740085000 0.0746987000 0.0842368000 0.1140710000 0.1780910000 0.2854510000 0.4348270000 0.6135600000 0.8019650000 0.9763390000 1.1137800000 1.2007200000 1.2302400000 1.2191300000 1.2030500000 1.1942000000 1.1819300000 1.1610500000 1.1268300000 1.0824100000 1.0366100000 0.9891280000 0.9321540000 0.8688010000 0.7913950000 0.7104580000 0.6429720000 0.5878930000 0.5447670000 0.5114440000 0.4822650000 0.4562180000 0.4312720000 0.4060130000 0.3809390000 0.3551710000 0.3263810000 0.2948100000 0.2638810000 0.2350510000 0.2085920000 0.1853300000 0.1667540000 0.1531800000 0.1433980000 0.1355500000 0.1279640000 0.1201160000 0.1122480000 0.1040940000
12 100.00000000 50.000000000 25.000000000 47.334200000 35.803400000 8.2085600000 0.0009139560 0.0009139560 0.0009139560 0.0009139560 0.0009139560 0.0009139560 0.0009139630 0.0011126400 0.0011720000 0.0019233600 0.0041447800 0.0080458700 0.0135900000 0.0215456000 0.0332886000 0.0496773000 0.0728051000 0.1043910000 0.1447130000 0.1892110000 0.2215730000 0.2237210000 0.1940830000 0.1517220000 0.1164000000 0.0925719000 0.0769803000 0.0664950000 0.0602765000 0.0572234000 0.0560040000 0.0562209000 0.0589161000 0.0659543000 0.0780536000 0.0948264000 0.1155260000 0.1390880000 0.1667010000 0.2024130000 0.2427030000 0.2802990000 0.3116260000 0.3348750000 0.3464520000 0.3487330000 0.3512460000 0.3607460000 0.3733280000 0.3816500000 0.3848840000 0.3845670000 0.3761380000 0.3554000000 0.3293900000 0.3079240000 0.2915220000 0.2772640000 0.2689490000 0.2796890000 0.3255330000 0.4155340000 0.5467770000 0.7061710000 0.8751410000 1.0317000000 1.1543700000 1.2290600000 1.2487100000 1.2304900000 1.2096500000 1.1979700000 1.1841800000 1.1626300000 1.1279200000 1.0830400000 1.0369300000 0.9894370000 0.9325150000 0.8693650000 0.7917540000 0.7105870000 0.6431350000 0.5880270000 0.5448410000 0.5113100000 0.4823730000 0.4563910000 0.4311250000 0.4059250000 0.3810970000 0.3553870000 0.3266850000 0.2952090000 0.2642810000 0.2355590000 0.2092330000 0.1862200000 0.1674960000 0.1538340000 0.1442010000 0.1364370000 0.1287660000 0.1209350000 0.1131200000 0.1047480000
13 100.00000000 75.000000000 25.000000000 58.594500000 57.851900000 11.231200000 0.0005114320 0.0005114320 0.0005114320 0.0005114320 0.0005114320 0.0005114320 0.0005114440 0.0008561890 0.0011293900 0.0024533400 0.0047016400 0.0083827700 0.0143291000 0.0225367000 0.0350091000 0.0528811000 0.0787762000 0.1152490000 0.1639050000 0.2190380000 0.2594590000 0.2631160000 0.2287810000 0.1804370000 0.1425410000 0.1201950000 0.1094590000 0.1056450000 0.1062290000 0.1094390000 0.1136870000 0.1189010000 0.1280560000 0.1461690000 0.1755530000 0.2155540000 0.2647730000 0.3211100000 0.3866010000 0.4718580000 0.5684350000 0.6585880000 0.7352780000 0.7936020000 0.8238540000 0.8308100000 0.8384910000 0.8627700000 0.8951610000 0.9169020000 0.9259720000 0.9261530000 0.9071260000 0.8585140000 0.7959680000 0.7422130000 0.6986630000 0.6566040000 0.6154580000 0.5906740000 0.6024360000 0.6598430000 0.7575820000 0.8814890000 1.0141500000 1.1370000000 1.2309100000 1.2822000000 1.2834200000 1.2517700000 1.2223600000 1.2054900000 1.1885700000 1.1652500000 1.1295700000 1.0843000000 1.0379100000 0.9901290000 0.9330460000 0.8696030000 0.7917480000 0.7107850000 0.6436330000 0.5885780000 0.5453450000 0.5118120000 0.4825480000 0.4566520000 0.4315680000 0.4064050000 0.3817280000 0.3561960000 0.3274570000 0.2960790000 0.2653640000 0.2368300000 0.2105300000 0.1875160000 0.1690090000 0.1554610000 0.1458670000 0.1381170000 0.1304070000 0.1224820000 0.1145150000 0.1060590000
14 0.0000000000 0.0000000000 25.000000000 1.0555800000 0.4844520000 5.0126600000 0.0006688500 0.0006688500 0.0006688500 0.0006688500 0.0006688500 0.0006688500 0.0006688520 0.0007261940 0.0006856440 0.0011239600 0.0023641000 0.0044411900 0.0076383500 0.0126831000 0.0207592000 0.0326122000 0.0495166000 0.0725781000 0.1021750000 0.1353420000 0.1603220000 0.1646040000 0.1454340000 0.1145660000 0.0868980000 0.0657154000 0.0491436000 0.0357935000 0.0257301000 0.0188017000 0.0143076000 0.0114898000 0.0098154700 0.0092124300 0.0093325700 0.0099065800 0.0106158000 0.0113952000 0.0120313000 0.0127513000 0.0133583000 0.0135872000 0.0132977000 0.0125200000 0.0115476000 0.0102548000 0.0089096300 0.0078262000 0.0068931000 0.0060174300 0.0051700200 0.0044089500 0.0037011500 0.0031761500 0.0027638000 0.0024834400 0.0022937600 0.0020603800 0.0019014900 0.0018315800 0.0017664100 0.0017739800 0.0017268200 0.0015435300 0.0014339800 0.0014002700 0.0014186400 0.0014569100 0.0014055300 0.0013533000 0.0012784900 0.0013011600 0.0013893700 0.0014169900 0.0014017600 0.0013764800 0.0013435500 0.0014059400 0.0014607900 0.0014165500 0.0013565400 0.0013381400 0.0013017800 0.0013141300 0.0013964200 0.0014119900 0.0014304600 0.0013295600 0.0012687200 0.0011266200 0.0009306260 0.0008542000 0.0007746200 0.0007449260 0.0008167030 0.0007738640 0.0006536610 0.0006458870 0.0006932450 0.0006697210 0.0005924370 0.0006886340 0.0007802760 0.0009114920 0.0009013170 0.0009892110
15 25.000000000 0.0000000000 25.000000000 2.9973200000 1.4891900000 5.0883700000 0.0007107670 0.0007107670 0.0007107670 0.0007107670 0.0007107670 0.0007107670 0.0007107680 0.0007356970 0.0007102840 0.0013004100 0.0025822400 0.0046141000 0.0079411500 0.0132393000 0.0215692000 0.0335759000 0.0507316000 0.0741453000 0.1040950000 0.1375930000 0.1627210000 0.1667750000 0.1471730000 0.1158240000 0.0877369000 0.0663448000 0.0496223000 0.0361649000 0.0259929000 0.0190154000 0.0145202000 0.0116087000 0.0098627900 0.0092484200 0.0093686300 0.0099430400 0.0106542000 0.0114520000 0.0121247000 0.0128537000 0.0134765000 0.0137212000 0.0134168000 0.0126419000 0.0116406000 0.0103650000 0.0090258300 0.0078813700 0.0069302000 0.0060479700 0.0052220300 0.0044289000 0.0037275000 0.0031968900 0.0028541500 0.0026202000 0.0025039500 0.0025644300 0.0031599100 0.0048650500 0.0082591000 0.0138961000 0.0216658000 0.0307836000 0.0405643000 0.0498251000 0.0571364000 0.0616073000 0.0628394000 0.0621318000 0.0616053000 0.0618431000 0.0615084000 0.0602995000 0.0582983000 0.0559005000 0.0536800000 0.0514186000 0.0483748000 0.0448479000 0.0407336000 0.0365441000 0.0333107000 0.0309960000 0.0291939000 0.0274873000 0.0257996000 0.0242131000 0.0227697000 0.0214157000 0.0201880000 0.0188080000 0.0170666000 0.0152829000 0.0137443000 0.0123393000 0.0109707000 0.0098928800 0.0090182200 0.0083452600 0.0078227300 0.0074630200 0.0071553300 0.0069072100 0.0064906000 0.0061947200
