Microsoft/Surface Pro 2017/LP123WQ112604 #1 2023-02-19 20-42 0.3127x 0.329y sRGB F-S XYZLUT+MTX/LP123WQ112604 #1 2023-02-19 20-42 0.3127x 0.329y sRGB F-S XYZLUT+MTX.cal
CAL    

DESCRIPTOR "Argyll Device Calibration Curves"
ORIGINATOR "Argyll dispcal"
CREATED "Sun Feb 19 20:54:21 2023"
DEVICE_CLASS "DISPLAY"
COLOR_REP "RGB"
VIDEO_LUT_CALIBRATION_POSSIBLE "YES"
TV_OUTPUT_ENCODING "NO"
DEVICE_TYPE "l"
TARGET_WHITE_XYZ "252.942076 266.127096 289.827777"
TARGET_GAMMA "sRGB"
DEGREE_OF_BLACK_OUTPUT_OFFSET "1.0"
BLACK_POINT_CORRECTION "0.0"
BLACK_NEUTRAL_BLEND_RATE "4.0"
BLACK_POINT_HACK "YES"
QUALITY "low"

BEGIN_ARGYLL_DISPCAL_ARGS
-v2 -d1 -c1 -yl -P0.999245283019,0.426150121065,1.33870967742 -H -Ib -N -ql -m -w0.3127,0.329 -gs -f1.0 -k0 -A4.0 -b
END_ARGYLL_DISPCAL_ARGS


NUMBER_OF_FIELDS 4
BEGIN_DATA_FORMAT
RGB_I RGB_R RGB_G RGB_B
END_DATA_FORMAT

NUMBER_OF_SETS 256
BEGIN_DATA
0.00000000 0.00000000 0.00000000 0.00000000
0.00392157 0.01237920 0.01157640 0.01170230
0.00784314 0.02307660 0.02153090 0.02173500
0.01176470 0.03241310 0.03018210 0.03043160
0.01568630 0.04062520 0.03776010 0.03803830
0.01960780 0.04791000 0.04447300 0.04477400
0.02352940 0.05447320 0.05052720 0.05084780
0.02745100 0.06049010 0.05608720 0.05642050
0.03137250 0.06609410 0.06127460 0.06160970
0.03529410 0.07138450 0.06617590 0.06650700
0.03921570 0.07644690 0.07087090 0.07119530
0.04313730 0.08133970 0.07541770 0.07572710
0.04705880 0.08610240 0.07984590 0.08012990
0.05098040 0.09077070 0.08418420 0.08442660
0.05490200 0.09537750 0.08846170 0.08864220
0.05882350 0.09992500 0.09268690 0.09278730
0.06274510 0.10443600 0.09687420 0.09689060
0.06666670 0.10890100 0.10101600 0.10095400
0.07058820 0.11334900 0.10512000 0.10498600
0.07450980 0.11777600 0.10920700 0.10901200
0.07843140 0.12218100 0.11327000 0.11302500
0.08235290 0.12658400 0.11732000 0.11703700
0.08627450 0.13097700 0.12137700 0.12106900
0.09019610 0.13535300 0.12543100 0.12511100
0.09411760 0.13970800 0.12948100 0.12916400
0.09803920 0.14408300 0.13354600 0.13323900
0.10196100 0.14847600 0.13765700 0.13736300
0.10588200 0.15287900 0.14180100 0.14151800
0.10980400 0.15729400 0.14597500 0.14570000
0.11372500 0.16169800 0.15017000 0.14990600
0.11764700 0.16612600 0.15437400 0.15413500
0.12156900 0.17058700 0.15860800 0.15840700
0.12549000 0.17506400 0.16286500 0.16271800
0.12941200 0.17955800 0.16712000 0.16704500
0.13333300 0.18408200 0.17138600 0.17139300
0.13725500 0.18860200 0.17566400 0.17576000
0.14117600 0.19311600 0.17992400 0.18011500
0.14509800 0.19764300 0.18417200 0.18447200
0.14902000 0.20220000 0.18843500 0.18885400
0.15294100 0.20677900 0.19272900 0.19327600
0.15686300 0.21136000 0.19704000 0.19770900
0.16078400 0.21593900 0.20136100 0.20214800
0.16470600 0.22054300 0.20569900 0.20660600
0.16862700 0.22517300 0.21008100 0.21110800
0.17254900 0.22978200 0.21449300 0.21562700
0.17647100 0.23437700 0.21888800 0.22012300
0.18039200 0.23896600 0.22328600 0.22461600
0.18431400 0.24354200 0.22767600 0.22909200
0.18823500 0.24812200 0.23205400 0.23355500
0.19215700 0.25272700 0.23643500 0.23802700
0.19607800 0.25735300 0.24084400 0.24251500
0.20000000 0.26197700 0.24525300 0.24698300
0.20392200 0.26660500 0.24965800 0.25143000
0.20784300 0.27123600 0.25406800 0.25585900
0.21176500 0.27587800 0.25848500 0.26026500
0.21568600 0.28055600 0.26293800 0.26467700
0.21960800 0.28528700 0.26745000 0.26911500
0.22352900 0.29005300 0.27203600 0.27357400
0.22745100 0.29477800 0.27662800 0.27798900
0.23137300 0.29946800 0.28118500 0.28234500
0.23529400 0.30415800 0.28573600 0.28667100
0.23921600 0.30885400 0.29029300 0.29099000
0.24313700 0.31352900 0.29484300 0.29529400
0.24705900 0.31817800 0.29935300 0.29956900
0.25098000 0.32280300 0.30382900 0.30382000
0.25490200 0.32740600 0.30826700 0.30804200
0.25882400 0.33198100 0.31266300 0.31223400
0.26274500 0.33655300 0.31702500 0.31640300
0.26666700 0.34111300 0.32137900 0.32058400
0.27058800 0.34563900 0.32569400 0.32474700
0.27451000 0.35013700 0.32997000 0.32889100
0.27843100 0.35461600 0.33421800 0.33301900
0.28235300 0.35907100 0.33843800 0.33713300
0.28627500 0.36352500 0.34264800 0.34123800
0.29019600 0.36796500 0.34686100 0.34535800
0.29411800 0.37235900 0.35103800 0.34946100
0.29803900 0.37672500 0.35518200 0.35354100
0.30196100 0.38107200 0.35931300 0.35762700
0.30588200 0.38538400 0.36342400 0.36171700
0.30980400 0.38967400 0.36751500 0.36580400
0.31372500 0.39396100 0.37160700 0.36990700
0.31764700 0.39825000 0.37571200 0.37404300
0.32156900 0.40253600 0.37983000 0.37821900
0.32549000 0.40674800 0.38390100 0.38240000
0.32941200 0.41086000 0.38788200 0.38650200
0.33333300 0.41488800 0.39178400 0.39052700
0.33725500 0.41886100 0.39563600 0.39449500
0.34117600 0.42280500 0.39946300 0.39842900
0.34509800 0.42671500 0.40326300 0.40232900
0.34902000 0.43060900 0.40705600 0.40619800
0.35294100 0.43449500 0.41085200 0.41005600
0.35686300 0.43837000 0.41464200 0.41389100
0.36078400 0.44224500 0.41843400 0.41770800
0.36470600 0.44612400 0.42223800 0.42151800
0.36862700 0.44997100 0.42601300 0.42529800
0.37254900 0.45377700 0.42975000 0.42901700
0.37647100 0.45755500 0.43347100 0.43269000
0.38039200 0.46131700 0.43718400 0.43633800
0.38431400 0.46505100 0.44087400 0.43995600
0.38823500 0.46874100 0.44453100 0.44353200
0.39215700 0.47240000 0.44816600 0.44708400
0.39607800 0.47602000 0.45177100 0.45060700
0.40000000 0.47960000 0.45534300 0.45410500
0.40392200 0.48313600 0.45887700 0.45757800
0.40784300 0.48662900 0.46237300 0.46102700
0.41176500 0.49008000 0.46583400 0.46445300
0.41568600 0.49349200 0.46925900 0.46785700
0.41960800 0.49686400 0.47265100 0.47123700
0.42352900 0.50020100 0.47604100 0.47461600
0.42745100 0.50354100 0.47941100 0.47799900
0.43137300 0.50686100 0.48276200 0.48137100
0.43529400 0.51016500 0.48609800 0.48474000
0.43921600 0.51346500 0.48941900 0.48810600
0.44313700 0.51675900 0.49272400 0.49146900
0.44705900 0.52004600 0.49601500 0.49482800
0.45098000 0.52332700 0.49929800 0.49818300
0.45490200 0.52660400 0.50257400 0.50153200
0.45882400 0.52987900 0.50585100 0.50487800
0.46274500 0.53315800 0.50912500 0.50821600
0.46666700 0.53644100 0.51240400 0.51154000
0.47058800 0.53972200 0.51569600 0.51486400
0.47451000 0.54301300 0.51899100 0.51818600
0.47843100 0.54631500 0.52226900 0.52148300
0.48235300 0.54960800 0.52554100 0.52475800
0.48627500 0.55288500 0.52882100 0.52802900
0.49019600 0.55615300 0.53211300 0.53130500
0.49411800 0.55942800 0.53541800 0.53458800
0.49803900 0.56271000 0.53874100 0.53788800
0.50196100 0.56600500 0.54207600 0.54120700
0.50588200 0.56931800 0.54537900 0.54451500
0.50980400 0.57264700 0.54863400 0.54778300
0.51372500 0.57595600 0.55185200 0.55102000
0.51764700 0.57923100 0.55504600 0.55423500
0.52156900 0.58247700 0.55822500 0.55743800
0.52549000 0.58570500 0.56138000 0.56062400
0.52941200 0.58892700 0.56451100 0.56379200
0.53333300 0.59213700 0.56761800 0.56694100
0.53725500 0.59533300 0.57071600 0.57008200
0.54117600 0.59851700 0.57380300 0.57321200
0.54509800 0.60170000 0.57687800 0.57632800
0.54902000 0.60487800 0.57994200 0.57942800
0.55294100 0.60804700 0.58300200 0.58251700
0.55686300 0.61120700 0.58604400 0.58558800
0.56078400 0.61436300 0.58906600 0.58863400
0.56470600 0.61751400 0.59207200 0.59166000
0.56862700 0.62064800 0.59507300 0.59467800
0.57254900 0.62376800 0.59807100 0.59768800
0.57647100 0.62688100 0.60106100 0.60068900
0.58039200 0.62999300 0.60404200 0.60367700
0.58431400 0.63310200 0.60702400 0.60666500
0.58823500 0.63620400 0.61000700 0.60965400
0.59215700 0.63930400 0.61300700 0.61265800
0.59607800 0.64241000 0.61603400 0.61568600
0.60000000 0.64552600 0.61909900 0.61874800
0.60392200 0.64866700 0.62220700 0.62185100
0.60784300 0.65184200 0.62536200 0.62499900
0.61176500 0.65506100 0.62856300 0.62819100
0.61568600 0.65832600 0.63181000 0.63142800
0.61960800 0.66163800 0.63503900 0.63465600
0.62352900 0.66499800 0.63821700 0.63782900
0.62745100 0.66840000 0.64134700 0.64094900
0.63137300 0.67177100 0.64443000 0.64401700
0.63529400 0.67509200 0.64747100 0.64703800
0.63921600 0.67836300 0.65048100 0.65002000
0.64313700 0.68158700 0.65346900 0.65297300
0.64705900 0.68476700 0.65644300 0.65590800
0.65098000 0.68791200 0.65941400 0.65883200
0.65490200 0.69103300 0.66238300 0.66174700
0.65882400 0.69413900 0.66535700 0.66466100
0.66274500 0.69724100 0.66833600 0.66758000
0.66666700 0.70034100 0.67131600 0.67050400
0.67058800 0.70345000 0.67429200 0.67342900
0.67451000 0.70657000 0.67727000 0.67635600
0.67843100 0.70969600 0.68026000 0.67929700
0.68235300 0.71282100 0.68326000 0.68225000
0.68627500 0.71595100 0.68627200 0.68521500
0.69019600 0.71909500 0.68929800 0.68819600
0.69411800 0.72225300 0.69232000 0.69118600
0.69803900 0.72542700 0.69533700 0.69416800
0.70196100 0.72862100 0.69836100 0.69715500
0.70588200 0.73181300 0.70139100 0.70015000
0.70980400 0.73500200 0.70442400 0.70315200
0.71372500 0.73819800 0.70745900 0.70615900
0.71764700 0.74140000 0.71050300 0.70917500
0.72156900 0.74460500 0.71356300 0.71220600
0.72549000 0.74781400 0.71663100 0.71524500
0.72941200 0.75102900 0.71970800 0.71829000
0.73333300 0.75425900 0.72279700 0.72134000
0.73725500 0.75749900 0.72589700 0.72439700
0.74117600 0.76074900 0.72901100 0.72746300
0.74509800 0.76400900 0.73212000 0.73053600
0.74902000 0.76727800 0.73522200 0.73360300
0.75294100 0.77056200 0.73832500 0.73666900
0.75686300 0.77384500 0.74144100 0.73975100
0.76078400 0.77712500 0.74457000 0.74285200
0.76470600 0.78041200 0.74772900 0.74597600
0.76862700 0.78371700 0.75092800 0.74913900
0.77254900 0.78704000 0.75417100 0.75235000
0.77647100 0.79039800 0.75745800 0.75561500
0.78039200 0.79379900 0.76074500 0.75892000
0.78431400 0.79724600 0.76400700 0.76220800
0.78823500 0.80073600 0.76724700 0.76547000
0.79215700 0.80422900 0.77047900 0.76871100
0.79607800 0.80769300 0.77371200 0.77194200
0.80000000 0.81113100 0.77695500 0.77517100
0.80392200 0.81455600 0.78021800 0.77841300
0.80784300 0.81798000 0.78348900 0.78166800
0.81176500 0.82141000 0.78676800 0.78493200
0.81568600 0.82485600 0.79006100 0.78820800
0.81960800 0.82830500 0.79336600 0.79150200
0.82352900 0.83175800 0.79668200 0.79481100
0.82745100 0.83522000 0.80000900 0.79813600
0.83137300 0.83870200 0.80335000 0.80147000
0.83529400 0.84220300 0.80671900 0.80482400
0.83921600 0.84572100 0.81012500 0.80820700
0.84313700 0.84925900 0.81355200 0.81162500
0.84705900 0.85283300 0.81695100 0.81504100
0.85098000 0.85644900 0.82032100 0.81842900
0.85490200 0.86009300 0.82367800 0.82179500
0.85882400 0.86371900 0.82702900 0.82515800
0.86274500 0.86732700 0.83038100 0.82851700
0.86666700 0.87093500 0.83374100 0.83188300
0.87058800 0.87454800 0.83710800 0.83526000
0.87451000 0.87817200 0.84049500 0.83865200
0.87843100 0.88181400 0.84389300 0.84206600
0.88235300 0.88547600 0.84726900 0.84547000
0.88627500 0.88917200 0.85062900 0.84885000
0.89019600 0.89288100 0.85398000 0.85221400
0.89411800 0.89657800 0.85732900 0.85557900
0.89803900 0.90027100 0.86068500 0.85895500
0.90196100 0.90397300 0.86403200 0.86234100
0.90588200 0.90769900 0.86735500 0.86571200
0.90980400 0.91144900 0.87066700 0.86907100
0.91372500 0.91519600 0.87398400 0.87243200
0.91764700 0.91894000 0.87728900 0.87579500
0.92156900 0.92270400 0.88057800 0.87914600
0.92549000 0.92648200 0.88386900 0.88249800
0.92941200 0.93025700 0.88715900 0.88585500
0.93333300 0.93404800 0.89044900 0.88920800
0.93725500 0.93784900 0.89374100 0.89256600
0.94117600 0.94166300 0.89703100 0.89592300
0.94509800 0.94548600 0.90032200 0.89928400
0.94902000 0.94932100 0.90361500 0.90264500
0.95294100 0.95316700 0.90690800 0.90600700
0.95686300 0.95702400 0.91020200 0.90937100
0.96078400 0.96089200 0.91349700 0.91273700
0.96470600 0.96477100 0.91679100 0.91610400
0.96862700 0.96866200 0.92008100 0.91947100
0.97254900 0.97256500 0.92336700 0.92283800
0.97647100 0.97647800 0.92664900 0.92620400
0.98039200 0.98040100 0.92992700 0.92957000
0.98431400 0.98433600 0.93320200 0.93293500
0.98823500 0.98828200 0.93647200 0.93630000
0.99215700 0.99223800 0.93973800 0.93966400
0.99607800 0.99620600 0.94300000 0.94302800
1.00000000 1.00000000 0.94625800 0.94639100
END_DATA
CAL    

DESCRIPTOR "Argyll Calibration options and model"
ORIGINATOR "Argyll dispcal"
CREATED "Sun Feb 19 20:54:21 202"

NUMBER_OF_FIELDS 3
BEGIN_DATA_FORMAT
R_P G_P B_P
END_DATA_FORMAT

NUMBER_OF_SETS 32
BEGIN_DATA
0.0000811724 0.0003889620 0.0010691700
0.9999190000 0.9996110000 0.9989310000
1.9049700000 1.9040200000 1.8931000000
0.8141270000 0.6737950000 0.6068970000
0.1002470000 0.1474110000 0.1656430000
0.1813790000 0.1622590000 0.1531480000
0.1153870000 0.1227430000 0.1302280000
0.0942383000 0.0911506000 0.0915709000
0.0538794000 0.0678687000 0.0912846000
0.0558739000 0.0710858000 0.0861209000
0.0542130000 0.0606058000 0.0662759000
0.0498270000 0.0594897000 0.0676935000
0.0473846000 0.0512110000 0.0621300000
0.0391074000 0.0488871000 0.0544331000
0.0436476000 0.0443962000 0.0514594000
0.0438110000 0.0433311000 0.0475373000
0.0339064000 0.0409743000 0.0433331000
0.0337953000 0.0374175000 0.0440954000
0.0257462000 0.0342116000 0.0341386000
0.0282202000 0.0311615000 0.0335873000
0.0251065000 0.0307630000 0.0329807000
0.0251821000 0.0277986000 0.0307452000
0.0245222000 0.0308898000 0.0307463000
0.0229513000 0.0282155000 0.0272199000
0.0227457000 0.0286901000 0.0250982000
0.0213070000 0.0273145000 0.0275322000
0.0186493000 0.0211736000 0.0235556000
0.0180527000 0.0232974000 0.0202374000
0.0183733000 0.0200915000 0.0217249000
0.0160994000 0.0231964000 0.0193532000
0.0138030000 0.0159189000 0.0162399000
0.0137478000 0.0210111000 0.0128807000
END_DATA
