Lenovo/ThinkBook 14p Gen2/NV140DRM-N62 #1 2022-08-01 19-50 2.2 F-S XYZLUT+MTX/NV140DRM-N62 #1 2022-08-01 19-50 2.2 F-S XYZLUT+MTX.ti1
CTI1   

DESCRIPTOR "Argyll Calibration Target chart information 1"
ORIGINATOR "Argyll targen"
CREATED "Mon Aug  1 19:55:18 2022"
APPROX_WHITE_POINT "89.606347 97.588786 100.729314"
COLOR_REP "RGB"
ACCURATE_EXPECTED_VALUES "true"
DARK_REGION_EMPHASIS "1.6"
WHITE_COLOR_PATCHES "4"
BLACK_COLOR_PATCHES "4"
SINGLE_DIM_STEPS "21"
COMP_GREY_STEPS "61"
OFPS_PATCHES "435"

NUMBER_OF_FIELDS 7
BEGIN_DATA_FORMAT
SAMPLE_ID RGB_R RGB_G RGB_B XYZ_X XYZ_Y XYZ_Z
END_DATA_FORMAT

NUMBER_OF_SETS 596
BEGIN_DATA
1 100.00000 100.00000 100.00000 89.606300 97.588800 100.72900
2 100.00000 100.00000 100.00000 95.106000 100.00000 108.84000
3 100.00000 100.00000 100.00000 95.106000 100.00000 108.84000
4 100.00000 100.00000 100.00000 95.106000 100.00000 108.84000
5 100.00000 100.00000 100.00000 95.106000 100.00000 108.84000
6 0.0000000 0.0000000 0.0000000 1.0000000 1.0000000 1.0000000
7 1.9608000 1.9608000 1.9608000 1.1428000 1.1502000 1.1637000
8 3.9216000 3.9216000 3.9216000 1.2856000 1.3005000 1.3273000
9 5.8824000 5.8824000 5.8824000 1.4495000 1.4729000 1.5152000
10 9.8039000 9.8039000 9.8039000 1.9148000 1.9624000 2.0484000
11 13.726000 13.726000 13.726000 2.5817000 2.6639000 2.8126000
12 17.647000 17.647000 17.647000 3.4695000 3.5979000 3.8300000
13 21.569000 21.569000 21.569000 4.5953000 4.7822000 5.1201000
14 25.490000 25.490000 25.490000 5.9745000 6.2332000 6.7007000
15 29.412000 29.412000 29.412000 7.6213000 7.9656000 8.5879000
16 33.333000 33.333000 33.333000 9.5488000 9.9933000 10.797000
17 37.255000 37.255000 37.255000 11.769000 12.329000 13.341000
18 41.176000 41.176000 41.176000 14.294000 14.985000 16.234000
19 45.098000 45.098000 45.098000 17.134000 17.973000 19.489000
20 49.020000 49.020000 49.020000 20.299000 21.303000 23.117000
21 52.941000 52.941000 52.941000 23.800000 24.986000 27.129000
22 56.863000 56.863000 56.863000 27.646000 29.032000 31.536000
23 60.784000 60.784000 60.784000 31.846000 33.450000 36.349000
24 64.706000 64.706000 64.706000 36.409000 38.250000 41.578000
25 68.627000 68.627000 68.627000 41.343000 43.440000 47.232000
26 72.549000 72.549000 72.549000 46.656000 49.030000 53.321000
27 76.471000 76.471000 76.471000 52.356000 55.027000 59.853000
28 80.392000 80.392000 80.392000 58.452000 61.439000 66.838000
29 84.314000 84.314000 84.314000 64.949000 68.275000 74.285000
30 88.235000 88.235000 88.235000 71.857000 75.541000 82.200000
31 92.157000 92.157000 92.157000 79.181000 83.246000 90.594000
32 96.078000 96.078000 96.078000 86.929000 91.397000 99.472000
33 100.00000 0.0000000 0.0000000 41.830000 22.052000 2.9132000
34 0.0000000 100.00000 0.0000000 36.405000 71.801000 12.802000
35 0.0000000 0.0000000 100.00000 18.871000 8.1473000 95.129000
36 24.900600 0.0000000 14.526800 1.9574400 1.0530800 1.3060800
37 26.540100 0.0000000 29.273900 2.9688500 1.5284400 5.5178300
38 65.138500 0.0000000 84.674000 26.002100 12.933000 62.356500
39 79.096600 0.0000000 100.00000 39.321800 19.615900 89.293700
40 100.00000 49.947000 0.0000000 47.332600 36.453900 3.7711400
41 100.00000 81.134300 0.0000000 62.269800 66.928500 8.5694500
42 81.208700 100.00000 0.0000000 58.997000 82.631500 11.806900
43 81.575400 100.00000 31.394200 60.369800 83.268900 18.052500
44 100.00000 100.00000 53.771700 77.705000 92.249300 34.013600
45 89.622600 0.0000000 0.0000000 31.094900 16.548400 1.0889500
46 100.00000 0.0000000 39.303700 41.696900 22.028500 11.680600
47 100.00000 0.0000000 75.741400 48.397400 25.034600 49.241500
48 100.00000 0.0000000 100.00000 55.635600 28.282000 89.816800
49 19.662900 0.0000000 0.0000000 1.0523900 0.5893570 0.1257590
50 23.255800 0.0000000 0.0000000 1.5069000 0.8308010 0.1403310
51 27.108400 0.0000000 0.0000000 2.1058300 1.1489600 0.1595330
52 31.250000 0.0000000 0.0000000 2.8380800 1.5379400 0.1830100
53 35.714300 0.0000000 0.0000000 3.7915700 2.0444600 0.2135800
54 40.540500 0.0000000 0.0000000 5.0281300 2.7013300 0.2532250
55 45.774600 0.0000000 0.0000000 6.6833800 3.5806300 0.3062950
56 48.567800 0.0000000 0.0000000 7.6970000 4.1190800 0.3387920
57 51.470600 0.0000000 0.0000000 8.8193900 4.7153100 0.3747770
58 57.692300 0.0000000 0.0000000 11.423400 6.0986000 0.4582640
59 64.516100 0.0000000 0.0000000 14.649300 7.8122600 0.5616910
60 72.033900 0.0000000 0.0000000 18.962800 10.103600 0.6999860
61 80.357100 0.0000000 0.0000000 24.424100 13.004800 0.8750820
62 100.00000 100.00000 0.0000000 73.828400 90.510100 12.282400
63 100.00000 100.00000 31.186800 74.925200 91.002200 18.430900
64 37.839700 64.073700 0.0000000 17.375600 28.969500 4.4260400
65 100.00000 64.559100 0.0000000 53.144700 48.311400 5.6381500
66 100.00000 68.735600 46.480200 57.949200 53.760500 21.635600
67 100.00000 84.113400 69.000000 70.976500 73.760700 47.661200
68 46.981000 25.570900 0.0000000 8.7548700 7.1599500 0.8477550
69 45.759300 39.627400 0.0000000 11.023300 12.443000 1.7019800
70 60.875100 41.317100 0.0000000 17.617700 16.599400 2.0386100
71 2.3365000 0.0000000 0.0000000 0.0774699 0.0714653 0.0945018
72 4.8077000 0.0000000 0.0000000 0.1250050 0.0967170 0.0960259
73 71.921200 18.190400 73.753600 27.693500 15.238000 45.963600
74 80.737800 87.465700 100.00000 66.800600 73.943900 97.788600
75 100.00000 100.00000 100.00000 89.606300 97.588800 100.72900
76 0.0000000 51.470600 0.0000000 8.0798300 16.425000 2.6703400
77 0.0000000 57.692300 0.0000000 10.420200 21.199700 3.4221400
78 0.0000000 64.516100 0.0000000 13.326500 27.129100 4.3557400
79 0.0000000 72.033900 0.0000000 17.158900 34.947900 5.5868300
80 0.0000000 80.357100 0.0000000 21.990600 44.805500 7.1389300
81 0.0000000 89.622600 0.0000000 27.771000 56.598800 8.9958200
82 33.464900 100.00000 30.055900 38.266300 71.535400 16.786200
83 31.684000 100.00000 100.00000 52.670300 77.967800 99.545100
84 52.956600 100.00000 100.00000 59.167800 81.419400 99.753400
85 0.0000000 0.0000000 7.4257000 0.1164600 0.0874696 0.4135330
86 0.0000000 0.0000000 10.204100 0.1620190 0.1079090 0.6689250
87 0.0000000 0.0000000 13.157900 0.2278420 0.1374400 1.0379100
88 0.0000000 0.0000000 16.304300 0.3233940 0.1803090 1.5735500
89 0.0000000 0.0000000 19.662900 0.4551810 0.2394340 2.3123100
90 0.0000000 0.0000000 23.255800 0.6336120 0.3194850 3.3125400
91 0.0000000 0.0000000 27.108400 0.8678920 0.4245930 4.6258400
92 0.0000000 0.0000000 31.250000 1.1610800 0.5561300 6.2693700
93 0.0000000 0.0000000 35.714300 1.5408100 0.7264910 8.3980100
94 0.0000000 0.0000000 40.540500 2.0337700 0.9476540 11.161400
95 0.0000000 0.0000000 45.774600 2.6948500 1.2442400 14.867200
96 0.0000000 0.0000000 51.470600 3.5576200 1.6313200 19.703700
97 0.0000000 0.0000000 57.692300 4.6093500 2.1031700 25.599400
98 0.0000000 0.0000000 64.516100 5.9183300 2.6904300 32.937200
99 0.0000000 0.0000000 72.033900 7.6631400 3.4732200 42.718000
100 0.0000000 0.0000000 80.357100 9.8620600 4.4597500 55.044600
101 0.0000000 0.0000000 89.622600 12.510800 5.6481100 69.892900
102 0.0000000 38.390700 78.972100 13.518300 12.536500 54.169400
103 19.086200 50.154600 87.201100 20.280300 21.224700 68.369500
104 0.0000000 2.3365000 0.0000000 0.0764171 0.0965158 0.0993758
105 2.3365000 2.3365000 2.3365000 0.1020720 0.1095140 0.1427290
106 3.1446000 3.1446000 3.1446000 0.1319550 0.1424570 0.1760040
107 3.9682000 3.9682000 3.9682000 0.1679880 0.1824860 0.2167770
108 4.8077000 4.8077000 4.8077000 0.2112100 0.2303400 0.2640000
109 5.6634000 5.6634000 5.6634000 0.2614680 0.2861080 0.3207500
110 6.5359000 6.5359000 6.5359000 0.3203790 0.3516930 0.3862990
111 7.4257000 7.4257000 7.4257000 0.3868760 0.4259130 0.4595320
112 8.3333000 8.3333000 8.3333000 0.4647580 0.5123200 0.5459790
113 9.2593000 9.2593000 9.2593000 0.5512050 0.6085140 0.6427230
114 10.204100 10.204100 10.204100 0.6508940 0.7196270 0.7520580
115 11.168400 11.168400 11.168400 0.7616920 0.8429900 0.8752840
116 12.152800 12.152800 12.152800 0.8892080 0.9853130 1.0166700
117 13.157900 13.157900 13.157900 1.0326400 1.1450900 1.1748800
118 14.184400 14.184400 14.184400 1.1964700 1.3278100 1.3563900
119 15.233000 15.233000 15.233000 1.3808100 1.5334600 1.5594700
120 16.304300 16.304300 16.304300 1.5891500 1.7657800 1.7891100
121 17.399300 17.399300 17.399300 1.8206300 2.0243800 2.0441900
122 18.518500 18.518500 18.518500 2.0765300 2.3102700 2.3263800
123 19.662900 19.662900 19.662900 2.3597500 2.6267900 2.6369900
124 20.833300 20.833300 20.833300 2.6737300 2.9768200 2.9820600
125 22.030700 22.030700 22.030700 3.0213600 3.3642800 3.3626200
126 23.255800 23.255800 23.255800 3.4071300 3.7938300 3.7849200
127 24.509800 24.509800 24.509800 3.8304800 4.2648800 4.2477400
128 25.793700 25.793700 25.793700 4.2913900 4.7778300 4.7515800
129 27.108400 27.108400 27.108400 4.7848100 5.3279200 5.2923300
130 28.455300 28.455300 28.455300 5.3146700 5.9192900 5.8760100
131 29.835400 29.835400 29.835400 5.8821900 6.5544000 6.5026000
132 31.250000 31.250000 31.250000 6.4919900 7.2393100 7.1783300
133 32.700400 32.700400 32.700400 7.1609500 7.9890400 7.9185400
134 34.188000 34.188000 34.188000 7.8972100 8.8116800 8.7305800
135 35.714300 35.714300 35.714300 8.7065200 9.7142300 9.6206500
136 37.280700 37.280700 37.280700 9.5909700 10.700200 10.592000
137 38.888900 38.888900 38.888900 10.542600 11.765400 11.641600
138 40.540500 40.540500 40.540500 11.578900 12.923900 12.790800
139 0.0000000 0.0000000 0.0000000 0.0594454 0.0618904 0.0939239
140 0.0000000 12.067700 22.165000 0.8981650 0.9525240 3.0877300
141 45.774600 45.774600 45.774600 15.381900 17.133000 17.027300
142 47.619000 47.619000 47.619000 16.914000 18.836800 18.734200
143 49.516900 49.516900 49.516900 18.568900 20.680700 20.582000
144 51.470600 51.470600 51.470600 20.338000 22.647800 22.561000
145 53.482600 53.482600 53.482600 22.222000 24.733700 24.673600
146 55.555600 55.555600 55.555600 24.225700 26.945100 26.922600
147 57.692300 57.692300 57.692300 26.334000 29.277700 29.291900
148 59.895800 59.895800 59.895800 28.580400 31.770300 31.818900
149 62.169300 62.169300 62.169300 31.038500 34.490500 34.587500
150 64.516100 64.516100 64.516100 33.775200 37.508100 37.666800
151 66.939900 66.939900 66.939900 36.802300 40.845100 41.065600
152 69.444400 69.444400 69.444400 40.111300 44.489400 44.795300
153 72.033900 72.033900 72.033900 43.665900 48.401000 48.817000
154 74.712600 74.712600 74.712600 47.471800 52.593900 53.104600
155 77.485400 77.485400 77.485400 51.626900 57.168400 57.775400
156 80.357100 80.357100 80.357100 56.157800 62.146300 62.870700
157 83.333300 83.333300 83.333300 60.946200 67.399000 68.245000
158 86.419800 86.419800 86.419800 65.920000 72.839600 73.822500
159 89.622600 89.622600 89.622600 71.257900 78.671500 79.789800
160 92.948700 92.948700 92.948700 77.000200 84.944400 86.158900
161 96.405200 96.405200 96.405200 83.400900 91.934400 93.148500
162 13.157900 0.0000000 0.0000000 0.4797840 0.2851810 0.1074000
163 55.207900 0.0000000 16.105900 10.618100 5.6496000 1.8655500
164 79.568500 0.0000000 21.612200 24.359800 12.930400 3.5891400
165 83.400800 0.0000000 41.414800 28.652400 15.079600 12.573600
166 100.00000 0.0000000 58.080700 44.475600 23.275100 27.256900
167 100.00000 62.775300 76.286300 61.010700 50.539400 54.053000
168 57.974500 77.395900 0.0000000 31.675000 47.233100 6.9287500
169 61.070300 100.00000 0.0000000 46.901000 76.205800 11.419100
170 0.0000000 100.00000 0.0000000 34.030200 69.368700 11.006500
171 37.612800 100.00000 0.0000000 38.228300 71.598800 11.141100
172 61.430700 100.00000 30.540600 48.119800 76.766800 17.300400
173 0.0000000 0.0000000 2.3365000 0.0670760 0.0653138 0.1366990
174 0.0000000 0.0000000 4.8077000 0.0859916 0.0738001 0.2427340
175 0.0000000 0.0000000 0.0000000 0.0594454 0.0618904 0.0939239
176 0.0000000 13.975500 42.434800 2.6910500 1.9361300 12.543000
177 0.0000000 20.196800 62.404500 6.4500400 4.4679500 30.807900
178 100.00000 32.932300 100.00000 58.499900 34.125800 90.736900
179 100.00000 52.235300 100.00000 63.933800 45.212000 92.482400
180 0.0000000 35.714300 0.0000000 3.4930400 7.0670600 1.1969100
181 0.0000000 40.540500 0.0000000 4.6358800 9.3986700 1.5640300
182 0.0000000 41.723200 20.560100 5.3815100 10.225300 4.1098500
183 0.0000000 31.091300 41.194700 4.6323700 6.1306400 12.390100
184 0.0000000 43.087100 44.080100 7.7241900 11.871500 15.265900
185 0.0000000 44.320100 58.079000 10.292500 13.590100 27.783200
186 26.683800 72.097400 71.116000 26.547400 39.377700 47.019500
187 21.076200 0.0000000 40.187700 3.1534100 1.5456400 10.980000
188 27.141000 0.0000000 59.908000 7.0581300 3.3712300 27.890100
189 31.631800 0.0000000 100.00000 18.689400 8.6555900 88.632200
190 35.117700 23.509600 100.00000 20.788800 11.821600 89.092500
191 51.569200 42.532900 100.00000 29.741600 22.229700 90.462700
192 0.0000000 10.204100 0.0000000 0.2927300 0.5378350 0.1688630
193 0.0000000 13.157900 0.0000000 0.4439020 0.8462550 0.2174240
194 17.405100 20.431700 0.0000000 1.8123000 2.4897600 0.4369480
195 100.00000 31.061100 0.0000000 42.376200 26.341900 2.1789800
196 7.4257000 0.0000000 0.0000000 0.2007710 0.1369650 0.0984550
197 10.204100 0.0000000 0.0000000 0.3150360 0.1976640 0.1021180
198 33.336400 27.710000 35.073500 6.6405400 6.4032500 8.7985900
199 69.639900 34.262300 60.120300 25.642600 17.960300 29.608700
200 72.211500 49.699400 61.032000 31.614600 27.546000 31.981700
201 82.738600 62.384400 100.00000 54.183200 46.067900 93.326500
202 100.00000 71.611300 100.00000 72.507300 62.703600 95.236500
203 100.00000 87.407700 100.00000 81.928900 81.925300 98.263100
204 0.7645000 0.7645000 0.7645000 0.0642674 0.0667232 0.0996980
205 1.5432000 1.5432000 1.5432000 0.0790443 0.0837917 0.1164360
206 0.0000000 0.0000000 100.00000 15.837400 7.1405500 88.540800
207 0.0000000 22.912200 100.00000 17.119700 9.7567200 88.952700
208 28.894000 37.898500 100.00000 22.116300 16.402500 89.877800
209 31.578300 13.307900 51.297600 6.7649000 3.9311400 19.765000
210 34.577900 37.661300 52.711800 11.100600 11.464300 22.190100
211 45.792900 48.216900 66.344200 19.816900 20.408300 37.585600
212 61.424300 48.515600 73.130300 27.946000 24.747800 46.896800
213 44.993900 59.121800 46.300600 20.051500 26.948900 18.996100
214 53.551100 65.053200 72.932100 31.011000 36.259800 48.613500
215 69.701000 71.834600 100.00000 50.334700 51.106400 94.560400
216 0.0000000 0.0000000 0.0000000 0.0594454 0.0618904 0.0939239
217 26.021500 15.080100 0.0000000 2.4397000 2.0977600 0.3180720
218 38.675900 14.884400 0.0000000 5.0249400 3.4494100 0.3968050
219 41.425800 43.752100 21.150200 11.196000 14.162900 4.6162800
220 54.404400 55.862200 17.830500 19.994100 25.191900 5.3089800
221 56.019800 74.523800 44.838000 31.679800 44.520100 20.416800
222 0.0000000 100.00000 35.486500 35.490300 70.023700 19.191200
223 0.0000000 100.00000 59.117900 38.832800 71.523300 37.928200
224 47.082100 100.00000 65.603400 47.212900 75.868400 45.391800
225 0.0000000 80.559400 46.224900 24.814000 46.270800 22.306800
226 100.00000 83.923600 51.811200 67.544900 72.035500 29.041100
227 59.741300 0.0000000 50.505500 15.667000 8.0767100 19.234000
228 77.430500 0.0000000 64.619400 28.281800 14.568500 33.775800
229 100.00000 37.084100 78.610100 52.910600 33.010000 54.783000
230 100.00000 0.0000000 0.0000000 39.857600 21.203300 1.3699000
231 100.00000 0.0000000 22.451500 40.388200 21.441300 4.3441200
232 100.00000 28.673000 22.170600 42.489000 25.750900 4.9411300
233 100.00000 46.854300 26.114400 47.013800 34.618500 7.6030700
234 79.033400 27.634100 0.0000000 25.451600 16.495600 1.4723800
235 77.716900 42.765900 0.0000000 27.763400 22.578700 2.4768900
236 77.198500 58.555000 0.0000000 32.946300 33.679500 4.2427500
237 81.327900 74.301800 19.795500 43.856000 50.974100 9.0409200
238 56.907700 0.0000000 100.00000 26.862900 12.997500 88.894300
239 61.098700 26.987500 100.00000 30.573500 17.763400 89.548800
240 16.304300 0.0000000 0.0000000 0.7201010 0.4128410 0.1151050
241 16.534400 0.0000000 15.558600 0.9790250 0.5306700 1.4541900
242 26.694200 10.668300 24.720800 2.9498400 1.9258000 3.9305700
243 25.522200 41.366900 28.177500 7.5202200 11.182500 6.6251000
244 35.705800 56.140200 34.885100 14.953600 22.584200 11.224100
245 0.0000000 16.304300 0.0000000 0.6645440 1.2964100 0.2883020
246 0.0000000 25.021100 15.194700 1.8508800 3.3554300 1.8691400
247 0.0000000 27.422600 26.435700 2.7429800 4.3195200 4.9977900
248 31.409100 43.431500 47.991100 11.182800 13.811000 18.481000
249 31.519800 53.527200 100.00000 27.441900 26.545100 91.450100
250 33.066800 67.148800 100.00000 33.524200 38.486800 93.314400
251 32.160300 82.342200 100.00000 41.951600 55.957500 96.074700
252 57.241500 88.511900 100.00000 54.001900 68.148300 97.570500
253 100.00000 21.235800 49.966000 44.198300 24.871600 19.989100
254 100.00000 40.801500 52.770600 48.210600 32.340900 23.656900
255 100.00000 65.620300 55.739900 57.862700 51.234600 29.408500
256 100.00000 74.279200 71.777700 65.728700 61.984600 49.526900
257 51.445200 62.836900 100.00000 37.084300 37.285100 92.835800
258 56.607900 77.411500 100.00000 46.873900 54.018100 95.359700
259 0.0000000 46.475700 74.233800 14.499100 16.546800 47.812900
260 0.0000000 58.883200 79.581300 20.476800 26.462200 57.304500
261 0.0000000 71.103100 79.672600 26.269500 38.239800 59.300300
262 0.0000000 86.125900 81.986900 35.814400 56.675000 65.813000
263 0.0000000 27.900200 58.325900 6.7138700 6.2196400 26.863700
264 0.0000000 39.667000 100.00000 20.192700 16.026000 89.939800
265 0.0000000 52.821600 100.00000 24.349900 24.507500 91.275300
266 0.0000000 63.756700 100.00000 28.752300 33.489200 92.689500
267 0.0000000 75.093200 100.00000 34.628000 45.476900 94.576900
268 0.0000000 86.947800 100.00000 41.842500 60.195800 96.894500
269 0.0000000 100.00000 100.00000 49.808200 76.447400 99.453300
270 0.0000000 57.971600 49.450900 13.708700 22.849100 21.279100
271 38.253800 69.386600 53.365600 23.921700 36.105000 26.624500
272 100.00000 100.00000 73.357900 81.760000 94.068600 56.745000
273 100.00000 100.00000 88.753900 86.022700 95.981000 80.640600
274 0.0000000 4.8077000 0.0000000 0.1191030 0.1836040 0.1130880
275 0.0000000 7.4257000 0.0000000 0.1885360 0.3252590 0.1353920
276 59.555600 23.180900 0.0000000 13.555500 9.2175100 0.9072690
277 100.00000 26.867500 36.248600 43.223400 25.632000 10.546500
278 100.00000 45.610600 67.480900 52.383000 36.390400 39.816200
279 43.387300 9.3170000 15.771100 6.3235900 3.6650100 1.7213700
280 74.446100 16.069000 24.682400 21.696100 12.386400 4.6150900
281 78.524300 80.165500 62.065700 50.317500 59.232800 37.870600
282 90.743400 85.423400 61.530400 62.262300 70.485400 38.609000
283 0.0000000 100.00000 78.926600 43.432300 73.586900 63.711900
284 51.097900 100.00000 83.824200 53.423700 78.780500 71.721700
285 0.0000000 19.662900 0.0000000 0.9710720 1.9217800 0.3867690
286 0.0000000 23.255800 0.0000000 1.3855200 2.7673300 0.5199020
287 0.0000000 27.108400 0.0000000 1.9299800 3.8781400 0.6948040
288 0.0000000 31.250000 0.0000000 2.6117200 5.2690200 0.9138010
289 23.132500 33.406100 0.0000000 4.4453100 6.8525100 1.0893800
290 39.221800 32.431500 24.340600 8.0755800 8.4458200 4.6971200
291 62.470300 35.830800 28.617400 17.972700 14.722200 6.7420100
292 63.276000 35.271600 37.545800 19.001800 15.024200 10.911000
293 46.829600 0.0000000 70.626200 14.316200 7.0359100 41.008700
294 57.528100 33.410100 76.680800 23.098500 16.036800 50.673200
295 78.692800 46.196500 100.00000 45.238800 32.109900 91.275400
296 47.015100 0.0000000 36.170600 8.6488300 4.4988300 8.8660000
297 65.743500 16.913100 37.627900 17.630500 10.247100 10.136500
298 80.563200 20.011200 44.510900 27.979000 16.119500 14.986100
299 0.0000000 45.774600 0.0000000 6.1226100 12.431900 2.0416200
300 25.018000 50.222800 0.0000000 9.3419200 16.420100 2.5813900
301 37.625300 62.366600 26.956200 17.349400 27.726400 8.6526700
302 59.580300 100.00000 52.732900 49.924500 77.506200 32.158000
303 68.129800 100.00000 72.841700 58.422000 81.681700 55.281200
304 0.0000000 16.833800 34.452600 2.0742800 1.9981400 7.9609000
305 12.327400 22.720300 35.160200 3.1163600 3.4662800 8.5256000
306 42.237400 42.237400 42.237400 12.718100 14.188100 14.058300
307 43.981500 43.981500 43.981500 13.983000 15.584600 15.468800
308 80.003300 0.0000000 52.695900 27.873600 14.531900 21.593600
309 84.763000 27.139200 55.600500 33.605600 20.366100 25.051000
310 61.329400 0.0000000 36.118800 14.572000 7.6457200 9.0282000
311 65.830700 52.799800 34.095200 25.195100 26.137100 10.798900
312 73.874200 53.835300 47.115800 31.810400 30.108300 19.440500
313 79.484000 100.00000 51.364900 61.265500 83.549100 31.282100
314 0.0000000 59.803400 24.694500 11.922000 23.218100 7.3764700
315 23.682400 61.294100 31.799000 14.539900 25.506200 10.356100
316 43.517800 87.160800 81.016300 42.051000 60.986000 64.673000
317 60.741700 88.607400 85.817600 51.179200 67.107100 72.793500
318 32.536200 78.741200 0.0000000 24.031600 44.395500 6.9180100
319 49.882700 83.826400 12.672900 32.428600 53.572100 8.9642900
320 71.015800 88.391600 13.563300 45.444400 64.774200 10.332700
321 87.460700 87.160900 16.170800 55.882500 69.137100 10.887800
322 18.895600 48.887000 27.110200 8.8799000 15.397200 6.9370200
323 20.551200 67.606700 45.559700 18.537900 31.962800 19.481500
324 15.433900 67.074900 54.457800 19.147900 31.766900 27.151200
325 21.942600 84.148600 56.731400 29.981900 52.221600 32.495100
326 23.704200 100.00000 70.171500 42.691200 73.379300 51.128300
327 45.669300 16.935800 11.907000 7.4420600 4.9640000 1.2909000
328 54.159700 21.424800 25.699000 11.738900 7.8708300 4.7917700
329 61.103800 15.179300 18.459900 13.809400 8.1201100 2.6080100
330 81.936000 30.851400 16.778800 28.301400 18.786100 3.2813200
331 86.635600 30.790600 39.544800 33.220700 21.252400 12.267900
332 86.618100 64.206200 48.570300 45.038600 43.505900 22.298300
333 0.0000000 80.435700 31.082200 23.127900 45.392800 13.258300
334 10.873000 90.475300 43.767000 30.982900 58.953900 22.438500
335 30.621000 100.00000 49.856400 39.933900 72.237100 29.267400
336 71.590400 100.00000 88.409200 64.757400 84.692900 79.394300
337 14.555500 25.838100 24.788600 2.9217700 4.0650900 4.3653200
338 19.509600 30.410900 34.490500 4.8104000 6.1020800 8.5751600
339 27.608800 38.726000 34.042500 7.6451700 10.205300 8.9439900
340 40.433500 47.697100 34.653600 13.076300 16.963300 10.161700
341 30.964900 67.582100 15.907600 17.800400 31.746600 6.3281900
342 61.772000 82.509700 26.202200 37.276300 54.871200 12.194100
343 80.687300 88.293700 39.324500 53.353500 68.743800 19.832400
344 58.909200 58.552100 0.0000000 22.652000 28.209200 3.9123800
345 70.111200 60.135300 28.300400 30.038400 33.028500 9.2878200
346 72.395000 71.313100 33.971600 37.218300 44.909300 13.497600
347 46.366700 59.893800 61.208400 23.324200 28.956700 33.017700
348 48.783800 74.253700 70.268900 33.266900 44.749200 46.430600
349 65.076900 86.550300 74.583900 48.945100 64.215600 55.045000
350 80.837100 91.692100 86.245200 65.296600 77.630300 74.505000
351 54.395200 8.1174000 27.424600 10.998200 6.0338200 5.1115700
352 69.548500 23.344300 32.672100 20.026700 12.586900 7.8893900
353 85.704700 35.740300 50.237600 34.956500 23.516900 20.612000
354 87.398500 42.254800 70.113000 41.602500 29.129300 42.645600
355 86.686000 60.197600 76.297300 48.975100 42.483000 53.364800
356 16.782200 6.4113000 12.183800 1.0063300 0.7027650 0.9584770
357 16.868500 9.6383000 22.305900 1.5024800 1.1010600 3.1151900
358 23.636000 16.062800 22.337700 2.6723700 2.2907800 3.2709000
359 41.881100 22.705600 25.109600 7.3542000 5.7764800 4.4923200
360 52.922300 27.137800 35.442500 12.736000 9.5050500 9.1575800
361 82.065600 72.624000 61.341600 48.265200 51.523900 35.747100
362 92.184400 85.060600 75.920000 66.477800 72.112600 57.264400
363 16.878600 82.689900 23.530600 24.733800 48.389900 10.929700
364 38.202500 86.574000 39.401400 32.027100 55.778600 18.881400
365 13.648400 31.272100 12.133200 3.2125000 5.5822700 1.7331000
366 15.193900 32.630800 23.908800 4.0444600 6.3634000 4.4383200
367 30.283600 53.438600 43.001900 13.666400 20.293000 15.689200
368 34.156900 61.990400 56.627600 19.924900 28.553000 28.560100
