Lenovo/ThinkBook 14p Gen2/NV140DRM-N62 #1 2022-08-01 19-50 2.2 F-S XYZLUT+MTX/NV140DRM-N62 #1 2022-08-01 19-50 2.2 F-S XYZLUT+MTX.bpc.ti3
CTI3   

DESCRIPTOR "Argyll Calibration Target chart information 3"
ORIGINATOR "Argyll dispread"
CREATED "Mon Aug  1 19:55:21 2022"
DEVICE_CLASS "DISPLAY"
SINGLE_DIM_STEPS "21"
COMP_GREY_STEPS "61"
DARK_REGION_EMPHASIS "1.6"
COLOR_REP "RGB_XYZ"
TARGET_INSTRUMENT "X-Rite i1 DisplayPro, ColorMunki Display"
DISPLAY_TYPE_REFRESH "NO"
DISPLAY_TYPE_BASE_ID "1"
INSTRUMENT_TYPE_SPECTRAL "NO"
LUMINANCE_XYZ_CDM2 "282.680217 311.382822 314.953044"
NORMALIZED_TO_Y_100 "YES"
VIDEO_LUT_CALIBRATION_POSSIBLE "YES"

BEGIN_ARGYLL_COLPROF_ARGS
b'b\'-v -qh -aX -bn -C "No copyright. Created with DisplayCAL 3.9.6 and Argyll CMS 2.3.1" -A "BOE"\''
END_ARGYLL_COLPROF_ARGS

OBSERVER "1931_2"
USE_BLACK_POINT_COMPENSATION "NO"
BLACK_POINT_CORRECTION "0.0"
HIRES_B2A "YES"
HIRES_B2A_SIZE "-1"
SMOOTH_B2A "YES"
PATCH_SEQUENCE "OPTIMIZE_DISPLAY_RESPONSE_DELAY"

NUMBER_OF_FIELDS 7
BEGIN_DATA_FORMAT
SAMPLE_ID RGB_R RGB_G RGB_B XYZ_X XYZ_Y XYZ_Z
END_DATA_FORMAT

NUMBER_OF_SETS 596
BEGIN_DATA
1 100.00000 100.00000 100.00000 90.782200 100.000000 101.14700
2 100.00000 100.00000 100.00000 90.788600 100.000000 101.11100
3 100.00000 100.00000 100.00000 90.788600 100.000000 101.11100
4 100.00000 100.00000 100.00000 90.788600 100.000000 101.11100
5 100.00000 100.00000 100.00000 90.811500 100.02400 101.17000
6 0.0000000 0.0000000 0.0000000 0.0559530 0.0616202 0.0622010
7 1.9608000 1.9608000 1.9608000 0.0880977 0.0971374 0.1025275
8 3.9216000 3.9216000 3.9216000 0.1609605 0.1767546 0.1898606
9 5.8824000 5.8824000 5.8824000 0.2710981 0.2986727 0.3198710
10 9.8039000 9.8039000 9.8039000 0.6000109 0.6631928 0.6927512
11 13.726000 13.726000 13.726000 1.1086113 1.2298340 1.2577676
12 17.647000 17.647000 17.647000 1.8761403 2.0867443 2.1035955
13 21.569000 21.569000 21.569000 2.8704771 3.1974147 3.1991261
14 25.490000 25.490000 25.490000 4.1944284 4.6689853 4.6419840
15 29.412000 29.412000 29.412000 5.7121790 6.3607659 6.3114854
16 33.333000 33.333000 33.333000 7.4446996 8.3122166 8.2379561
17 37.255000 37.255000 37.255000 9.5865004 10.688167 10.582067
18 41.176000 41.176000 41.176000 11.970271 13.372668 13.222168
19 45.098000 45.098000 45.098000 14.816672 16.493470 16.400769
20 49.020000 49.020000 49.020000 18.151574 20.218371 20.111170
21 52.941000 52.941000 52.941000 21.724675 24.191572 24.115272
22 56.863000 56.863000 56.863000 25.553076 28.400474 28.412474
23 60.784000 60.784000 60.784000 29.479078 32.776276 32.829075
24 64.706000 64.706000 64.706000 33.969779 37.718577 37.891577
25 68.627000 68.627000 68.627000 39.016381 43.287279 43.543379
26 72.549000 72.549000 72.549000 44.407583 49.211381 49.664981
27 76.471000 76.471000 76.471000 50.022485 55.406884 55.964284
28 80.392000 80.392000 80.392000 56.245687 62.240486 62.969086
29 84.314000 84.314000 84.314000 62.600790 69.215489 70.091589
30 88.235000 88.235000 88.235000 68.901892 76.095091 77.154291
31 92.157000 92.157000 92.157000 75.725695 83.553294 84.747194
32 96.078000 96.078000 96.078000 82.696497 91.163397 92.399097
33 100.00000 0.0000000 0.0000000 39.710681 21.126571 1.3338936
34 0.0000000 100.00000 0.0000000 35.082080 71.520990 11.314267
35 0.0000000 0.0000000 100.00000 15.806673 7.1280762 88.361195
36 24.900600 0.0000000 14.526800 1.8864026 1.0179939 1.2821819
37 26.540100 0.0000000 29.273900 2.9483033 1.5167141 5.4776624
38 65.138500 0.0000000 84.674000 25.828976 12.827468 62.046586
39 79.096600 0.0000000 100.00000 39.394681 19.683071 89.271196
40 100.00000 49.947000 0.0000000 47.221484 36.414677 3.7771245
41 100.00000 81.134300 0.0000000 62.149090 66.856888 8.5929363
42 81.208700 100.00000 0.0000000 60.106689 84.884694 12.163468
43 81.575400 100.00000 31.394200 61.652989 85.620595 18.655370
44 100.00000 100.00000 53.771700 78.909196 94.577898 34.946176
45 89.622600 0.0000000 0.0000000 31.030278 16.541870 1.1069036
46 100.00000 0.0000000 39.303700 41.613582 21.975472 11.742767
47 100.00000 0.0000000 75.741400 48.266885 24.936673 48.934781
48 100.00000 0.0000000 100.00000 55.579587 28.264974 89.812796
49 19.662900 0.0000000 0.0000000 1.0249784 0.5762498 0.1232372
50 23.255800 0.0000000 0.0000000 1.4348240 0.7944049 0.1402197
51 27.108400 0.0000000 0.0000000 2.0292729 1.1108040 0.1625634
52 31.250000 0.0000000 0.0000000 2.7649434 1.5026641 0.1888397
53 35.714300 0.0000000 0.0000000 3.6489131 1.9736243 0.2201511
54 40.540500 0.0000000 0.0000000 4.8267044 2.6009045 0.2616943
55 45.774600 0.0000000 0.0000000 6.4935384 3.4884648 0.3199152
56 48.567800 0.0000000 0.0000000 7.4834093 4.0175050 0.3548265
57 51.470600 0.0000000 0.0000000 8.5503599 4.5839252 0.3911330
58 57.692300 0.0000000 0.0000000 11.127071 5.9568657 0.4798603
59 64.516100 0.0000000 0.0000000 14.449772 7.7226664 0.5873694
60 72.033900 0.0000000 0.0000000 18.736574 10.005567 0.7319474
61 80.357100 0.0000000 0.0000000 24.191776 12.903868 0.9031765
62 100.00000 100.00000 0.0000000 74.869394 92.713297 12.606368
63 100.00000 100.00000 31.186800 76.071095 93.283798 19.215070
64 37.839700 64.073700 0.0000000 16.988273 28.335074 4.4066748
65 100.00000 64.559100 0.0000000 53.075986 48.334981 5.6796552
66 100.00000 68.735600 46.480200 57.953288 53.798083 22.166371
67 100.00000 84.113400 69.000000 70.886093 73.596490 47.996781
68 46.981000 25.570900 0.0000000 8.6193401 7.0572061 0.8653505
69 45.759300 39.627400 0.0000000 10.870871 12.245768 1.7176838
70 60.875100 41.317100 0.0000000 17.288673 16.279369 2.0561939
71 2.3365000 0.0000000 0.0000000 0.0743675 0.0713978 0.0640712
72 4.8077000 0.0000000 0.0000000 0.1163821 0.0936156 0.0679515
73 71.921200 18.190400 73.753600 27.495877 15.145469 45.600180
74 80.737800 87.465700 100.00000 66.967791 74.084591 97.861799
75 100.00000 100.00000 100.00000 90.733900 99.941600 101.14600
76 0.0000000 51.470600 0.0000000 7.8001098 15.887269 2.6307241
77 0.0000000 57.692300 0.0000000 10.129871 20.624271 3.3768944
78 0.0000000 64.516100 0.0000000 13.074772 26.668573 4.3469147
79 0.0000000 72.033900 0.0000000 16.901873 34.456976 5.5821252
80 0.0000000 80.357100 0.0000000 21.677675 44.228880 7.1203657
81 0.0000000 89.622600 0.0000000 27.622577 56.362784 9.0115364
82 33.464900 100.00000 30.055900 39.435281 73.780390 17.351869
83 31.684000 100.00000 100.00000 53.997187 80.367493 99.928100
84 52.956600 100.00000 100.00000 60.634189 83.907294 100.15500
85 0.0000000 0.0000000 7.4257000 0.1111310 0.0862923 0.3742762
86 0.0000000 0.0000000 10.204100 0.1550600 0.1055476 0.6182866
87 0.0000000 0.0000000 13.157900 0.2218110 0.1353746 0.9943908
88 0.0000000 0.0000000 16.304300 0.3173319 0.1777526 1.5239598
89 0.0000000 0.0000000 19.662900 0.4401106 0.2322077 2.2085115
90 0.0000000 0.0000000 23.255800 0.6023324 0.3041637 3.1163355
91 0.0000000 0.0000000 27.108400 0.8381119 0.4085697 4.4346468
92 0.0000000 0.0000000 31.250000 1.1285076 0.5376078 6.0696115
93 0.0000000 0.0000000 35.714300 1.4800598 0.6937688 8.0419064
94 0.0000000 0.0000000 40.540500 1.9466869 0.9015729 10.666967
95 0.0000000 0.0000000 45.774600 2.6155071 1.1963840 14.412185
96 0.0000000 0.0000000 51.470600 3.4322845 1.5599041 18.975291
97 0.0000000 0.0000000 57.692300 4.4723133 2.0240743 24.823959
98 0.0000000 0.0000000 64.516100 5.8089444 2.6180845 32.309449
99 0.0000000 0.0000000 72.033900 7.5390185 3.3913248 42.017047
100 0.0000000 0.0000000 80.357100 9.7312902 4.3709752 54.297576
101 0.0000000 0.0000000 89.622600 12.450271 5.5953556 69.560887
102 0.0000000 38.390700 78.972100 13.353772 12.428068 53.313183
103 19.086200 50.154600 87.201100 20.277474 21.280571 67.742088
104 0.0000000 2.3365000 0.0000000 0.0728625 0.0956722 0.0715984
105 2.3365000 2.3365000 2.3365000 0.0994621 0.1094946 0.1164760
106 3.1446000 3.1446000 3.1446000 0.1276282 0.1401996 0.1505085
107 3.9682000 3.9682000 3.9682000 0.1607374 0.1763776 0.1896804
108 4.8077000 4.8077000 4.8077000 0.1991252 0.2190127 0.2354881
109 5.6634000 5.6634000 5.6634000 0.2457355 0.2706327 0.2905020
110 6.5359000 6.5359000 6.5359000 0.3242442 0.3574007 0.3814358
111 7.4257000 7.4257000 7.4257000 0.3827758 0.4219357 0.4480660
112 8.3333000 8.3333000 8.3333000 0.4499384 0.4964288 0.5246053
113 9.2593000 9.2593000 9.2593000 0.5593021 0.6181678 0.6480406
114 10.204100 10.204100 10.204100 0.6400701 0.7082158 0.7387797
115 11.168400 11.168400 11.168400 0.7316613 0.8100699 0.8411427
116 12.152800 12.152800 12.152800 0.8725600 0.9665239 0.9969836
117 13.157900 13.157900 13.157900 1.0428388 1.1564040 1.1852289
118 14.184400 14.184400 14.184400 1.1748214 1.3037140 1.3323321
119 15.233000 15.233000 15.233000 1.3845220 1.5378141 1.5634260
120 16.304300 16.304300 16.304300 1.6164336 1.7954342 1.8187242
121 17.399300 17.399300 17.399300 1.7839084 1.9840643 2.0045686
122 18.518500 18.518500 18.518500 2.0596929 2.2907444 2.3075391
123 19.662900 19.662900 19.662900 2.3569353 2.6234745 2.6350407
124 20.833300 20.833300 20.833300 2.6483265 2.9493446 2.9562714
125 22.030700 22.030700 22.030700 2.9764873 3.3156248 3.3172176
126 23.255800 23.255800 23.255800 3.3382278 3.7205049 3.7157011
127 24.509800 24.509800 24.509800 3.7461881 4.1752651 4.1631530
128 25.793700 25.793700 25.793700 4.3011084 4.8046653 4.7877542
129 27.108400 27.108400 27.108400 4.7772886 5.3181055 5.2830648
130 28.455300 28.455300 28.455300 5.3807389 5.9843458 5.9449552
131 29.835400 29.835400 29.835400 5.8670191 6.5284459 6.4814255
132 31.250000 31.250000 31.250000 6.5352193 7.2857362 7.2252958
133 32.700400 32.700400 32.700400 7.0686995 7.8648164 7.8053160
134 34.188000 34.188000 34.188000 7.8269798 8.7286867 8.6487163
135 35.714300 35.714300 35.714300 8.6483201 9.6514571 9.5616866
136 37.280700 37.280700 37.280700 9.5464304 10.656967 10.560067
137 38.888900 38.888900 38.888900 10.489471 11.697368 11.591367
138 40.540500 40.540500 40.540500 11.445871 12.761668 12.636968
139 0.0000000 0.0000000 0.0000000 0.0560218 0.0616864 0.0624062
140 0.0000000 12.067700 22.165000 0.8873440 0.9380719 3.0495938
141 45.774600 45.774600 45.774600 15.400773 17.149970 17.054669
142 47.619000 47.619000 47.619000 16.713373 18.616970 18.527470
143 49.516900 49.516900 49.516900 18.439774 20.545471 20.471571
144 51.470600 51.470600 51.470600 20.216574 22.508972 22.473871
145 53.482600 53.482600 53.482600 22.064475 24.555173 24.535372
146 55.555600 55.555600 55.555600 24.326176 27.062773 27.068073
147 57.692300 57.692300 57.692300 26.245276 29.191474 29.188674
148 59.895800 59.895800 59.895800 28.640877 31.817175 31.897175
149 62.169300 62.169300 62.169300 31.123778 34.586076 34.724576
150 64.516100 64.516100 64.516100 33.882879 37.638077 37.845977
151 66.939900 66.939900 66.939900 36.895380 40.949178 41.202578
152 69.444400 69.444400 69.444400 40.001881 44.366980 44.677079
153 72.033900 72.033900 72.033900 43.793683 48.542581 48.975781
154 74.712600 74.712600 74.712600 47.623384 52.752983 53.274483
155 77.485400 77.485400 77.485400 51.774986 57.294684 57.984584
156 80.357100 80.357100 80.357100 56.183687 62.155786 62.931386
157 83.333300 83.333300 83.333300 60.670289 67.062888 67.936288
158 86.419800 86.419800 86.419800 65.616291 72.479690 73.529690
159 89.622600 89.622600 89.622600 71.536993 78.971492 80.124792
160 92.948700 92.948700 92.948700 77.071295 85.012695 86.248295
161 96.405200 96.405200 96.405200 83.366897 91.881197 93.195997
162 13.157900 0.0000000 0.0000000 0.4722049 0.2823727 0.0945050
163 55.207900 0.0000000 16.105900 10.434971 5.5668256 1.8714237
164 79.568500 0.0000000 21.612200 24.150476 12.841568 3.5934145
165 83.400800 0.0000000 41.414800 28.596077 15.073869 12.576068
166 100.00000 0.0000000 58.080700 44.330883 23.185472 27.181573
167 100.00000 62.775300 76.286300 61.051289 50.703982 54.417183
168 57.974500 77.395900 0.0000000 31.264578 46.555681 6.9280857
169 61.070300 100.00000 0.0000000 48.013184 78.386292 11.774167
170 0.0000000 100.00000 0.0000000 35.052980 71.450890 11.318267
171 37.612800 100.00000 0.0000000 39.337981 73.768190 11.473367
172 61.430700 100.00000 30.540600 49.404985 79.050392 17.896470
173 0.0000000 0.0000000 2.3365000 0.0636348 0.0650798 0.1049338
174 0.0000000 0.0000000 4.8077000 0.0805238 0.0725003 0.1997526
175 0.0000000 0.0000000 0.0000000 0.0560232 0.0616874 0.0624720
176 0.0000000 13.975500 42.434800 2.6150234 1.9023943 12.089620
177 0.0000000 20.196800 62.404500 6.3382091 4.4240652 30.059670
178 100.00000 32.932300 100.00000 58.576588 34.427976 90.785196
179 100.00000 52.235300 100.00000 64.105190 45.695680 92.595397
180 0.0000000 35.714300 0.0000000 3.3581181 6.7916460 1.1733336
181 0.0000000 40.540500 0.0000000 4.4549085 8.9874068 1.5253337
182 0.0000000 41.723200 20.560100 5.2026588 9.8764272 4.0075346
183 0.0000000 31.091300 41.194700 4.5270286 5.9909058 12.095067
184 0.0000000 43.087100 44.080100 7.5506597 11.635468 14.810969
185 0.0000000 44.320100 58.079000 10.104271 13.326768 27.277773
186 26.683800 72.097400 71.116000 26.427277 39.220278 46.626080
187 21.076200 0.0000000 40.187700 3.0801607 1.5066041 10.610535
188 27.141000 0.0000000 59.908000 6.9378281 3.2970548 27.436045
189 31.631800 0.0000000 100.00000 18.713574 8.6832067 88.539095
190 35.117700 23.509600 100.00000 20.966775 11.994168 89.042396
191 51.569200 42.532900 100.00000 30.005078 22.485372 90.453596
192 0.0000000 10.204100 0.0000000 0.2822660 0.5178318 0.1614863
193 0.0000000 13.157900 0.0000000 0.4368336 0.8325709 0.2158628
194 17.405100 20.431700 0.0000000 1.7636544 2.4300345 0.4363319
195 100.00000 31.061100 0.0000000 42.240982 26.311673 2.1666839
196 7.4257000 0.0000000 0.0000000 0.1937115 0.1345986 0.0746294
197 10.204100 0.0000000 0.0000000 0.3024357 0.1923136 0.0830515
198 33.336400 27.710000 35.073500 6.6034493 6.4347859 8.6580662
199 69.639900 34.262300 60.120300 25.597376 17.937270 29.370174
200 72.211500 49.699400 61.032000 31.614278 27.640174 32.064175
201 82.738600 62.384400 100.00000 54.363787 46.380980 93.436297
202 100.00000 71.611300 100.00000 72.665793 63.257887 95.380698
203 100.00000 87.407700 100.00000 81.921297 82.063293 98.358499
204 0.7645000 0.7645000 0.7645000 0.0652294 0.0716926 0.0739849
205 1.5432000 1.5432000 1.5432000 0.0787307 0.0868457 0.0911591
206 0.0000000 0.0000000 100.00000 15.809573 7.1295362 88.391895
207 0.0000000 22.912200 100.00000 17.117373 9.7551171 88.841096
208 28.894000 37.898500 100.00000 22.338675 16.735370 89.898696
209 31.578300 13.307900 51.297600 6.7562090 3.9217750 19.604063
210 34.577900 37.661300 52.711800 11.032171 11.420568 21.929271
211 45.792900 48.216900 66.344200 19.773774 20.394171 37.255077
212 61.424300 48.515600 73.130300 27.969477 24.875773 46.436780
213 44.993900 59.121800 46.300600 20.020474 26.909673 18.963570
214 53.551100 65.053200 72.932100 31.050578 36.234177 48.484681
215 69.701000 71.834600 100.00000 50.558185 51.337482 94.658498
216 0.0000000 0.0000000 0.0000000 0.0560412 0.0616947 0.0624257
217 26.021500 15.080100 0.0000000 2.3489078 2.0222243 0.3116189
218 38.675900 14.884400 0.0000000 4.9590079 3.4135948 0.4095630
219 41.425800 43.752100 21.150200 11.171671 14.138569 4.6737749
220 54.404400 55.862200 17.830500 19.832274 24.911673 5.3357751
221 56.019800 74.523800 44.838000 31.527778 44.235180 20.381671
222 0.0000000 100.00000 35.486500 36.498380 72.118690 19.429570
223 0.0000000 100.00000 59.117900 39.866581 73.632190 38.318477
224 47.082100 100.00000 65.603400 48.392285 78.072892 45.674180
225 0.0000000 80.559400 46.224900 24.434676 45.587680 22.113971
226 100.00000 83.923600 51.811200 67.471891 72.017590 29.458874
227 59.741300 0.0000000 50.505500 15.396273 7.9417965 19.033870
228 77.430500 0.0000000 64.619400 27.921177 14.376969 33.437575
229 100.00000 37.084100 78.610100 52.889586 33.253376 54.496983
230 100.00000 0.0000000 0.0000000 39.669481 21.111971 1.3351836
231 100.00000 0.0000000 22.451500 40.246682 21.363271 4.3254647
232 100.00000 28.673000 22.170600 42.427582 25.804473 5.0837350
233 100.00000 46.854300 26.114400 46.904484 34.616276 7.8388760
234 79.033400 27.634100 0.0000000 25.346476 16.415770 1.5095237
235 77.716900 42.765900 0.0000000 27.424277 22.290372 2.5108541
236 77.198500 58.555000 0.0000000 32.613079 33.269176 4.2797847
237 81.327900 74.301800 19.795500 43.451883 50.455882 9.1141365
238 56.907700 0.0000000 100.00000 26.843977 13.008868 88.809895
239 61.098700 26.987500 100.00000 30.765378 18.043770 89.553696
240 16.304300 0.0000000 0.0000000 0.7122473 0.4097677 0.1082819
241 16.534400 0.0000000 15.558600 0.9572700 0.5197868 1.4405088
242 26.694200 10.668300 24.720800 2.9110423 1.8995443 3.8951202
243 25.522200 41.366900 28.177500 7.4154096 10.961968 6.6381056
244 35.705800 56.140200 34.885100 14.832972 22.388572 11.237167
245 0.0000000 16.304300 0.0000000 0.6566099 1.2815340 0.2875840
246 0.0000000 25.021100 15.194700 1.8329971 3.3198048 1.8642793
247 0.0000000 27.422600 26.435700 2.6981478 4.2658651 4.8595233
248 31.409100 43.431500 47.991100 11.105871 13.741869 18.239270
249 31.519800 53.527200 100.00000 27.530777 26.671773 91.446896
250 33.066800 67.148800 100.00000 33.593179 38.559078 93.319497
251 32.160300 82.342200 100.00000 42.001982 55.982484 96.104698
252 57.241500 88.511900 100.00000 54.246887 68.363488 97.664799
253 100.00000 21.235800 49.966000 44.122383 24.874773 20.082070
254 100.00000 40.801500 52.770600 48.265285 32.511275 24.113872
255 100.00000 65.620300 55.739900 57.765988 51.189382 29.719474
256 100.00000 74.279200 71.777700 65.590191 61.829386 49.742381
257 51.445200 62.836900 100.00000 37.240480 37.449777 92.849497
258 56.607900 77.411500 100.00000 46.867784 53.925483 95.345198
259 0.0000000 46.475700 74.233800 14.343072 16.436570 47.008980
260 0.0000000 58.883200 79.581300 20.256574 26.153973 56.797184
261 0.0000000 71.103100 79.672600 25.910076 37.706577 58.612185
262 0.0000000 86.125900 81.986900 35.619980 56.430884 65.444687
263 0.0000000 27.900200 58.325900 6.5975193 6.1237658 26.465573
264 0.0000000 39.667000 100.00000 20.187174 16.084369 89.816196
265 0.0000000 52.821600 100.00000 24.421376 24.668373 91.233896
266 0.0000000 63.756700 100.00000 28.773577 33.573876 92.657497
267 0.0000000 75.093200 100.00000 34.378779 45.068080 94.471998
268 0.0000000 86.947800 100.00000 41.751882 60.087285 96.865998
269 0.0000000 100.00000 100.00000 50.863385 78.643892 99.781899
270 0.0000000 57.971600 49.450900 13.535772 22.551172 20.937571
271 38.253800 69.386600 53.365600 23.884276 35.940977 26.614673
272 100.00000 100.00000 73.357900 82.818497 96.244099 57.401084
273 100.00000 100.00000 88.753900 87.015199 98.143199 80.851593
274 0.0000000 4.8077000 0.0000000 0.1115512 0.1731346 0.0910028
275 0.0000000 7.4257000 0.0000000 0.1826451 0.3161627 0.1226298
276 59.555600 23.180900 0.0000000 13.357672 9.0880069 0.9331045
277 100.00000 26.867500 36.248600 43.193083 25.772773 10.643967
278 100.00000 45.610600 67.480900 52.363386 36.498177 39.945478
279 43.387300 9.3170000 15.771100 6.2564886 3.6415649 1.7180314
280 74.446100 16.069000 24.682400 21.574375 12.352168 4.6894749
281 78.524300 80.165500 62.065700 49.988885 58.789985 37.790377
282 90.743400 85.423400 61.530400 62.070790 70.323789 38.804077
283 0.0000000 100.00000 78.926600 44.400383 75.641591 63.580486
284 51.097900 100.00000 83.824200 54.693087 81.033393 72.266889
285 0.0000000 19.662900 0.0000000 0.9430741 1.8618942 0.3828303
286 0.0000000 23.255800 0.0000000 1.3176157 2.6295345 0.5059071
287 0.0000000 27.108400 0.0000000 1.8643874 3.7438349 0.6848641
288 0.0000000 31.250000 0.0000000 2.5512078 5.1169554 0.9056643
289 23.132500 33.406100 0.0000000 4.3302585 6.6542160 1.0808235
290 39.221800 32.431500 24.340600 8.0371599 8.4313166 4.7153349
291 62.470300 35.830800 28.617400 17.743473 14.556769 6.8063256
292 63.276000 35.271600 37.545800 18.821274 14.951069 11.013167
293 46.829600 0.0000000 70.626200 14.023172 6.8661761 40.370878
294 57.528100 33.410100 76.680800 23.132975 16.049869 50.594682
295 78.692800 46.196500 100.00000 45.529084 32.585275 91.345196
296 47.015100 0.0000000 36.170600 8.4576698 4.4054052 8.6536544
297 65.743500 16.913100 37.627900 17.577473 10.240967 10.158567
298 80.563200 20.011200 44.510900 27.770277 16.063269 15.084269
299 0.0000000 45.774600 0.0000000 5.9362791 12.051668 2.0201539
300 25.018000 50.222800 0.0000000 9.1775803 16.084369 2.5788941
301 37.625300 62.366600 26.956200 17.215373 27.437174 8.7600563
302 59.580300 100.00000 52.732900 51.153286 79.733593 32.641275
303 68.129800 100.00000 72.841700 59.717689 83.952994 55.872484
304 0.0000000 16.833800 34.452600 2.0329072 1.9663143 7.7543663
305 12.327400 22.720300 35.160200 3.0829175 3.4309048 8.4495861
306 42.237400 42.237400 42.237400 12.697672 14.169869 14.051068
307 43.981500 43.981500 43.981500 13.822372 15.423469 15.288269
308 80.003300 0.0000000 52.695900 27.611777 14.399069 21.255571
309 84.763000 27.139200 55.600500 33.523379 20.391271 25.141472
310 61.329400 0.0000000 36.118800 14.235972 7.4823763 8.8839564
311 65.830700 52.799800 34.095200 25.168576 26.181073 10.923467
312 73.874200 53.835300 47.115800 31.595878 29.951574 19.467870
313 79.484000 100.00000 51.364900 62.567490 85.821995 32.059475
314 0.0000000 59.803400 24.694500 11.625971 22.640372 7.3075858
315 23.682400 61.294100 31.799000 14.302072 25.078173 10.325567
316 43.517800 87.160800 81.016300 41.909682 60.611386 64.759987
317 60.741700 88.607400 85.817600 51.191086 66.988688 72.794190
318 32.536200 78.741200 0.0000000 23.773576 43.935780 6.9332057
319 49.882700 83.826400 12.672900 32.284479 53.359383 9.0218964
320 71.015800 88.391600 13.563300 45.109483 64.216187 10.404267
321 87.460700 87.160900 16.170800 55.547987 68.669989 10.953367
322 18.895600 48.887000 27.110200 8.8604302 15.341869 6.9578857
323 20.551200 67.606700 45.559700 18.277474 31.515575 19.305770
324 15.433900 67.074900 54.457800 18.959974 31.459375 27.023673
325 21.942600 84.148600 56.731400 29.940678 52.142683 32.588775
326 23.704200 100.00000 70.171500 43.779683 75.496091 51.460182
327 45.669300 16.935800 11.907000 7.2335495 4.8561653 1.2844334
328 54.159700 21.424800 25.699000 11.647871 7.8643064 4.9013949
329 61.103800 15.179300 18.459900 13.688272 8.0906965 2.6560141
330 81.936000 30.851400 16.778800 28.257377 18.838970 3.3904944
331 86.635600 30.790600 39.544800 33.205679 21.372571 12.458068
332 86.618100 64.206200 48.570300 45.006683 43.540579 22.555971
333 0.0000000 80.435700 31.082200 22.814775 44.817680 13.165768
334 10.873000 90.475300 43.767000 30.892878 58.765985 22.546571
335 30.621000 100.00000 49.856400 41.051282 74.397291 29.753774
336 71.590400 100.00000 88.409200 66.050491 86.987195 79.418892
337 14.555500 25.838100 24.788600 2.9105378 4.0583350 4.3203126
338 19.509600 30.410900 34.490500 4.8270787 6.1541558 8.5069461
339 27.608800 38.726000 34.042500 7.5987997 10.167767 8.9370464
340 40.433500 47.697100 34.653600 13.031172 16.947870 10.108167
341 30.964900 67.582100 15.907600 17.572973 31.300975 6.3849355
342 61.772000 82.509700 26.202200 37.084580 54.398383 12.315568
343 80.687300 88.293700 39.324500 53.253386 68.465089 20.038170
344 58.909200 58.552100 0.0000000 22.264975 27.715474 3.9346046
345 70.111200 60.135300 28.300400 29.891078 32.792076 9.3907466
346 72.395000 71.313100 33.971600 37.212480 44.847180 13.754868
347 46.366700 59.893800 61.208400 23.207775 28.885374 32.770575
348 48.783800 74.253700 70.268900 32.981079 44.335280 46.135880
349 65.076900 86.550300 74.583900 48.874285 64.129887 54.839883
350 80.837100 91.692100 86.245200 65.324891 77.652392 74.496590
351 54.395200 8.1174000 27.424600 10.932571 6.0182158 5.1499749
352 69.548500 23.344300 32.672100 19.840674 12.555068 7.8757060
353 85.704700 35.740300 50.237600 35.013480 23.609872 20.679371
354 87.398500 42.254800 70.113000 41.619182 29.267774 42.707379
355 86.686000 60.197600 76.297300 49.025985 42.697679 53.555683
356 16.782200 6.4113000 12.183800 0.9975726 0.6938898 0.9327546
357 16.868500 9.6383000 22.305900 1.4951837 1.1053440 3.0761749
358 23.636000 16.062800 22.337700 2.6308819 2.2686544 3.2403251
359 41.881100 22.705600 25.109600 7.3187796 5.7611557 4.5145646
360 52.922300 27.137800 35.442500 12.675372 9.4808270 9.0665965
361 82.065600 72.624000 61.341600 48.034484 51.309782 35.585076
