Lenovo/ThinkBook 14p Gen2/NV140DRM-N62 #1 2022-08-01 19-50 2.2 F-S XYZLUT+MTX/NV140DRM-N62 #1 2022-08-01 19-50 2.2 F-S XYZLUT+MTX.ti3
CTI3   

DESCRIPTOR "Argyll Calibration Target chart information 3"
ORIGINATOR "Argyll dispread"
CREATED "Mon Aug  1 19:55:21 2022"
DEVICE_CLASS "DISPLAY"
SINGLE_DIM_STEPS "21"
COMP_GREY_STEPS "61"
DARK_REGION_EMPHASIS "1.6"
COLOR_REP "RGB_XYZ"
TARGET_INSTRUMENT "X-Rite i1 DisplayPro, ColorMunki Display"
DISPLAY_TYPE_REFRESH "NO"
DISPLAY_TYPE_BASE_ID "1"
INSTRUMENT_TYPE_SPECTRAL "NO"
LUMINANCE_XYZ_CDM2 "282.680217 311.382822 314.953044"
NORMALIZED_TO_Y_100 "YES"
VIDEO_LUT_CALIBRATION_POSSIBLE "YES"

BEGIN_ARGYLL_COLPROF_ARGS
b'b\'-v -qh -aX -bn -C "No copyright. Created with DisplayCAL 3.9.6 and Argyll CMS 2.3.1" -A "BOE"\''
END_ARGYLL_COLPROF_ARGS

OBSERVER "1931_2"
USE_BLACK_POINT_COMPENSATION "NO"
BLACK_POINT_CORRECTION "0.0"
HIRES_B2A "YES"
HIRES_B2A_SIZE "-1"
SMOOTH_B2A "YES"
PATCH_SEQUENCE "OPTIMIZE_DISPLAY_RESPONSE_DELAY"

NUMBER_OF_FIELDS 7
BEGIN_DATA_FORMAT
SAMPLE_ID RGB_R RGB_G RGB_B XYZ_X XYZ_Y XYZ_Z
END_DATA_FORMAT

NUMBER_OF_SETS 596
BEGIN_DATA
1 100.00000 100.00000 100.00000 90.782200 100.00000 101.14700
2 100.00000 100.00000 100.00000 90.788600 100.00000 101.11100
3 100.00000 100.00000 100.00000 90.788600 100.00000 101.11100
4 100.00000 100.00000 100.00000 90.788600 100.00000 101.11100
5 100.00000 100.00000 100.00000 90.811500 100.02400 101.17000
6 0.0000000 0.0000000 0.0000000 0.0594401 0.0616566 0.0942902
7 1.9608000 1.9608000 1.9608000 0.0911674 0.0971738 0.1307430
8 3.9216000 3.9216000 3.9216000 0.1632630 0.1767910 0.2109570
9 5.8824000 5.8824000 5.8824000 0.2725780 0.2987090 0.3333350
10 9.8039000 9.8039000 9.8039000 0.6004090 0.6632290 0.6961770
11 13.726000 13.726000 13.726000 1.1087000 1.2298700 1.2583300
12 17.647000 17.647000 17.647000 1.8761800 2.0867800 2.1037000
13 21.569000 21.569000 21.569000 2.8705100 3.1974500 3.1991700
14 25.490000 25.490000 25.490000 4.1944600 4.6690200 4.6420200
15 29.412000 29.412000 29.412000 5.7122100 6.3608000 6.3115200
16 33.333000 33.333000 33.333000 7.4447300 8.3122500 8.2379900
17 37.255000 37.255000 37.255000 9.5865300 10.688200 10.582100
18 41.176000 41.176000 41.176000 11.970300 13.372700 13.222200
19 45.098000 45.098000 45.098000 14.816700 16.493500 16.400800
20 49.020000 49.020000 49.020000 18.151600 20.218400 20.111200
21 52.941000 52.941000 52.941000 21.724700 24.191600 24.115300
22 56.863000 56.863000 56.863000 25.553100 28.400500 28.412500
23 60.784000 60.784000 60.784000 29.479100 32.776300 32.829100
24 64.706000 64.706000 64.706000 33.969800 37.718600 37.891600
25 68.627000 68.627000 68.627000 39.016400 43.287300 43.543400
26 72.549000 72.549000 72.549000 44.407600 49.211400 49.665000
27 76.471000 76.471000 76.471000 50.022500 55.406900 55.964300
28 80.392000 80.392000 80.392000 56.245700 62.240500 62.969100
29 84.314000 84.314000 84.314000 62.600800 69.215500 70.091600
30 88.235000 88.235000 88.235000 68.901900 76.095100 77.154300
31 92.157000 92.157000 92.157000 75.725700 83.553300 84.747200
32 96.078000 96.078000 96.078000 82.696500 91.163400 92.399100
33 100.00000 0.0000000 0.0000000 39.710700 21.126600 1.3339300
34 0.0000000 100.00000 0.0000000 35.082100 71.521000 11.314300
35 0.0000000 0.0000000 100.00000 15.806700 7.1281100 88.361200
36 24.900600 0.0000000 14.526800 1.8866000 1.0180300 1.2833200
37 26.540100 0.0000000 29.273900 2.9483800 1.5167500 5.4782800
38 65.138500 0.0000000 84.674000 25.829000 12.827500 62.046600
39 79.096600 0.0000000 100.00000 39.394700 19.683100 89.271200
40 100.00000 49.947000 0.0000000 47.221500 36.414700 3.7771600
41 100.00000 81.134300 0.0000000 62.149100 66.856900 8.5929700
42 81.208700 100.00000 0.0000000 60.106700 84.884700 12.163500
43 81.575400 100.00000 31.394200 61.653000 85.620600 18.655400
44 100.00000 100.00000 53.771700 78.909200 94.577900 34.946200
45 89.622600 0.0000000 0.0000000 31.030300 16.541900 1.1069400
46 100.00000 0.0000000 39.303700 41.613600 21.975500 11.742800
47 100.00000 0.0000000 75.741400 48.266900 24.936700 48.934800
48 100.00000 0.0000000 100.00000 55.579600 28.265000 89.812800
49 19.662900 0.0000000 0.0000000 1.0256100 0.5762860 0.1280010
50 23.255800 0.0000000 0.0000000 1.4351800 0.7944410 0.1422970
51 27.108400 0.0000000 0.0000000 2.0294300 1.1108400 0.1632250
52 31.250000 0.0000000 0.0000000 2.7650200 1.5027000 0.1890580
53 35.714300 0.0000000 0.0000000 3.6489600 1.9736600 0.2202390
54 40.540500 0.0000000 0.0000000 4.8267400 2.6009400 0.2617430
55 45.774600 0.0000000 0.0000000 6.4935700 3.4885000 0.3199540
56 48.567800 0.0000000 0.0000000 7.4834400 4.0175400 0.3548640
57 51.470600 0.0000000 0.0000000 8.5503900 4.5839600 0.3911700
58 57.692300 0.0000000 0.0000000 11.127100 5.9569000 0.4798970
59 64.516100 0.0000000 0.0000000 14.449800 7.7227000 0.5874060
60 72.033900 0.0000000 0.0000000 18.736600 10.005600 0.7319840
61 80.357100 0.0000000 0.0000000 24.191800 12.903900 0.9032130
62 100.00000 100.00000 0.0000000 74.869400 92.713300 12.606400
63 100.00000 100.00000 31.186800 76.071100 93.283800 19.215100
64 37.839700 64.073700 0.0000000 16.988300 28.335100 4.4067100
65 100.00000 64.559100 0.0000000 53.076000 48.335000 5.6796900
66 100.00000 68.735600 46.480200 57.953300 53.798100 22.166400
67 100.00000 84.113400 69.000000 70.886100 73.596500 47.996800
68 46.981000 25.570900 0.0000000 8.6193700 7.0572400 0.8653870
69 45.759300 39.627400 0.0000000 10.870900 12.245800 1.7177200
70 60.875100 41.317100 0.0000000 17.288700 16.279400 2.0562300
71 2.3365000 0.0000000 0.0000000 0.0777354 0.0714342 0.0950545
72 4.8077000 0.0000000 0.0000000 0.1194910 0.0936520 0.0965309
73 71.921200 18.190400 73.753600 27.495900 15.145500 45.600200
74 80.737800 87.465700 100.00000 66.967800 74.084600 97.861800
75 100.00000 100.00000 100.00000 90.733900 99.941600 101.14600
76 0.0000000 51.470600 0.0000000 7.8001400 15.887300 2.6307600
77 0.0000000 57.692300 0.0000000 10.129900 20.624300 3.3769300
78 0.0000000 64.516100 0.0000000 13.074800 26.668600 4.3469500
79 0.0000000 72.033900 0.0000000 16.901900 34.457000 5.5821600
80 0.0000000 80.357100 0.0000000 21.677700 44.228900 7.1204000
81 0.0000000 89.622600 0.0000000 27.622600 56.362800 9.0115700
82 33.464900 100.00000 30.055900 39.435300 73.780400 17.351900
83 31.684000 100.00000 100.00000 53.997200 80.367500 99.928100
84 52.956600 100.00000 100.00000 60.634200 83.907300 100.15500
85 0.0000000 0.0000000 7.4257000 0.1143230 0.0863287 0.4036270
86 0.0000000 0.0000000 10.204100 0.1580380 0.1055840 0.6456510
87 0.0000000 0.0000000 13.157900 0.2244850 0.1354110 1.0209300
88 0.0000000 0.0000000 16.304300 0.3196260 0.1777890 1.5540900
89 0.0000000 0.0000000 19.662900 0.4419940 0.2322440 2.2400300
90 0.0000000 0.0000000 23.255800 0.6037830 0.3042000 3.1466700
91 0.0000000 0.0000000 27.108400 0.8391320 0.4086060 4.4606100
92 0.0000000 0.0000000 31.250000 1.1292800 0.5376440 6.0892700
93 0.0000000 0.0000000 35.714300 1.4805800 0.6938050 8.0549600
94 0.0000000 0.0000000 40.540500 1.9469800 0.9016090 10.674000
95 0.0000000 0.0000000 45.774600 2.6156500 1.1964200 14.415200
96 0.0000000 0.0000000 51.470600 3.4323600 1.5599400 18.976500
97 0.0000000 0.0000000 57.692300 4.4723600 2.0241100 24.824400
98 0.0000000 0.0000000 64.516100 5.8089800 2.6181200 32.309600
99 0.0000000 0.0000000 72.033900 7.5390500 3.3913600 42.017100
100 0.0000000 0.0000000 80.357100 9.7313200 4.3710100 54.297600
101 0.0000000 0.0000000 89.622600 12.450300 5.5953900 69.560900
102 0.0000000 38.390700 78.972100 13.353800 12.428100 53.313200
103 19.086200 50.154600 87.201100 20.277500 21.280600 67.742100
104 0.0000000 2.3365000 0.0000000 0.0759484 0.0957086 0.0999648
105 2.3365000 2.3365000 2.3365000 0.1023980 0.1095310 0.1434500
106 3.1446000 3.1446000 3.1446000 0.1302560 0.1402360 0.1746240
107 3.9682000 3.9682000 3.9682000 0.1630430 0.1764140 0.2108060
108 4.8077000 4.8077000 4.8077000 0.2011010 0.2190490 0.2535530
109 5.6634000 5.6634000 5.6634000 0.2473740 0.2706690 0.3054370
110 6.5359000 6.5359000 6.5359000 0.3254400 0.3574370 0.3922630
111 7.4257000 7.4257000 7.4257000 0.3837220 0.4219720 0.4565770
112 8.3333000 8.3333000 8.3333000 0.4506610 0.4964650 0.5310420
113 9.2593000 9.2593000 9.2593000 0.5597690 0.6182040 0.6521050
114 10.204100 10.204100 10.204100 0.6404100 0.7082520 0.7416660
115 11.168400 11.168400 11.168400 0.7319010 0.8101060 0.8430990
116 12.152800 12.152800 12.152800 0.8727120 0.9665600 0.9981460
117 13.157900 13.157900 13.157900 1.0429400 1.1564400 1.1859100
118 14.184400 14.184400 14.184400 1.1749000 1.3037500 1.3328000
119 15.233000 15.233000 15.233000 1.3845800 1.5378500 1.5637000
120 16.304300 16.304300 16.304300 1.6164800 1.7954700 1.8188900
121 17.399300 17.399300 17.399300 1.7839500 1.9841000 2.0046900
122 18.518500 18.518500 18.518500 2.0597300 2.2907800 2.3076200
123 19.662900 19.662900 19.662900 2.3569700 2.6235100 2.6351000
124 20.833300 20.833300 20.833300 2.6483600 2.9493800 2.9563200
125 22.030700 22.030700 22.030700 2.9765200 3.3156600 3.3172600
126 23.255800 23.255800 23.255800 3.3382600 3.7205400 3.7157400
127 24.509800 24.509800 24.509800 3.7462200 4.1753000 4.1631900
128 25.793700 25.793700 25.793700 4.3011400 4.8047000 4.7877900
129 27.108400 27.108400 27.108400 4.7773200 5.3181400 5.2831000
130 28.455300 28.455300 28.455300 5.3807700 5.9843800 5.9449900
131 29.835400 29.835400 29.835400 5.8670500 6.5284800 6.4814600
132 31.250000 31.250000 31.250000 6.5352500 7.2857700 7.2253300
133 32.700400 32.700400 32.700400 7.0687300 7.8648500 7.8053500
134 34.188000 34.188000 34.188000 7.8270100 8.7287200 8.6487500
135 35.714300 35.714300 35.714300 8.6483500 9.6514900 9.5617200
136 37.280700 37.280700 37.280700 9.5464600 10.657000 10.560100
137 38.888900 38.888900 38.888900 10.489500 11.697400 11.591400
138 40.540500 40.540500 40.540500 11.445900 12.761700 12.637000
139 0.0000000 0.0000000 0.0000000 0.0595089 0.0617228 0.0944954
140 0.0000000 12.067700 22.165000 0.8875110 0.9381080 3.0522700
141 45.774600 45.774600 45.774600 15.400800 17.150000 17.054700
142 47.619000 47.619000 47.619000 16.713400 18.617000 18.527500
143 49.516900 49.516900 49.516900 18.439800 20.545500 20.471600
144 51.470600 51.470600 51.470600 20.216600 22.509000 22.473900
145 53.482600 53.482600 53.482600 22.064500 24.555200 24.535400
146 55.555600 55.555600 55.555600 24.326200 27.062800 27.068100
147 57.692300 57.692300 57.692300 26.245300 29.191500 29.188700
148 59.895800 59.895800 59.895800 28.640900 31.817200 31.897200
149 62.169300 62.169300 62.169300 31.123800 34.586100 34.724600
150 64.516100 64.516100 64.516100 33.882900 37.638100 37.846000
151 66.939900 66.939900 66.939900 36.895400 40.949200 41.202600
152 69.444400 69.444400 69.444400 40.001900 44.367000 44.677100
153 72.033900 72.033900 72.033900 43.793700 48.542600 48.975800
154 74.712600 74.712600 74.712600 47.623400 52.753000 53.274500
155 77.485400 77.485400 77.485400 51.775000 57.294700 57.984600
156 80.357100 80.357100 80.357100 56.183700 62.155800 62.931400
157 83.333300 83.333300 83.333300 60.670300 67.062900 67.936300
158 86.419800 86.419800 86.419800 65.616300 72.479700 73.529700
159 89.622600 89.622600 89.622600 71.537000 78.971500 80.124800
160 92.948700 92.948700 92.948700 77.071300 85.012700 86.248300
161 96.405200 96.405200 96.405200 83.366900 91.881200 93.196000
162 13.157900 0.0000000 0.0000000 0.4737750 0.2824090 0.1088060
163 55.207900 0.0000000 16.105900 10.435000 5.5668600 1.8714600
164 79.568500 0.0000000 21.612200 24.150500 12.841600 3.5934500
165 83.400800 0.0000000 41.414800 28.596100 15.073900 12.576100
166 100.00000 0.0000000 58.080700 44.330900 23.185500 27.181600
167 100.00000 62.775300 76.286300 61.051300 50.704000 54.417200
168 57.974500 77.395900 0.0000000 31.264600 46.555700 6.9281200
169 61.070300 100.00000 0.0000000 48.013200 78.386300 11.774200
170 0.0000000 100.00000 0.0000000 35.053000 71.450900 11.318300
171 37.612800 100.00000 0.0000000 39.338000 73.768200 11.473400
172 61.430700 100.00000 30.540600 49.405000 79.050400 17.896500
173 0.0000000 0.0000000 2.3365000 0.0670802 0.0651162 0.1366360
174 0.0000000 0.0000000 4.8077000 0.0838784 0.0725367 0.2306120
175 0.0000000 0.0000000 0.0000000 0.0595103 0.0617238 0.0945612
176 0.0000000 13.975500 42.434800 2.6150700 1.9024300 12.090000
177 0.0000000 20.196800 62.404500 6.3382400 4.4241000 30.059700
178 100.00000 32.932300 100.00000 58.576600 34.428000 90.785200
179 100.00000 52.235300 100.00000 64.105200 45.695700 92.595400
180 0.0000000 35.714300 0.0000000 3.3581500 6.7916800 1.1733700
181 0.0000000 40.540500 0.0000000 4.4549400 8.9874400 1.5253700
182 0.0000000 41.723200 20.560100 5.2026900 9.8764600 4.0075700
183 0.0000000 31.091300 41.194700 4.5270600 5.9909400 12.095100
184 0.0000000 43.087100 44.080100 7.5506900 11.635500 14.811000
185 0.0000000 44.320100 58.079000 10.104300 13.326800 27.277800
186 26.683800 72.097400 71.116000 26.427300 39.220300 46.626100
187 21.076200 0.0000000 40.187700 3.0802400 1.5066400 10.611500
188 27.141000 0.0000000 59.908000 6.9378600 3.2970900 27.436100
189 31.631800 0.0000000 100.00000 18.713600 8.6832400 88.539100
190 35.117700 23.509600 100.00000 20.966800 11.994200 89.042400
191 51.569200 42.532900 100.00000 30.005100 22.485400 90.453600
192 0.0000000 10.204100 0.0000000 0.2829350 0.5178680 0.1674250
193 0.0000000 13.157900 0.0000000 0.4370560 0.8326070 0.2176580
194 17.405100 20.431700 0.0000000 1.7636900 2.4300700 0.4363860
195 100.00000 31.061100 0.0000000 42.241000 26.311700 2.1667200
196 7.4257000 0.0000000 0.0000000 0.1963930 0.1346350 0.0992433
197 10.204100 0.0000000 0.0000000 0.3046120 0.1923500 0.1029780
198 33.336400 27.710000 35.073500 6.6034800 6.4348200 8.6581000
199 69.639900 34.262300 60.120300 25.597400 17.937300 29.370200
200 72.211500 49.699400 61.032000 31.614300 27.640200 32.064200
201 82.738600 62.384400 100.00000 54.363800 46.381000 93.436300
202 100.00000 71.611300 100.00000 72.665800 63.257900 95.380700
203 100.00000 87.407700 100.00000 81.921300 82.063300 98.358500
204 0.7645000 0.7645000 0.7645000 0.0685938 0.0717290 0.1049350
205 1.5432000 1.5432000 1.5432000 0.0819164 0.0868821 0.1204510
206 0.0000000 0.0000000 100.00000 15.809600 7.1295700 88.391900
207 0.0000000 22.912200 100.00000 17.117400 9.7551500 88.841100
208 28.894000 37.898500 100.00000 22.338700 16.735400 89.898700
209 31.578300 13.307900 51.297600 6.7562400 3.9218100 19.604100
210 34.577900 37.661300 52.711800 11.032200 11.420600 21.929300
211 45.792900 48.216900 66.344200 19.773800 20.394200 37.255100
212 61.424300 48.515600 73.130300 27.969500 24.875800 46.436800
213 44.993900 59.121800 46.300600 20.020500 26.909700 18.963600
214 53.551100 65.053200 72.932100 31.050600 36.234200 48.484700
215 69.701000 71.834600 100.00000 50.558200 51.337500 94.658500
216 0.0000000 0.0000000 0.0000000 0.0595283 0.0617311 0.0945149
217 26.021500 15.080100 0.0000000 2.3489500 2.0222600 0.3117010
218 38.675900 14.884400 0.0000000 4.9590400 3.4136300 0.4096020
219 41.425800 43.752100 21.150200 11.171700 14.138600 4.6738100
220 54.404400 55.862200 17.830500 19.832300 24.911700 5.3358100
221 56.019800 74.523800 44.838000 31.527800 44.235200 20.381700
222 0.0000000 100.00000 35.486500 36.498400 72.118700 19.429600
223 0.0000000 100.00000 59.117900 39.866600 73.632200 38.318500
224 47.082100 100.00000 65.603400 48.392300 78.072900 45.674200
225 0.0000000 80.559400 46.224900 24.434700 45.587700 22.114000
226 100.00000 83.923600 51.811200 67.471900 72.017600 29.458900
227 59.741300 0.0000000 50.505500 15.396300 7.9418300 19.033900
228 77.430500 0.0000000 64.619400 27.921200 14.377000 33.437600
229 100.00000 37.084100 78.610100 52.889600 33.253400 54.497000
230 100.00000 0.0000000 0.0000000 39.669500 21.112000 1.3352200
231 100.00000 0.0000000 22.451500 40.246700 21.363300 4.3255000
232 100.00000 28.673000 22.170600 42.427600 25.804500 5.0837700
233 100.00000 46.854300 26.114400 46.904500 34.616300 7.8389100
234 79.033400 27.634100 0.0000000 25.346500 16.415800 1.5095600
235 77.716900 42.765900 0.0000000 27.424300 22.290400 2.5108900
236 77.198500 58.555000 0.0000000 32.613100 33.269200 4.2798200
237 81.327900 74.301800 19.795500 43.451900 50.455900 9.1141700
238 56.907700 0.0000000 100.00000 26.844000 13.008900 88.809900
239 61.098700 26.987500 100.00000 30.765400 18.043800 89.553700
240 16.304300 0.0000000 0.0000000 0.7132360 0.4098040 0.1171890
241 16.534400 0.0000000 15.558600 0.9580120 0.5198230 1.4486000
242 26.694200 10.668300 24.720800 2.9110900 1.8995800 3.8953200
243 25.522200 41.366900 28.177500 7.4154400 10.962000 6.6381400
244 35.705800 56.140200 34.885100 14.833000 22.388600 11.237200
245 0.0000000 16.304300 0.0000000 0.6566810 1.2815700 0.2879760
246 0.0000000 25.021100 15.194700 1.8330300 3.3198400 1.8643200
247 0.0000000 27.422600 26.435700 2.6981800 4.2659000 4.8595600
248 31.409100 43.431500 47.991100 11.105900 13.741900 18.239300
249 31.519800 53.527200 100.00000 27.530800 26.671800 91.446900
250 33.066800 67.148800 100.00000 33.593200 38.559100 93.319500
251 32.160300 82.342200 100.00000 42.002000 55.982500 96.104700
252 57.241500 88.511900 100.00000 54.246900 68.363500 97.664800
253 100.00000 21.235800 49.966000 44.122400 24.874800 20.082100
254 100.00000 40.801500 52.770600 48.265300 32.511300 24.113900
255 100.00000 65.620300 55.739900 57.766000 51.189400 29.719500
256 100.00000 74.279200 71.777700 65.590200 61.829400 49.742400
257 51.445200 62.836900 100.00000 37.240500 37.449800 92.849500
258 56.607900 77.411500 100.00000 46.867800 53.925500 95.345200
259 0.0000000 46.475700 74.233800 14.343100 16.436600 47.009000
260 0.0000000 58.883200 79.581300 20.256600 26.154000 56.797200
261 0.0000000 71.103100 79.672600 25.910100 37.706600 58.612200
262 0.0000000 86.125900 81.986900 35.620000 56.430900 65.444700
263 0.0000000 27.900200 58.325900 6.5975500 6.1238000 26.465600
264 0.0000000 39.667000 100.00000 20.187200 16.084400 89.816200
265 0.0000000 52.821600 100.00000 24.421400 24.668400 91.233900
266 0.0000000 63.756700 100.00000 28.773600 33.573900 92.657500
267 0.0000000 75.093200 100.00000 34.378800 45.068100 94.472000
268 0.0000000 86.947800 100.00000 41.751900 60.087300 96.866000
269 0.0000000 100.00000 100.00000 50.863400 78.643900 99.781900
270 0.0000000 57.971600 49.450900 13.535800 22.551200 20.937600
271 38.253800 69.386600 53.365600 23.884300 35.941000 26.614700
272 100.00000 100.00000 73.357900 82.818500 96.244100 57.401100
273 100.00000 100.00000 88.753900 87.015200 98.143200 80.851600
274 0.0000000 4.8077000 0.0000000 0.1138840 0.1731710 0.1123810
275 0.0000000 7.4257000 0.0000000 0.1840340 0.3161990 0.1352490
276 59.555600 23.180900 0.0000000 13.357700 9.0880400 0.9331410
277 100.00000 26.867500 36.248600 43.193100 25.772800 10.644000
278 100.00000 45.610600 67.480900 52.363400 36.498200 39.945500
279 43.387300 9.3170000 15.771100 6.2565200 3.6416000 1.7180700
280 74.446100 16.069000 24.682400 21.574400 12.352200 4.6895100
281 78.524300 80.165500 62.065700 49.988900 58.790000 37.790400
282 90.743400 85.423400 61.530400 62.070800 70.323800 38.804100
283 0.0000000 100.00000 78.926600 44.400400 75.641600 63.580500
284 51.097900 100.00000 83.824200 54.693100 81.033400 72.266900
285 0.0000000 19.662900 0.0000000 0.9431150 1.8619300 0.3829350
286 0.0000000 23.255800 0.0000000 1.3176500 2.6295700 0.5059550
287 0.0000000 27.108400 0.0000000 1.8644200 3.7438700 0.6849020
288 0.0000000 31.250000 0.0000000 2.5512400 5.1169900 0.9057010
289 23.132500 33.406100 0.0000000 4.3302900 6.6542500 1.0808600
290 39.221800 32.431500 24.340600 8.0371900 8.4313500 4.7153700
291 62.470300 35.830800 28.617400 17.743500 14.556800 6.8063600
292 63.276000 35.271600 37.545800 18.821300 14.951100 11.013200
293 46.829600 0.0000000 70.626200 14.023200 6.8662100 40.370900
294 57.528100 33.410100 76.680800 23.133000 16.049900 50.594700
295 78.692800 46.196500 100.00000 45.529100 32.585300 91.345200
296 47.015100 0.0000000 36.170600 8.4577000 4.4054400 8.6536900
297 65.743500 16.913100 37.627900 17.577500 10.241000 10.158600
298 80.563200 20.011200 44.510900 27.770300 16.063300 15.084300
299 0.0000000 45.774600 0.0000000 5.9363100 12.051700 2.0201900
300 25.018000 50.222800 0.0000000 9.1776100 16.084400 2.5789300
301 37.625300 62.366600 26.956200 17.215400 27.437200 8.7600900
302 59.580300 100.00000 52.732900 51.153300 79.733600 32.641300
303 68.129800 100.00000 72.841700 59.717700 83.953000 55.872500
304 0.0000000 16.833800 34.452600 2.0329500 1.9663500 7.7546200
305 12.327400 22.720300 35.160200 3.0829500 3.4309400 8.4496300
306 42.237400 42.237400 42.237400 12.697700 14.169900 14.051100
307 43.981500 43.981500 43.981500 13.822400 15.423500 15.288300
308 80.003300 0.0000000 52.695900 27.611800 14.399100 21.255600
309 84.763000 27.139200 55.600500 33.523400 20.391300 25.141500
310 61.329400 0.0000000 36.118800 14.236000 7.4824100 8.8839900
311 65.830700 52.799800 34.095200 25.168600 26.181100 10.923500
312 73.874200 53.835300 47.115800 31.595900 29.951600 19.467900
313 79.484000 100.00000 51.364900 62.567500 85.822000 32.059500
314 0.0000000 59.803400 24.694500 11.626000 22.640400 7.3076200
315 23.682400 61.294100 31.799000 14.302100 25.078200 10.325600
316 43.517800 87.160800 81.016300 41.909700 60.611400 64.760000
317 60.741700 88.607400 85.817600 51.191100 66.988700 72.794200
318 32.536200 78.741200 0.0000000 23.773600 43.935800 6.9332400
319 49.882700 83.826400 12.672900 32.284500 53.359400 9.0219300
320 71.015800 88.391600 13.563300 45.109500 64.216200 10.404300
321 87.460700 87.160900 16.170800 55.548000 68.670000 10.953400
322 18.895600 48.887000 27.110200 8.8604600 15.341900 6.9579200
323 20.551200 67.606700 45.559700 18.277500 31.515600 19.305800
324 15.433900 67.074900 54.457800 18.960000 31.459400 27.023700
325 21.942600 84.148600 56.731400 29.940700 52.142700 32.588800
326 23.704200 100.00000 70.171500 43.779700 75.496100 51.460200
327 45.669300 16.935800 11.907000 7.2335800 4.8562000 1.2844700
328 54.159700 21.424800 25.699000 11.647900 7.8643400 4.9014300
329 61.103800 15.179300 18.459900 13.688300 8.0907300 2.6560500
330 81.936000 30.851400 16.778800 28.257400 18.839000 3.3905300
331 86.635600 30.790600 39.544800 33.205700 21.372600 12.458100
332 86.618100 64.206200 48.570300 45.006700 43.540600 22.556000
333 0.0000000 80.435700 31.082200 22.814800 44.817700 13.165800
334 10.873000 90.475300 43.767000 30.892900 58.766000 22.546600
335 30.621000 100.00000 49.856400 41.051300 74.397300 29.753800
336 71.590400 100.00000 88.409200 66.050500 86.987200 79.418900
337 14.555500 25.838100 24.788600 2.9105700 4.0583700 4.3203500
338 19.509600 30.410900 34.490500 4.8271100 6.1541900 8.5069800
339 27.608800 38.726000 34.042500 7.5988300 10.167800 8.9370800
340 40.433500 47.697100 34.653600 13.031200 16.947900 10.108200
341 30.964900 67.582100 15.907600 17.573000 31.301000 6.3849700
342 61.772000 82.509700 26.202200 37.084600 54.398400 12.315600
343 80.687300 88.293700 39.324500 53.253400 68.465100 20.038200
344 58.909200 58.552100 0.0000000 22.265000 27.715500 3.9346400
345 70.111200 60.135300 28.300400 29.891100 32.792100 9.3907800
346 72.395000 71.313100 33.971600 37.212500 44.847200 13.754900
347 46.366700 59.893800 61.208400 23.207800 28.885400 32.770600
348 48.783800 74.253700 70.268900 32.981100 44.335300 46.135900
349 65.076900 86.550300 74.583900 48.874300 64.129900 54.839900
350 80.837100 91.692100 86.245200 65.324900 77.652400 74.496600
351 54.395200 8.1174000 27.424600 10.932600 6.0182500 5.1500100
352 69.548500 23.344300 32.672100 19.840700 12.555100 7.8757400
353 85.704700 35.740300 50.237600 35.013500 23.609900 20.679400
354 87.398500 42.254800 70.113000 41.619200 29.267800 42.707400
355 86.686000 60.197600 76.297300 49.026000 42.697700 53.555700
356 16.782200 6.4113000 12.183800 0.9979800 0.6939260 0.9358880
357 16.868500 9.6383000 22.305900 1.4953200 1.1053800 3.0776600
358 23.636000 16.062800 22.337700 2.6309200 2.2686900 3.2404200
359 41.881100 22.705600 25.109600 7.3188100 5.7611900 4.5146000
360 52.922300 27.137800 35.442500 12.675400 9.4808600 9.0666300
361 82.065600 72.624000 61.341600 48.034500 51.309800 35.585100
