Lenovo/ThinkBook 14p Gen2/NV140DRM-N62 #1 2022-08-01 19-50 2.2 F-S XYZLUT+MTX/NV140DRM-N62 #1 2022-08-01 19-50 2.2 F-S XYZLUT+MTX.cal
CAL    

DESCRIPTOR "Argyll Device Calibration Curves"
ORIGINATOR "Argyll dispcal"
CREATED "Mon Aug  1 19:54:35 2022"
DEVICE_CLASS "DISPLAY"
COLOR_REP "RGB"
VIDEO_LUT_CALIBRATION_POSSIBLE "YES"
TV_OUTPUT_ENCODING "NO"
DEVICE_TYPE "n"
NATIVE_TARGET_WHITE ""
TARGET_WHITE_XYZ "282.955144 311.600122 315.134715"
TARGET_GAMMA "2.2"
DEGREE_OF_BLACK_OUTPUT_OFFSET "1.0"
BLACK_POINT_CORRECTION "0.217486"
BLACK_NEUTRAL_BLEND_RATE "4.0"
QUALITY "low"

BEGIN_ARGYLL_DISPCAL_ARGS
b'-v2 -d1 -c1 -yn -P0.5,0.5,1.5 -ql -m -t -g2.2 -f1.0 -A4.0'
END_ARGYLL_DISPCAL_ARGS


NUMBER_OF_FIELDS 4
BEGIN_DATA_FORMAT
RGB_I RGB_R RGB_G RGB_B
END_DATA_FORMAT

NUMBER_OF_SETS 256
BEGIN_DATA
0.0000000000 0.0000000000 0.0000000000 0.0000000000
0.0039215700 0.0004764500 0.0000472861 0.0000000000
0.0078431400 0.0037647300 0.0032134800 0.0011993500
0.0117647000 0.0071110000 0.0064380300 0.0043367000
0.0156863000 0.0105168000 0.0097225800 0.0075512800
0.0196078000 0.0139838000 0.0130688000 0.0108460000
0.0235294000 0.0175136000 0.0164785000 0.0142238000
0.0274510000 0.0211079000 0.0199534000 0.0176879000
0.0313725000 0.0247685000 0.0234955000 0.0212418000
0.0352941000 0.0284974000 0.0271066000 0.0248888000
0.0392157000 0.0322960000 0.0307890000 0.0286328000
0.0431373000 0.0361667000 0.0345434000 0.0324739000
0.0470588000 0.0401037000 0.0383684000 0.0364043000
0.0509804000 0.0441087000 0.0422662000 0.0404186000
0.0549020000 0.0481714000 0.0462295000 0.0445058000
0.0588235000 0.0522979000 0.0502582000 0.0486611000
0.0627451000 0.0564895000 0.0543574000 0.0528911000
0.0666667000 0.0607417000 0.0585219000 0.0571900000
0.0705882000 0.0650536000 0.0627460000 0.0615488000
0.0745098000 0.0694190000 0.0670255000 0.0659589000
0.0784314000 0.0738228000 0.0713567000 0.0704153000
0.0823529000 0.0782684000 0.0757387000 0.0749158000
0.0862745000 0.0827503000 0.0801683000 0.0794589000
0.0901961000 0.0872588000 0.0846401000 0.0840442000
0.0941176000 0.0918037000 0.0891599000 0.0886840000
0.0980392000 0.0963898000 0.0937322000 0.0933806000
0.1019610000 0.1010070000 0.0983529000 0.0981278000
0.1058820000 0.1056360000 0.1029990000 0.1028880000
0.1098040000 0.1102820000 0.1076580000 0.1076480000
0.1137250000 0.1149190000 0.1123220000 0.1123900000
0.1176470000 0.1195270000 0.1169680000 0.1170910000
0.1215690000 0.1241120000 0.1216020000 0.1217570000
0.1254900000 0.1286660000 0.1262270000 0.1263840000
0.1294120000 0.1331670000 0.1308190000 0.1309460000
0.1333330000 0.1376200000 0.1353700000 0.1354510000
0.1372550000 0.1420130000 0.1398770000 0.1398990000
0.1411760000 0.1463570000 0.1443440000 0.1443050000
0.1450980000 0.1506650000 0.1487750000 0.1486750000
0.1490200000 0.1549570000 0.1531740000 0.1530260000
0.1529410000 0.1592450000 0.1575490000 0.1573710000
0.1568630000 0.1635220000 0.1618970000 0.1617090000
0.1607840000 0.1677840000 0.1662140000 0.1660350000
0.1647060000 0.1720170000 0.1704940000 0.1703340000
0.1686270000 0.1762320000 0.1747320000 0.1746050000
0.1725490000 0.1804340000 0.1789310000 0.1788450000
0.1764710000 0.1846370000 0.1830950000 0.1830710000
0.1803920000 0.1888360000 0.1872310000 0.1872790000
0.1843140000 0.1930250000 0.1913340000 0.1914610000
0.1882350000 0.1971950000 0.1954020000 0.1956120000
0.1921570000 0.2013490000 0.1994360000 0.1997400000
0.1960780000 0.2054800000 0.2034480000 0.2038440000
0.2000000000 0.2095800000 0.2074270000 0.2079200000
0.2039220000 0.2136530000 0.2113730000 0.2119690000
0.2078430000 0.2176860000 0.2152850000 0.2159830000
0.2117650000 0.2216760000 0.2191560000 0.2199550000
0.2156860000 0.2256550000 0.2230000000 0.2239180000
0.2196080000 0.2296230000 0.2268360000 0.2278710000
0.2235290000 0.2335750000 0.2306600000 0.2318060000
0.2274510000 0.2375080000 0.2344650000 0.2357210000
0.2313730000 0.2414220000 0.2382570000 0.2396180000
0.2352940000 0.2453190000 0.2420340000 0.2434940000
0.2392160000 0.2492050000 0.2457970000 0.2473580000
0.2431370000 0.2531010000 0.2495560000 0.2512340000
0.2470590000 0.2570070000 0.2533300000 0.2551270000
0.2509800000 0.2609190000 0.2571190000 0.2590340000
0.2549020000 0.2648390000 0.2609220000 0.2629610000
0.2588240000 0.2687730000 0.2647440000 0.2669180000
0.2627450000 0.2727240000 0.2685910000 0.2709120000
0.2666670000 0.2766930000 0.2724650000 0.2749380000
0.2705880000 0.2806710000 0.2763630000 0.2789950000
0.2745100000 0.2846620000 0.2802840000 0.2830850000
0.2784310000 0.2886740000 0.2842310000 0.2872230000
0.2823530000 0.2927100000 0.2882160000 0.2914160000
0.2862750000 0.2967770000 0.2922410000 0.2956590000
0.2901960000 0.3008760000 0.2963020000 0.2999420000
0.2941180000 0.3049870000 0.3003950000 0.3042360000
0.2980390000 0.3091080000 0.3044990000 0.3085400000
0.3019610000 0.3132540000 0.3086050000 0.3128570000
0.3058820000 0.3174260000 0.3127150000 0.3171780000
0.3098040000 0.3216140000 0.3168250000 0.3214910000
0.3137250000 0.3258120000 0.3209310000 0.3257900000
0.3176470000 0.3300190000 0.3250240000 0.3300770000
0.3215690000 0.3342330000 0.3291030000 0.3343490000
0.3254900000 0.3384260000 0.3331720000 0.3385820000
0.3294120000 0.3425950000 0.3372200000 0.3427730000
0.3333330000 0.3467360000 0.3412390000 0.3469240000
0.3372550000 0.3508460000 0.3452300000 0.3510460000
0.3411760000 0.3549370000 0.3491940000 0.3551510000
0.3450980000 0.3590050000 0.3531440000 0.3592320000
0.3490200000 0.3630470000 0.3570860000 0.3632950000
0.3529410000 0.3670770000 0.3610170000 0.3673560000
0.3568630000 0.3710980000 0.3649470000 0.3714140000
0.3607840000 0.3751180000 0.3688840000 0.3754730000
0.3647060000 0.3791280000 0.3728290000 0.3795140000
0.3686270000 0.3831200000 0.3767810000 0.3835320000
0.3725490000 0.3870940000 0.3807240000 0.3875220000
0.3764710000 0.3910470000 0.3846520000 0.3914750000
0.3803920000 0.3949660000 0.3885610000 0.3953800000
0.3843140000 0.3988540000 0.3924440000 0.3992440000
0.3882350000 0.4027180000 0.3962920000 0.4030960000
0.3921570000 0.4065710000 0.4001070000 0.4069390000
0.3960780000 0.4104040000 0.4039100000 0.4107610000
0.4000000000 0.4142060000 0.4077050000 0.4145550000
0.4039220000 0.4179690000 0.4114840000 0.4183220000
0.4078430000 0.4216880000 0.4152410000 0.4220610000
0.4117650000 0.4253590000 0.4189740000 0.4257690000
0.4156860000 0.4289820000 0.4226810000 0.4294520000
0.4196080000 0.4325650000 0.4263650000 0.4331140000
0.4235290000 0.4361090000 0.4300280000 0.4367550000
0.4274510000 0.4396190000 0.4336700000 0.4403740000
0.4313730000 0.4430990000 0.4372930000 0.4439810000
0.4352940000 0.4465710000 0.4408980000 0.4476000000
0.4392160000 0.4500530000 0.4444950000 0.4512340000
0.4431370000 0.4535520000 0.4481070000 0.4548830000
0.4470590000 0.4570720000 0.4517410000 0.4585460000
0.4509800000 0.4606200000 0.4553970000 0.4622290000
0.4549020000 0.4642050000 0.4590750000 0.4659370000
0.4588240000 0.4678330000 0.4627770000 0.4696630000
0.4627450000 0.4714990000 0.4665020000 0.4734130000
0.4666670000 0.4752060000 0.4702480000 0.4771870000
0.4705880000 0.4789500000 0.4740180000 0.4809760000
0.4745100000 0.4827180000 0.4778120000 0.4847750000
0.4784310000 0.4864960000 0.4816200000 0.4885830000
0.4823530000 0.4902830000 0.4854340000 0.4924020000
0.4862750000 0.4940790000 0.4892540000 0.4962310000
0.4901960000 0.4978840000 0.4930780000 0.5000710000
0.4941180000 0.5016990000 0.4969090000 0.5038970000
0.4980390000 0.5054960000 0.5007470000 0.5077050000
0.5019610000 0.5092720000 0.5045810000 0.5114970000
0.5058820000 0.5130270000 0.5084050000 0.5152710000
0.5098040000 0.5167620000 0.5122200000 0.5190290000
0.5137250000 0.5204860000 0.5160260000 0.5227790000
0.5176470000 0.5242140000 0.5198240000 0.5265270000
0.5215690000 0.5279540000 0.5236240000 0.5302710000
0.5254900000 0.5317070000 0.5274340000 0.5340120000
0.5294120000 0.5354780000 0.5312540000 0.5377590000
0.5333330000 0.5392760000 0.5350830000 0.5415090000
0.5372550000 0.5431020000 0.5389230000 0.5452620000
0.5411760000 0.5469640000 0.5427720000 0.5490350000
0.5450980000 0.5508760000 0.5466300000 0.5528370000
0.5490200000 0.5548420000 0.5505110000 0.5566640000
0.5529410000 0.5588440000 0.5544190000 0.5604980000
0.5568630000 0.5628660000 0.5583440000 0.5643340000
0.5607840000 0.5669000000 0.5622710000 0.5681560000
0.5647060000 0.5709370000 0.5661910000 0.5719660000
0.5686270000 0.5749830000 0.5700960000 0.5757780000
0.5725490000 0.5790370000 0.5739940000 0.5795880000
0.5764710000 0.5830940000 0.5778900000 0.5833940000
0.5803920000 0.5871470000 0.5817850000 0.5871980000
0.5843140000 0.5911970000 0.5856760000 0.5910000000
0.5882350000 0.5952430000 0.5895640000 0.5947980000
0.5921570000 0.5992880000 0.5934510000 0.5985950000
0.5960780000 0.6033300000 0.5973350000 0.6023930000
0.6000000000 0.6073630000 0.6012210000 0.6061910000
0.6039220000 0.6113920000 0.6051080000 0.6099890000
0.6078430000 0.6154180000 0.6089960000 0.6137890000
0.6117650000 0.6194530000 0.6128870000 0.6175950000
0.6156860000 0.6234980000 0.6167810000 0.6214150000
0.6196080000 0.6275480000 0.6206810000 0.6252490000
0.6235290000 0.6315810000 0.6245870000 0.6290810000
0.6274510000 0.6355900000 0.6284900000 0.6329030000
0.6313730000 0.6395740000 0.6323770000 0.6367100000
0.6352940000 0.6435310000 0.6362470000 0.6404990000
0.6392160000 0.6474500000 0.6400970000 0.6442660000
0.6431370000 0.6513290000 0.6439230000 0.6480050000
0.6470590000 0.6551690000 0.6477210000 0.6517130000
0.6509800000 0.6589670000 0.6514880000 0.6553850000
0.6549020000 0.6627250000 0.6552220000 0.6590160000
0.6588240000 0.6664430000 0.6589220000 0.6626060000
0.6627450000 0.6701600000 0.6625880000 0.6661600000
0.6666670000 0.6738930000 0.6662220000 0.6697240000
0.6705880000 0.6776420000 0.6698580000 0.6733160000
0.6745100000 0.6814100000 0.6735150000 0.6769360000
0.6784310000 0.6851940000 0.6771950000 0.6805840000
0.6823530000 0.6889910000 0.6808960000 0.6842530000
0.6862750000 0.6927940000 0.6846180000 0.6879380000
0.6901960000 0.6966020000 0.6883580000 0.6916350000
0.6941180000 0.7004190000 0.6921100000 0.6953430000
0.6980390000 0.7042300000 0.6958740000 0.6990660000
0.7019610000 0.7080210000 0.6996520000 0.7027900000
0.7058820000 0.7117940000 0.7034330000 0.7064970000
0.7098040000 0.7155530000 0.7072050000 0.7101920000
0.7137250000 0.7193070000 0.7109710000 0.7138720000
0.7176470000 0.7230510000 0.7147310000 0.7175480000
0.7215690000 0.7267810000 0.7184860000 0.7212190000
0.7254900000 0.7305090000 0.7222340000 0.7248820000
0.7294120000 0.7342360000 0.7259700000 0.7285370000
0.7333330000 0.7379550000 0.7296960000 0.7321970000
0.7372550000 0.7416660000 0.7334220000 0.7358570000
0.7411760000 0.7453680000 0.7371450000 0.7395140000
0.7450980000 0.7490650000 0.7408640000 0.7431630000
0.7490200000 0.7527700000 0.7445740000 0.7468060000
0.7529410000 0.7564910000 0.7482770000 0.7504460000
0.7568630000 0.7602280000 0.7519830000 0.7541080000
0.7607840000 0.7639800000 0.7557080000 0.7577950000
0.7647060000 0.7677450000 0.7594530000 0.7615090000
0.7686270000 0.7715250000 0.7632200000 0.7652500000
0.7725490000 0.7753260000 0.7670070000 0.7690120000
0.7764710000 0.7791390000 0.7708100000 0.7728010000
0.7803920000 0.7829430000 0.7746300000 0.7766130000
0.7843140000 0.7867410000 0.7784630000 0.7804350000
0.7882350000 0.7905250000 0.7822910000 0.7842570000
0.7921570000 0.7942960000 0.7861140000 0.7880820000
0.7960780000 0.7980610000 0.7899320000 0.7919050000
0.8000000000 0.8018280000 0.7937430000 0.7957240000
0.8039220000 0.8056120000 0.7975480000 0.7995400000
0.8078430000 0.8094120000 0.8013510000 0.8033790000
0.8117650000 0.8132240000 0.8051720000 0.8072510000
0.8156860000 0.8170490000 0.8090130000 0.8111540000
0.8196080000 0.8208960000 0.8128760000 0.8150840000
0.8235290000 0.8247700000 0.8167600000 0.8190390000
0.8274510000 0.8286690000 0.8206650000 0.8230190000
0.8313730000 0.8325810000 0.8245910000 0.8270240000
0.8352940000 0.8364970000 0.8285370000 0.8310500000
0.8392160000 0.8404080000 0.8324980000 0.8350910000
0.8431370000 0.8443190000 0.8364670000 0.8391300000
0.8470590000 0.8482330000 0.8404350000 0.8431680000
0.8509800000 0.8521490000 0.8444050000 0.8472050000
0.8549020000 0.8560670000 0.8483790000 0.8512390000
0.8588240000 0.8599890000 0.8523560000 0.8552700000
0.8627450000 0.8639210000 0.8563360000 0.8593040000
0.8666670000 0.8678610000 0.8603250000 0.8633550000
0.8705880000 0.8718030000 0.8643330000 0.8674170000
0.8745100000 0.8757530000 0.8683540000 0.8714810000
0.8784310000 0.8796980000 0.8723880000 0.8755540000
0.8823530000 0.8836270000 0.8764380000 0.8796230000
0.8862750000 0.8875340000 0.8804880000 0.8836770000
0.8901960000 0.8914270000 0.8845290000 0.8877100000
0.8941180000 0.8953350000 0.8885550000 0.8917310000
0.8980390000 0.8992570000 0.8925870000 0.8957670000
0.9019610000 0.9031800000 0.8966430000 0.8998160000
0.9058820000 0.9070880000 0.9007210000 0.9038600000
0.9098040000 0.9109850000 0.9047990000 0.9078810000
0.9137250000 0.9148830000 0.9088720000 0.9118890000
0.9176470000 0.9187750000 0.9129490000 0.9158940000
0.9215690000 0.9226540000 0.9170330000 0.9198920000
0.9254900000 0.9265310000 0.9211190000 0.9238830000
0.9294120000 0.9304060000 0.9252100000 0.9278770000
0.9333330000 0.9342700000 0.9293090000 0.9318700000
0.9372550000 0.9381360000 0.9334110000 0.9358590000
0.9411760000 0.9420060000 0.9375200000 0.9398560000
0.9450980000 0.9458790000 0.9416370000 0.9438560000
0.9490200000 0.9497500000 0.9457640000 0.9478610000
0.9529410000 0.9536240000 0.9498970000 0.9518670000
0.9568630000 0.9574990000 0.9540390000 0.9558800000
0.9607840000 0.9613760000 0.9581880000 0.9598950000
0.9647060000 0.9652550000 0.9623460000 0.9639140000
0.9686270000 0.9691340000 0.9665110000 0.9679360000
0.9725490000 0.9730090000 0.9706820000 0.9719550000
0.9764710000 0.9768790000 0.9748580000 0.9759710000
0.9803920000 0.9807450000 0.9790370000 0.9799840000
0.9843140000 0.9846050000 0.9832210000 0.9839940000
0.9882350000 0.9884610000 0.9874090000 0.9880000000
0.9921570000 0.9923120000 0.9916020000 0.9920030000
0.9960780000 0.9961580000 0.9957990000 0.9960030000
1.0000000000 1.0000000000 1.0000000000 1.0000000000
END_DATA
CAL    

DESCRIPTOR "Argyll Calibration options and model"
ORIGINATOR "Argyll dispcal"
CREATED "Mon Aug  1 19:54:35 202"

NUMBER_OF_FIELDS 3
BEGIN_DATA_FORMAT
R_P G_P B_P
END_DATA_FORMAT

NUMBER_OF_SETS 32
BEGIN_DATA
0.000131774 0.000257379 0.000692995
0.999868000 0.999743000 0.999307000
1.554590000 1.585190000 1.525250000
0.613860000 0.621455000 0.680386000
0.120920000 0.061820200 0.147768000
0.149516000 0.133086000 0.112368000
0.118890000 0.116648000 0.078849600
0.096103500 0.127125000 0.088998300
0.074261400 0.082738100 0.069685500
0.073647800 0.063512600 0.073689700
0.065210400 0.057868400 0.069093100
0.060100200 0.062544400 0.048284900
0.056968400 0.062529500 0.053867700
0.044181200 0.050693600 0.058481500
0.049641500 0.042830000 0.049396800
0.055148700 0.044348000 0.046143400
0.037666600 0.044363600 0.042340300
0.036229900 0.041802600 0.047796700
0.029560900 0.038889000 0.031925300
0.033823800 0.038656000 0.037245300
0.030736800 0.037074500 0.035376000
0.029352500 0.030717000 0.037274100
0.026824200 0.028723300 0.027680400
0.022078400 0.032253600 0.028334100
0.023128000 0.031980900 0.028847900
0.022364400 0.028420100 0.026161300
0.018903200 0.024741900 0.025478200
0.019406600 0.025405100 0.023887900
0.020333500 0.026679100 0.024552700
0.019180000 0.024791400 0.024552500
0.018427300 0.023656300 0.020826300
0.016883800 0.026177600 0.019089400
END_DATA
