KOIOS/K2721UG/K2721UG #1 2022-08-20 17-47 0.3127x 0.329y sRGB F-S XYZLUT+MTX/K2721UG #1 2022-08-20 17-47 0.3127x 0.329y sRGB F-S XYZLUT+MTX.cal
CAL    

DESCRIPTOR "Argyll Device Calibration Curves"
ORIGINATOR "Argyll dispcal"
CREATED "Sat Aug 20 17:54:05 2022"
DEVICE_CLASS "DISPLAY"
COLOR_REP "RGB"
VIDEO_LUT_CALIBRATION_POSSIBLE "YES"
TV_OUTPUT_ENCODING "NO"
DEVICE_TYPE "n"
TARGET_WHITE_XYZ "72.832095 76.628588 83.452957"
TARGET_GAMMA "sRGB"
DEGREE_OF_BLACK_OUTPUT_OFFSET "1.0"
BLACK_POINT_CORRECTION "0.0"
BLACK_NEUTRAL_BLEND_RATE "4.0"
BLACK_POINT_HACK "YES"
QUALITY "low"

BEGIN_ARGYLL_DISPCAL_ARGS
-v2 -d1 -c1 -yn -P0.467312348668,0.404761904762,2.11819595645 -ql -m -w0.3127,0.329 -gs -f1.0 -k0 -A4.0 -b
END_ARGYLL_DISPCAL_ARGS


NUMBER_OF_FIELDS 4
BEGIN_DATA_FORMAT
RGB_I RGB_R RGB_G RGB_B
END_DATA_FORMAT

NUMBER_OF_SETS 256
BEGIN_DATA
0.00000000 0.00000000 0.00000000 0.00000000
0.00392157 0.00859096 0.00864796 0.00909088
0.00784314 0.01637360 0.01643710 0.01736460
0.01176470 0.02345690 0.02348940 0.02492670
0.01568630 0.02993100 0.02990460 0.03186510
0.01960780 0.03587030 0.03576470 0.03825640
0.02352940 0.04132890 0.04112760 0.04416100
0.02745100 0.04636650 0.04606110 0.04962500
0.03137250 0.05104160 0.05062280 0.05470220
0.03529410 0.05542010 0.05487880 0.05945540
0.03921570 0.05957600 0.05889870 0.06395550
0.04313730 0.06356380 0.06273620 0.06825970
0.04705880 0.06742110 0.06642440 0.07241140
0.05098040 0.07117270 0.06998730 0.07643280
0.05490200 0.07484260 0.07345520 0.08034610
0.05882350 0.07844650 0.07684390 0.08417150
0.06274510 0.08200060 0.08016990 0.08793370
0.06666670 0.08551420 0.08344060 0.09164140
0.07058820 0.08900300 0.08667550 0.09530760
0.07450980 0.09247170 0.08987950 0.09893770
0.07843140 0.09594440 0.09308020 0.10256100
0.08235290 0.09942030 0.09628230 0.10618300
0.08627450 0.10289800 0.09948500 0.10980300
0.09019610 0.10638300 0.10270200 0.11343400
0.09411760 0.10986200 0.10592300 0.11706400
0.09803920 0.11332200 0.10914100 0.12068800
0.10196100 0.11676300 0.11235000 0.12429500
0.10588200 0.12018800 0.11556400 0.12789600
0.10980400 0.12358700 0.11877000 0.13147600
0.11372500 0.12695900 0.12196600 0.13503700
0.11764700 0.13029300 0.12514800 0.13856300
0.12156900 0.13360300 0.12831500 0.14206400
0.12549000 0.13689100 0.13147900 0.14555700
0.12941200 0.14015200 0.13463700 0.14903300
0.13333300 0.14338900 0.13778700 0.15249400
0.13725500 0.14660300 0.14093500 0.15594100
0.14117600 0.14978800 0.14407400 0.15936900
0.14509800 0.15295100 0.14719600 0.16278400
0.14902000 0.15610900 0.15031500 0.16620200
0.15294100 0.15926700 0.15343800 0.16962800
0.15686300 0.16241500 0.15656700 0.17305200
0.16078400 0.16555600 0.15969700 0.17647500
0.16470600 0.16870400 0.16282600 0.17990800
0.16862700 0.17186100 0.16596500 0.18335900
0.17254900 0.17501000 0.16911200 0.18681400
0.17647100 0.17815600 0.17224700 0.19027300
0.18039200 0.18130500 0.17538300 0.19374500
0.18431400 0.18446900 0.17852600 0.19724600
0.18823500 0.18766000 0.18169200 0.20078500
0.19215700 0.19087400 0.18488800 0.20436000
0.19607800 0.19409800 0.18809600 0.20795200
0.20000000 0.19733500 0.19130700 0.21156000
0.20392200 0.20058000 0.19452200 0.21517700
0.20784300 0.20384100 0.19774200 0.21881000
0.21176500 0.20712100 0.20097500 0.22246400
0.21568600 0.21041400 0.20422400 0.22612800
0.21960800 0.21369800 0.20747400 0.22978200
0.22352900 0.21697800 0.21070900 0.23343200
0.22745100 0.22026300 0.21394000 0.23708500
0.23137300 0.22354000 0.21717100 0.24072400
0.23529400 0.22680100 0.22038900 0.24434900
0.23921600 0.23006100 0.22359200 0.24798500
0.24313700 0.23333700 0.22680100 0.25164600
0.24705900 0.23663200 0.23002700 0.25533100
0.25098000 0.23992900 0.23326400 0.25902100
0.25490200 0.24322200 0.23649300 0.26271200
0.25882400 0.24650800 0.23971000 0.26640600
0.26274500 0.24979300 0.24291100 0.27010200
0.26666700 0.25306900 0.24609500 0.27378100
0.27058800 0.25633400 0.24925200 0.27745600
0.27451000 0.25960100 0.25239800 0.28113200
0.27843100 0.26288200 0.25554500 0.28481300
0.28235300 0.26618200 0.25870300 0.28849500
0.28627500 0.26949700 0.26187400 0.29215300
0.29019600 0.27280300 0.26505100 0.29577200
0.29411800 0.27610100 0.26821500 0.29936900
0.29803900 0.27941200 0.27137200 0.30297000
0.30196100 0.28275900 0.27454300 0.30659000
0.30588200 0.28614900 0.27775400 0.31022700
0.30980400 0.28958000 0.28101000 0.31387800
0.31372500 0.29304600 0.28430400 0.31755500
0.31764700 0.29656100 0.28763200 0.32125700
0.32156900 0.30012000 0.29100700 0.32498900
0.32549000 0.30373100 0.29442500 0.32875800
0.32941200 0.30739400 0.29789100 0.33256900
0.33333300 0.31111600 0.30140500 0.33643800
0.33725500 0.31489800 0.30498000 0.34034300
0.34117600 0.31870700 0.30860900 0.34427800
0.34509800 0.32254400 0.31226400 0.34824100
0.34902000 0.32640800 0.31594600 0.35222900
0.35294100 0.33030000 0.31965300 0.35623600
0.35686300 0.33420100 0.32338500 0.36024900
0.36078400 0.33811700 0.32712700 0.36427400
0.36470600 0.34204400 0.33088400 0.36829300
0.36862700 0.34596100 0.33465500 0.37230100
0.37254900 0.34987900 0.33842000 0.37631200
0.37647100 0.35381100 0.34218500 0.38033300
0.38039200 0.35775000 0.34596800 0.38436300
0.38431400 0.36170100 0.34975700 0.38841100
0.38823500 0.36568800 0.35355800 0.39249500
0.39215700 0.36972800 0.35739500 0.39662500
0.39607800 0.37382200 0.36129000 0.40080200
0.40000000 0.37792600 0.36524800 0.40498200
0.40392200 0.38197600 0.36924000 0.40910700
0.40784300 0.38597200 0.37318700 0.41317400
0.41176500 0.38994100 0.37707700 0.41720700
0.41568600 0.39390400 0.38093000 0.42122400
0.41960800 0.39785400 0.38476800 0.42522900
0.42352900 0.40179300 0.38859500 0.42922100
0.42745100 0.40572800 0.39241100 0.43322300
0.43137300 0.40966200 0.39623100 0.43723900
0.43529400 0.41361100 0.40005500 0.44127800
0.43921600 0.41757000 0.40389700 0.44534700
0.44313700 0.42150900 0.40776500 0.44942500
0.44705900 0.42543000 0.41162700 0.45349500
0.45098000 0.42935900 0.41547100 0.45756900
0.45490200 0.43329500 0.41932700 0.46166000
0.45882400 0.43722900 0.42320400 0.46576100
0.46274500 0.44117400 0.42707900 0.46987200
0.46666700 0.44511200 0.43096000 0.47400600
0.47058800 0.44904900 0.43483300 0.47814900
0.47451000 0.45298200 0.43870000 0.48231100
0.47843100 0.45691100 0.44256300 0.48649300
0.48235300 0.46083400 0.44642000 0.49069400
0.48627500 0.46475100 0.45027100 0.49491200
0.49019600 0.46868800 0.45411500 0.49915100
0.49411800 0.47264000 0.45796800 0.50343800
0.49803900 0.47657600 0.46184700 0.50773100
0.50196100 0.48049400 0.46571200 0.51202100
0.50588200 0.48439400 0.46955600 0.51630900
0.50980400 0.48828000 0.47338100 0.52059600
0.51372500 0.49215100 0.47718900 0.52488300
0.51764700 0.49600500 0.48097900 0.52916200
0.52156900 0.49985800 0.48474600 0.53343800
0.52549000 0.50369600 0.48850500 0.53770900
0.52941200 0.50753400 0.49224300 0.54196200
0.53333300 0.51137100 0.49597100 0.54621000
0.53725500 0.51518600 0.49969800 0.55043800
0.54117600 0.51898200 0.50340300 0.55463300
0.54509800 0.52276200 0.50708300 0.55880000
0.54902000 0.52652700 0.51074900 0.56294500
0.55294100 0.53029300 0.51439800 0.56708700
0.55686300 0.53406400 0.51804800 0.57123700
0.56078400 0.53781200 0.52171300 0.57537900
0.56470600 0.54152400 0.52537700 0.57947300
0.56862700 0.54521200 0.52902000 0.58352800
0.57254900 0.54889000 0.53264800 0.58756500
0.57647100 0.55254900 0.53627600 0.59159000
0.58039200 0.55617800 0.53990600 0.59559000
0.58431400 0.55978300 0.54352200 0.59956900
0.58823500 0.56338100 0.54712600 0.60352900
0.59215700 0.56696400 0.55073300 0.60747000
0.59607800 0.57053000 0.55433000 0.61139100
0.60000000 0.57409000 0.55791300 0.61530000
0.60392200 0.57764300 0.56148400 0.61919500
0.60784300 0.58118100 0.56504300 0.62306800
0.61176500 0.58470500 0.56857600 0.62691600
0.61568600 0.58822000 0.57208200 0.63074600
0.61960800 0.59171900 0.57556700 0.63455000
0.62352900 0.59519800 0.57902400 0.63832700
0.62745100 0.59867400 0.58245100 0.64209000
0.63137300 0.60215300 0.58587100 0.64584900
0.63529400 0.60565200 0.58929200 0.64962000
0.63921600 0.60919200 0.59272700 0.65342100
0.64313700 0.61277900 0.59619500 0.65725800
0.64705900 0.61641400 0.59970600 0.66113600
0.65098000 0.62009900 0.60326100 0.66505400
0.65490200 0.62382100 0.60686200 0.66900200
0.65882400 0.62749800 0.61050400 0.67290200
0.66274500 0.63110700 0.61410800 0.67672800
0.66666700 0.63464800 0.61764400 0.68048000
0.67058800 0.63812200 0.62110900 0.68415300
0.67451000 0.64153800 0.62450500 0.68775600
0.67843100 0.64491400 0.62783400 0.69130500
0.68235300 0.64826300 0.63111300 0.69481000
0.68627500 0.65159600 0.63435900 0.69827800
0.69019600 0.65491900 0.63758500 0.70171400
0.69411800 0.65824900 0.64079700 0.70514100
0.69803900 0.66157500 0.64401700 0.70855600
0.70196100 0.66488500 0.64724000 0.71194600
0.70588200 0.66818700 0.65045200 0.71531300
0.70980400 0.67148400 0.65366000 0.71867700
0.71372500 0.67477700 0.65687200 0.72203900
0.71764700 0.67807800 0.66008800 0.72540700
0.72156900 0.68138100 0.66331600 0.72879000
0.72549000 0.68467300 0.66655500 0.73217500
0.72941200 0.68796400 0.66978900 0.73556200
0.73333300 0.69125400 0.67302300 0.73896400
0.73725500 0.69454300 0.67626300 0.74237800
0.74117600 0.69783400 0.67951000 0.74580600
0.74509800 0.70114500 0.68276900 0.74926200
0.74902000 0.70447000 0.68605900 0.75275600
0.75294100 0.70780600 0.68937100 0.75627700
0.75686300 0.71115200 0.69269900 0.75982500
0.76078400 0.71451000 0.69604500 0.76339500
0.76470600 0.71789700 0.69941000 0.76698900
0.76862700 0.72130700 0.70280900 0.77062200
0.77254900 0.72473700 0.70623500 0.77428800
0.77647100 0.72819100 0.70967800 0.77798800
0.78039200 0.73166400 0.71314200 0.78173200
0.78431400 0.73516000 0.71662600 0.78551600
0.78823500 0.73869200 0.72013000 0.78934800
0.79215700 0.74227100 0.72366600 0.79324000
0.79607800 0.74589900 0.72723900 0.79720200
0.80000000 0.74954600 0.73085100 0.80123100
0.80392200 0.75315500 0.73446400 0.80525700
0.80784300 0.75672600 0.73802200 0.80926100
0.81176500 0.76026500 0.74152500 0.81324300
0.81568600 0.76379000 0.74498400 0.81721700
0.81960800 0.76732000 0.74841900 0.82120000
0.82352900 0.77085200 0.75185400 0.82520200
0.82745100 0.77436900 0.75528600 0.82920300
0.83137300 0.77787200 0.75870700 0.83319700
0.83529400 0.78137300 0.76212000 0.83718900
0.83921600 0.78487800 0.76553800 0.84118000
0.84313700 0.78838100 0.76896600 0.84516200
0.84705900 0.79188300 0.77240100 0.84912900
0.85098000 0.79539500 0.77584900 0.85309300
0.85490200 0.79892000 0.77932600 0.85705600
0.85882400 0.80244800 0.78282900 0.86100500
0.86274500 0.80595200 0.78634400 0.86490400
0.86666700 0.80943400 0.78985100 0.86876000
0.87058800 0.81290900 0.79335000 0.87259400
0.87451000 0.81638100 0.79685200 0.87640900
0.87843100 0.81985200 0.80035600 0.88020800
0.88235300 0.82332400 0.80386500 0.88400100
0.88627500 0.82681500 0.80738000 0.88780800
0.89019600 0.83033000 0.81091900 0.89162700
0.89411800 0.83384300 0.81447300 0.89542900
0.89803900 0.83735000 0.81801400 0.89921800
0.90196100 0.84086000 0.82154200 0.90300600
0.90588200 0.84439600 0.82508100 0.90681900
0.90980400 0.84796100 0.82864900 0.91065200
0.91372500 0.85154300 0.83224300 0.91448900
0.91764700 0.85512800 0.83584100 0.91832800
0.92156900 0.85872900 0.83945000 0.92218800
0.92549000 0.86235100 0.84308600 0.92606400
0.92941200 0.86598200 0.84673700 0.92994400
0.93333300 0.86962300 0.85038800 0.93383700
0.93725500 0.87327700 0.85404700 0.93773300
0.94117600 0.87693400 0.85770100 0.94163100
0.94509800 0.88060300 0.86136400 0.94552800
0.94902000 0.88427300 0.86502600 0.94942200
0.95294100 0.88794700 0.86869600 0.95331000
0.95686300 0.89162600 0.87237200 0.95719400
0.96078400 0.89531100 0.87605500 0.96107700
0.96470600 0.89900200 0.87974000 0.96496400
0.96862700 0.90270300 0.88343100 0.96885600
0.97254900 0.90641300 0.88712800 0.97275100
0.97647100 0.91013200 0.89083400 0.97664900
0.98039200 0.91386000 0.89454800 0.98055000
0.98431400 0.91759600 0.89827100 0.98445500
0.98823500 0.92134200 0.90200100 0.98836200
0.99215700 0.92509700 0.90574000 0.99227200
0.99607800 0.92886000 0.90948800 0.99618600
1.00000000 0.93263300 0.91324300 1.00000000
END_DATA
CAL    

DESCRIPTOR "Argyll Calibration options and model"
ORIGINATOR "Argyll dispcal"
CREATED "Sat Aug 20 17:54:05 202"

NUMBER_OF_FIELDS 3
BEGIN_DATA_FORMAT
R_P G_P B_P
END_DATA_FORMAT

NUMBER_OF_SETS 32
BEGIN_DATA
-0.000181631 0.000261321 0.001198820
1.000182000 0.999739000 0.998801000
1.922180000 1.844032000 1.860006000
0.509755000 0.505492000 0.547744000
0.096938500 0.143311000 0.027531800
0.110593000 0.088114000 0.084637700
0.078082900 0.055222300 0.090288100
0.058200600 0.078632300 0.129453000
0.050408500 0.044572600 0.076859400
0.049106600 0.038190800 0.053791800
0.044409700 0.055775700 0.039410000
0.041528300 0.053645200 0.034672700
0.040792100 0.044698900 0.041511000
0.039378500 0.043023900 0.038886400
0.034517000 0.034024800 0.030517600
0.033388700 0.040135600 0.038410600
0.031729300 0.037356300 0.030338100
0.031483000 0.036749000 0.031820300
0.029462500 0.037549900 0.024345100
0.027575100 0.034855400 0.025959400
0.024719800 0.032564600 0.023991500
0.026220900 0.026330500 0.025603400
0.021834200 0.030289100 0.024923000
0.020276600 0.024711600 0.021655600
0.021537700 0.024960800 0.021005700
0.020293300 0.024320300 0.021041200
0.018221700 0.025484000 0.019447300
0.018053100 0.027920100 0.017202200
0.017497300 0.026130700 0.016166900
0.016343500 0.024685900 0.017053700
0.014964000 0.026300400 0.017425400
0.014964700 0.024600200 0.016785800
END_DATA
