KOIOS/K2721UG/K2721UG #1 2022-08-20 17-47 0.3127x 0.329y sRGB F-S XYZLUT+MTX/K2721UG #1 2022-08-20 17-47 0.3127x 0.329y sRGB F-S XYZLUT+MTX.ti3
CTI3   

DESCRIPTOR "Argyll Calibration Target chart information 3"
ORIGINATOR "Argyll dispread"
CREATED "Sat Aug 20 17:54:06 2022"
DEVICE_CLASS "DISPLAY"
SINGLE_DIM_STEPS "21"
COMP_GREY_STEPS "61"
DARK_REGION_EMPHASIS "1.6"
COLOR_REP "RGB_XYZ"
TARGET_INSTRUMENT "X-Rite i1 DisplayPro, ColorMunki Display"
DISPLAY_TYPE_REFRESH "NO"
DISPLAY_TYPE_BASE_ID "1"
INSTRUMENT_TYPE_SPECTRAL "NO"
LUMINANCE_XYZ_CDM2 "72.829422 76.549853 83.507553"
NORMALIZED_TO_Y_100 "YES"
VIDEO_LUT_CALIBRATION_POSSIBLE "YES"

BEGIN_ARGYLL_COLPROF_ARGS
-v -qh -aX -bn -C "No copyright. Created with DisplayCAL 3.8.9.3 and ArgyllCMS 2.1.2" -M "KOIOS K2721UG"
END_ARGYLL_COLPROF_ARGS

OBSERVER "1931_2"
USE_BLACK_POINT_COMPENSATION "NO"
BLACK_POINT_CORRECTION "0.0"
HIRES_B2A "YES"
HIRES_B2A_SIZE "-1"
SMOOTH_B2A "YES"
PATCH_SEQUENCE "OPTIMIZE_DISPLAY_RESPONSE_DELAY"

NUMBER_OF_FIELDS 7
BEGIN_DATA_FORMAT
SAMPLE_ID RGB_R RGB_G RGB_B XYZ_X XYZ_Y XYZ_Z
END_DATA_FORMAT

NUMBER_OF_SETS 588
BEGIN_DATA
1 100.0000 100.0000 100.0000 95.13986 100.0000 109.0891
2 1.960800 1.960800 1.960800 0.202916 0.212890 0.293160
3 3.921600 3.921600 3.921600 0.379342 0.400994 0.494776
4 5.882400 5.882400 5.882400 0.564025 0.583408 0.701064
5 9.803900 9.803900 9.803900 1.024100 1.054462 1.197854
6 13.72600 13.72600 13.72600 1.705616 1.794641 1.965401
7 17.64700 17.64700 17.64700 2.620354 2.766564 3.029224
8 21.56900 21.56900 21.56900 3.709056 3.927099 4.310853
9 25.49000 25.49000 25.49000 5.070636 5.308611 5.954823
10 29.41200 29.41200 29.41200 6.555383 6.861611 7.728967
11 33.33300 33.33300 33.33300 8.414073 8.843298 9.895330
12 37.25500 37.25500 37.25500 10.62779 11.12156 12.38241
13 41.17600 41.17600 41.17600 13.15979 13.83939 15.13095
14 45.09800 45.09800 45.09800 16.08099 16.94889 18.50042
15 49.02000 49.02000 49.02000 19.20437 20.34994 21.93524
16 52.94100 52.94100 52.94100 22.82141 24.15504 26.12984
17 56.86300 56.86300 56.86300 26.97981 28.32273 31.03445
18 60.78400 60.78400 60.78400 31.15369 32.73932 35.98049
19 64.70600 64.70600 64.70600 35.85097 37.63897 41.51600
20 68.62700 68.62700 68.62700 40.85976 42.91853 46.83649
21 72.54900 72.54900 72.54900 46.12370 48.34310 52.61478
22 76.47100 76.47100 76.47100 51.58951 54.36729 59.08729
23 80.39200 80.39200 80.39200 58.13808 61.30293 66.55160
24 84.31400 84.31400 84.31400 64.31061 67.70448 73.76442
25 88.23500 88.23500 88.23500 70.99447 74.83708 81.47824
26 92.15700 92.15700 92.15700 78.20438 82.26024 90.18195
27 96.07800 96.07800 96.07800 86.57622 91.13468 99.63708
28 0.000000 0.000000 16.30430 0.568476 0.268420 2.612035
29 0.000000 0.000000 19.66290 0.732639 0.324458 3.487232
30 18.89600 0.000000 34.35100 3.415048 1.423046 10.02080
31 27.05250 0.000000 59.19420 8.874120 3.446454 32.02710
32 39.22210 0.000000 78.96060 17.30479 6.708538 60.05215
33 0.000000 43.57140 75.87360 14.70935 14.65518 55.01182
34 0.000000 58.07990 84.27350 21.55222 25.52506 71.22699
35 0.000000 61.40900 100.0000 29.04955 30.62373 105.2102
36 100.0000 28.88820 0.000000 49.17207 26.83592 0.990278
37 100.0000 70.51690 23.89170 61.07299 54.84352 7.781171
38 100.0000 74.40020 52.21840 66.18248 59.85949 27.24210
39 13.15790 0.000000 0.000000 0.862738 0.462109 0.210931
40 16.30430 0.000000 0.000000 1.233075 0.634959 0.214596
41 19.66290 0.000000 0.000000 1.601736 0.806618 0.218461
42 23.25580 0.000000 0.000000 2.155611 1.065142 0.223860
43 27.10840 0.000000 0.000000 2.792362 1.362168 0.230160
44 31.25000 0.000000 0.000000 3.732267 1.801219 0.239493
45 35.71430 0.000000 0.000000 4.781769 2.291075 0.249943
46 37.87990 0.000000 0.000000 5.480553 2.616504 0.256543
47 40.54050 0.000000 0.000000 6.214425 2.958946 0.263685
48 45.77470 0.000000 0.000000 8.197331 3.884773 0.283723
49 51.47060 0.000000 0.000000 10.48855 4.953492 0.306199
50 57.69230 0.000000 0.000000 13.73125 6.466443 0.338308
51 64.51610 0.000000 0.000000 17.61303 8.276804 0.377901
52 72.03390 0.000000 0.000000 22.53875 10.57665 0.427424
53 80.35710 0.000000 0.000000 28.70905 13.45324 0.488177
54 81.45190 100.0000 0.000000 57.91147 85.16939 5.198495
55 80.39330 100.0000 32.41380 58.63265 85.18839 14.23176
56 61.06840 100.0000 0.000000 43.70616 78.32153 5.054632
57 100.0000 100.0000 30.33970 76.87605 93.81671 13.19956
58 100.0000 100.0000 86.40530 89.35949 98.02837 79.35267
59 0.000000 13.15790 0.000000 0.546411 1.217690 0.277237
60 0.000000 16.30430 0.000000 0.739404 1.706252 0.309980
61 0.000000 19.66290 0.000000 1.002387 2.370177 0.353829
62 0.000000 23.25580 0.000000 1.304056 3.135636 0.404415
63 0.000000 27.10840 0.000000 1.689281 4.113548 0.469082
64 0.000000 31.25000 0.000000 2.198223 5.406601 0.556209
65 0.000000 35.71430 0.000000 2.842758 7.041444 0.664867
66 0.000000 40.54050 0.000000 3.717855 9.283919 0.800366
67 0.000000 45.77470 0.000000 4.925263 12.33761 1.014332
68 0.000000 51.47060 0.000000 6.330736 15.88821 1.250967
69 0.000000 57.69230 0.000000 8.142662 20.40150 1.549095
70 0.000000 64.51610 0.000000 10.42819 26.32406 1.942484
71 0.000000 72.03390 0.000000 13.18016 33.32092 2.399925
72 0.000000 80.35710 0.000000 17.04971 43.10591 3.048119
73 0.000000 89.62260 0.000000 21.73875 54.99533 3.840438
74 0.000000 100.0000 0.000000 27.97670 70.89815 4.884574
75 34.28220 100.0000 0.000000 32.28125 72.93562 4.932531
76 64.81260 100.0000 89.16240 61.09946 84.66257 84.27732
77 0.000000 0.000000 7.425700 0.236322 0.154537 0.863931
78 0.000000 0.000000 10.20410 0.299275 0.176151 1.196261
79 0.000000 0.000000 13.15790 0.424178 0.218647 1.852434
80 23.78610 0.000000 12.34190 2.506216 1.196058 1.603656
81 0.000000 0.000000 0.000000 0.111488 0.111031 0.204690
82 0.000000 0.000000 4.807700 0.175451 0.133432 0.543306
83 0.000000 0.000000 27.10840 1.264420 0.506847 6.280300
84 0.000000 0.000000 31.25000 1.631800 0.633204 8.218720
85 0.000000 0.000000 35.71430 2.087600 0.788420 10.61835
86 0.000000 0.000000 40.54050 2.650558 0.981136 13.58629
87 0.000000 0.000000 45.77470 3.466309 1.259528 17.90266
88 0.000000 0.000000 51.47060 4.418764 1.585466 22.90669
89 0.000000 0.000000 57.69230 5.754812 2.041817 29.94803
90 0.000000 0.000000 64.51610 7.424368 2.613217 38.77908
91 0.000000 0.000000 72.03390 9.318337 3.255252 48.73948
92 0.000000 0.000000 80.35710 11.93976 4.149063 62.57383
93 0.000000 0.000000 89.62260 15.22659 5.278095 79.92103
94 0.000000 0.000000 100.0000 19.64574 6.752415 103.2151
95 0.000000 34.75980 100.0000 22.33858 13.51034 103.7840
96 55.83250 57.95840 100.0000 40.85189 33.89241 104.8364
97 0.000000 2.336400 0.000000 0.145562 0.201548 0.210566
98 3.144700 3.144700 3.144700 0.283428 0.295958 0.392197
99 3.968300 3.968300 3.968300 0.379231 0.400648 0.494681
100 4.807700 4.807700 4.807700 0.446418 0.475433 0.566639
101 5.663400 5.663400 5.663400 0.521470 0.533106 0.655861
102 6.535900 6.535900 6.535900 0.630948 0.670082 0.792935
103 7.425700 7.425700 7.425700 0.732917 0.780996 0.905423
104 8.333300 8.333300 8.333300 0.823406 0.854479 1.014865
105 9.259300 9.259300 9.259300 0.985155 1.037161 1.139680
106 10.20410 10.20410 10.20410 1.051813 1.104253 1.259824
107 11.16840 11.16840 11.16840 1.178810 1.237934 1.397007
108 12.15280 12.15280 12.15280 1.397113 1.421128 1.658837
109 13.15790 13.15790 13.15790 1.636174 1.700576 1.962806
110 14.18440 14.18440 14.18440 1.785169 1.832655 2.071330
111 15.23300 15.23300 15.23300 2.048707 2.144945 2.414189
112 16.30430 16.30430 16.30430 2.354078 2.420870 2.769131
113 17.39930 17.39930 17.39930 2.506989 2.639914 2.906466
114 18.51850 18.51850 18.51850 2.845903 2.949243 3.305040
115 19.66290 19.66290 19.66290 3.164432 3.335902 3.713565
116 20.83330 20.83330 20.83330 3.544786 3.678144 4.159212
117 22.03070 22.03070 22.03070 3.860043 4.091114 4.473106
118 23.25580 23.25580 23.25580 4.261436 4.452086 4.937329
119 24.50980 24.50980 24.50980 4.650743 4.920156 5.447420
120 25.79360 25.79360 25.79360 5.257950 5.507248 6.147334
121 27.10840 27.10840 27.10840 5.636273 5.883687 6.711953
122 28.45530 28.45530 28.45530 6.236358 6.607137 7.323219
123 29.83540 29.83540 29.83540 6.754101 7.085619 7.939725
124 58.62820 41.67410 57.64400 24.37278 18.93257 31.31541
125 100.0000 100.0000 100.0000 95.29784 100.1419 109.0891
126 31.25000 31.25000 31.25000 7.482305 7.776226 8.783632
127 35.71430 35.71430 35.71430 9.697157 10.12754 11.38795
128 37.28070 37.28070 37.28070 10.63900 11.13305 12.39855
129 38.88890 38.88890 38.88890 11.63331 12.20136 13.47198
130 40.54050 40.54050 40.54050 12.66405 13.31818 14.59575
131 42.23740 42.23740 42.23740 14.03722 14.77650 16.06303
132 43.98150 43.98150 43.98150 15.22586 16.03028 17.59397
133 45.77470 45.77470 45.77470 16.69686 17.64365 19.24065
134 47.61910 47.61910 47.61910 17.95948 18.99212 20.59801
135 49.51690 49.51690 49.51690 19.61199 20.75653 22.32362
136 51.47060 51.47060 51.47060 21.39645 22.63178 24.54271
137 53.48260 53.48260 53.48260 23.20190 24.34459 26.62783
138 55.55560 55.55560 55.55560 25.73799 26.96515 29.71262
139 57.69230 57.69230 57.69230 27.87391 29.24342 32.04425
140 59.89580 59.89580 59.89580 30.21898 31.72103 34.97339
141 62.16930 62.16930 62.16930 33.23067 34.91939 38.22837
142 64.51610 64.51610 64.51610 35.96102 37.68301 41.48411
143 66.93990 66.93990 66.93990 39.16319 41.17641 45.05469
144 69.44440 69.44440 69.44440 42.09739 44.27597 48.13857
145 86.48170 100.0000 87.96510 76.84846 92.09641 82.17525
146 85.75850 100.0000 100.0000 81.08092 93.38994 108.6965
147 100.0000 100.0000 100.0000 94.92936 99.85642 108.8417
148 72.03390 72.03390 72.03390 45.49578 47.56779 52.11483
149 74.71260 74.71260 74.71260 49.34168 51.68491 56.09742
150 86.41970 86.41970 86.41970 67.74665 71.43850 77.49858
151 89.62260 89.62260 89.62260 74.05448 78.03701 84.96091
152 92.94870 92.94870 92.94870 79.77576 83.95783 91.92430
153 96.40520 96.40520 96.40520 87.67766 92.19885 100.8794
154 100.0000 25.52770 23.36250 49.78359 26.25222 5.680287
155 89.62260 0.000000 0.000000 36.60327 17.14335 0.568206
156 100.0000 0.000000 0.000000 47.54890 22.23254 0.680646
157 100.0000 81.57640 0.000000 64.94732 66.78757 3.633853
158 100.0000 100.0000 0.000000 75.39674 93.25676 5.385402
159 24.74910 42.21040 0.000000 6.475799 11.48795 0.909255
160 44.85520 56.33290 0.000000 15.50632 23.18988 1.569382
161 57.50660 100.0000 27.26910 43.22983 78.00312 11.39143
162 100.0000 100.0000 52.42430 80.12320 94.94593 30.18745
163 100.0000 100.0000 72.52190 84.94116 96.44546 55.80855
164 0.000000 100.0000 49.67570 32.19663 72.55560 26.39304
165 0.000000 100.0000 68.22290 36.30213 73.78371 48.68866
166 33.64420 100.0000 73.24510 42.07151 76.32485 56.12611
167 80.74850 100.0000 74.22790 67.37203 88.19345 57.42817
168 57.76380 49.39750 0.000000 19.58723 21.15700 1.309923
169 72.80250 50.26540 59.56320 35.66299 28.51221 34.15409
170 100.0000 28.30330 54.18980 54.10809 28.44605 27.04069
171 100.0000 49.89810 55.93250 58.73985 39.25522 30.38334
172 100.0000 65.66970 56.22180 63.65584 51.63344 31.27511
173 100.0000 47.78940 0.000000 52.88132 35.96655 1.590970
174 100.0000 65.11820 0.000000 57.98493 49.22437 2.473969
175 0.000000 75.23260 100.0000 34.29360 43.78290 106.0959
176 0.000000 86.97000 100.0000 40.16595 58.65516 107.0008
177 36.66060 86.98880 100.0000 45.40512 61.19880 107.2117
178 100.0000 87.44610 100.0000 87.44706 80.96880 107.3974
179 0.000000 0.000000 0.000000 0.111296 0.111038 0.204528
180 54.07270 0.000000 35.24310 13.88415 6.295324 10.64345
181 55.36300 0.000000 69.61230 21.26840 8.897968 46.08583
182 57.89910 23.70020 100.0000 35.17503 16.65274 103.8887
183 78.81400 59.54090 100.0000 56.43409 42.12736 105.4812
184 100.0000 71.01280 100.0000 79.93453 61.88762 106.1986
185 0.000000 0.000000 0.000000 0.111478 0.111034 0.204707
186 0.764500 0.764500 0.764500 0.129829 0.131015 0.222074
187 18.00640 9.058700 0.000000 1.655138 1.329384 0.257580
188 53.62410 19.77870 0.000000 12.55962 7.790246 0.471221
189 63.88300 39.38730 42.01290 23.50684 17.87287 15.79246
190 70.37480 38.13860 54.15400 29.71275 20.04259 26.86936
191 27.97120 40.74420 18.61370 7.340452 11.19047 3.832555
192 47.23620 50.40000 31.25890 16.46628 20.21484 9.545027
193 49.37320 74.00890 77.71840 34.95281 43.92951 60.65593
194 100.0000 0.000000 19.42670 47.94800 22.35243 4.053413
195 100.0000 0.000000 35.01760 49.21158 22.78182 10.87080
196 100.0000 0.000000 48.51700 51.20807 23.47113 21.03231
197 100.0000 0.000000 63.20280 54.31168 24.51795 37.65622
198 100.0000 0.000000 80.17230 59.14421 26.17304 62.71849
199 100.0000 27.02820 85.12030 62.53673 30.96139 72.18110
200 31.96210 27.40370 0.000000 5.501985 6.033677 0.519130
201 44.28980 28.82010 0.000000 9.481772 8.251959 0.586371
202 73.31750 36.92780 0.000000 26.29392 18.52058 0.936727
203 74.59340 59.23920 77.34680 43.79837 36.90976 58.91310
204 38.53720 0.000000 100.0000 25.32248 9.401376 103.4210
205 68.51460 0.000000 100.0000 39.93532 16.22594 103.5605
206 100.0000 0.000000 100.0000 67.05134 28.84812 104.1026
207 100.0000 30.63900 100.0000 69.02860 34.21481 104.4108
208 100.0000 41.25010 26.88020 52.49852 32.50013 7.659359
209 100.0000 51.05190 42.65760 56.66663 39.18269 17.34351
210 59.28030 38.74230 0.000000 18.06466 15.45584 0.914286
211 67.17230 47.13520 25.41160 25.71838 22.76346 6.834926
212 69.41190 60.03140 29.94790 31.17282 32.73637 9.352247
213 32.80450 23.60280 100.0000 25.09120 11.92202 103.9634
214 31.42790 42.19150 100.0000 27.56665 19.01860 104.0448
215 0.000000 32.30870 76.72750 13.00739 9.437719 56.68803
216 30.68160 52.96300 76.96010 21.12629 22.57966 57.77774
217 46.23780 69.24960 100.0000 40.60812 42.18337 105.7242
218 56.41940 80.15800 100.0000 50.03805 56.09372 106.8068
219 20.65240 33.40980 48.35250 8.079164 8.435544 20.55453
220 38.97830 71.49730 50.44100 23.12425 37.31445 24.97869
221 71.81400 77.35520 52.44150 42.57518 51.22327 27.51685
222 81.83270 67.16190 0.000000 41.58664 43.17895 2.428254
223 100.0000 81.97310 42.76710 68.17547 68.49393 19.36826
224 100.0000 83.20040 71.65580 75.30021 72.50601 52.82283
225 33.07110 14.36520 0.000000 4.553750 3.225934 0.327491
226 46.65820 25.97270 13.02750 10.43409 8.022405 2.135757
227 49.26270 28.39350 29.35310 12.91195 9.601149 7.796154
228 72.61900 31.44780 42.60500 28.06734 17.25388 16.20715
229 4.807700 0.000000 0.000000 0.275666 0.188068 0.206074
230 7.425700 0.000000 0.000000 0.413277 0.252407 0.207897
231 10.20410 0.000000 0.000000 0.579803 0.329912 0.209920
232 0.000000 4.807700 0.000000 0.214674 0.373833 0.222642
233 0.000000 7.425700 0.000000 0.299588 0.590649 0.237342
234 0.000000 10.20410 0.000000 0.386545 0.811848 0.250821
235 0.000000 100.0000 27.65390 29.29084 71.49323 11.37008
236 34.38210 100.0000 34.53760 34.53559 73.94627 15.07223
237 64.41480 100.0000 48.20230 49.55717 80.67942 25.44181
238 0.000000 16.42470 58.99690 6.694500 3.764767 31.67216
239 44.06520 21.24130 70.48880 17.63524 9.338762 47.66574
240 64.44260 23.31790 83.38580 31.84625 15.87533 68.92129
241 0.000000 0.000000 23.25580 0.950100 0.399237 4.633658
242 62.04790 0.000000 27.49450 17.35143 8.010075 6.527197
243 75.12340 0.000000 18.97650 25.50593 11.88336 3.535208
244 76.40140 0.000000 64.85750 33.08984 14.57636 39.53275
245 100.0000 52.59540 70.54390 63.23281 42.50266 49.52408
246 39.32640 0.000000 18.78080 6.481955 3.011319 3.332176
247 39.66400 0.000000 34.90850 7.951967 3.532033 10.33374
248 47.09400 14.58840 41.67510 12.06659 6.405965 14.86394
249 78.64520 42.00250 100.0000 51.78053 30.23908 104.8561
250 100.0000 52.65760 100.0000 73.80633 46.18094 105.2836
251 0.000000 10.94960 16.29390 0.884459 1.067262 2.686267
252 0.000000 30.30040 16.70270 2.562520 5.312097 2.982731
253 27.32850 60.36870 62.28410 18.83637 26.53457 37.93365
254 0.000000 39.48630 35.78630 5.604493 9.667115 11.35857
255 35.86700 46.87850 34.96970 12.02757 16.20675 11.33348
256 36.46690 50.60910 53.81980 16.07561 19.64717 26.81026
257 17.95200 20.57330 50.20090 6.559511 4.574720 22.33061
258 45.88720 25.56530 60.36790 16.16584 9.849309 33.97775
259 57.60490 58.63830 80.77520 34.65539 32.47406 65.43327
260 67.41610 72.84500 100.0000 53.26826 50.80220 106.1719
261 100.0000 100.0000 100.0000 94.88797 99.75879 108.8406
262 0.000000 0.000000 2.336400 0.134724 0.119441 0.329734
263 0.000000 16.65700 13.62280 1.057090 1.822792 1.976402
264 0.000000 73.69700 26.07580 15.08924 35.66850 8.196966
265 32.86520 100.0000 53.37270 36.93048 74.63761 30.27754
266 55.77540 100.0000 60.96430 47.52851 79.36993 39.48803
267 51.67260 59.11270 24.38600 20.34664 27.18153 6.804162
268 100.0000 63.97590 36.87700 59.92389 49.02884 14.00583
269 100.0000 69.36910 70.39220 68.89824 56.88677 50.42392
270 100.0000 78.36050 84.33960 77.04500 67.84960 73.82037
271 22.76100 29.18400 19.54870 4.580729 5.908672 3.888375
272 30.49560 37.30130 30.29360 8.101069 10.02315 8.327523
273 30.26190 61.36600 31.55620 14.28114 25.63111 10.02239
274 34.62120 78.60880 0.000000 20.43935 42.59487 2.921869
275 56.44570 78.87840 0.000000 29.37683 47.20237 3.044679
276 81.71600 82.58250 0.000000 47.98675 60.12107 3.559903
277 0.000000 14.59910 29.05270 1.921286 1.832568 7.178034
278 18.86350 19.94540 33.22540 4.218094 3.691140 9.575660
279 32.70040 32.70040 32.70040 7.993636 8.398781 9.463733
280 34.18800 34.18800 34.18800 8.870723 9.336141 10.40425
281 44.63120 35.98560 55.71870 16.10063 12.87178 28.76347
282 0.000000 45.73080 30.23050 6.397945 12.93271 8.547254
283 0.000000 59.37020 52.31240 13.11513 23.15783 25.37647
284 0.000000 79.91970 78.67060 28.36286 46.67132 63.03716
285 0.000000 100.0000 85.51650 41.63948 75.54843 76.72560
286 34.59530 100.0000 87.65550 47.18460 78.10747 81.64908
287 0.000000 26.04620 26.82020 2.730461 4.282255 6.412809
288 0.000000 31.32410 49.63600 6.238004 6.850346 21.73515
289 0.000000 43.21100 49.30060 8.295281 12.21534 21.76185
290 0.000000 48.12520 100.0000 25.19392 20.75870 104.6069
291 30.32160 57.42880 100.0000 31.33972 28.87134 105.1457
292 0.000000 24.81530 52.74980 6.092318 5.122651 24.88502
293 33.84400 29.00620 73.60160 15.99458 10.12747 52.18518
294 77.48540 77.48540 77.48540 53.57435 56.10340 61.32048
295 80.35710 80.35710 80.35710 58.21329 61.24956 66.54955
296 83.33330 83.33330 83.33330 62.75078 66.04774 71.52606
297 28.26550 39.23770 42.93730 9.480083 11.27484 16.14206
298 33.76020 41.31430 81.27960 20.41771 16.06230 65.12699
299 56.20970 42.20050 100.0000 37.06341 23.46115 104.4708
300 31.80140 0.000000 45.48830 7.097794 2.956896 17.77147
301 74.61470 0.000000 48.45430 28.13766 12.70580 20.64481
302 1.543200 1.543200 1.543200 0.167724 0.172662 0.272081
303 2.336400 2.336400 2.336400 0.228738 0.237818 0.337554
304 0.000000 50.78730 21.03700 6.963361 15.93608 4.992303
305 0.000000 62.90500 39.49550 12.26189 25.65900 14.85516
306 0.000000 78.50780 63.33090 22.98271 42.89841 39.77909
307 0.000000 100.0000 100.0000 47.61841 77.48600 107.9480
308 36.07460 100.0000 100.0000 52.66577 80.03877 108.1620
309 70.57460 18.02280 10.98900 22.69613 12.18436 1.696682
310 71.17280 26.68270 27.97970 24.58674 14.73937 7.117327
311 85.38460 37.32850 33.40650 37.79595 23.92088 10.39667
312 86.74810 51.41210 46.91000 44.06795 33.41533 20.82239
313 88.49350 66.56360 55.87470 52.27844 47.28312 30.70033
314 88.46250 74.28090 70.19840 58.58973 55.32300 49.81051
315 90.99020 95.81470 88.71870 78.09214 86.92463 83.06238
316 11.65950 13.75210 0.000000 1.193898 1.587652 0.288730
317 22.61900 18.69170 0.000000 2.909702 3.109332 0.360572
318 33.17390 23.35670 9.877700 5.620167 5.260186 1.409014
319 51.73140 43.01570 27.10980 16.22796 16.35296 7.267140
320 80.27780 70.40530 54.93470 46.90059 47.67527 30.00803
321 84.50910 70.10480 75.65960 54.94465 50.44324 57.23219
322 89.31400 81.68580 89.36930 69.25487 66.98548 83.35903
323 15.20630 8.212700 45.31890 4.624361 2.236036 17.83586
324 18.08690 54.84100 45.16860 11.96706 20.16512 18.88795
325 43.35920 60.03150 45.06470 19.67305 27.07567 19.27237
326 89.41230 52.47130 12.17970 43.18207 34.05403 3.113190
327 100.0000 52.73310 21.95430 54.96179 39.61885 5.976374
328 62.86220 85.59570 42.02670 39.31112 58.59595 18.63978
329 70.07780 89.02190 57.09710 48.71913 66.27725 34.04175
330 86.44990 90.33270 56.43500 61.28813 73.53953 33.50485
331 16.47530 20.21910 11.66790 2.441477 3.128686 1.680160
332 17.11940 32.00930 16.25240 4.005477 6.532654 2.932837
333 34.13690 33.49780 19.84980 7.530220 8.567576 4.158755
334 48.88240 38.50920 34.29310 14.76623 13.57092 10.57637
335 4.607000 12.86060 12.43080 0.969826 1.328045 1.750577
336 22.09410 18.06650 25.83820 3.781560 3.241927 5.988388
337 52.91010 28.09910 53.88830 18.01611 11.56541 26.07799
338 72.27020 46.70970 68.39750 36.16854 26.58451 45.15342
339 71.41340 73.22130 81.22250 48.41796 49.77638 67.25137
340 71.27880 82.56400 92.39700 57.11821 62.64247 89.92654
341 83.37220 87.74810 100.0000 72.18436 74.27503 107.5183
342 0.000000 0.000000 0.000000 0.111437 0.111028 0.204564
343 22.96120 48.66490 49.58920 11.77660 16.64646 22.16569
344 32.67130 68.51910 58.60640 22.01014 34.37553 33.54793
345 32.97730 72.94000 73.99340 27.56529 39.94318 54.49532
346 78.93760 82.02590 73.55670 55.43981 61.59105 55.42582
347 91.36890 85.60890 74.51500 67.51296 70.99740 56.64055
348 100.0000 88.66010 85.67850 82.18279 80.59501 76.43859
349 82.32710 47.47570 53.19080 40.76401 29.56937 26.67598
350 85.37840 74.77350 100.0000 67.16958 59.00916 106.3455
351 41.70330 6.255500 61.16950 13.42559 5.817056 34.67532
352 60.66870 12.90410 64.09630 23.20393 10.85426 38.47197
353 65.78500 35.71460 66.99440 29.56135 18.69710 43.48084
354 22.58180 59.36660 39.32500 13.06289 23.52479 14.54139
355 25.67860 80.48440 74.82010 29.79191 48.03376 56.33506
356 0.000000 13.70720 40.01790 3.083140 2.164064 13.49374
357 11.56340 22.79250 42.41150 4.695236 4.315254 15.38243
358 26.98390 27.11680 46.06180 7.865729 6.643924 18.48315
359 86.20760 43.19030 65.12400 45.55645 29.32730 41.05935
360 100.0000 49.85290 83.64960 66.26084 41.81057 70.07207
361 77.14930 0.000000 84.80280 39.57444 16.88631 70.55793
362 82.38170 20.56730 100.0000 51.31047 23.50971 104.2537
363 28.06240 9.645700 34.86450 5.296785 2.836559 10.39085
364 30.50640 27.88250 37.80980 7.578982 6.882926 12.37487
365 33.20690 38.07990 48.80460 11.31401 11.55032 21.13527
366 45.47270 46.51050 64.31700 20.71657 19.42471 39.82741
367 58.61050 61.01320 72.11140 33.10599 33.59912 51.07655
368 21.53870 46.69480 29.19630 8.303331 14.27600 8.050841
369 37.24840 52.84410 30.60270 13.54633 20.19338 9.195656
370 75.09540 53.78740 40.00300 34.16660 30.00332 15.09334
371 43.39420 16.44700 25.90940 9.145431 5.526520 6.048650
372 45.39650 20.54340 35.51890 11.14583 6.989968 11.08177
373 56.95820 24.23120 37.01220 17.00336 10.56129 11.95435
374 73.39030 23.64090 52.07430 29.29357 15.80374 24.60488
375 81.76170 33.57470 68.16080 40.82210 23.36891 44.77432
376 85.55380 41.27480 82.56580 49.70311 29.79406 68.38554
377 15.06290 62.74620 21.43020 11.57912 25.73753 5.808921
378 15.47800 69.26340 52.38540 17.95454 33.35383 26.54760
379 15.30920 91.61810 82.28560 36.39829 62.54578 70.38067
380 49.87330 95.70680 84.17690 48.88004 73.52685 74.59478
381 63.13800 100.0000 100.0000 64.89303 85.78981 108.5681
382 11.17690 27.22350 22.88960 3.128517 4.742793 4.846746
383 19.81310 30.42000 31.37160 5.311593 6.630331 8.742172
384 23.51750 44.93310 37.61660 9.260895 13.89804 12.86469
385 51.72210 63.98430 40.02690 23.67585 31.90137 15.54396
386 20.92150 87.22550 18.61470 22.93406 52.94501 6.647894
387 19.30050 86.95180 35.88150 24.05315 53.37187 14.41601
388 2.336400 0.000000 0.000000 0.170171 0.138646 0.205311
389 10.71230 19.68690 28.19750 2.767981 3.076189 6.925586
390 10.36360 35.51060 44.25040 6.560358 8.498378 17.47904
391 0.000000 25.42600 35.25780 3.508455 4.445748 10.76369
