KOIOS/K2721UG/K2721UG #1 2022-08-20 17-47 0.3127x 0.329y sRGB F-S XYZLUT+MTX/K2721UG #1 2022-08-20 17-47 0.3127x 0.329y sRGB F-S XYZLUT+MTX.bpc.ti3
CTI3   

DESCRIPTOR "Argyll Calibration Target chart information 3"
ORIGINATOR "Argyll dispread"
CREATED "Sat Aug 20 17:54:06 2022"
DEVICE_CLASS "DISPLAY"
SINGLE_DIM_STEPS "21"
COMP_GREY_STEPS "61"
DARK_REGION_EMPHASIS "1.6"
COLOR_REP "RGB_XYZ"
TARGET_INSTRUMENT "X-Rite i1 DisplayPro, ColorMunki Display"
DISPLAY_TYPE_REFRESH "NO"
DISPLAY_TYPE_BASE_ID "1"
INSTRUMENT_TYPE_SPECTRAL "NO"
LUMINANCE_XYZ_CDM2 "72.829422 76.549853 83.507553"
NORMALIZED_TO_Y_100 "YES"
VIDEO_LUT_CALIBRATION_POSSIBLE "YES"

BEGIN_ARGYLL_COLPROF_ARGS
-v -qh -aX -bn -C "No copyright. Created with DisplayCAL 3.8.9.3 and ArgyllCMS 2.1.2" -M "KOIOS K2721UG"
END_ARGYLL_COLPROF_ARGS

OBSERVER "1931_2"
USE_BLACK_POINT_COMPENSATION "NO"
BLACK_POINT_CORRECTION "0.0"
HIRES_B2A "YES"
HIRES_B2A_SIZE "-1"
SMOOTH_B2A "YES"
PATCH_SEQUENCE "OPTIMIZE_DISPLAY_RESPONSE_DELAY"

NUMBER_OF_FIELDS 7
BEGIN_DATA_FORMAT
SAMPLE_ID RGB_R RGB_G RGB_B XYZ_X XYZ_Y XYZ_Z
END_DATA_FORMAT

NUMBER_OF_SETS 588
BEGIN_DATA
1 100.0000 100.0000 100.0000 95.13986 100.0000 109.0891
2 1.960800 1.960800 1.960800 0.199166 0.213042 0.235889
3 3.921600 3.921600 3.921600 0.377549 0.401146 0.466363
4 5.882400 5.882400 5.882400 0.563196 0.583560 0.686877
5 9.803900 9.803900 9.803900 1.024060 1.054613 1.195275
6 13.72600 13.72600 13.72600 1.705731 1.794791 1.965157
7 17.64700 17.64700 17.64700 2.620491 2.766712 3.029329
8 21.56900 21.56900 21.56900 3.709195 3.927245 4.311005
9 25.49000 25.49000 25.49000 5.070773 5.308755 5.954979
10 29.41200 29.41200 29.41200 6.555518 6.861753 7.729121
11 33.33300 33.33300 33.33300 8.414205 8.843437 9.895481
12 37.25500 37.25500 37.25500 10.62792 11.12170 12.38256
13 41.17600 41.17600 41.17600 13.15992 13.83952 15.13109
14 45.09800 45.09800 45.09800 16.08111 16.94902 18.50056
15 49.02000 49.02000 49.02000 19.20449 20.35006 21.93537
16 52.94100 52.94100 52.94100 22.82152 24.15516 26.12997
17 56.86300 56.86300 56.86300 26.97991 28.32284 31.03457
18 60.78400 60.78400 60.78400 31.15379 32.73942 35.98060
19 64.70600 64.70600 64.70600 35.85106 37.63907 41.51610
20 68.62700 68.62700 68.62700 40.85984 42.91862 46.83658
21 72.54900 72.54900 72.54900 46.12377 48.34318 52.61487
22 76.47100 76.47100 76.47100 51.58958 54.36736 59.08737
23 80.39200 80.39200 80.39200 58.13814 61.30299 66.55166
24 84.31400 84.31400 84.31400 64.31066 67.70453 73.76447
25 88.23500 88.23500 88.23500 70.99451 74.83712 81.47828
26 92.15700 92.15700 92.15700 78.20441 82.26027 90.18198
27 96.07800 96.07800 96.07800 86.57623 91.13469 99.63709
28 0.000000 0.000000 16.30430 0.565447 0.268572 2.522422
29 0.000000 0.000000 19.66290 0.730205 0.324610 3.398692
30 18.89600 0.000000 34.35100 3.415064 1.423196 10.01754
31 27.05250 0.000000 59.19420 8.874249 3.446601 32.02715
32 39.22210 0.000000 78.96060 17.30491 6.708680 60.05222
33 0.000000 43.57140 75.87360 14.70947 14.65531 55.01190
34 0.000000 58.07990 84.27350 21.55233 25.52517 71.22705
35 0.000000 61.40900 100.0000 29.04965 30.62384 105.2102
36 100.0000 28.88820 0.000000 49.17214 26.83603 0.990443
37 100.0000 70.51690 23.89170 61.07304 54.84359 7.781325
38 100.0000 74.40020 52.21840 66.18252 59.85955 27.24222
39 13.15790 0.000000 0.000000 0.861320 0.462261 0.188378
40 16.30430 0.000000 0.000000 1.232189 0.635111 0.202974
41 19.66290 0.000000 0.000000 1.601247 0.806769 0.212549
42 23.25580 0.000000 0.000000 2.155463 1.065293 0.221735
43 27.10840 0.000000 0.000000 2.792373 1.362318 0.229462
44 31.25000 0.000000 0.000000 3.732361 1.801369 0.239410
45 35.71430 0.000000 0.000000 4.781891 2.291224 0.250034
46 37.87990 0.000000 0.000000 5.480681 2.616652 0.256672
47 40.54050 0.000000 0.000000 6.214556 2.959094 0.263833
48 45.77470 0.000000 0.000000 8.197463 3.884920 0.283886
49 51.47060 0.000000 0.000000 10.48868 4.953637 0.306364
50 57.69230 0.000000 0.000000 13.73137 6.466586 0.338474
51 64.51610 0.000000 0.000000 17.61315 8.276944 0.378067
52 72.03390 0.000000 0.000000 22.53886 10.57679 0.427589
53 80.35710 0.000000 0.000000 28.70915 13.45337 0.488342
54 81.45190 100.0000 0.000000 57.91153 85.16941 5.198653
55 80.39330 100.0000 32.41380 58.63271 85.18841 14.23190
56 61.06840 100.0000 0.000000 43.70624 78.32156 5.054790
57 100.0000 100.0000 30.33970 76.87608 93.81672 13.19971
58 100.0000 100.0000 86.40530 89.35950 98.02837 79.35272
59 0.000000 13.15790 0.000000 0.546463 1.217841 0.276038
60 0.000000 16.30430 0.000000 0.739526 1.706402 0.309825
61 0.000000 19.66290 0.000000 1.002526 2.370326 0.353932
62 0.000000 23.25580 0.000000 1.304198 3.135784 0.404568
63 0.000000 27.10840 0.000000 1.689423 4.113694 0.469245
64 0.000000 31.25000 0.000000 2.198365 5.406745 0.556374
65 0.000000 35.71430 0.000000 2.842899 7.041586 0.665032
66 0.000000 40.54050 0.000000 3.717994 9.284057 0.800531
67 0.000000 45.77470 0.000000 4.925401 12.33774 1.014497
68 0.000000 51.47060 0.000000 6.330871 15.88834 1.251131
69 0.000000 57.69230 0.000000 8.142795 20.40162 1.549259
70 0.000000 64.51610 0.000000 10.42832 26.32417 1.942647
71 0.000000 72.03390 0.000000 13.18029 33.32102 2.400087
72 0.000000 80.35710 0.000000 17.04983 43.10600 3.048280
73 0.000000 89.62260 0.000000 21.73886 54.99540 3.840598
74 0.000000 100.0000 0.000000 27.97680 70.89819 4.884733
75 34.28220 100.0000 0.000000 32.28135 72.93566 4.932690
76 64.81260 100.0000 89.16240 61.09951 84.66259 84.27736
77 0.000000 0.000000 7.425700 0.231643 0.154689 0.792948
78 0.000000 0.000000 10.20410 0.294963 0.176303 1.122220
79 0.000000 0.000000 13.15790 0.420510 0.218799 1.767159
80 23.78610 0.000000 12.34190 2.506152 1.196209 1.601767
81 0.000000 0.000000 0.000000 0.105978 0.111183 0.121459
82 0.000000 0.000000 4.807700 0.170385 0.133584 0.466617
83 0.000000 0.000000 27.10840 1.262860 0.506999 6.213852
84 0.000000 0.000000 31.25000 1.630694 0.633356 8.169520
85 0.000000 0.000000 35.71430 2.086933 0.788571 10.58629
86 0.000000 0.000000 40.54050 2.650248 0.981287 13.56837
87 0.000000 0.000000 45.77470 3.466242 1.259679 17.89446
88 0.000000 0.000000 51.47060 4.418811 1.585616 22.90312
89 0.000000 0.000000 57.69230 5.754915 2.041966 29.94682
90 0.000000 0.000000 64.51610 7.424491 2.613365 38.77876
91 0.000000 0.000000 72.03390 9.318465 3.255400 48.73944
92 0.000000 0.000000 80.35710 11.93989 4.149209 62.57387
93 0.000000 0.000000 89.62260 15.22671 5.278239 79.92107
94 0.000000 0.000000 100.0000 19.64586 6.752557 103.2151
95 0.000000 34.75980 100.0000 22.33869 13.51047 103.7840
96 55.83250 57.95840 100.0000 40.85197 33.89251 104.8364
97 0.000000 2.336400 0.000000 0.141647 0.201700 0.150850
98 3.144700 3.144700 3.144700 0.280707 0.296110 0.350099
99 3.968300 3.968300 3.968300 0.377435 0.400800 0.466231
100 4.807700 4.807700 4.807700 0.445097 0.475585 0.545197
101 5.663400 5.663400 5.663400 0.520436 0.533258 0.638652
102 6.535900 6.535900 6.535900 0.630394 0.670233 0.782797
103 7.425700 7.425700 7.425700 0.732606 0.781147 0.898874
104 8.333300 8.333300 8.333300 0.823208 0.854630 1.009828
105 9.259300 9.259300 9.259300 0.985108 1.037312 1.137022
106 10.20410 10.20410 10.20410 1.051800 1.104404 1.257605
107 11.16840 11.16840 11.16840 1.178845 1.238085 1.395538
108 12.15280 12.15280 12.15280 1.397187 1.421278 1.657965
109 13.15790 13.15790 13.15790 1.636282 1.700726 1.962446
110 14.18440 14.18440 14.18440 1.785286 1.832805 2.071111
111 15.23300 15.23300 15.23300 2.048836 2.145094 2.414157
112 16.30430 16.30430 16.30430 2.354212 2.421019 2.769181
113 17.39930 17.39930 17.39930 2.507125 2.640062 2.906556
114 18.51850 18.51850 18.51850 2.846041 2.949391 3.305160
115 19.66290 19.66290 19.66290 3.164571 3.336049 3.713705
116 20.83330 20.83330 20.83330 3.544925 3.678291 4.159360
117 22.03070 22.03070 22.03070 3.860182 4.091260 4.473259
118 23.25580 23.25580 23.25580 4.261574 4.452232 4.937484
119 24.50980 24.50980 24.50980 4.650881 4.920301 5.447576
120 25.79360 25.79360 25.79360 5.258087 5.507392 6.147490
121 27.10840 27.10840 27.10840 5.636409 5.883831 6.712108
122 28.45530 28.45530 28.45530 6.236494 6.607279 7.323374
123 29.83540 29.83540 29.83540 6.754236 7.085761 7.939879
124 58.62820 41.67410 57.64400 24.37289 18.93269 31.31553
125 100.0000 100.0000 100.0000 95.29784 100.1419 109.0891
126 31.25000 31.25000 31.25000 7.482439 7.776367 8.783785
127 35.71430 35.71430 35.71430 9.697287 10.12768 11.38810
128 37.28070 37.28070 37.28070 10.63913 11.13319 12.39870
129 38.88890 38.88890 38.88890 11.63344 12.20149 13.47213
130 40.54050 40.54050 40.54050 12.66418 13.31831 14.59589
131 42.23740 42.23740 42.23740 14.03734 14.77663 16.06317
132 43.98150 43.98150 43.98150 15.22598 16.03041 17.59411
133 45.77470 45.77470 45.77470 16.69698 17.64378 19.24079
134 47.61910 47.61910 47.61910 17.95960 18.99224 20.59814
135 49.51690 49.51690 49.51690 19.61211 20.75665 22.32375
136 51.47060 51.47060 51.47060 21.39656 22.63190 24.54284
137 53.48260 53.48260 53.48260 23.20201 24.34471 26.62796
138 55.55560 55.55560 55.55560 25.73810 26.96526 29.71274
139 57.69230 57.69230 57.69230 27.87401 29.24353 32.04437
140 59.89580 59.89580 59.89580 30.21908 31.72113 34.97350
141 62.16930 62.16930 62.16930 33.23076 34.91949 38.22848
142 64.51610 64.51610 64.51610 35.96111 37.68311 41.48421
143 66.93990 66.93990 66.93990 39.16328 41.17650 45.05479
144 69.44440 69.44440 69.44440 42.09747 44.27606 48.13866
145 86.48170 100.0000 87.96510 76.84849 92.09642 82.17529
146 85.75850 100.0000 100.0000 81.08094 93.38995 108.6965
147 100.0000 100.0000 100.0000 94.92936 99.85642 108.8417
148 72.03390 72.03390 72.03390 45.49586 47.56787 52.11492
149 74.71260 74.71260 74.71260 49.34175 51.68498 56.09750
150 86.41970 86.41970 86.41970 67.74669 71.43854 77.49863
151 89.62260 89.62260 89.62260 74.05451 78.03704 84.96095
152 92.94870 92.94870 92.94870 79.77578 83.95785 91.92433
153 96.40520 96.40520 96.40520 87.67767 92.19886 100.8794
154 100.0000 25.52770 23.36250 49.78366 26.25233 5.680444
155 89.62260 0.000000 0.000000 36.60336 17.14348 0.568371
156 100.0000 0.000000 0.000000 47.54897 22.23266 0.680811
157 100.0000 81.57640 0.000000 64.94737 66.78762 3.634014
158 100.0000 100.0000 0.000000 75.39677 93.25677 5.385560
159 24.74910 42.21040 0.000000 6.475934 11.48808 0.909420
160 44.85520 56.33290 0.000000 15.50644 23.19000 1.569546
161 57.50660 100.0000 27.26910 43.22991 78.00315 11.39158
162 100.0000 100.0000 52.42430 80.12322 94.94594 30.18757
163 100.0000 100.0000 72.52190 84.94118 96.44547 55.80863
164 0.000000 100.0000 49.67570 32.19673 72.55564 26.39317
165 0.000000 100.0000 68.22290 36.30222 73.78375 48.68875
166 33.64420 100.0000 73.24510 42.07159 76.32489 56.12619
167 80.74850 100.0000 74.22790 67.37207 88.19347 57.42825
168 57.76380 49.39750 0.000000 19.58735 21.15712 1.310087
169 72.80250 50.26540 59.56320 35.66308 28.51232 34.15420
170 100.0000 28.30330 54.18980 54.10815 28.44616 27.04081
171 100.0000 49.89810 55.93250 58.73991 39.25531 30.38346
172 100.0000 65.66970 56.22180 63.65589 51.63351 31.27523
173 100.0000 47.78940 0.000000 52.88138 35.96665 1.591134
174 100.0000 65.11820 0.000000 57.98499 49.22445 2.474131
175 0.000000 75.23260 100.0000 34.29369 43.78299 106.0959
176 0.000000 86.97000 100.0000 40.16603 58.65522 107.0008
177 36.66060 86.98880 100.0000 45.40520 61.19886 107.2117
178 100.0000 87.44610 100.0000 87.44707 80.96883 107.3974
179 0.000000 0.000000 0.000000 0.105786 0.111190 0.121297
180 54.07270 0.000000 35.24310 13.88427 6.295467 10.64360
181 55.36300 0.000000 69.61230 21.26851 8.898107 46.08593
182 57.89910 23.70020 100.0000 35.17512 16.65287 103.8887
183 78.81400 59.54090 100.0000 56.43415 42.12745 105.4812
184 100.0000 71.01280 100.0000 79.93455 61.88768 106.1986
185 0.000000 0.000000 0.000000 0.105968 0.111186 0.121476
186 0.764500 0.764500 0.764500 0.124717 0.131167 0.144704
187 18.00640 9.058700 0.000000 1.655179 1.329534 0.256790
188 53.62410 19.77870 0.000000 12.55975 7.790387 0.471386
189 63.88300 39.38730 42.01290 23.50695 17.87300 15.79260
190 70.37480 38.13860 54.15400 29.71285 20.04271 26.86949
191 27.97120 40.74420 18.61370 7.340586 11.19061 3.832715
192 47.23620 50.40000 31.25890 16.46640 20.21496 9.545179
193 49.37320 74.00890 77.71840 34.95290 43.92960 60.65600
194 100.0000 0.000000 19.42670 47.94807 22.35255 4.053573
195 100.0000 0.000000 35.01760 49.21165 22.78194 10.87095
196 100.0000 0.000000 48.51700 51.20814 23.47125 21.03244
197 100.0000 0.000000 63.20280 54.31174 24.51807 37.65633
198 100.0000 0.000000 80.17230 59.14427 26.17315 62.71856
199 100.0000 27.02820 85.12030 62.53678 30.96150 72.18116
200 31.96210 27.40370 0.000000 5.502122 6.033820 0.519295
201 44.28980 28.82010 0.000000 9.481903 8.252099 0.586536
202 73.31750 36.92780 0.000000 26.29403 18.52070 0.936892
203 74.59340 59.23920 77.34680 43.79845 36.90986 58.91318
204 38.53720 0.000000 100.0000 25.32259 9.401514 103.4210
205 68.51460 0.000000 100.0000 39.93540 16.22607 103.5605
206 100.0000 0.000000 100.0000 67.05138 28.84823 104.1026
207 100.0000 30.63900 100.0000 69.02864 34.21491 104.4108
208 100.0000 41.25010 26.88020 52.49859 32.50023 7.659513
209 100.0000 51.05190 42.65760 56.66669 39.18278 17.34365
210 59.28030 38.74230 0.000000 18.06478 15.45597 0.914451
211 67.17230 47.13520 25.41160 25.71849 22.76358 6.835082
212 69.41190 60.03140 29.94790 31.17292 32.73647 9.352399
213 32.80450 23.60280 100.0000 25.09131 11.92215 103.9634
214 31.42790 42.19150 100.0000 27.56675 19.01872 104.0448
215 0.000000 32.30870 76.72750 13.00752 9.437857 56.68811
216 30.68160 52.96300 76.96010 21.12640 22.57978 57.77782
217 46.23780 69.24960 100.0000 40.60820 42.18346 105.7242
218 56.41940 80.15800 100.0000 50.03812 56.09379 106.8068
219 20.65240 33.40980 48.35250 8.079297 8.435684 20.55466
220 38.97830 71.49730 50.44100 23.12436 37.31455 24.97882
221 71.81400 77.35520 52.44150 42.57526 51.22334 27.51697
222 81.83270 67.16190 0.000000 41.58672 43.17904 2.428416
223 100.0000 81.97310 42.76710 68.17551 68.49398 19.36840
224 100.0000 83.20040 71.65580 75.30024 72.50605 52.82292
225 33.07110 14.36520 0.000000 4.553886 3.226082 0.327646
226 46.65820 25.97270 13.02750 10.43422 8.022545 2.135920
227 49.26270 28.39350 29.35310 12.91208 9.601287 7.796308
228 72.61900 31.44780 42.60500 28.06744 17.25401 16.20729
229 4.807700 0.000000 0.000000 0.271544 0.188220 0.143318
230 7.425700 0.000000 0.000000 0.410055 0.252559 0.158411
231 10.20410 0.000000 0.000000 0.577421 0.330064 0.172828
232 0.000000 4.807700 0.000000 0.212674 0.373985 0.191175
233 0.000000 7.425700 0.000000 0.298786 0.590801 0.223546
234 0.000000 10.20410 0.000000 0.386286 0.811999 0.245031
235 0.000000 100.0000 27.65390 29.29094 71.49327 11.37023
236 34.38210 100.0000 34.53760 34.53568 73.94631 15.07237
237 64.41480 100.0000 48.20230 49.55724 80.67945 25.44194
238 0.000000 16.42470 58.99690 6.694634 3.764914 31.67224
239 44.06520 21.24130 70.48880 17.63536 9.338900 47.66583
240 64.44260 23.31790 83.38580 31.84635 15.87546 68.92135
241 0.000000 0.000000 23.25580 0.948135 0.399389 4.552487
242 62.04790 0.000000 27.49450 17.35155 8.010215 6.527353
243 75.12340 0.000000 18.97650 25.50604 11.88349 3.535369
244 76.40140 0.000000 64.85750 33.08993 14.57649 39.53286
245 100.0000 52.59540 70.54390 63.23286 42.50275 49.52417
246 39.32640 0.000000 18.78080 6.482086 3.011467 3.332301
247 39.66400 0.000000 34.90850 7.952098 3.532180 10.33386
248 47.09400 14.58840 41.67510 12.06672 6.406108 14.86408
249 78.64520 42.00250 100.0000 51.78060 30.23919 104.8561
250 100.0000 52.65760 100.0000 73.80636 46.18102 105.2836
251 0.000000 10.94960 16.29390 0.884444 1.067413 2.681936
252 0.000000 30.30040 16.70270 2.562661 5.312241 2.982892
253 27.32850 60.36870 62.28410 18.83649 26.53468 37.93376
254 0.000000 39.48630 35.78630 5.604630 9.667253 11.35872
255 35.86700 46.87850 34.96970 12.02770 16.20688 11.33363
256 36.46690 50.60910 53.81980 16.07573 19.64729 26.81039
257 17.95200 20.57330 50.20090 6.559646 4.574866 22.33073
258 45.88720 25.56530 60.36790 16.16596 9.849446 33.97786
259 57.60490 58.63830 80.77520 34.65548 32.47416 65.43334
260 67.41610 72.84500 100.0000 53.26832 50.80228 106.1719
261 100.0000 100.0000 100.0000 94.88797 99.75879 108.8406
262 0.000000 0.000000 2.336400 0.129385 0.119593 0.249019
263 0.000000 16.65700 13.62280 1.057215 1.822942 1.976186
264 0.000000 73.69700 26.07580 15.08936 35.66860 8.197120
265 32.86520 100.0000 53.37270 36.93057 74.63765 30.27766
266 55.77540 100.0000 60.96430 47.52858 79.36996 39.48814
267 51.67260 59.11270 24.38600 20.34675 27.18164 6.804318
268 100.0000 63.97590 36.87700 59.92394 49.02892 14.00597
269 100.0000 69.36910 70.39220 68.89828 56.88684 50.42401
270 100.0000 78.36050 84.33960 77.04503 67.84965 73.82042
271 22.76100 29.18400 19.54870 4.580867 5.908815 3.888535
272 30.49560 37.30130 30.29360 8.101202 10.02329 8.327676
273 30.26190 61.36600 31.55620 14.28126 25.63122 10.02254
274 34.62120 78.60880 0.000000 20.43946 42.59496 2.922031
275 56.44570 78.87840 0.000000 29.37693 47.20245 3.044840
276 81.71600 82.58250 0.000000 47.98682 60.12113 3.560064
277 0.000000 14.59910 29.05270 1.921401 1.832718 7.177315
278 18.86350 19.94540 33.22540 4.218232 3.691287 9.575791
279 32.70040 32.70040 32.70040 7.993769 8.398921 9.463885
280 34.18800 34.18800 34.18800 8.870855 9.336279 10.40440
281 44.63120 35.98560 55.71870 16.10075 12.87191 28.76359
282 0.000000 45.73080 30.23050 6.398080 12.93284 8.547407
283 0.000000 59.37020 52.31240 13.11526 23.15795 25.37660
284 0.000000 79.91970 78.67060 28.36296 46.67140 63.03723
285 0.000000 100.0000 85.51650 41.63956 75.54847 76.72565
286 34.59530 100.0000 87.65550 47.18467 78.10750 81.64912
287 0.000000 26.04620 26.82020 2.730602 4.282401 6.412960
288 0.000000 31.32410 49.63600 6.238140 6.850488 21.73528
289 0.000000 43.21100 49.30060 8.295413 12.21547 21.76198
290 0.000000 48.12520 100.0000 25.19403 20.75882 104.6069
291 30.32160 57.42880 100.0000 31.33982 28.87145 105.1457
292 0.000000 24.81530 52.74980 6.092454 5.122796 24.88514
293 33.84400 29.00620 73.60160 15.99470 10.12761 52.18527
294 77.48540 77.48540 77.48540 53.57441 56.10347 61.32055
295 80.35710 80.35710 80.35710 58.21335 61.24962 66.54961
296 83.33330 83.33330 83.33330 62.75083 66.04779 71.52612
297 28.26550 39.23770 42.93730 9.480214 11.27498 16.14220
298 33.76020 41.31430 81.27960 20.41782 16.06243 65.12706
299 56.20970 42.20050 100.0000 37.06350 23.46127 104.4708
300 31.80140 0.000000 45.48830 7.097923 2.957044 17.77148
301 74.61470 0.000000 48.45430 28.13776 12.70593 20.64494
302 1.543200 1.543200 1.543200 0.163355 0.172814 0.205668
303 2.336400 2.336400 2.336400 0.225330 0.237970 0.285322
304 0.000000 50.78730 21.03700 6.963495 15.93621 4.992461
305 0.000000 62.90500 39.49550 12.26202 25.65911 14.85530
306 0.000000 78.50780 63.33090 22.98282 42.89850 39.77920
307 0.000000 100.0000 100.0000 47.61848 77.48603 107.9480
308 36.07460 100.0000 100.0000 52.66583 80.03880 108.1620
309 70.57460 18.02280 10.98900 22.69624 12.18449 1.696846
310 71.17280 26.68270 27.97970 24.58685 14.73950 7.117482
311 85.38460 37.32850 33.40650 37.79604 23.92100 10.39682
312 86.74810 51.41210 46.91000 44.06803 33.41543 20.82252
313 88.49350 66.56360 55.87470 52.27851 47.28320 30.70045
314 88.46250 74.28090 70.19840 58.58979 55.32307 49.81060
315 90.99020 95.81470 88.71870 78.09217 86.92465 83.06242
316 11.65950 13.75210 0.000000 1.194003 1.587802 0.288450
317 22.61900 18.69170 0.000000 2.909841 3.109480 0.360724
318 33.17390 23.35670 9.877700 5.620303 5.260330 1.409178
319 51.73140 43.01570 27.10980 16.22808 16.35309 7.267295
320 80.27780 70.40530 54.93470 46.90066 47.67535 30.00815
321 84.50910 70.10480 75.65960 54.94471 50.44332 57.23227
322 89.31400 81.68580 89.36930 69.25491 66.98553 83.35907
323 15.20630 8.212700 45.31890 4.624481 2.236185 17.83541
324 18.08690 54.84100 45.16860 11.96719 20.16524 18.88809
325 43.35920 60.03150 45.06470 19.67317 27.07578 19.27251
326 89.41230 52.47130 12.17970 43.18215 34.05413 3.113351
327 100.0000 52.73310 21.95430 54.96185 39.61894 5.976531
328 62.86220 85.59570 42.02670 39.31121 58.59601 18.63992
329 70.07780 89.02190 57.09710 48.71920 66.27730 34.04186
330 86.44990 90.33270 56.43500 61.28818 73.53957 33.50497
331 16.47530 20.21910 11.66790 2.441617 3.128834 1.680305
332 17.11940 32.00930 16.25240 4.005616 6.532797 2.932999
333 34.13690 33.49780 19.84980 7.530354 8.567715 4.158915
334 48.88240 38.50920 34.29310 14.76635 13.57105 10.57652
335 4.607000 12.86060 12.43080 0.969898 1.328195 1.749314
336 22.09410 18.06650 25.83820 3.781697 3.242075 5.988511
337 52.91010 28.09910 53.88830 18.01623 11.56554 26.07812
338 72.27020 46.70970 68.39750 36.16863 26.58462 45.15352
339 71.41340 73.22130 81.22250 48.41803 49.77646 67.25143
340 71.27880 82.56400 92.39700 57.11827 62.64253 89.92657
341 83.37220 87.74810 100.0000 72.18440 74.27507 107.5183
342 0.000000 0.000000 0.000000 0.105927 0.111180 0.121333
343 22.96120 48.66490 49.58920 11.77673 16.64659 22.16582
344 32.67130 68.51910 58.60640 22.01025 34.37563 33.54805
345 32.97730 72.94000 73.99340 27.56539 39.94327 54.49540
346 78.93760 82.02590 73.55670 55.43987 61.59111 55.42590
347 91.36890 85.60890 74.51500 67.51300 70.99744 56.64063
348 100.0000 88.66010 85.67850 82.18281 80.59504 76.43864
349 82.32710 47.47570 53.19080 40.76409 29.56948 26.67611
350 85.37840 74.77350 100.0000 67.16962 59.00922 106.3455
351 41.70330 6.255500 61.16950 13.42571 5.817200 34.67543
352 60.66870 12.90410 64.09630 23.20404 10.85440 38.47208
353 65.78500 35.71460 66.99440 29.56145 18.69722 43.48094
354 22.58180 59.36660 39.32500 13.06302 23.52491 14.54153
355 25.67860 80.48440 74.82010 29.79201 48.03384 56.33514
356 0.000000 13.70720 40.01790 3.083264 2.164213 13.49330
357 11.56340 22.79250 42.41150 4.695374 4.315400 15.38256
358 26.98390 27.11680 46.06180 7.865862 6.644066 18.48329
359 86.20760 43.19030 65.12400 45.55653 29.32741 41.05945
360 100.0000 49.85290 83.64960 66.26088 41.81066 70.07213
361 77.14930 0.000000 84.80280 39.57452 16.88644 70.55799
362 82.38170 20.56730 100.0000 51.31054 23.50983 104.2537
363 28.06240 9.645700 34.86450 5.296917 2.836707 10.39089
364 30.50640 27.88250 37.80980 7.579116 6.883068 12.37502
365 33.20690 38.07990 48.80460 11.31414 11.55045 21.13540
366 45.47270 46.51050 64.31700 20.71668 19.42483 39.82752
367 58.61050 61.01320 72.11140 33.10608 33.59922 51.07664
368 21.53870 46.69480 29.19630 8.303463 14.27613 8.050995
369 37.24840 52.84410 30.60270 13.54645 20.19350 9.195808
370 75.09540 53.78740 40.00300 34.16669 30.00343 15.09348
371 43.39420 16.44700 25.90940 9.145562 5.526664 6.048806
372 45.39650 20.54340 35.51890 11.14596 6.990110 11.08192
373 56.95820 24.23120 37.01220 17.00348 10.56143 11.95450
374 73.39030 23.64090 52.07430 29.29367 15.80387 24.60501
375 81.76170 33.57470 68.16080 40.82218 23.36903 44.77442
376 85.55380 41.27480 82.56580 49.70318 29.79417 68.38560
377 15.06290 62.74620 21.43020 11.57925 25.73764 5.809078
378 15.47800 69.26340 52.38540 17.95466 33.35393 26.54773
379 15.30920 91.61810 82.28560 36.39838 62.54584 70.38073
380 49.87330 95.70680 84.17690 48.88011 73.52689 74.59483
381 63.13800 100.0000 100.0000 64.89308 85.78983 108.5681
382 11.17690 27.22350 22.88960 3.128657 4.742938 4.846903
383 19.81310 30.42000 31.37160 5.311730 6.630473 8.742325
384 23.51750 44.93310 37.61660 9.261026 13.89817 12.86484
385 51.72210 63.98430 40.02690 23.67596 31.90147 15.54410
386 20.92150 87.22550 18.61470 22.93417 52.94508 6.648050
387 19.30050 86.95180 35.88150 24.05326 53.37194 14.41615
388 2.336400 0.000000 0.000000 0.165203 0.138798 0.130072
389 10.71230 19.68690 28.19750 2.768120 3.076337 6.925689
390 10.36360 35.51060 44.25040 6.560493 8.498518 17.47918
391 0.000000 25.42600 35.25780 3.508595 4.445894 10.76383
