Dell/U2718Q/U2718Q #2 2022-08-20 17-18 0.3127x 0.329y sRGB F-S XYZLUT+MTX/U2718Q #2 2022-08-20 17-18 0.3127x 0.329y sRGB F-S XYZLUT+MTX.ti1
CTI1   

DESCRIPTOR "Argyll Calibration Target chart information 1"
ORIGINATOR "Argyll targen"
CREATED "Sat Aug 20 17:25:38 2022"
APPROX_WHITE_POINT "93.857926 97.874590 108.321442"
COLOR_REP "RGB"
ACCURATE_EXPECTED_VALUES "true"
DARK_REGION_EMPHASIS "1.6"
WHITE_COLOR_PATCHES "4"
BLACK_COLOR_PATCHES "4"
SINGLE_DIM_STEPS "21"
COMP_GREY_STEPS "61"
OFPS_PATCHES "435"

NUMBER_OF_FIELDS 7
BEGIN_DATA_FORMAT
SAMPLE_ID RGB_R RGB_G RGB_B XYZ_X XYZ_Y XYZ_Z
END_DATA_FORMAT

NUMBER_OF_SETS 588
BEGIN_DATA
1 100.0000 100.0000 100.0000 93.85793 97.87459 108.3214
2 1.960800 1.960800 1.960800 1.142800 1.150200 1.163700
3 3.921600 3.921600 3.921600 1.285600 1.300500 1.327300
4 5.882400 5.882400 5.882400 1.449500 1.472900 1.515200
5 9.803900 9.803900 9.803900 1.914800 1.962400 2.048400
6 13.72600 13.72600 13.72600 2.581700 2.663900 2.812600
7 17.64700 17.64700 17.64700 3.469500 3.597900 3.830000
8 21.56900 21.56900 21.56900 4.595300 4.782200 5.120100
9 25.49000 25.49000 25.49000 5.974500 6.233200 6.700700
10 29.41200 29.41200 29.41200 7.621300 7.965600 8.587900
11 33.33300 33.33300 33.33300 9.548800 9.993300 10.79700
12 37.25500 37.25500 37.25500 11.76900 12.32900 13.34100
13 41.17600 41.17600 41.17600 14.29400 14.98500 16.23400
14 45.09800 45.09800 45.09800 17.13400 17.97300 19.48900
15 49.02000 49.02000 49.02000 20.29900 21.30300 23.11700
16 52.94100 52.94100 52.94100 23.80000 24.98600 27.12900
17 56.86300 56.86300 56.86300 27.64600 29.03200 31.53600
18 60.78400 60.78400 60.78400 31.84600 33.45000 36.34900
19 64.70600 64.70600 64.70600 36.40900 38.25000 41.57800
20 68.62700 68.62700 68.62700 41.34300 43.44000 47.23200
21 72.54900 72.54900 72.54900 46.65600 49.03000 53.32100
22 76.47100 76.47100 76.47100 52.35600 55.02700 59.85300
23 80.39200 80.39200 80.39200 58.45200 61.43900 66.83800
24 84.31400 84.31400 84.31400 64.94900 68.27500 74.28500
25 88.23500 88.23500 88.23500 71.85700 75.54100 82.20000
26 92.15700 92.15700 92.15700 79.18100 83.24600 90.59400
27 96.07800 96.07800 96.07800 86.92900 91.39700 99.47200
28 0.000000 0.000000 16.30430 0.517968 0.270691 2.324373
29 0.000000 0.000000 19.66290 0.693801 0.342355 3.236122
30 18.89600 0.000000 34.35100 3.086930 1.456080 9.615325
31 27.05250 0.000000 59.19420 8.348630 3.755120 30.16418
32 39.22210 0.000000 78.96060 16.37527 7.362581 57.13942
33 0.000000 43.57140 75.87360 15.62297 15.36535 53.72761
34 0.000000 58.07990 84.27350 23.00110 26.08520 68.75582
35 0.000000 61.40900 100.0000 30.31399 31.21067 100.2151
36 100.0000 28.88820 0.000000 43.89067 26.63074 2.465150
37 100.0000 70.51690 23.89170 58.22662 54.34483 10.92849
38 100.0000 74.40020 52.21840 63.78528 59.93689 29.73293
39 13.15790 0.000000 0.000000 0.744090 0.438000 0.221781
40 16.30430 0.000000 0.000000 1.013624 0.579687 0.232044
41 19.66290 0.000000 0.000000 1.371205 0.767658 0.245661
42 23.25580 0.000000 0.000000 1.914113 1.053051 0.266334
43 27.10840 0.000000 0.000000 2.597452 1.412264 0.292355
44 31.25000 0.000000 0.000000 3.369376 1.818045 0.321748
45 35.71430 0.000000 0.000000 4.472091 2.397714 0.363738
46 37.87990 0.000000 0.000000 5.062157 2.707896 0.386207
47 40.54050 0.000000 0.000000 5.794953 3.093108 0.414111
48 45.77470 0.000000 0.000000 7.389790 3.931473 0.474841
49 51.47060 0.000000 0.000000 9.564427 5.074624 0.557648
50 57.69230 0.000000 0.000000 12.24953 6.486112 0.659893
51 64.51610 0.000000 0.000000 15.62603 8.261055 0.788467
52 72.03390 0.000000 0.000000 19.95888 10.53872 0.953456
53 80.35710 0.000000 0.000000 25.46981 13.43568 1.163305
54 81.45190 100.0000 0.000000 59.86185 82.20389 11.13935
55 80.39330 100.0000 32.41380 60.76725 82.49053 19.42433
56 61.06840 100.0000 0.000000 47.56543 75.73998 10.67112
57 100.0000 100.0000 30.33970 76.62080 90.84926 18.94140
58 100.0000 100.0000 86.40530 88.60345 95.73302 81.07529
59 0.000000 13.15790 0.000000 0.641347 1.187195 0.355194
60 0.000000 16.30430 0.000000 0.876149 1.664101 0.424570
61 0.000000 19.66290 0.000000 1.194511 2.310725 0.518635
62 0.000000 23.25580 0.000000 1.632109 3.199531 0.647929
63 0.000000 27.10840 0.000000 2.169879 4.291795 0.806821
64 0.000000 31.25000 0.000000 2.836197 5.645154 1.003695
65 0.000000 35.71430 0.000000 3.714300 7.428667 1.263143
66 0.000000 40.54050 0.000000 4.829049 9.692831 1.592511
67 0.000000 45.77470 0.000000 6.243761 12.56625 2.010509
68 0.000000 51.47060 0.000000 8.058140 16.25144 2.546593
69 0.000000 57.69230 0.000000 10.22068 20.64376 3.185546
70 0.000000 64.51610 0.000000 13.07162 26.43432 4.027900
71 0.000000 72.03390 0.000000 16.69239 33.78846 5.097708
72 0.000000 80.35710 0.000000 21.28220 43.11081 6.453834
73 0.000000 89.62260 0.000000 27.09322 54.91356 8.170782
74 0.000000 100.0000 0.000000 33.77884 68.49272 10.14615
75 34.28220 100.0000 0.000000 37.76599 70.58866 10.29797
76 64.81260 100.0000 89.16240 63.88437 82.61401 85.57415
77 0.000000 0.000000 7.425700 0.217798 0.148351 0.767895
78 0.000000 0.000000 10.20410 0.288897 0.177329 1.136565
79 0.000000 0.000000 13.15790 0.388963 0.218113 1.655439
80 23.78610 0.000000 12.34190 2.260193 1.205322 1.571901
81 0.000000 0.000000 0.000000 0.107806 0.103522 0.197552
82 0.000000 0.000000 4.807700 0.170097 0.128910 0.520548
83 0.000000 0.000000 27.10840 1.212832 0.553897 5.927466
84 0.000000 0.000000 31.25000 1.590670 0.707892 7.886676
85 0.000000 0.000000 35.71430 2.062963 0.900384 10.33567
86 0.000000 0.000000 40.54050 2.655402 1.141844 13.40765
87 0.000000 0.000000 45.77470 3.398191 1.444583 17.25926
88 0.000000 0.000000 51.47060 4.348862 1.832047 22.18879
89 0.000000 0.000000 57.69230 5.543352 2.318885 28.38260
90 0.000000 0.000000 64.51610 7.096437 2.951876 36.43585
91 0.000000 0.000000 72.03390 9.006770 3.730469 46.34154
92 0.000000 0.000000 80.35710 11.48458 4.740349 59.18978
93 0.000000 0.000000 89.62260 14.72684 6.061795 76.00193
94 0.000000 0.000000 100.0000 18.73672 7.696103 96.79448
95 0.000000 34.75980 100.0000 22.14273 14.61405 97.80083
96 55.83250 57.95840 100.0000 40.22502 34.36400 100.2409
97 0.000000 2.336400 0.000000 0.165137 0.219965 0.214491
98 3.144700 3.144700 3.144700 0.313787 0.328289 0.415691
99 3.968300 3.968300 3.968300 0.376733 0.395273 0.486079
100 4.807700 4.807700 4.807700 0.446814 0.468920 0.564347
101 5.663400 5.663400 5.663400 0.519635 0.544921 0.646173
102 6.535900 6.535900 6.535900 0.605946 0.635428 0.741491
103 7.425700 7.425700 7.425700 0.697769 0.730502 0.842565
104 8.333300 8.333300 8.333300 0.807043 0.845365 0.965527
105 9.259300 9.259300 9.259300 0.925087 0.969162 1.099420
106 10.20410 10.20410 10.20410 1.061250 1.112440 1.256437
107 11.16840 11.16840 11.16840 1.208948 1.267471 1.426491
108 12.15280 12.15280 12.15280 1.376985 1.444736 1.623123
109 13.15790 13.15790 13.15790 1.558787 1.636264 1.837311
110 14.18440 14.18440 14.18440 1.753966 1.842753 2.067335
111 15.23300 15.23300 15.23300 1.964615 2.065822 2.316426
112 16.30430 16.30430 16.30430 2.192128 2.307436 2.585883
113 17.39930 17.39930 17.39930 2.444379 2.575718 2.887851
114 18.51850 18.51850 18.51850 2.722617 2.872444 3.221574
115 19.66290 19.66290 19.66290 3.043904 3.213695 3.605313
116 20.83330 20.83330 20.83330 3.402809 3.593202 4.024664
117 22.03070 22.03070 22.03070 3.809433 4.018475 4.483082
118 23.25580 23.25580 23.25580 4.258381 4.483253 4.968493
119 24.50980 24.50980 24.50980 4.740509 4.981579 5.486391
120 25.79360 25.79360 25.79360 5.248286 5.507613 6.036728
121 27.10840 27.10840 27.10840 5.764550 6.050913 6.631538
122 28.45530 28.45530 28.45530 6.315389 6.633055 7.283810
123 29.83540 29.83540 29.83540 6.910641 7.262451 8.007842
124 58.62820 41.67410 57.64400 23.13100 19.10100 30.28748
125 100.0000 100.0000 100.0000 93.85793 97.87459 108.3214
126 31.25000 31.25000 31.25000 7.580630 7.964047 8.817015
127 35.71430 35.71430 35.71430 10.03374 10.51972 11.56745
128 37.28070 37.28070 37.28070 10.98113 11.51380 12.60384
129 38.88890 38.88890 38.88890 11.99460 12.58225 13.75624
130 40.54050 40.54050 40.54050 13.06379 13.72074 15.01917
131 42.23740 42.23740 42.23740 14.19503 14.93359 16.35568
132 43.98150 43.98150 43.98150 15.42948 16.25774 17.78434
133 45.77470 45.77470 45.77470 16.81613 17.73526 19.34950
134 47.61910 47.61910 47.61910 18.36492 19.37297 21.06781
135 49.51690 49.51690 49.51690 20.02368 21.12294 22.92268
136 51.47060 51.47060 51.47060 21.75582 22.95106 24.89793
137 53.48260 53.48260 53.48260 23.59626 24.88759 27.00965
138 55.55560 55.55560 55.55560 25.60157 26.97895 29.30363
139 57.69230 57.69230 57.69230 27.79794 29.24171 31.83294
140 59.89580 59.89580 59.89580 30.18992 31.70943 34.62604
141 62.16930 62.16930 62.16930 32.78680 34.44789 37.67568
142 64.51610 64.51610 64.51610 35.57848 37.44020 40.85711
143 66.93990 66.93990 66.93990 38.56770 40.62641 44.08786
144 69.44440 69.44440 69.44440 41.83382 44.06375 47.74940
145 86.48170 100.0000 87.96510 77.35510 89.75085 83.66300
146 85.75850 100.0000 100.0000 81.47420 91.36478 107.8499
147 100.0000 100.0000 100.0000 93.85793 97.87459 108.3214
148 72.03390 72.03390 72.03390 45.44243 47.85060 51.99760
149 74.71260 74.71260 74.71260 49.38689 51.99947 56.49716
150 86.41970 86.41970 86.41970 67.99466 71.75318 78.06956
151 89.62260 89.62260 89.62260 73.85875 77.77042 85.19925
152 92.94870 92.94870 92.94870 80.21348 84.41351 92.89430
153 96.40520 96.40520 96.40520 87.23566 92.03736 100.5990
154 100.0000 25.52770 23.36250 44.22069 25.95772 6.608557
155 89.62260 0.000000 0.000000 32.25431 17.00211 1.421650
156 100.0000 0.000000 0.000000 41.55798 21.89281 1.775922
157 100.0000 81.57640 0.000000 63.42515 66.30721 8.236897
158 100.0000 100.0000 0.000000 75.22901 90.28201 11.72452
159 24.74910 42.21040 0.000000 7.323602 11.63904 1.796049
160 44.85520 56.33290 0.000000 16.69061 23.30070 3.304687
161 57.50660 100.0000 27.26910 46.95036 75.28463 16.40160
162 100.0000 100.0000 52.42430 79.64021 92.07988 34.59804
163 100.0000 100.0000 72.52190 84.26869 93.96631 58.59818
164 0.000000 100.0000 49.67570 37.70799 70.09412 30.52006
165 0.000000 100.0000 68.22290 41.62512 71.69063 50.83163
166 33.64420 100.0000 73.24510 46.85141 74.27243 58.24457
167 80.74850 100.0000 74.22790 68.93017 85.84498 60.55331
168 57.76380 49.39750 0.000000 19.55901 21.28096 2.810792
169 72.80250 50.26540 59.56320 33.84653 28.52608 33.50458
170 100.0000 28.30330 54.18980 48.53614 28.37657 26.99774
171 100.0000 49.89810 55.93250 54.07018 39.06869 30.28356
172 100.0000 65.66970 56.22180 60.18142 51.38655 32.37430
173 100.0000 47.78940 0.000000 48.31817 35.62344 3.773320
174 100.0000 65.11820 0.000000 54.79717 48.78292 5.687634
175 0.000000 75.23260 100.0000 37.04665 44.88537 102.2044
176 0.000000 86.97000 100.0000 44.04752 59.10483 104.2729
177 36.66060 86.98880 100.0000 48.68154 61.55996 104.4526
178 100.0000 87.44610 100.0000 85.80023 81.50861 105.9407
179 0.000000 0.000000 0.000000 0.107806 0.103522 0.197552
180 54.07270 0.000000 35.24310 12.52049 6.403700 10.46965
181 55.36300 0.000000 69.61230 19.38598 9.267766 43.19733
182 57.89910 23.70020 100.0000 32.56112 17.34764 97.72856
183 78.81400 59.54090 100.0000 53.89076 42.45315 100.9161
184 100.0000 71.01280 100.0000 76.24343 62.09780 103.1170
185 0.000000 0.000000 0.000000 0.107806 0.103522 0.197552
186 0.764500 0.764500 0.764500 0.132041 0.130417 0.222228
187 18.00640 9.058700 0.000000 1.473853 1.261137 0.324715
188 53.62410 19.77870 0.000000 11.52705 7.761367 0.915349
189 63.88300 39.38730 42.01290 22.48540 18.22674 16.32915
190 70.37480 38.13860 54.15400 27.82276 20.35529 26.66420
191 27.97120 40.74420 18.61370 8.045332 11.39779 4.430986
192 47.23620 50.40000 31.25890 17.01225 20.25710 10.43489
193 49.37320 74.00890 77.71840 36.95256 44.78032 60.50219
194 100.0000 0.000000 19.42670 42.12990 22.12591 4.741556
195 100.0000 0.000000 35.01760 43.43740 22.65880 11.52133
196 100.0000 0.000000 48.51700 45.29099 23.41427 21.13281
197 100.0000 0.000000 63.20280 48.24503 24.61825 36.45045
198 100.0000 0.000000 80.17230 52.87703 26.50611 60.46887
199 100.0000 27.02820 85.12030 56.52949 31.32352 69.38220
200 31.96210 27.40370 0.000000 5.633847 6.178224 0.949925
201 44.28980 28.82010 0.000000 9.206413 8.382035 1.141668
202 73.31750 36.92780 0.000000 24.64792 18.83130 2.128378
203 74.59340 59.23920 77.34680 42.75366 37.38480 58.35646
204 38.53720 0.000000 100.0000 23.87358 10.39641 96.99008
205 68.51460 0.000000 100.0000 36.48377 17.02527 97.47026
206 100.0000 0.000000 100.0000 60.18689 29.48539 98.37285
207 100.0000 30.63900 100.0000 62.80880 34.81074 99.14753
208 100.0000 41.25010 26.88020 47.54297 32.28427 8.859175
209 100.0000 51.05190 42.65760 52.20612 38.91649 18.78799
210 59.28030 38.74230 0.000000 17.30496 15.59697 1.955740
211 67.17230 47.13520 25.41160 24.60917 22.73350 7.831948
212 69.41190 60.03140 29.94790 30.73987 32.61972 11.16511
213 32.80450 23.60280 100.0000 23.92619 12.78847 97.39633
214 31.42790 42.19150 100.0000 27.17414 19.86649 98.43824
215 0.000000 32.30870 76.72750 13.29352 10.22304 54.27713
216 30.68160 52.96300 76.96010 22.03182 23.12364 56.39002
217 46.23780 69.24960 100.0000 41.35837 42.43472 101.5621
218 56.41940 80.15800 100.0000 51.34550 56.54632 103.4575
219 20.65240 33.40980 48.35250 8.339493 8.711984 20.39115
220 38.97830 71.49730 50.44100 25.73418 37.64242 26.27298
221 71.81400 77.35520 52.44150 43.73010 51.85831 29.59727
222 81.83270 67.16190 0.000000 40.62306 42.75236 5.390751
223 100.0000 81.97310 42.76710 66.50836 67.94105 23.08817
224 100.0000 83.20040 71.65580 73.17640 71.84449 54.09279
225 33.07110 14.36520 0.000000 4.409674 3.296556 0.520649
226 46.65820 25.97270 13.02750 9.884377 8.068930 2.480926
227 49.26270 28.39350 29.35310 12.26148 9.734947 7.920538
228 72.61900 31.44780 42.60500 25.92035 17.49882 16.44995
229 4.807700 0.000000 0.000000 0.255293 0.181052 0.203168
230 7.425700 0.000000 0.000000 0.368675 0.240654 0.207486
231 10.20410 0.000000 0.000000 0.528694 0.324772 0.213579
232 0.000000 4.807700 0.000000 0.237037 0.366002 0.235735
233 0.000000 7.425700 0.000000 0.326909 0.548541 0.262289
234 0.000000 10.20410 0.000000 0.459272 0.817383 0.301398
235 0.000000 100.0000 27.65390 34.92774 68.96098 16.10355
236 34.38210 100.0000 34.53760 39.61928 71.34706 19.77501
237 64.41480 100.0000 48.20230 52.92473 78.12254 29.81967
238 0.000000 16.42470 58.99690 6.603400 4.013947 30.07525
239 44.06520 21.24130 70.48880 16.53562 9.650314 44.65490
240 64.44260 23.31790 83.38580 29.46437 16.38472 65.24813
241 0.000000 0.000000 23.25580 0.927771 0.437715 4.449334
242 62.04790 0.000000 27.49450 15.51055 8.066191 6.630968
243 75.12340 0.000000 18.97650 22.51095 11.81584 3.859170
244 76.40140 0.000000 64.85750 29.89198 14.92568 37.70601
245 100.0000 52.59540 70.54390 58.34878 42.24911 48.14260
246 39.32640 0.000000 18.78080 5.995788 3.135559 3.172817
247 39.66400 0.000000 34.90850 7.420573 3.727081 10.08908
248 47.09400 14.58840 41.67510 11.20870 6.576405 14.68265
249 78.64520 42.00250 100.0000 48.05518 30.76999 99.22086
250 100.0000 52.65760 100.0000 68.53090 46.43289 100.8382
251 0.000000 10.94960 16.29390 0.909784 1.067257 2.437883
252 0.000000 30.30040 16.70270 3.099810 5.485197 3.175975
253 27.32850 60.36870 62.28410 20.25253 26.70773 37.14152
254 0.000000 39.48630 35.78630 6.534735 9.970079 11.69582
255 35.86700 46.87850 34.96970 12.86006 16.32999 11.99629
256 36.46690 50.60910 53.81980 17.01081 19.98220 26.83530
257 17.95200 20.57330 50.20090 6.384153 4.717192 21.43157
258 45.88720 25.56530 60.36790 15.29557 10.14669 32.26605
259 57.60490 58.63830 80.77520 34.18092 32.41011 63.42253
260 67.41610 72.84500 100.0000 52.86268 51.24718 102.4729
261 100.0000 100.0000 100.0000 93.85793 97.87459 108.3214
262 0.000000 0.000000 2.336400 0.133211 0.113876 0.329285
263 0.000000 16.65700 13.62280 1.204084 1.845065 1.982537
264 0.000000 73.69700 26.07580 18.60308 36.00636 10.67069
265 32.86520 100.0000 53.37270 41.99605 72.27093 34.05306
266 55.77540 100.0000 60.96430 51.19286 76.91895 42.53133
267 51.67260 59.11270 24.38600 21.18795 27.10316 8.371113
268 100.0000 63.97590 36.87700 56.35908 48.57022 16.34460
269 100.0000 69.36910 70.39220 65.21775 56.26992 49.96361
270 100.0000 78.36050 84.33960 74.27156 67.78479 73.34320
271 22.76100 29.18400 19.54870 4.786184 6.076614 3.969410
272 30.49560 37.30130 30.29360 8.557007 10.33451 8.677585
273 30.26190 61.36600 31.55620 16.24080 25.80617 11.58008
274 34.62120 78.60880 0.000000 24.37593 43.25976 6.319055
275 56.44570 78.87840 0.000000 32.00990 47.50022 6.648638
276 81.71600 82.58250 0.000000 48.82390 59.52371 7.833407
277 0.000000 14.59910 29.05270 2.014528 1.913312 6.974257
278 18.86350 19.94540 33.22540 4.082369 3.675861 9.331614
279 32.70040 32.70040 32.70040 8.332277 8.746186 9.688587
280 34.18800 34.18800 34.18800 9.150688 9.598075 10.60400
281 44.63120 35.98560 55.71870 15.69219 13.21877 27.63033
282 0.000000 45.73080 30.23050 7.611710 13.10258 9.167624
283 0.000000 59.37020 52.31240 15.24385 23.71719 26.14177
284 0.000000 79.91970 78.67060 31.89028 47.03729 62.65603
285 0.000000 100.0000 85.51650 46.83825 73.81534 77.86337
286 34.59530 100.0000 87.65550 51.68732 76.27216 82.06686
287 0.000000 26.04620 26.82020 3.099369 4.422749 6.373101
288 0.000000 31.32410 49.63600 6.771567 7.270253 21.34611
289 0.000000 43.21100 49.30060 9.380304 12.66192 21.83660
290 0.000000 48.12520 100.0000 25.60400 21.64422 98.82351
291 30.32160 57.42880 100.0000 31.82491 29.65441 99.87081
292 0.000000 24.81530 52.74980 6.313640 5.450939 23.88903
293 33.84400 29.00620 73.60160 15.68555 10.72747 49.52905
294 77.48540 77.48540 77.48540 53.61901 56.44980 61.26953
295 80.35710 80.35710 80.35710 58.02098 61.07979 66.41182
296 83.33330 83.33330 83.33330 62.68043 66.03362 71.92767
297 28.26550 39.23770 42.93730 10.07825 11.63556 16.50769
298 33.76020 41.31430 81.27960 20.54384 16.86634 62.29688
299 56.20970 42.20050 100.0000 35.32685 24.15565 98.74928
300 31.80140 0.000000 45.48830 6.737662 3.205240 17.16054
301 74.61470 0.000000 48.45430 25.34848 12.93225 20.31956
302 1.543200 1.543200 1.543200 0.188012 0.192328 0.278883
303 2.336400 2.336400 2.336400 0.253289 0.263304 0.348614
304 0.000000 50.78730 21.03700 8.505363 16.07007 5.960827
305 0.000000 62.90500 39.49550 14.74941 25.93141 16.30201
306 0.000000 78.50780 63.33090 26.96049 43.74006 40.97272
307 0.000000 100.0000 100.0000 52.40776 76.08530 106.7431
308 36.07460 100.0000 100.0000 56.86859 78.43025 106.9129
309 70.57460 18.02280 10.98900 20.19157 12.02197 2.251675
310 71.17280 26.68270 27.97970 22.60641 14.80292 7.622748
311 85.38460 37.32850 33.40650 34.56272 23.97632 11.32285
312 86.74810 51.41210 46.91000 41.32813 33.30174 21.66419
313 88.49350 66.56360 55.87470 50.29419 46.82059 31.74467
314 88.46250 74.28090 70.19840 57.45992 56.04198 50.04516
315 90.99020 95.81470 88.71870 79.17999 87.46847 84.69514
316 11.65950 13.75210 0.000000 1.203858 1.545430 0.387306
317 22.61900 18.69170 0.000000 2.787885 2.994578 0.553022
318 33.17390 23.35670 9.877700 5.524729 5.245668 1.681683
319 51.73140 43.01570 27.10980 16.12676 16.45514 7.874215
320 80.27780 70.40530 54.93470 46.04436 47.38238 31.10946
321 84.50910 70.10480 75.65960 53.80544 50.63715 57.45540
322 89.31400 81.68580 89.36930 68.44644 67.32889 83.16089
323 15.20630 8.212700 45.31890 4.389226 2.355411 17.00408
324 18.08690 54.84100 45.16860 13.47894 20.44010 19.50736
325 43.35920 60.03150 45.06470 20.79048 27.17370 20.19864
326 89.41230 52.47130 12.17970 40.60708 33.83153 5.133376
327 100.0000 52.73310 21.95430 50.65909 39.18997 8.043408
328 62.86220 85.59570 42.02670 41.91255 58.46327 22.21209
329 70.07780 89.02190 57.09710 50.69749 66.13876 36.31158
330 86.44990 90.33270 56.43500 62.30644 73.48486 36.26569
331 16.47530 20.21910 11.66790 2.404606 3.012147 1.750538
332 17.11940 32.00930 16.25240 4.366050 6.609308 3.196898
333 34.13690 33.49780 19.84980 7.806553 8.825130 4.375526
334 48.88240 38.50920 34.29310 14.59403 13.87702 11.11118
335 4.607000 12.86060 12.43080 1.015411 1.323261 1.673223
336 22.09410 18.06650 25.83820 3.647039 3.236412 5.748562
337 52.91010 28.09910 53.88830 17.02646 11.77234 25.49738
338 72.27020 46.70970 68.39750 34.41663 26.87187 43.76706
339 71.41340 73.22130 81.22250 48.44118 50.05070 66.43180
340 71.27880 82.56400 92.39700 57.68056 62.30431 89.17070
341 83.37220 87.74810 100.0000 71.90034 74.48885 105.4605
342 0.000000 0.000000 0.000000 0.107806 0.103522 0.197552
343 22.96120 48.66490 49.58920 12.81573 16.91818 22.64118
344 32.67130 68.51910 58.60640 24.14993 34.39095 33.91978
345 32.97730 72.94000 73.99340 30.29704 40.54343 54.45906
346 78.93760 82.02590 73.55670 56.00103 61.69826 56.08799
347 91.36890 85.60890 74.51500 67.69750 71.22016 58.54122
348 100.0000 88.66010 85.67850 81.06146 80.83312 77.58610
349 82.32710 47.47570 53.19080 37.97614 29.49940 26.77622
350 85.37840 74.77350 100.0000 65.57495 59.50141 103.2257
351 41.70330 6.255500 61.16950 12.50387 6.151924 32.68095
352 60.66870 12.90410 64.09630 21.10403 11.10380 36.60155
353 65.78500 35.71460 66.99440 27.46591 19.02256 41.03569
354 22.58180 59.36660 39.32500 14.92692 23.78519 15.81066
355 25.67860 80.48440 74.82010 33.29934 48.38954 56.87288
356 0.000000 13.70720 40.01790 3.157384 2.274978 13.21395
357 11.56340 22.79250 42.41150 4.886687 4.487789 15.17625
358 26.98390 27.11680 46.06180 7.973946 6.950875 18.19239
359 86.20760 43.19030 65.12400 42.04274 29.43806 39.86665
360 100.0000 49.85290 83.64960 61.41230 42.03730 68.42652
361 77.14930 0.000000 84.80280 36.14634 17.53464 67.52738
362 82.38170 20.56730 100.0000 46.61791 24.14053 98.16186
363 28.06240 9.645700 34.86450 4.948385 2.912038 10.05317
364 30.50640 27.88250 37.80980 7.591153 7.055890 12.34806
365 33.20690 38.07990 48.80460 11.73714 11.99098 21.16671
366 45.47270 46.51050 64.31700 20.58538 19.62033 38.34787
367 58.61050 61.01320 72.11140 33.02269 33.52837 50.30939
368 21.53870 46.69480 29.19630 9.329835 14.45760 8.806863
369 37.24840 52.84410 30.60270 14.71445 20.26981 10.21519
370 75.09540 53.78740 40.00300 33.14874 30.31693 16.44460
371 43.39420 16.44700 25.90940 8.400687 5.517239 5.920118
372 45.39650 20.54340 35.51890 10.37697 7.057133 10.84744
373 56.95820 24.23120 37.01220 15.66035 10.52394 12.02949
374 73.39030 23.64090 52.07430 26.74812 15.96629 24.00028
375 81.76170 33.57470 68.16080 37.39247 23.54614 42.74193
376 85.55380 41.27480 82.56580 46.00212 30.18561 65.37546
377 15.06290 62.74620 21.43020 13.76133 25.50755 7.434826
378 15.47800 69.26340 52.38540 20.52632 33.17401 27.55264
379 15.30920 91.61810 82.28560 41.22002 62.91520 70.75385
380 49.87330 95.70680 84.17690 53.00838 73.77831 75.18996
381 63.13800 100.0000 100.0000 67.21880 83.87109 107.3071
382 11.17690 27.22350 22.88960 3.467857 4.905772 4.951608
383 19.81310 30.42000 31.37160 5.469003 6.635546 8.762683
384 23.51750 44.93310 37.61660 10.02099 13.92132 13.27447
385 51.72210 63.98430 40.02690 24.86183 31.97219 17.17328
386 20.92150 87.22550 18.61470 27.53881 52.81225 10.50229
387 19.30050 86.95180 35.88150 28.59933 52.93264 17.95259
388 2.336400 0.000000 0.000000 0.170554 0.136507 0.199941
389 10.71230 19.68690 28.19750 2.846571 3.041994 6.732721
390 10.36360 35.51060 44.25040 7.163782 8.815207 17.14086
391 0.000000 25.42600 35.25780 3.834130 4.578549 10.61577
392 15.83750 25.37290 67.70500 10.50573 7.387518 40.80332
393 17.14150 40.41900 75.82830 15.78108 14.22391 53.45537
394 27.29200 72.36420 100.0000 38.01628 43.05865 101.8419
395 0.000000 47.95810 64.79650 13.97484 16.81796 38.78328
396 44.44840 56.02040 71.54440 25.19948 26.57173 48.67027
397 46.28160 66.66230 77.84080 32.11839 36.68147 59.56045
398 39.74200 69.22580 88.89280 35.06192 39.61594 79.15492
399 49.67500 81.60940 90.95270 45.91483 55.34125 85.60101
