Dell/U2718Q/U2718Q #2 2022-08-20 17-18 0.3127x 0.329y sRGB F-S XYZLUT+MTX/U2718Q #2 2022-08-20 17-18 0.3127x 0.329y sRGB F-S XYZLUT+MTX.cal
CAL    

DESCRIPTOR "Argyll Device Calibration Curves"
ORIGINATOR "Argyll dispcal"
CREATED "Sat Aug 20 17:24:43 2022"
DEVICE_CLASS "DISPLAY"
COLOR_REP "RGB"
VIDEO_LUT_CALIBRATION_POSSIBLE "YES"
TV_OUTPUT_ENCODING "NO"
DEVICE_TYPE "n"
TARGET_WHITE_XYZ "51.883968 54.588505 59.450034"
TARGET_GAMMA "sRGB"
DEGREE_OF_BLACK_OUTPUT_OFFSET "1.0"
BLACK_POINT_CORRECTION "0.0"
BLACK_NEUTRAL_BLEND_RATE "4.0"
BLACK_POINT_HACK "YES"
QUALITY "low"

BEGIN_ARGYLL_DISPCAL_ARGS
-v2 -d2 -c1 -yn -P0.467439073112,0.404617253949,2.11885895404 -ql -m -w0.3127,0.329 -gs -f1.0 -k0 -A4.0 -b
END_ARGYLL_DISPCAL_ARGS


NUMBER_OF_FIELDS 4
BEGIN_DATA_FORMAT
RGB_I RGB_R RGB_G RGB_B
END_DATA_FORMAT

NUMBER_OF_SETS 256
BEGIN_DATA
0.00000000 0.00000000 0.00000000 0.00000000
0.00392157 0.00532723 0.00512415 0.00478728
0.00784314 0.01057330 0.01016070 0.00948013
0.01176470 0.01574010 0.01511200 0.01408130
0.01568630 0.02082930 0.01998010 0.01859350
0.01960780 0.02584280 0.02476700 0.02301930
0.02352940 0.03078210 0.02947490 0.02736110
0.02745100 0.03564910 0.03410560 0.03162130
0.03137250 0.04044440 0.03866240 0.03579980
0.03529410 0.04518350 0.04315270 0.03990770
0.03921570 0.04985600 0.04757850 0.04396650
0.04313730 0.05446530 0.05194020 0.04797290
0.04705880 0.05901980 0.05624650 0.05193560
0.05098040 0.06352690 0.06049820 0.05586210
0.05490200 0.06800710 0.06469970 0.05975460
0.05882350 0.07247960 0.06886430 0.06362850
0.06274510 0.07695240 0.07299660 0.06749120
0.06666670 0.08141250 0.07709090 0.07133990
0.07058820 0.08583790 0.08113970 0.07517090
0.07450980 0.09023530 0.08514370 0.07897900
0.07843140 0.09460490 0.08910310 0.08275120
0.08235290 0.09893240 0.09302070 0.08648350
0.08627450 0.10321600 0.09689910 0.09018390
0.09019610 0.10745200 0.10074000 0.09385460
0.09411760 0.11163100 0.10454100 0.09748970
0.09803920 0.11575500 0.10830100 0.10108200
0.10196100 0.11983100 0.11201800 0.10463200
0.10588200 0.12386700 0.11569500 0.10814600
0.10980400 0.12786200 0.11933600 0.11163500
0.11372500 0.13179600 0.12293800 0.11510700
0.11764700 0.13565900 0.12649700 0.11856300
0.12156900 0.13944400 0.13001200 0.12201100
0.12549000 0.14315400 0.13347700 0.12545200
0.12941200 0.14679800 0.13689100 0.12888600
0.13333300 0.15039300 0.14025900 0.13231500
0.13725500 0.15394100 0.14359600 0.13573300
0.14117600 0.15744200 0.14690200 0.13914500
0.14509800 0.16089600 0.15017900 0.14255300
0.14902000 0.16430200 0.15343200 0.14596000
0.15294100 0.16765800 0.15666300 0.14936100
0.15686300 0.17097900 0.15987400 0.15275200
0.16078400 0.17426900 0.16307100 0.15613000
0.16470600 0.17753300 0.16625900 0.15949700
0.16862700 0.18077900 0.16943900 0.16285200
0.17254900 0.18400700 0.17260900 0.16619400
0.17647100 0.18722300 0.17576800 0.16952800
0.18039200 0.19043200 0.17891700 0.17286000
0.18431400 0.19364100 0.18205700 0.17619600
0.18823500 0.19685600 0.18519400 0.17954000
0.19215700 0.20008700 0.18833000 0.18290500
0.19607800 0.20335400 0.19146700 0.18629400
0.20000000 0.20666500 0.19461300 0.18970900
0.20392200 0.21001900 0.19777000 0.19315100
0.20784300 0.21340900 0.20093700 0.19662200
0.21176500 0.21683200 0.20411600 0.20012200
0.21568600 0.22028800 0.20730100 0.20365200
0.21960800 0.22377200 0.21049300 0.20721000
0.22352900 0.22728300 0.21369300 0.21079100
0.22745100 0.23082300 0.21690100 0.21438800
0.23137300 0.23438700 0.22011900 0.21799500
0.23529400 0.23796500 0.22334400 0.22160500
0.23921600 0.24155500 0.22657200 0.22521200
0.24313700 0.24514700 0.22980200 0.22881100
0.24705900 0.24874900 0.23303400 0.23240300
0.25098000 0.25236600 0.23626900 0.23598800
0.25490200 0.25598900 0.23951500 0.23956400
0.25882400 0.25961800 0.24277900 0.24311300
0.26274500 0.26325300 0.24606000 0.24663000
0.26666700 0.26690600 0.24935800 0.25011900
0.27058800 0.27057400 0.25267500 0.25358700
0.27451000 0.27425600 0.25601200 0.25704300
0.27843100 0.27794400 0.25936900 0.26049700
0.28235300 0.28163200 0.26274300 0.26395500
0.28627500 0.28532700 0.26613600 0.26741600
0.29019600 0.28903100 0.26954700 0.27088300
0.29411800 0.29273200 0.27297800 0.27435300
0.29803900 0.29642100 0.27642500 0.27781600
0.30196100 0.30010000 0.27987400 0.28127900
0.30588200 0.30376700 0.28332300 0.28474400
0.30980400 0.30741500 0.28676800 0.28820400
0.31372500 0.31103800 0.29020800 0.29165400
0.31764700 0.31463400 0.29364200 0.29508400
0.32156900 0.31821500 0.29707100 0.29849300
0.32549000 0.32177800 0.30049900 0.30189100
0.32941200 0.32531600 0.30392900 0.30527100
0.33333300 0.32882700 0.30736300 0.30862700
0.33725500 0.33231900 0.31079600 0.31195900
0.34117600 0.33579900 0.31422900 0.31526700
0.34509800 0.33928700 0.31766400 0.31856200
0.34902000 0.34278300 0.32111000 0.32185000
0.35294100 0.34628700 0.32456800 0.32513100
0.35686300 0.34980500 0.32803400 0.32840500
0.36078400 0.35335000 0.33150500 0.33167500
0.36470600 0.35692100 0.33498400 0.33494800
0.36862700 0.36051600 0.33846900 0.33822700
0.37254900 0.36414700 0.34196500 0.34150800
0.37647100 0.36782400 0.34547400 0.34479500
0.38039200 0.37155300 0.34899500 0.34809200
0.38431400 0.37533800 0.35252800 0.35140200
0.38823500 0.37916600 0.35607500 0.35472500
0.39215700 0.38302700 0.35963900 0.35806500
0.39607800 0.38691700 0.36321600 0.36142500
0.40000000 0.39082400 0.36680100 0.36480400
0.40392200 0.39474000 0.37039400 0.36820000
0.40784300 0.39865600 0.37399100 0.37161000
0.41176500 0.40256600 0.37758800 0.37503100
0.41568600 0.40644000 0.38118500 0.37846500
0.41960800 0.41027000 0.38478500 0.38190900
0.42352900 0.41406100 0.38837800 0.38535800
0.42745100 0.41781900 0.39195100 0.38881400
0.43137300 0.42155200 0.39550000 0.39227100
0.43529400 0.42525800 0.39902500 0.39573000
0.43921600 0.42894400 0.40252400 0.39918100
0.44313700 0.43262400 0.40599700 0.40261900
0.44705900 0.43631000 0.40944200 0.40604900
0.45098000 0.44001200 0.41286000 0.40947500
0.45490200 0.44374800 0.41625700 0.41290100
0.45882400 0.44752600 0.41964600 0.41632600
0.46274500 0.45134500 0.42302700 0.41976500
0.46666700 0.45520600 0.42640600 0.42322300
0.47058800 0.45909800 0.42978100 0.42669300
0.47451000 0.46300500 0.43315600 0.43017900
0.47843100 0.46691900 0.43653300 0.43368900
0.48235300 0.47084300 0.43991200 0.43723000
0.48627500 0.47477800 0.44329600 0.44080000
0.49019600 0.47872500 0.44668600 0.44439500
0.49411800 0.48267800 0.45008500 0.44801700
0.49803900 0.48662400 0.45350100 0.45166500
0.50196100 0.49056100 0.45693800 0.45533800
0.50588200 0.49449000 0.46040000 0.45902800
0.50980400 0.49841000 0.46389100 0.46272900
0.51372500 0.50233400 0.46741200 0.46644300
0.51764700 0.50626800 0.47096500 0.47016800
0.52156900 0.51020300 0.47455000 0.47390700
0.52549000 0.51413900 0.47817500 0.47764500
0.52941200 0.51807600 0.48184600 0.48134700
0.53333300 0.52201600 0.48555500 0.48501400
0.53725500 0.52597300 0.48929800 0.48864700
0.54117600 0.52995200 0.49307600 0.49224500
0.54509800 0.53395400 0.49688900 0.49581300
0.54902000 0.53797300 0.50073700 0.49936000
0.55294100 0.54199200 0.50462000 0.50288800
0.55686300 0.54599100 0.50853300 0.50639700
0.56078400 0.54996800 0.51247200 0.50989700
0.56470600 0.55393000 0.51643000 0.51339000
0.56862700 0.55787900 0.52039800 0.51687900
0.57254900 0.56181700 0.52436800 0.52037200
0.57647100 0.56573800 0.52833900 0.52387400
0.58039200 0.56964800 0.53231300 0.52739000
0.58431400 0.57354000 0.53629200 0.53093100
0.58823500 0.57740200 0.54027400 0.53449800
0.59215700 0.58123900 0.54426200 0.53809900
0.59607800 0.58506100 0.54826100 0.54173200
0.60000000 0.58887300 0.55226800 0.54538600
0.60392200 0.59267200 0.55626100 0.54905400
0.60784300 0.59645900 0.56024300 0.55274800
0.61176500 0.60023600 0.56421900 0.55646300
0.61568600 0.60402600 0.56818900 0.56019200
0.61960800 0.60785100 0.57215600 0.56393000
0.62352900 0.61171300 0.57611500 0.56766800
0.62745100 0.61561700 0.58007300 0.57140900
0.63137300 0.61956400 0.58404000 0.57515300
0.63529400 0.62355000 0.58801700 0.57890200
0.63921600 0.62757300 0.59200300 0.58266200
0.64313700 0.63161200 0.59600100 0.58642400
0.64705900 0.63566200 0.60001200 0.59018100
0.65098000 0.63971300 0.60403300 0.59393500
0.65490200 0.64374700 0.60805500 0.59769200
0.65882400 0.64775700 0.61207800 0.60145200
0.66274500 0.65174800 0.61609800 0.60521000
0.66666700 0.65572400 0.62011800 0.60897000
0.67058800 0.65968500 0.62413800 0.61272500
0.67451000 0.66363400 0.62815500 0.61647600
0.67843100 0.66757000 0.63217300 0.62022900
0.68235300 0.67149500 0.63619400 0.62399000
0.68627500 0.67539800 0.64022000 0.62776400
0.69019600 0.67927500 0.64424800 0.63155300
0.69411800 0.68312700 0.64826000 0.63534700
0.69803900 0.68696600 0.65223800 0.63913000
0.70196100 0.69080200 0.65618100 0.64290000
0.70588200 0.69464400 0.66009000 0.64666000
0.70980400 0.69848100 0.66397100 0.65041300
0.71372500 0.70231700 0.66782800 0.65416300
0.71764700 0.70614900 0.67165600 0.65792400
0.72156900 0.70997300 0.67545100 0.66169300
0.72549000 0.71377600 0.67921500 0.66547200
0.72941200 0.71756100 0.68295200 0.66925300
0.73333300 0.72134700 0.68666400 0.67303300
0.73725500 0.72512600 0.69035800 0.67681700
0.74117600 0.72889500 0.69405000 0.68061300
0.74509800 0.73266200 0.69773800 0.68442300
0.74902000 0.73644100 0.70142400 0.68824100
0.75294100 0.74024100 0.70510800 0.69206900
0.75686300 0.74405200 0.70879600 0.69591800
0.76078400 0.74787000 0.71249200 0.69979500
0.76470600 0.75170700 0.71619300 0.70369600
0.76862700 0.75556000 0.71989800 0.70761500
0.77254900 0.75942600 0.72361600 0.71155100
0.77647100 0.76330700 0.72736000 0.71548500
0.78039200 0.76721400 0.73112800 0.71940700
0.78431400 0.77115100 0.73492100 0.72331900
0.78823500 0.77511900 0.73874100 0.72722000
0.79215700 0.77912100 0.74258700 0.73110700
0.79607800 0.78316100 0.74646200 0.73496300
0.80000000 0.78724600 0.75036500 0.73877900
0.80392200 0.79138600 0.75429600 0.74256900
0.80784300 0.79558400 0.75825300 0.74634000
0.81176500 0.79983200 0.76223700 0.75009100
0.81568600 0.80410400 0.76625400 0.75383000
0.81960800 0.80837600 0.77030200 0.75756600
0.82352900 0.81265500 0.77435900 0.76129700
0.82745100 0.81695500 0.77841500 0.76501600
0.83137300 0.82128400 0.78247100 0.76872800
0.83529400 0.82562000 0.78653200 0.77244600
0.83921600 0.82994700 0.79059900 0.77618400
0.84313700 0.83425500 0.79467400 0.77994900
0.84705900 0.83856100 0.79876200 0.78374600
0.85098000 0.84288000 0.80286500 0.78756700
0.85490200 0.84721700 0.80699700 0.79141100
0.85882400 0.85155800 0.81115900 0.79527800
0.86274500 0.85589300 0.81534700 0.79916800
0.86666700 0.86022300 0.81955100 0.80308500
0.87058800 0.86453100 0.82377300 0.80702500
0.87451000 0.86882000 0.82800700 0.81099500
0.87843100 0.87310800 0.83223200 0.81499400
0.88235300 0.87740400 0.83644800 0.81900800
0.88627500 0.88168300 0.84066500 0.82303400
0.89019600 0.88593300 0.84488000 0.82707000
0.89411800 0.89016500 0.84908300 0.83112300
0.89803900 0.89438400 0.85327300 0.83520100
0.90196100 0.89858600 0.85745000 0.83929900
0.90588200 0.90277400 0.86161900 0.84342600
0.90980400 0.90694300 0.86578400 0.84757700
0.91372500 0.91109300 0.86994800 0.85175300
0.91764700 0.91523300 0.87411000 0.85595200
0.92156900 0.91935600 0.87827000 0.86016500
0.92549000 0.92347000 0.88242700 0.86439900
0.92941200 0.92758100 0.88658500 0.86866100
0.93333300 0.93169000 0.89074300 0.87294000
0.93725500 0.93579800 0.89490800 0.87723000
0.94117600 0.93989600 0.89908200 0.88151700
0.94509800 0.94399300 0.90325500 0.88580100
0.94902000 0.94808600 0.90743100 0.89009300
0.95294100 0.95217100 0.91161400 0.89441400
0.95686300 0.95624700 0.91580100 0.89876400
0.96078400 0.96032200 0.91999200 0.90313500
0.96470600 0.96439000 0.92418700 0.90752700
0.96862700 0.96845100 0.92838500 0.91193400
0.97254900 0.97250300 0.93258600 0.91636500
0.97647100 0.97654700 0.93679000 0.92081700
0.98039200 0.98058100 0.94099600 0.92528700
0.98431400 0.98460700 0.94520400 0.92977300
0.98823500 0.98862500 0.94941500 0.93427600
0.99215700 0.99263400 0.95362800 0.93879600
0.99607800 0.99663400 0.95784400 0.94333300
1.00000000 1.00000000 0.96206200 0.94788700
END_DATA
CAL    

DESCRIPTOR "Argyll Calibration options and model"
ORIGINATOR "Argyll dispcal"
CREATED "Sat Aug 20 17:24:43 202"

NUMBER_OF_FIELDS 3
BEGIN_DATA_FORMAT
R_P G_P B_P
END_DATA_FORMAT

NUMBER_OF_SETS 32
BEGIN_DATA
0.0000499021 0.0004973600 0.0011318800
0.9999500000 0.9995030000 0.9988680000
1.5723350000 1.4683950000 1.4406730000
0.4767820000 0.5101810000 0.5816170000
0.1154630000 0.0878627000 0.1383990000
0.1265350000 0.1149970000 0.1214230000
0.1134300000 0.1205010000 0.0897013000
0.1119750000 0.1140300000 0.0570936000
0.0650282000 0.0597002000 0.0657357000
0.0579366000 0.0418631000 0.0983743000
0.0450635000 0.0553654000 0.0566773000
0.0394296000 0.0498261000 0.0547375000
0.0382416000 0.0523922000 0.0375326000
0.0365480000 0.0466710000 0.0351815000
0.0310262000 0.0407977000 0.0341915000
0.0366558000 0.0452792000 0.0345950000
0.0291275000 0.0433044000 0.0278232000
0.0255399000 0.0413590000 0.0300747000
0.0266498000 0.0378685000 0.0190856000
0.0242298000 0.0320061000 0.0259941000
0.0241464000 0.0237720000 0.0250154000
0.0213761000 0.0256769000 0.0239291000
0.0193249000 0.0261807000 0.0194580000
0.0182557000 0.0271751000 0.0142132000
0.0162078000 0.0291332000 0.0180118000
0.0147864000 0.0278701000 0.0189153000
0.0140873000 0.0246855000 0.0154589000
0.0130924000 0.0250657000 0.0168997000
0.0124278000 0.0252606000 0.0193518000
0.0116805000 0.0226231000 0.0177756000
0.0106707000 0.0208040000 0.0172171000
0.0103042000 0.0177747000 0.0174806000
END_DATA
