Dell/U2718Q/U2718Q #2 2022-08-20 17-18 0.3127x 0.329y sRGB F-S XYZLUT+MTX/U2718Q #2 2022-08-20 17-18 0.3127x 0.329y sRGB F-S XYZLUT+MTX.ti3
CTI3   

DESCRIPTOR "Argyll Calibration Target chart information 3"
ORIGINATOR "Argyll dispread"
CREATED "Sat Aug 20 17:25:47 2022"
DEVICE_CLASS "DISPLAY"
SINGLE_DIM_STEPS "21"
COMP_GREY_STEPS "61"
DARK_REGION_EMPHASIS "1.6"
COLOR_REP "RGB_XYZ"
TARGET_INSTRUMENT "X-Rite i1 DisplayPro, ColorMunki Display"
DISPLAY_TYPE_REFRESH "NO"
DISPLAY_TYPE_BASE_ID "1"
INSTRUMENT_TYPE_SPECTRAL "NO"
LUMINANCE_XYZ_CDM2 "51.788077 54.610033 59.134826"
NORMALIZED_TO_Y_100 "YES"
VIDEO_LUT_CALIBRATION_POSSIBLE "YES"

BEGIN_ARGYLL_COLPROF_ARGS
-v -qh -aX -bn -C "No copyright. Created with DisplayCAL 3.8.9.3 and ArgyllCMS 2.1.2" -M "DELL U2718Q" -A "Dell, Inc."
END_ARGYLL_COLPROF_ARGS

OBSERVER "1931_2"
USE_BLACK_POINT_COMPENSATION "NO"
BLACK_POINT_CORRECTION "0.0"
HIRES_B2A "YES"
HIRES_B2A_SIZE "-1"
SMOOTH_B2A "YES"
PATCH_SEQUENCE "OPTIMIZE_DISPLAY_RESPONSE_DELAY"

NUMBER_OF_FIELDS 7
BEGIN_DATA_FORMAT
SAMPLE_ID RGB_R RGB_G RGB_B XYZ_X XYZ_Y XYZ_Z
END_DATA_FORMAT

NUMBER_OF_SETS 588
BEGIN_DATA
1 100.0000 100.0000 100.0000 94.83253 100.0000 108.2856
2 1.960800 1.960800 1.960800 0.227814 0.236048 0.321288
3 3.921600 3.921600 3.921600 0.358165 0.376242 0.470811
4 5.882400 5.882400 5.882400 0.526004 0.549363 0.651006
5 9.803900 9.803900 9.803900 0.978720 1.025085 1.153749
6 13.72600 13.72600 13.72600 1.675791 1.759221 1.976305
7 17.64700 17.64700 17.64700 2.468430 2.600742 2.907681
8 21.56900 21.56900 21.56900 3.622134 3.835644 4.323402
9 25.49000 25.49000 25.49000 5.185750 5.426825 5.906662
10 29.41200 29.41200 29.41200 6.674471 7.024156 7.731016
11 33.33300 33.33300 33.33300 8.671824 9.096579 10.13049
12 37.25500 37.25500 37.25500 10.97695 11.50265 12.53424
13 41.17600 41.17600 41.17600 13.50865 14.18743 15.55651
14 45.09800 45.09800 45.09800 16.18523 17.08347 18.69138
15 49.02000 49.02000 49.02000 19.66482 20.73747 22.46606
16 52.94100 52.94100 52.94100 23.07143 24.34903 26.42943
17 56.86300 56.86300 56.86300 26.91642 28.35509 30.78385
18 60.78400 60.78400 60.78400 31.18657 32.69613 35.79142
19 64.70600 64.70600 64.70600 35.83223 37.73295 41.26477
20 68.62700 68.62700 68.62700 40.70592 42.89063 46.26947
21 72.54900 72.54900 72.54900 46.17094 48.60733 52.97285
22 76.47100 76.47100 76.47100 52.09349 54.85723 59.47325
23 80.39200 80.39200 80.39200 58.19443 61.24787 66.54229
24 84.31400 84.31400 84.31400 64.16226 67.57746 73.75562
25 88.23500 88.23500 88.23500 71.37091 75.46715 81.78188
26 92.15700 92.15700 92.15700 78.63143 82.47044 91.18444
27 96.07800 96.07800 96.07800 86.55681 91.38486 99.91295
28 0.000000 0.000000 16.30430 0.494726 0.264768 2.201711
29 0.000000 0.000000 19.66290 0.668260 0.336739 3.100245
30 18.89600 0.000000 34.35100 3.114586 1.465688 9.824274
31 27.05250 0.000000 59.19420 8.228826 3.706130 29.95905
32 39.22210 0.000000 78.96060 16.07035 7.221086 57.37456
33 0.000000 43.57140 75.87360 15.75331 15.63132 54.21207
34 0.000000 58.07990 84.27350 22.82614 25.94761 68.87075
35 0.000000 61.40900 100.0000 30.63103 31.53694 101.8531
36 100.0000 28.88820 0.000000 44.60041 27.43804 2.538556
37 100.0000 70.51690 23.89170 58.89482 54.84741 11.79786
38 100.0000 74.40020 52.21840 64.20786 60.34778 30.04117
39 13.15790 0.000000 0.000000 0.774421 0.469867 0.256724
40 16.30430 0.000000 0.000000 1.059559 0.615837 0.260357
41 19.66290 0.000000 0.000000 1.416280 0.801801 0.267865
42 23.25580 0.000000 0.000000 1.954604 1.082807 0.283583
43 27.10840 0.000000 0.000000 2.631711 1.436970 0.300709
44 31.25000 0.000000 0.000000 3.422544 1.849758 0.326337
45 35.71430 0.000000 0.000000 4.363865 2.345101 0.354467
46 37.87990 0.000000 0.000000 5.027847 2.692237 0.385318
47 40.54050 0.000000 0.000000 5.732722 3.058091 0.399975
48 45.77470 0.000000 0.000000 7.485575 3.971104 0.443345
49 51.47060 0.000000 0.000000 9.625126 5.090297 0.513576
50 57.69230 0.000000 0.000000 12.11591 6.397795 0.602344
51 64.51610 0.000000 0.000000 15.84462 8.345115 0.719917
52 72.03390 0.000000 0.000000 20.04492 10.54960 0.865137
53 80.35710 0.000000 0.000000 25.43389 13.38499 1.069773
54 81.45190 100.0000 0.000000 61.13774 84.67853 11.70946
55 80.39330 100.0000 32.41380 62.28079 84.99316 21.13668
56 61.06840 100.0000 0.000000 49.21061 78.46636 11.28298
57 100.0000 100.0000 30.33970 77.99907 93.17294 20.59325
58 100.0000 100.0000 86.40530 89.82716 97.97603 81.87977
59 0.000000 13.15790 0.000000 0.666348 1.215812 0.375602
60 0.000000 16.30430 0.000000 0.909840 1.722116 0.428665
61 0.000000 19.66290 0.000000 1.208536 2.339354 0.491879
62 0.000000 23.25580 0.000000 1.607195 3.159292 0.581929
63 0.000000 27.10840 0.000000 2.157397 4.297273 0.701298
64 0.000000 31.25000 0.000000 2.872129 5.773537 0.888833
65 0.000000 35.71430 0.000000 3.644458 7.353307 1.085314
66 0.000000 40.54050 0.000000 4.737451 9.597121 1.367438
67 0.000000 45.77470 0.000000 6.228703 12.65845 1.750314
68 0.000000 51.47060 0.000000 7.803642 15.89302 2.161777
69 0.000000 57.69230 0.000000 10.07162 20.51836 2.768166
70 0.000000 64.51610 0.000000 13.11806 26.74874 3.594230
71 0.000000 72.03390 0.000000 16.61706 33.83685 4.642153
72 0.000000 80.35710 0.000000 21.19932 43.06378 5.972034
73 0.000000 89.62260 0.000000 27.23456 55.44218 7.894038
74 0.000000 100.0000 0.000000 35.11726 71.23327 10.45200
75 34.28220 100.0000 0.000000 39.19524 73.34513 10.56165
76 64.81260 100.0000 89.16240 64.85653 85.10461 84.48143
77 0.000000 0.000000 7.425700 0.211040 0.146754 0.740441
78 0.000000 0.000000 10.20410 0.267194 0.170197 1.032477
79 0.000000 0.000000 13.15790 0.373692 0.214868 1.577621
80 23.78610 0.000000 12.34190 2.169126 1.157820 1.427999
81 0.000000 0.000000 0.000000 0.107755 0.103393 0.197775
82 0.000000 0.000000 4.807700 0.162118 0.126282 0.488184
83 0.000000 0.000000 27.10840 1.197046 0.556427 5.860065
84 0.000000 0.000000 31.25000 1.592677 0.719068 7.893218
85 0.000000 0.000000 35.71430 2.059726 0.911755 10.33324
86 0.000000 0.000000 40.54050 2.666677 1.162701 13.48577
87 0.000000 0.000000 45.77470 3.429535 1.477241 17.44292
88 0.000000 0.000000 51.47060 4.385834 1.870448 22.37116
89 0.000000 0.000000 57.69230 5.517025 2.337333 28.23916
90 0.000000 0.000000 64.51610 7.178232 3.022377 36.85359
91 0.000000 0.000000 72.03390 9.079322 3.802315 46.70408
92 0.000000 0.000000 80.35710 11.57035 4.821413 59.61160
93 0.000000 0.000000 89.62260 14.70389 6.108683 75.91697
94 0.000000 0.000000 100.0000 19.00523 7.812088 98.15215
95 0.000000 34.75980 100.0000 22.51680 14.88810 99.60937
96 55.83250 57.95840 100.0000 40.30004 34.28789 101.7514
97 0.000000 2.336400 0.000000 0.162579 0.214687 0.226824
98 3.144700 3.144700 3.144700 0.299981 0.304354 0.409877
99 3.968300 3.968300 3.968300 0.358515 0.376470 0.471890
100 4.807700 4.807700 4.807700 0.414129 0.438377 0.533626
101 5.663400 5.663400 5.663400 0.489966 0.507819 0.615498
102 6.535900 6.535900 6.535900 0.597005 0.623569 0.752091
103 7.425700 7.425700 7.425700 0.679529 0.714506 0.845674
104 8.333300 8.333300 8.333300 0.785725 0.814090 0.960175
105 9.259300 9.259300 9.259300 0.926647 0.971935 1.085666
106 10.20410 10.20410 10.20410 1.042414 1.095575 1.232639
107 11.16840 11.16840 11.16840 1.174860 1.231596 1.419474
108 12.15280 12.15280 12.15280 1.415259 1.490352 1.678767
109 13.15790 13.15790 13.15790 1.580325 1.658097 1.877659
110 14.18440 14.18440 14.18440 1.768061 1.851268 2.059610
111 15.23300 15.23300 15.23300 1.960138 2.110081 2.300303
112 16.30430 16.30430 16.30430 2.231355 2.363894 2.544244
113 17.39930 17.39930 17.39930 2.451753 2.596653 2.813753
114 18.51850 18.51850 18.51850 2.689144 2.847359 3.208943
115 19.66290 19.66290 19.66290 3.058862 3.238496 3.496172
116 20.83330 20.83330 20.83330 3.419441 3.577092 3.969438
117 22.03070 22.03070 22.03070 3.709496 3.883630 4.472369
118 23.25580 23.25580 23.25580 4.234089 4.436268 4.856691
119 24.50980 24.50980 24.50980 4.524213 4.769273 5.281834
120 25.79360 25.79360 25.79360 5.317674 5.593435 6.131328
121 27.10840 27.10840 27.10840 5.746682 6.044318 6.519202
122 28.45530 28.45530 28.45530 6.483579 6.847027 7.519186
123 29.83540 29.83540 29.83540 6.916173 7.286867 8.014435
124 58.62820 41.67410 57.64400 23.22168 19.20502 30.48278
125 100.0000 100.0000 100.0000 94.90616 100.0024 108.6326
126 31.25000 31.25000 31.25000 7.668358 8.107362 8.831452
127 35.71430 35.71430 35.71430 9.805646 10.35080 11.48604
128 37.28070 37.28070 37.28070 10.99730 11.53754 12.57201
129 38.88890 38.88890 38.88890 11.90741 12.56415 13.70240
130 40.54050 40.54050 40.54050 12.96266 13.58232 15.22054
131 42.23740 42.23740 42.23740 14.14451 15.00695 16.38658
132 43.98150 43.98150 43.98150 15.52363 16.40808 17.95517
133 45.77470 45.77470 45.77470 16.97889 17.92858 19.57347
134 47.61910 47.61910 47.61910 18.38447 19.27478 21.22497
135 49.51690 49.51690 49.51690 19.91663 21.06422 22.97164
136 51.47060 51.47060 51.47060 21.72006 22.81809 25.03681
137 53.48260 53.48260 53.48260 23.55625 24.79695 26.93305
138 55.55560 55.55560 55.55560 25.73829 27.17340 29.26211
139 57.69230 57.69230 57.69230 27.58934 29.12341 31.91235
140 59.89580 59.89580 59.89580 30.22133 31.80370 34.80724
141 62.16930 62.16930 62.16930 33.04073 34.73852 37.90422
142 64.51610 64.51610 64.51610 35.85157 37.73444 41.35286
143 66.93990 66.93990 66.93990 38.68190 40.78774 44.12175
144 69.44440 69.44440 69.44440 41.78000 43.98468 47.88042
145 86.48170 100.0000 87.96510 78.71236 92.25180 83.69360
146 85.75850 100.0000 100.0000 82.86489 93.78652 107.6683
147 100.0000 100.0000 100.0000 94.90616 100.0024 108.6326
148 72.03390 72.03390 72.03390 45.64636 47.99483 52.35637
149 74.71260 74.71260 74.71260 49.85610 52.34278 57.13490
150 86.41970 86.41970 86.41970 67.85243 71.31352 77.93978
151 89.62260 89.62260 89.62260 74.32888 78.31311 84.91845
152 92.94870 92.94870 92.94870 80.52531 84.78522 92.93656
153 96.40520 96.40520 96.40520 87.39667 92.20250 100.9602
154 100.0000 25.52770 23.36250 45.06738 26.81859 7.490076
155 89.62260 0.000000 0.000000 32.96060 17.35330 1.353504
156 100.0000 0.000000 0.000000 41.92738 22.09165 1.708867
157 100.0000 81.57640 0.000000 63.81103 66.62823 8.263638
158 100.0000 100.0000 0.000000 76.42907 92.48255 12.51241
159 24.74910 42.21040 0.000000 7.356526 11.79925 1.577625
160 44.85520 56.33290 0.000000 16.43739 23.15262 2.917318
161 57.50660 100.0000 27.26910 48.68325 78.03833 17.51297
162 100.0000 100.0000 52.42430 80.87200 94.27513 36.04039
163 100.0000 100.0000 72.52190 85.38619 96.20500 59.63221
164 0.000000 100.0000 49.67570 38.94466 72.87097 31.35155
165 0.000000 100.0000 68.22290 42.79775 74.35304 51.37295
166 33.64420 100.0000 73.24510 48.24664 77.01387 58.89727
167 80.74850 100.0000 74.22790 70.15646 88.36771 61.16228
168 57.76380 49.39750 0.000000 19.33503 21.23752 2.493806
169 72.80250 50.26540 59.56320 33.96643 28.40396 33.37001
170 100.0000 28.30330 54.18980 49.26680 29.14065 27.63267
171 100.0000 49.89810 55.93250 54.67531 39.64237 30.62097
172 100.0000 65.66970 56.22180 60.52589 51.76811 32.36536
173 100.0000 47.78940 0.000000 48.79592 36.21986 3.819042
174 100.0000 65.11820 0.000000 55.20218 49.19393 5.547188
175 0.000000 75.23260 100.0000 36.98467 44.87048 103.3719
176 0.000000 86.97000 100.0000 43.97085 58.87787 105.2405
177 36.66060 86.98880 100.0000 48.31501 61.19006 105.5609
178 100.0000 87.44610 100.0000 86.07989 81.67295 106.0235
179 0.000000 0.000000 0.000000 0.107862 0.103653 0.198103
180 54.07270 0.000000 35.24310 12.60451 6.417674 10.57518
181 55.36300 0.000000 69.61230 19.42537 9.259601 43.73479
182 57.89910 23.70020 100.0000 32.64834 17.26242 99.49431
183 78.81400 59.54090 100.0000 53.94441 42.51578 102.3770
184 100.0000 71.01280 100.0000 77.02102 62.60436 104.4496
185 0.000000 0.000000 0.000000 0.107913 0.103551 0.198188
186 0.764500 0.764500 0.764500 0.165016 0.167185 0.262618
187 18.00640 9.058700 0.000000 1.449501 1.242480 0.349970
188 53.62410 19.77870 0.000000 11.73268 7.943161 0.870827
189 63.88300 39.38730 42.01290 22.62758 18.36444 16.33320
190 70.37480 38.13860 54.15400 27.86213 20.47949 26.69705
191 27.97120 40.74420 18.61370 8.072195 11.42774 4.565886
192 47.23620 50.40000 31.25890 17.08421 20.19988 10.71355
193 49.37320 74.00890 77.71840 36.75241 44.71526 60.51166
194 100.0000 0.000000 19.42670 42.79252 22.44572 5.600119
195 100.0000 0.000000 35.01760 43.86128 22.86207 11.94045
196 100.0000 0.000000 48.51700 45.88010 23.69296 21.80669
197 100.0000 0.000000 63.20280 48.62642 24.79793 36.70115
198 100.0000 0.000000 80.17230 53.32250 26.72079 61.06775
199 100.0000 27.02820 85.12030 57.23092 31.95248 70.13272
200 31.96210 27.40370 0.000000 5.747593 6.291925 0.852187
201 44.28980 28.82010 0.000000 9.286063 8.417512 1.021096
202 73.31750 36.92780 0.000000 24.91369 19.04015 1.952797
203 74.59340 59.23920 77.34680 42.54606 37.28808 58.45808
204 38.53720 0.000000 100.0000 23.79747 10.25185 99.16387
205 68.51460 0.000000 100.0000 36.98146 17.12507 99.42574
206 100.0000 0.000000 100.0000 61.01636 29.74650 100.3142
207 100.0000 30.63900 100.0000 63.80140 35.53416 101.0649
208 100.0000 41.25010 26.88020 48.20520 33.06869 9.381622
209 100.0000 51.05190 42.65760 52.72404 39.25748 19.37154
210 59.28030 38.74230 0.000000 17.39120 15.80706 1.779597
211 67.17230 47.13520 25.41160 24.83842 22.92329 8.270095
212 69.41190 60.03140 29.94790 31.05131 32.91563 11.62932
213 32.80450 23.60280 100.0000 23.94820 12.73021 99.55122
214 31.42790 42.19150 100.0000 27.35900 20.06857 100.6664
215 0.000000 32.30870 76.72750 13.50472 10.41422 55.19218
216 30.68160 52.96300 76.96010 21.90929 22.93236 56.42346
217 46.23780 69.24960 100.0000 41.58165 42.62140 102.9158
218 56.41940 80.15800 100.0000 51.26207 56.20957 104.0401
219 20.65240 33.40980 48.35250 8.442140 8.799056 20.54052
220 38.97830 71.49730 50.44100 25.63291 37.47962 26.57060
221 71.81400 77.35520 52.44150 43.85548 51.95707 29.90400
222 81.83270 67.16190 0.000000 40.78718 42.95974 5.110754
223 100.0000 81.97310 42.76710 66.92547 68.35637 24.26069
224 100.0000 83.20040 71.65580 73.48939 72.05047 54.74729
225 33.07110 14.36520 0.000000 4.540827 3.428022 0.528189
226 46.65820 25.97270 13.02750 10.03984 8.170835 2.479371
227 49.26270 28.39350 29.35310 12.37789 9.854530 7.981078
228 72.61900 31.44780 42.60500 26.10654 17.74892 16.59647
229 4.807700 0.000000 0.000000 0.236543 0.170055 0.200125
230 7.425700 0.000000 0.000000 0.366181 0.247489 0.222647
231 10.20410 0.000000 0.000000 0.543195 0.350758 0.252434
232 0.000000 4.807700 0.000000 0.234009 0.351047 0.265062
233 0.000000 7.425700 0.000000 0.332959 0.546784 0.293677
234 0.000000 10.20410 0.000000 0.470047 0.819273 0.327965
235 0.000000 100.0000 27.65390 36.32669 71.77702 17.10581
236 34.38210 100.0000 34.53760 41.17818 74.12710 21.08788
237 64.41480 100.0000 48.20230 54.58092 80.91312 30.69356
238 0.000000 16.42470 58.99690 6.597271 4.078611 29.96053
239 44.06520 21.24130 70.48880 16.46484 9.633041 44.98731
240 64.44260 23.31790 83.38580 29.67387 16.55406 65.94438
241 0.000000 0.000000 23.25580 0.908616 0.436322 4.345795
242 62.04790 0.000000 27.49450 15.71778 8.147115 6.724743
243 75.12340 0.000000 18.97650 22.70664 11.88813 4.002693
244 76.40140 0.000000 64.85750 30.02108 14.94991 38.16704
245 100.0000 52.59540 70.54390 58.78207 42.56243 48.49546
246 39.32640 0.000000 18.78080 5.978396 3.124667 3.071457
247 39.66400 0.000000 34.90850 7.341158 3.679104 10.19976
248 47.09400 14.58840 41.67510 11.44440 6.755845 14.71078
249 78.64520 42.00250 100.0000 48.42435 30.95957 101.2232
250 100.0000 52.65760 100.0000 69.09109 46.54179 102.2130
251 0.000000 10.94960 16.29390 0.885749 1.068236 2.322637
252 0.000000 30.30040 16.70270 3.103164 5.521395 3.122754
253 27.32850 60.36870 62.28410 20.27864 26.88969 37.13195
254 0.000000 39.48630 35.78630 6.553228 10.03595 11.74647
255 35.86700 46.87850 34.96970 12.77384 16.49035 11.93059
256 36.46690 50.60910 53.81980 16.76852 19.67397 26.90686
257 17.95200 20.57330 50.20090 6.456986 4.720322 22.05395
258 45.88720 25.56530 60.36790 15.24372 10.13792 32.41091
259 57.60490 58.63830 80.77520 34.16999 32.46830 63.64596
260 67.41610 72.84500 100.0000 52.84863 51.23579 103.2363
261 100.0000 100.0000 100.0000 94.90616 100.0024 108.6326
262 0.000000 0.000000 2.336400 0.131007 0.113365 0.326234
263 0.000000 16.65700 13.62280 1.193224 1.844884 1.973851
264 0.000000 73.69700 26.07580 18.64731 36.00539 10.62937
265 32.86520 100.0000 53.37270 43.39017 75.09443 34.96386
266 55.77540 100.0000 60.96430 52.61518 79.60890 42.99054
267 51.67260 59.11270 24.38600 21.59226 27.60695 8.815435
268 100.0000 63.97590 36.87700 56.94156 49.10141 17.32882
269 100.0000 69.36910 70.39220 65.63285 56.77865 49.95373
270 100.0000 78.36050 84.33960 74.63386 68.33729 73.60999
271 22.76100 29.18400 19.54870 4.826390 6.178877 3.927173
272 30.49560 37.30130 30.29360 8.657740 10.42823 8.758952
273 30.26190 61.36600 31.55620 16.28004 25.83508 11.67086
274 34.62120 78.60880 0.000000 24.12931 42.92213 5.794734
275 56.44570 78.87840 0.000000 32.19499 47.78257 6.271859
276 81.71600 82.58250 0.000000 48.92152 59.64707 7.722490
277 0.000000 14.59910 29.05270 2.085096 1.974915 7.279934
278 18.86350 19.94540 33.22540 4.152218 3.690925 9.764346
279 32.70040 32.70040 32.70040 8.304777 8.687935 9.681536
280 34.18800 34.18800 34.18800 9.135869 9.637733 10.50828
281 44.63120 35.98560 55.71870 15.70387 13.19031 27.70231
282 0.000000 45.73080 30.23050 7.718750 13.33037 9.416391
283 0.000000 59.37020 52.31240 15.08187 23.61457 26.02255
284 0.000000 79.91970 78.67060 31.71018 47.09264 63.18302
285 0.000000 100.0000 85.51650 47.97806 76.51765 78.33118
286 34.59530 100.0000 87.65550 52.59438 78.88161 82.47637
287 0.000000 26.04620 26.82020 3.131233 4.479452 6.473414
288 0.000000 31.32410 49.63600 6.947256 7.493156 22.01237
289 0.000000 43.21100 49.30060 9.472374 12.88244 22.05122
290 0.000000 48.12520 100.0000 25.85238 21.78430 100.3702
291 30.32160 57.42880 100.0000 31.73277 29.45422 101.4532
292 0.000000 24.81530 52.74980 6.379774 5.486510 24.35842
293 33.84400 29.00620 73.60160 15.74832 10.89036 50.16674
294 77.48540 77.48540 77.48540 54.05517 56.90360 62.09087
295 80.35710 80.35710 80.35710 58.28888 61.38731 66.71043
296 83.33330 83.33330 83.33330 62.37218 65.67443 71.66474
297 28.26550 39.23770 42.93730 10.23413 11.85550 16.53077
298 33.76020 41.31430 81.27960 20.47122 16.88191 62.48977
299 56.20970 42.20050 100.0000 35.78287 24.42363 100.9587
300 31.80140 0.000000 45.48830 6.757101 3.209918 17.64899
301 74.61470 0.000000 48.45430 25.25305 12.84063 20.71131
302 1.543200 1.543200 1.543200 0.201765 0.202391 0.298079
303 2.336400 2.336400 2.336400 0.246829 0.255926 0.341761
304 0.000000 50.78730 21.03700 8.444277 15.95285 6.129712
305 0.000000 62.90500 39.49550 14.81266 26.08998 16.65735
306 0.000000 78.50780 63.33090 26.70154 43.60529 41.02405
307 0.000000 100.0000 100.0000 53.39339 78.63311 107.1684
308 36.07460 100.0000 100.0000 57.76935 80.86809 107.1390
309 70.57460 18.02280 10.98900 20.38952 12.32916 2.589098
310 71.17280 26.68270 27.97970 22.64604 14.87387 7.702510
311 85.38460 37.32850 33.40650 35.06815 24.40942 11.68859
312 86.74810 51.41210 46.91000 41.89636 33.52406 22.42030
313 88.49350 66.56360 55.87470 51.19247 47.45730 31.95460
314 88.46250 74.28090 70.19840 57.83553 56.10517 50.21072
315 90.99020 95.81470 88.71870 78.86421 87.09061 84.30057
316 11.65950 13.75210 0.000000 1.222594 1.562315 0.407812
317 22.61900 18.69170 0.000000 2.837256 3.043377 0.536275
318 33.17390 23.35670 9.877700 5.607385 5.327255 1.681926
319 51.73140 43.01570 27.10980 16.51667 17.00190 8.019632
320 80.27780 70.40530 54.93470 46.39655 47.88076 31.19469
321 84.50910 70.10480 75.65960 53.91969 50.97228 57.61879
322 89.31400 81.68580 89.36930 68.30820 67.24970 82.38859
323 15.20630 8.212700 45.31890 4.476939 2.392506 17.64197
324 18.08690 54.84100 45.16860 13.36727 20.38625 19.48859
325 43.35920 60.03150 45.06470 20.74652 27.18092 20.42752
326 89.41230 52.47130 12.17970 41.02216 34.05940 6.025202
327 100.0000 52.73310 21.95430 51.14421 39.45314 8.967500
328 62.86220 85.59570 42.02670 41.77385 58.14341 22.61391
329 70.07780 89.02190 57.09710 51.14431 66.25192 37.23994
330 86.44990 90.33270 56.43500 62.53832 73.45617 37.06457
331 16.47530 20.21910 11.66790 2.446590 3.061408 1.826054
332 17.11940 32.00930 16.25240 4.480829 6.851005 3.125146
333 34.13690 33.49780 19.84980 7.829447 8.820746 4.519464
334 48.88240 38.50920 34.29310 14.82821 14.10371 11.09601
335 4.607000 12.86060 12.43080 1.039192 1.389166 1.720916
336 22.09410 18.06650 25.83820 3.639319 3.214532 5.966221
337 52.91010 28.09910 53.88830 17.14613 12.00482 25.65992
338 72.27020 46.70970 68.39750 34.44137 27.03741 43.79170
339 71.41340 73.22130 81.22250 48.52153 50.12017 66.41026
340 71.27880 82.56400 92.39700 57.73382 62.49551 89.43054
341 83.37220 87.74810 100.0000 72.13482 74.65786 106.1189
342 0.000000 0.000000 0.000000 0.107938 0.103731 0.198475
343 22.96120 48.66490 49.58920 12.74415 16.83963 22.46412
344 32.67130 68.51910 58.60640 24.31157 34.73129 33.68206
345 32.97730 72.94000 73.99340 30.19435 40.59827 54.56570
346 78.93760 82.02590 73.55670 56.20456 61.80310 56.57321
347 91.36890 85.60890 74.51500 67.94635 71.12921 59.04252
348 100.0000 88.66010 85.67850 81.21285 81.00323 77.55026
349 82.32710 47.47570 53.19080 38.54351 29.87256 27.08428
350 85.37840 74.77350 100.0000 65.87605 59.77816 104.2246
351 41.70330 6.255500 61.16950 12.53402 6.138388 33.17215
352 60.66870 12.90410 64.09630 21.37057 11.37270 37.34560
353 65.78500 35.71460 66.99440 27.59503 19.11139 41.27210
354 22.58180 59.36660 39.32500 14.96150 23.76928 16.00256
355 25.67860 80.48440 74.82010 33.21491 48.31916 57.38441
356 0.000000 13.70720 40.01790 3.256128 2.351379 13.70970
357 11.56340 22.79250 42.41150 4.872126 4.470316 15.30449
358 26.98390 27.11680 46.06180 8.044505 7.028578 18.36421
359 86.20760 43.19030 65.12400 42.67092 30.10593 40.36676
360 100.0000 49.85290 83.64960 62.10097 42.54247 68.99085
361 77.14930 0.000000 84.80280 36.24725 17.52874 68.11921
362 82.38170 20.56730 100.0000 47.28879 24.53530 100.4366
363 28.06240 9.645700 34.86450 5.137333 2.998227 10.27187
364 30.50640 27.88250 37.80980 7.743641 7.197860 12.45727
365 33.20690 38.07990 48.80460 11.83855 12.14288 21.22253
366 45.47270 46.51050 64.31700 20.79424 19.87552 38.83628
367 58.61050 61.01320 72.11140 32.83944 33.63237 50.34415
368 21.53870 46.69480 29.19630 9.359282 14.57690 8.842317
369 37.24840 52.84410 30.60270 14.69187 20.17994 10.32630
370 75.09540 53.78740 40.00300 33.21850 30.26366 16.93018
371 43.39420 16.44700 25.90940 8.559206 5.669183 6.049400
372 45.39650 20.54340 35.51890 10.50066 7.098214 11.09391
373 56.95820 24.23120 37.01220 15.76393 10.63443 11.88056
374 73.39030 23.64090 52.07430 27.08040 16.33626 24.30023
375 81.76170 33.57470 68.16080 37.41562 23.80141 43.32898
376 85.55380 41.27480 82.56580 46.23441 30.49453 65.70738
377 15.06290 62.74620 21.43020 14.08778 25.89218 7.868346
378 15.47800 69.26340 52.38540 20.70554 33.55032 28.03637
379 15.30920 91.61810 82.28560 41.38520 63.43861 70.55612
380 49.87330 95.70680 84.17690 53.10891 73.98666 75.07813
381 63.13800 100.0000 100.0000 68.07642 86.24723 107.4197
382 11.17690 27.22350 22.88960 3.451406 4.918351 4.835023
383 19.81310 30.42000 31.37160 5.546856 6.791241 8.830916
384 23.51750 44.93310 37.61660 10.07430 14.11283 13.52594
385 51.72210 63.98430 40.02690 25.19870 32.46200 17.51631
386 20.92150 87.22550 18.61470 27.68824 52.47961 11.42886
387 19.30050 86.95180 35.88150 28.92023 52.96735 18.96047
388 2.336400 0.000000 0.000000 0.167659 0.134324 0.199179
389 10.71230 19.68690 28.19750 2.889256 3.095408 6.945929
390 10.36360 35.51060 44.25040 7.245944 8.936864 17.63255
391 0.000000 25.42600 35.25780 3.894465 4.695954 10.77525
