Dell/U2718Q/U2718Q #2 2022-08-20 17-18 0.3127x 0.329y sRGB F-S XYZLUT+MTX/U2718Q #2 2022-08-20 17-18 0.3127x 0.329y sRGB F-S XYZLUT+MTX.bpc.ti3
CTI3   

DESCRIPTOR "Argyll Calibration Target chart information 3"
ORIGINATOR "Argyll dispread"
CREATED "Sat Aug 20 17:25:47 2022"
DEVICE_CLASS "DISPLAY"
SINGLE_DIM_STEPS "21"
COMP_GREY_STEPS "61"
DARK_REGION_EMPHASIS "1.6"
COLOR_REP "RGB_XYZ"
TARGET_INSTRUMENT "X-Rite i1 DisplayPro, ColorMunki Display"
DISPLAY_TYPE_REFRESH "NO"
DISPLAY_TYPE_BASE_ID "1"
INSTRUMENT_TYPE_SPECTRAL "NO"
LUMINANCE_XYZ_CDM2 "51.788077 54.610033 59.134826"
NORMALIZED_TO_Y_100 "YES"
VIDEO_LUT_CALIBRATION_POSSIBLE "YES"

BEGIN_ARGYLL_COLPROF_ARGS
-v -qh -aX -bn -C "No copyright. Created with DisplayCAL 3.8.9.3 and ArgyllCMS 2.1.2" -M "DELL U2718Q" -A "Dell, Inc."
END_ARGYLL_COLPROF_ARGS

OBSERVER "1931_2"
USE_BLACK_POINT_COMPENSATION "NO"
BLACK_POINT_CORRECTION "0.0"
HIRES_B2A "YES"
HIRES_B2A_SIZE "-1"
SMOOTH_B2A "YES"
PATCH_SEQUENCE "OPTIMIZE_DISPLAY_RESPONSE_DELAY"

NUMBER_OF_FIELDS 7
BEGIN_DATA_FORMAT
SAMPLE_ID RGB_R RGB_G RGB_B XYZ_X XYZ_Y XYZ_Z
END_DATA_FORMAT

NUMBER_OF_SETS 588
BEGIN_DATA
1 100.0000 100.0000 100.0000 94.83253 100.00000 108.2856
2 1.960800 1.960800 1.960800 0.221788 0.235902 0.268116
3 3.921600 3.921600 3.921600 0.354529 0.376096 0.439165
4 5.882400 5.882400 5.882400 0.524045 0.549217 0.634456
5 9.803900 9.803900 9.803900 0.978257 1.024940 1.150608
6 13.72600 13.72600 13.72600 1.675605 1.759077 1.975699
7 17.64700 17.64700 17.64700 2.468286 2.600599 2.907448
8 21.56900 21.56900 21.56900 3.621999 3.835503 4.323240
9 25.49000 25.49000 25.49000 5.185618 5.426686 5.906510
10 29.41200 29.41200 29.41200 6.674342 7.024020 7.730868
11 33.33300 33.33300 33.33300 8.671698 9.096446 10.13035
12 37.25500 37.25500 37.25500 10.97683 11.50252 12.53410
13 41.17600 41.17600 41.17600 13.50853 14.18730 15.55637
14 45.09800 45.09800 45.09800 16.18511 17.08335 18.69125
15 49.02000 49.02000 49.02000 19.66471 20.73735 22.46593
16 52.94100 52.94100 52.94100 23.07132 24.34892 26.42931
17 56.86300 56.86300 56.86300 26.91632 28.35498 30.78374
18 60.78400 60.78400 60.78400 31.18648 32.69603 35.79131
19 64.70600 64.70600 64.70600 35.83214 37.73286 41.26467
20 68.62700 68.62700 68.62700 40.70584 42.89055 46.26938
21 72.54900 72.54900 72.54900 46.17087 48.60725 52.97277
22 76.47100 76.47100 76.47100 52.09343 54.85716 59.47318
23 80.39200 80.39200 80.39200 58.19438 61.24781 66.54223
24 84.31400 84.31400 84.31400 64.16221 67.57741 73.75557
25 88.23500 88.23500 88.23500 71.37088 75.46711 81.78184
26 92.15700 92.15700 92.15700 78.63141 82.47041 91.18441
27 96.07800 96.07800 96.07800 86.55680 91.38485 99.91294
28 0.000000 0.000000 16.30430 0.489293 0.264622 2.119800
29 0.000000 0.000000 19.66290 0.664069 0.336593 3.021159
30 18.89600 0.000000 34.35100 3.114283 1.465543 9.821151
31 27.05250 0.000000 59.19420 8.228697 3.705989 29.95889
32 39.22210 0.000000 78.96060 16.07023 7.220950 57.37448
33 0.000000 43.57140 75.87360 15.75319 15.63120 54.21199
34 0.000000 58.07990 84.27350 22.82603 25.94750 68.87069
35 0.000000 61.40900 100.0000 30.63094 31.53684 101.8531
36 100.0000 28.88820 0.000000 44.60034 27.43793 2.538400
37 100.0000 70.51690 23.89170 58.89477 54.84734 11.79772
38 100.0000 74.40020 52.21840 64.20781 60.34772 30.04105
39 13.15790 0.000000 0.000000 0.771823 0.469721 0.234414
40 16.30430 0.000000 0.000000 1.057774 0.615691 0.247477
41 19.66290 0.000000 0.000000 1.415167 0.801656 0.261501
42 23.25580 0.000000 0.000000 1.954048 1.082662 0.281269
43 27.10840 0.000000 0.000000 2.631412 1.436825 0.299861
44 31.25000 0.000000 0.000000 3.422348 1.849614 0.325959
45 35.71430 0.000000 0.000000 4.363710 2.344958 0.354242
46 37.87990 0.000000 0.000000 5.027704 2.692094 0.385128
47 40.54050 0.000000 0.000000 5.732585 3.057949 0.399802
48 45.77470 0.000000 0.000000 7.485446 3.970963 0.443184
49 51.47060 0.000000 0.000000 9.625001 5.090158 0.513417
50 57.69230 0.000000 0.000000 12.11579 6.397658 0.602185
51 64.51610 0.000000 0.000000 15.84450 8.344981 0.719759
52 72.03390 0.000000 0.000000 20.04481 10.54947 0.864979
53 80.35710 0.000000 0.000000 25.43379 13.38486 1.069615
54 81.45190 100.0000 0.000000 61.13769 84.67851 11.70932
55 80.39330 100.0000 32.41380 62.28074 84.99314 21.13655
56 61.06840 100.0000 0.000000 49.21054 78.46633 11.28284
57 100.0000 100.0000 30.33970 77.99905 93.17293 20.59312
58 100.0000 100.0000 86.40530 89.82715 97.97603 81.87973
59 0.000000 13.15790 0.000000 0.666057 1.215667 0.374069
60 0.000000 16.30430 0.000000 0.909666 1.721972 0.428199
61 0.000000 19.66290 0.000000 1.208389 2.339211 0.491654
62 0.000000 23.25580 0.000000 1.607056 3.159150 0.581759
63 0.000000 27.10840 0.000000 2.157261 4.297133 0.701138
64 0.000000 31.25000 0.000000 2.871994 5.773399 0.888675
65 0.000000 35.71430 0.000000 3.644324 7.353171 1.085156
66 0.000000 40.54050 0.000000 4.737319 9.596988 1.367281
67 0.000000 45.77470 0.000000 6.228573 12.65832 1.750157
68 0.000000 51.47060 0.000000 7.803514 15.89290 2.161621
69 0.000000 57.69230 0.000000 10.07150 20.51824 2.768011
70 0.000000 64.51610 0.000000 13.11794 26.74863 3.594076
71 0.000000 72.03390 0.000000 16.61695 33.83675 4.642000
72 0.000000 80.35710 0.000000 21.19921 43.06370 5.971883
73 0.000000 89.62260 0.000000 27.23446 55.44211 7.893890
74 0.000000 100.0000 0.000000 35.11717 71.23323 10.45186
75 34.28220 100.0000 0.000000 39.19516 73.34509 10.56151
76 64.81260 100.0000 89.16240 64.85649 85.10459 84.48139
77 0.000000 0.000000 7.425700 0.202726 0.146608 0.666668
78 0.000000 0.000000 10.20410 0.259553 0.170051 0.963117
79 0.000000 0.000000 13.15790 0.367188 0.214722 1.499091
80 23.78610 0.000000 12.34190 2.168642 1.157675 1.425675
81 0.000000 0.000000 0.000000 0.098049 0.103246 0.111467
82 0.000000 0.000000 4.807700 0.153168 0.126136 0.408685
83 0.000000 0.000000 27.10840 1.194667 0.556281 5.806854
84 0.000000 0.000000 31.25000 1.591086 0.718922 7.858327
85 0.000000 0.000000 35.71430 2.058775 0.911610 10.31345
86 0.000000 0.000000 40.54050 2.666149 1.162556 13.47611
87 0.000000 0.000000 45.77470 3.429227 1.477097 17.43856
88 0.000000 0.000000 51.47060 4.385632 1.870304 22.36934
89 0.000000 0.000000 57.69230 5.516868 2.337190 28.23840
90 0.000000 0.000000 64.51610 7.178096 3.022235 36.85331
91 0.000000 0.000000 72.03390 9.079194 3.802174 46.70394
92 0.000000 0.000000 80.35710 11.57023 4.821273 59.61152
93 0.000000 0.000000 89.62260 14.70377 6.108545 75.91692
94 0.000000 0.000000 100.0000 19.00512 7.811953 98.15213
95 0.000000 34.75980 100.0000 22.51669 14.88798 99.60936
96 55.83250 57.95840 100.0000 40.29996 34.28779 101.7514
97 0.000000 2.336400 0.000000 0.156070 0.214541 0.169306
98 3.144700 3.144700 3.144700 0.295271 0.304208 0.368554
99 3.968300 3.968300 3.968300 0.354882 0.376324 0.440270
100 4.807700 4.807700 4.807700 0.411221 0.438231 0.508526
101 5.663400 5.663400 5.663400 0.487696 0.507673 0.596149
102 6.535900 6.535900 6.535900 0.595495 0.623423 0.739582
103 7.425700 7.425700 7.425700 0.678424 0.714360 0.836810
104 8.333300 8.333300 8.333300 0.784930 0.813945 0.954102
105 9.259300 9.259300 9.259300 0.926128 0.971790 1.082028
106 10.20410 10.20410 10.20410 1.042012 1.095430 1.230052
107 11.16840 11.16840 11.16840 1.174541 1.231451 1.417626
108 12.15280 12.15280 12.15280 1.415029 1.490208 1.677757
109 13.15790 13.15790 13.15790 1.580126 1.657953 1.876931
110 14.18440 14.18440 14.18440 1.767885 1.851124 2.059091
111 15.23300 15.23300 15.23300 1.959979 2.109937 2.299942
112 16.30430 16.30430 16.30430 2.231206 2.363751 2.543968
113 17.39930 17.39930 17.39930 2.451609 2.596510 2.813521
114 18.51850 18.51850 18.51850 2.689003 2.847217 3.208739
115 19.66290 19.66290 19.66290 3.058725 3.238354 3.495994
116 20.83330 20.83330 20.83330 3.419305 3.576951 3.969271
117 22.03070 22.03070 22.03070 3.709361 3.883489 4.472208
118 23.25580 23.25580 23.25580 4.233956 4.436128 4.856535
119 24.50980 24.50980 24.50980 4.524080 4.769133 5.281680
120 25.79360 25.79360 25.79360 5.317543 5.593297 6.131177
121 27.10840 27.10840 27.10840 5.746551 6.044180 6.519052
122 28.45530 28.45530 28.45530 6.483449 6.846890 7.519038
123 29.83540 29.83540 29.83540 6.916044 7.286731 8.014287
124 58.62820 41.67410 57.64400 23.22157 19.20490 30.48267
125 100.0000 100.0000 100.0000 94.90616 100.0024 108.6326
126 31.25000 31.25000 31.25000 7.668230 8.107227 8.831306
127 35.71430 35.71430 35.71430 9.805521 10.35067 11.48590
128 37.28070 37.28070 37.28070 10.99718 11.53741 12.57187
129 38.88890 38.88890 38.88890 11.90729 12.56402 13.70226
130 40.54050 40.54050 40.54050 12.96254 13.58219 15.22040
131 42.23740 42.23740 42.23740 14.14439 15.00683 16.38644
132 43.98150 43.98150 43.98150 15.52351 16.40796 17.95504
133 45.77470 45.77470 45.77470 16.97878 17.92846 19.57334
134 47.61910 47.61910 47.61910 18.38436 19.27466 21.22484
135 49.51690 49.51690 49.51690 19.91652 21.06410 22.97151
136 51.47060 51.47060 51.47060 21.71995 22.81798 25.03669
137 53.48260 53.48260 53.48260 23.55615 24.79684 26.93293
138 55.55560 55.55560 55.55560 25.73819 27.17329 29.26199
139 57.69230 57.69230 57.69230 27.58924 29.12331 31.91224
140 59.89580 59.89580 59.89580 30.22124 31.80360 34.80713
141 62.16930 62.16930 62.16930 33.04064 34.73842 37.90412
142 64.51610 64.51610 64.51610 35.85148 37.73435 41.35276
143 66.93990 66.93990 66.93990 38.68182 40.78765 44.12166
144 69.44440 69.44440 69.44440 41.77992 43.98460 47.88033
145 86.48170 100.0000 87.96510 78.71234 92.25179 83.69356
146 85.75850 100.0000 100.0000 82.86487 93.78651 107.6683
147 100.0000 100.0000 100.0000 94.90616 100.0024 108.6326
148 72.03390 72.03390 72.03390 45.64629 47.99475 52.35629
149 74.71260 74.71260 74.71260 49.85603 52.34271 57.13482
150 86.41970 86.41970 86.41970 67.85239 71.31348 77.93973
151 89.62260 89.62260 89.62260 74.32885 78.31308 84.91842
152 92.94870 92.94870 92.94870 80.52529 84.78520 92.93654
153 96.40520 96.40520 96.40520 87.39666 92.20249 100.9602
154 100.0000 25.52770 23.36250 45.06731 26.81848 7.489928
155 89.62260 0.000000 0.000000 32.96051 17.35318 1.353347
156 100.0000 0.000000 0.000000 41.92730 22.09154 1.708710
157 100.0000 81.57640 0.000000 63.81098 66.62818 8.263491
158 100.0000 100.0000 0.000000 76.42904 92.48254 12.51227
159 24.74910 42.21040 0.000000 7.356398 11.79912 1.577468
160 44.85520 56.33290 0.000000 16.43727 23.15251 2.917163
161 57.50660 100.0000 27.26910 48.68318 78.03830 17.51284
162 100.0000 100.0000 52.42430 80.87198 94.27512 36.04028
163 100.0000 100.0000 72.52190 85.38618 96.20499 59.63214
164 0.000000 100.0000 49.67570 38.94458 72.87093 31.35144
165 0.000000 100.0000 68.22290 42.79767 74.35300 51.37287
166 33.64420 100.0000 73.24510 48.24657 77.01384 58.89720
167 80.74850 100.0000 74.22790 70.15642 88.36769 61.16221
168 57.76380 49.39750 0.000000 19.33492 21.23740 2.493650
169 72.80250 50.26540 59.56320 33.96634 28.40385 33.36990
170 100.0000 28.30330 54.18980 49.26673 29.14055 27.63255
171 100.0000 49.89810 55.93250 54.67525 39.64228 30.62086
172 100.0000 65.66970 56.22180 60.52584 51.76804 32.36525
173 100.0000 47.78940 0.000000 48.79585 36.21977 3.818888
174 100.0000 65.11820 0.000000 55.20212 49.19386 5.547037
175 0.000000 75.23260 100.0000 36.98459 44.87040 103.3719
176 0.000000 86.97000 100.0000 43.97078 58.87781 105.2405
177 36.66060 86.98880 100.0000 48.31494 61.19000 105.5609
178 100.0000 87.44610 100.0000 86.07988 81.67292 106.0235
179 0.000000 0.000000 0.000000 0.098156 0.103506 0.111795
180 54.07270 0.000000 35.24310 12.60439 6.417537 10.57504
181 55.36300 0.000000 69.61230 19.42526 9.259468 43.73469
182 57.89910 23.70020 100.0000 32.64825 17.26230 99.49430
183 78.81400 59.54090 100.0000 53.94435 42.51570 102.3770
184 100.0000 71.01280 100.0000 77.02099 62.60431 104.4496
185 0.000000 0.000000 0.000000 0.098207 0.103404 0.111880
186 0.764500 0.764500 0.764500 0.157292 0.167039 0.194155
187 18.00640 9.058700 0.000000 1.449163 1.242335 0.348551
188 53.62410 19.77870 0.000000 11.73256 7.943026 0.870669
189 63.88300 39.38730 42.01290 22.62747 18.36432 16.33306
190 70.37480 38.13860 54.15400 27.86203 20.47937 26.69693
191 27.97120 40.74420 18.61370 8.072068 11.42761 4.565733
192 47.23620 50.40000 31.25890 17.08410 20.19976 10.71341
193 49.37320 74.00890 77.71840 36.75232 44.71518 60.51159
194 100.0000 0.000000 19.42670 42.79244 22.44561 5.599968
195 100.0000 0.000000 35.01760 43.86121 22.86196 11.94031
196 100.0000 0.000000 48.51700 45.88003 23.69285 21.80656
197 100.0000 0.000000 63.20280 48.62635 24.79782 36.70104
198 100.0000 0.000000 80.17230 53.32244 26.72068 61.06768
199 100.0000 27.02820 85.12030 57.23086 31.95238 70.13266
200 31.96210 27.40370 0.000000 5.747462 6.291788 0.852029
201 44.28980 28.82010 0.000000 9.285937 8.417378 1.020938
202 73.31750 36.92780 0.000000 24.91359 19.04003 1.952641
203 74.59340 59.23920 77.34680 42.54598 37.28799 58.45801
204 38.53720 0.000000 100.0000 23.79737 10.25172 99.16386
205 68.51460 0.000000 100.0000 36.98138 17.12495 99.42573
206 100.0000 0.000000 100.0000 61.01631 29.74640 100.3142
207 100.0000 30.63900 100.0000 63.80135 35.53407 101.0649
208 100.0000 41.25010 26.88020 48.20513 33.06859 9.381476
209 100.0000 51.05190 42.65760 52.72398 39.25739 19.37141
210 59.28030 38.74230 0.000000 17.39109 15.80694 1.779440
211 67.17230 47.13520 25.41160 24.83832 22.92318 8.269948
212 69.41190 60.03140 29.94790 31.05122 32.91553 11.62918
213 32.80450 23.60280 100.0000 23.94810 12.73008 99.55121
214 31.42790 42.19150 100.0000 27.35890 20.06845 100.6664
215 0.000000 32.30870 76.72750 13.50460 10.41409 55.19210
216 30.68160 52.96300 76.96010 21.90918 22.93225 56.42338
217 46.23780 69.24960 100.0000 41.58157 42.62132 102.9158
218 56.41940 80.15800 100.0000 51.26201 56.20951 104.0401
219 20.65240 33.40980 48.35250 8.442013 8.798922 20.54039
220 38.97830 71.49730 50.44100 25.63281 37.47953 26.57048
221 71.81400 77.35520 52.44150 43.85541 51.95700 29.90388
222 81.83270 67.16190 0.000000 40.78710 42.95966 5.110602
223 100.0000 81.97310 42.76710 66.92543 68.35632 24.26057
224 100.0000 83.20040 71.65580 73.48936 72.05043 54.74721
225 33.07110 14.36520 0.000000 4.540692 3.427880 0.528023
226 46.65820 25.97270 13.02750 10.03972 8.170700 2.479215
227 49.26270 28.39350 29.35310 12.37777 9.854398 7.980930
228 72.61900 31.44780 42.60500 26.10644 17.74880 16.59634
229 4.807700 0.000000 0.000000 0.228898 0.169909 0.132377
230 7.425700 0.000000 0.000000 0.360399 0.247343 0.171668
231 10.20410 0.000000 0.000000 0.539210 0.350612 0.217642
232 0.000000 4.807700 0.000000 0.230028 0.350901 0.230308
233 0.000000 7.425700 0.000000 0.330982 0.546638 0.276965
234 0.000000 10.20410 0.000000 0.469265 0.819128 0.322010
235 0.000000 100.0000 27.65390 36.32660 71.77698 17.10568
236 34.38210 100.0000 34.53760 41.17810 74.12706 21.08775
237 64.41480 100.0000 48.20230 54.58086 80.91309 30.69345
238 0.000000 16.42470 58.99690 6.597141 4.078470 29.96039
239 44.06520 21.24130 70.48880 16.46472 9.632908 44.98722
240 64.44260 23.31790 83.38580 29.67377 16.55394 65.94432
241 0.000000 0.000000 23.25580 0.905541 0.436176 4.277321
242 62.04790 0.000000 27.49450 15.71766 8.146980 6.724594
243 75.12340 0.000000 18.97650 22.70653 11.88800 4.002540
244 76.40140 0.000000 64.85750 30.02098 14.94979 38.16694
245 100.0000 52.59540 70.54390 58.78202 42.56235 48.49537
246 39.32640 0.000000 18.78080 5.978260 3.124525 3.071275
247 39.66400 0.000000 34.90850 7.341027 3.678963 10.19959
248 47.09400 14.58840 41.67510 11.44428 6.755708 14.71064
249 78.64520 42.00250 100.0000 48.42428 30.95947 101.2232
250 100.0000 52.65760 100.0000 69.09105 46.54171 102.2130
251 0.000000 10.94960 16.29390 0.885350 1.068091 2.318402
252 0.000000 30.30040 16.70270 3.103029 5.521256 3.122599
253 27.32850 60.36870 62.28410 20.27853 26.88958 37.13185
254 0.000000 39.48630 35.78630 6.553098 10.03582 11.74633
255 35.86700 46.87850 34.96970 12.77372 16.49023 11.93045
256 36.46690 50.60910 53.81980 16.76841 19.67385 26.90674
257 17.95200 20.57330 50.20090 6.456856 4.720182 22.05382
258 45.88720 25.56530 60.36790 15.24360 10.13779 32.41080
259 57.60490 58.63830 80.77520 34.16990 32.46820 63.64589
260 67.41610 72.84500 100.0000 52.84857 51.23572 103.2363
261 100.0000 100.0000 100.0000 94.90616 100.0024 108.6326
262 0.000000 0.000000 2.336400 0.121631 0.113219 0.242902
263 0.000000 16.65700 13.62280 1.193055 1.844740 1.973336
264 0.000000 73.69700 26.07580 18.64720 36.00530 10.62923
265 32.86520 100.0000 53.37270 43.39009 75.09439 34.96375
266 55.77540 100.0000 60.96430 52.61512 79.60887 42.99044
267 51.67260 59.11270 24.38600 21.59215 27.60684 8.815289
268 100.0000 63.97590 36.87700 56.94150 49.10134 17.32869
269 100.0000 69.36910 70.39220 65.63281 56.77859 49.95364
270 100.0000 78.36050 84.33960 74.63383 68.33724 73.60994
271 22.76100 29.18400 19.54870 4.826258 6.178739 3.927019
272 30.49560 37.30130 30.29360 8.657614 10.42810 8.758806
273 30.26190 61.36600 31.55620 16.27992 25.83497 11.67072
274 34.62120 78.60880 0.000000 24.12921 42.92205 5.794583
275 56.44570 78.87840 0.000000 32.19490 47.78249 6.271709
276 81.71600 82.58250 0.000000 48.92145 59.64701 7.722342
277 0.000000 14.59910 29.05270 2.084927 1.974771 7.279170
278 18.86350 19.94540 33.22540 4.152083 3.690784 9.764180
279 32.70040 32.70040 32.70040 8.304650 8.687801 9.681391
280 34.18800 34.18800 34.18800 9.135743 9.637600 10.50814
281 44.63120 35.98560 55.71870 15.70375 13.19018 27.70219
282 0.000000 45.73080 30.23050 7.718622 13.33024 9.416245
283 0.000000 59.37020 52.31240 15.08175 23.61446 26.02243
284 0.000000 79.91970 78.67060 31.71009 47.09256 63.18295
285 0.000000 100.0000 85.51650 47.97799 76.51762 78.33114
286 34.59530 100.0000 87.65550 52.59432 78.88158 82.47633
287 0.000000 26.04620 26.82020 3.131098 4.479312 6.473260
288 0.000000 31.32410 49.63600 6.947127 7.493020 22.01224
289 0.000000 43.21100 49.30060 9.472249 12.88231 22.05109
290 0.000000 48.12520 100.0000 25.85228 21.78419 100.3702
291 30.32160 57.42880 100.0000 31.73268 29.45412 101.4532
292 0.000000 24.81530 52.74980 6.379644 5.486371 24.35829
293 33.84400 29.00620 73.60160 15.74820 10.89023 50.16665
294 77.48540 77.48540 77.48540 54.05511 56.90354 62.09080
295 80.35710 80.35710 80.35710 58.28883 61.38725 66.71037
296 83.33330 83.33330 83.33330 62.37213 65.67438 71.66469
297 28.26550 39.23770 42.93730 10.23401 11.85537 16.53063
298 33.76020 41.31430 81.27960 20.47111 16.88179 62.48970
299 56.20970 42.20050 100.0000 35.78278 24.42352 100.9587
300 31.80140 0.000000 45.48830 6.756967 3.209776 17.64878
301 74.61470 0.000000 48.45430 25.25295 12.84050 20.71118
302 1.543200 1.543200 1.543200 0.194961 0.202245 0.237904
303 2.336400 2.336400 2.336400 0.241220 0.255780 0.292343
304 0.000000 50.78730 21.03700 8.444150 15.95273 6.129562
305 0.000000 62.90500 39.49550 14.81254 26.08987 16.65722
306 0.000000 78.50780 63.33090 26.70144 43.60521 41.02395
307 0.000000 100.0000 100.0000 53.39333 78.63308 107.1684
308 36.07460 100.0000 100.0000 57.76930 80.86806 107.1390
309 70.57460 18.02280 10.98900 20.38941 12.32903 2.588942
310 71.17280 26.68270 27.97970 22.64593 14.87375 7.702362
311 85.38460 37.32850 33.40650 35.06806 24.40931 11.68845
312 86.74810 51.41210 46.91000 41.89628 33.52396 22.42017
313 88.49350 66.56360 55.87470 51.19241 47.45722 31.95449
314 88.46250 74.28090 70.19840 57.83548 56.10511 50.21063
315 90.99020 95.81470 88.71870 78.86419 87.09059 84.30053
316 11.65950 13.75210 0.000000 1.222388 1.562171 0.407175
317 22.61900 18.69170 0.000000 2.837117 3.043235 0.536101
318 33.17390 23.35670 9.877700 5.607254 5.327116 1.681769
319 51.73140 43.01570 27.10980 16.51656 17.00178 8.019484
320 80.27780 70.40530 54.93470 46.39648 47.88068 31.19458
321 84.50910 70.10480 75.65960 53.91963 50.97221 57.61872
322 89.31400 81.68580 89.36930 68.30816 67.24965 82.38855
323 15.20630 8.212700 45.31890 4.476786 2.392363 17.64142
324 18.08690 54.84100 45.16860 13.36715 20.38613 19.48846
325 43.35920 60.03150 45.06470 20.74641 27.18081 20.42739
326 89.41230 52.47130 12.17970 41.02208 34.05930 6.025052
327 100.0000 52.73310 21.95430 51.14415 39.45305 8.967354
328 62.86220 85.59570 42.02670 41.77377 58.14335 22.61378
329 70.07780 89.02190 57.09710 51.14425 66.25187 37.23984
330 86.44990 90.33270 56.43500 62.53827 73.45613 37.06447
331 16.47530 20.21910 11.66790 2.446451 3.061266 1.825875
332 17.11940 32.00930 16.25240 4.480696 6.850868 3.124991
333 34.13690 33.49780 19.84980 7.829319 8.820612 4.519311
334 48.88240 38.50920 34.29310 14.82809 14.10358 11.09587
335 4.607000 12.86060 12.43080 1.038953 1.389021 1.719587
336 22.09410 18.06650 25.83820 3.639182 3.214390 5.966034
337 52.91010 28.09910 53.88830 17.14602 12.00469 25.65980
338 72.27020 46.70970 68.39750 34.44128 27.03730 43.79160
339 71.41340 73.22130 81.22250 48.52146 50.12010 66.41020
340 71.27880 82.56400 92.39700 57.73377 62.49545 89.43051
341 83.37220 87.74810 100.0000 72.13479 74.65782 106.1189
342 0.000000 0.000000 0.000000 0.098232 0.103584 0.112167
343 22.96120 48.66490 49.58920 12.74403 16.83951 22.46399
344 32.67130 68.51910 58.60640 24.31147 34.73119 33.68195
345 32.97730 72.94000 73.99340 30.19426 40.59818 54.56562
346 78.93760 82.02590 73.55670 56.20450 61.80304 56.57313
347 91.36890 85.60890 74.51500 67.94631 71.12917 59.04245
348 100.0000 88.66010 85.67850 81.21283 81.00320 77.55021
349 82.32710 47.47570 53.19080 38.54343 29.87246 27.08416
350 85.37840 74.77350 100.0000 65.87601 59.77810 104.2246
351 41.70330 6.255500 61.16950 12.53390 6.138250 33.17204
352 60.66870 12.90410 64.09630 21.37046 11.37257 37.34550
353 65.78500 35.71460 66.99440 27.59493 19.11127 41.27200
354 22.58180 59.36660 39.32500 14.96138 23.76917 16.00242
355 25.67860 80.48440 74.82010 33.21482 48.31908 57.38433
356 0.000000 13.70720 40.01790 3.255976 2.351236 13.70918
357 11.56340 22.79250 42.41150 4.871994 4.470176 15.30435
358 26.98390 27.11680 46.06180 8.044378 7.028442 18.36408
359 86.20760 43.19030 65.12400 42.67084 30.10583 40.36666
360 100.0000 49.85290 83.64960 62.10092 42.54239 68.99079
361 77.14930 0.000000 84.80280 36.24716 17.52862 68.11915
362 82.38170 20.56730 100.0000 47.28872 24.53519 100.4366
363 28.06240 9.645700 34.86450 5.137195 2.998085 10.27165
364 30.50640 27.88250 37.80980 7.743513 7.197724 12.45713
365 33.20690 38.07990 48.80460 11.83843 12.14275 21.22240
366 45.47270 46.51050 64.31700 20.79413 19.87540 38.83618
367 58.61050 61.01320 72.11140 32.83935 33.63227 50.34406
368 21.53870 46.69480 29.19630 9.359157 14.57677 8.842171
369 37.24840 52.84410 30.60270 14.69175 20.17982 10.32616
370 75.09540 53.78740 40.00300 33.21841 30.26356 16.93005
371 43.39420 16.44700 25.90940 8.559079 5.669045 6.049249
372 45.39650 20.54340 35.51890 10.50054 7.098078 11.09377
373 56.95820 24.23120 37.01220 15.76381 10.63430 11.88042
374 73.39030 23.64090 52.07430 27.08030 16.33614 24.30011
375 81.76170 33.57470 68.16080 37.41554 23.80130 43.32888
376 85.55380 41.27480 82.56580 46.23434 30.49443 65.70732
377 15.06290 62.74620 21.43020 14.08766 25.89207 7.868198
378 15.47800 69.26340 52.38540 20.70543 33.55022 28.03625
379 15.30920 91.61810 82.28560 41.38512 63.43856 70.55606
380 49.87330 95.70680 84.17690 53.10885 73.98662 75.07808
381 63.13800 100.0000 100.0000 68.07638 86.24721 107.4197
382 11.17690 27.22350 22.88960 3.451272 4.918212 4.834869
383 19.81310 30.42000 31.37160 5.546725 6.791104 8.830769
384 23.51750 44.93310 37.61660 10.07418 14.11270 13.52580
385 51.72210 63.98430 40.02690 25.19860 32.46190 17.51618
386 20.92150 87.22550 18.61470 27.68814 52.47954 11.42872
387 19.30050 86.95180 35.88150 28.92013 52.96728 18.96034
388 2.336400 0.000000 0.000000 0.158964 0.134178 0.121979
389 10.71230 19.68690 28.19750 2.889118 3.095266 6.945729
390 10.36360 35.51060 44.25040 7.245815 8.936730 17.63242
391 0.000000 25.42600 35.25780 3.894331 4.695814 10.77510
