HP/HP Elitebook 835 G7/27531 #1 2020-09-28 21-30 0.3127x 0.329y sRGB F-S XYZLUT+MTX/27531 #1 2020-09-28 21-30 0.3127x 0.329y sRGB F-S XYZLUT+MTX.cal
CAL    

DESCRIPTOR "Argyll Device Calibration Curves"
ORIGINATOR "Argyll dispcal"
CREATED "Mon Sep 28 21:38:44 2020"
DEVICE_CLASS "DISPLAY"
COLOR_REP "RGB"
VIDEO_LUT_CALIBRATION_POSSIBLE "YES"
TV_OUTPUT_ENCODING "NO"
DEVICE_TYPE "n"
TARGET_WHITE_XYZ "150.937432 158.805293 172.948135"
TARGET_GAMMA "sRGB"
DEGREE_OF_BLACK_OUTPUT_OFFSET "1.0"
BLACK_POINT_CORRECTION "0.0"
BLACK_NEUTRAL_BLEND_RATE "4.0"
BLACK_POINT_HACK "YES"
QUALITY "low"

BEGIN_ARGYLL_DISPCAL_ARGS
-v2 -d1 -c1 -yn -P0.499546690843,0.498098859316,1.24732824427 -Iw -ql -m -w0.3127,0.329 -gs -f1.0 -k0 -A4.0 -b
END_ARGYLL_DISPCAL_ARGS


NUMBER_OF_FIELDS 4
BEGIN_DATA_FORMAT
RGB_I RGB_R RGB_G RGB_B
END_DATA_FORMAT

NUMBER_OF_SETS 256
BEGIN_DATA
0.00000000 0.00000000 0.00000000 0.00000000
0.00392157 0.00397301 0.00412269 0.00417864
0.00784314 0.00770815 0.00797940 0.00807775
0.01176470 0.01122620 0.01159510 0.01172450
0.01568630 0.01454550 0.01499160 0.01514250
0.01960780 0.01768240 0.01818840 0.01835280
0.02352940 0.02065160 0.02120250 0.02137360
0.02745100 0.02347120 0.02405720 0.02423280
0.03137250 0.02616400 0.02677480 0.02696120
0.03529410 0.02874260 0.02936400 0.02956780
0.03921570 0.03122130 0.03184330 0.03206420
0.04313730 0.03361050 0.03422410 0.03445950
0.04705880 0.03593800 0.03652410 0.03677650
0.05098040 0.03820380 0.03876570 0.03903990
0.05490200 0.04042860 0.04096010 0.04125330
0.05882350 0.04260370 0.04310440 0.04341830
0.06274510 0.04472810 0.04521380 0.04554840
0.06666670 0.04680950 0.04729040 0.04764240
0.07058820 0.04885550 0.04932970 0.04968890
0.07450980 0.05086160 0.05134550 0.05170310
0.07843140 0.05286340 0.05336610 0.05371290
0.08235290 0.05485800 0.05535790 0.05568810
0.08627450 0.05682200 0.05732800 0.05763740
0.09019610 0.05875700 0.05927560 0.05955920
0.09411760 0.06066500 0.06122360 0.06148430
0.09803920 0.06257230 0.06317590 0.06341930
0.10196100 0.06448420 0.06514080 0.06536860
0.10588200 0.06640000 0.06709680 0.06731250
0.10980400 0.06830260 0.06903430 0.06924020
0.11372500 0.07018270 0.07096590 0.07116130
0.11764700 0.07205290 0.07289030 0.07308070
0.12156900 0.07391760 0.07480450 0.07499280
0.12549000 0.07577200 0.07669340 0.07688430
0.12941200 0.07760460 0.07854860 0.07874620
0.13333300 0.07941130 0.08038780 0.08060010
0.13725500 0.08121200 0.08224280 0.08247830
0.14117600 0.08303780 0.08411520 0.08437740
0.14509800 0.08488730 0.08600980 0.08629810
0.14902000 0.08676350 0.08793250 0.08824990
0.15294100 0.08868190 0.08985690 0.09020220
0.15686300 0.09061720 0.09176660 0.09213520
0.16078400 0.09254880 0.09364530 0.09403200
0.16470600 0.09446640 0.09549850 0.09589460
0.16862700 0.09636970 0.09732720 0.09772990
0.17254900 0.09825880 0.09913130 0.09953520
0.17647100 0.10013000 0.10092900 0.10133300
0.18039200 0.10200500 0.10271400 0.10311900
0.18431400 0.10387200 0.10446300 0.10487500
0.18823500 0.10571000 0.10615800 0.10658100
0.19215700 0.10749900 0.10780800 0.10823800
0.19607800 0.10924400 0.10945400 0.10988500
0.20000000 0.11099200 0.11114600 0.11157900
0.20392200 0.11280100 0.11289200 0.11333100
0.20784300 0.11468000 0.11468200 0.11513000
0.21176500 0.11660600 0.11651000 0.11696200
0.21568600 0.11856400 0.11836400 0.11882200
0.21960800 0.12054700 0.12021800 0.12069100
0.22352900 0.12253000 0.12206900 0.12255900
0.22745100 0.12451600 0.12392500 0.12444200
0.23137300 0.12650600 0.12579400 0.12634300
0.23529400 0.12849700 0.12766100 0.12825000
0.23921600 0.13047600 0.12952200 0.13015500
0.24313700 0.13243700 0.13137800 0.13205800
0.24705900 0.13437200 0.13323300 0.13396100
0.25098000 0.13628900 0.13509000 0.13587100
0.25490200 0.13818900 0.13694200 0.13778100
0.25882400 0.14006700 0.13879100 0.13969000
0.26274500 0.14193900 0.14064300 0.14160100
0.26666700 0.14381000 0.14250800 0.14351500
0.27058800 0.14569900 0.14439600 0.14544500
0.27451000 0.14759600 0.14627400 0.14735800
0.27843100 0.14946700 0.14811900 0.14923000
0.28235300 0.15130700 0.14993700 0.15106100
0.28627500 0.15313100 0.15176600 0.15288800
0.29019600 0.15498200 0.15363500 0.15474200
0.29411800 0.15687800 0.15554800 0.15663200
0.29803900 0.15881300 0.15748000 0.15853600
0.30196100 0.16076400 0.15941600 0.16043700
0.30588200 0.16272500 0.16135900 0.16233800
0.30980400 0.16469000 0.16330400 0.16424300
0.31372500 0.16665800 0.16524700 0.16614900
0.31764700 0.16863900 0.16718800 0.16805700
0.32156900 0.17063300 0.16913000 0.16996700
0.32549000 0.17264600 0.17108100 0.17188600
0.32941200 0.17465500 0.17301800 0.17379300
0.33333300 0.17663100 0.17491500 0.17566700
0.33725500 0.17854400 0.17673900 0.17747300
0.34117600 0.18038800 0.17849500 0.17921200
0.34509800 0.18219800 0.18020500 0.18091500
0.34902000 0.18399100 0.18188800 0.18259800
0.35294100 0.18579400 0.18356700 0.18428500
0.35686300 0.18762000 0.18524900 0.18598900
0.36078400 0.18947700 0.18694800 0.18771700
0.36470600 0.19138000 0.18869000 0.18949400
0.36862700 0.19334300 0.19048400 0.19133800
0.37254900 0.19535800 0.19233800 0.19324800
0.37647100 0.19740500 0.19423400 0.19520600
0.38039200 0.19945900 0.19614800 0.19718500
0.38431400 0.20151500 0.19806300 0.19916900
0.38823500 0.20359600 0.19999200 0.20117100
0.39215700 0.20568500 0.20193100 0.20318900
0.39607800 0.20776300 0.20387400 0.20521400
0.40000000 0.20984100 0.20581900 0.20724800
0.40392200 0.21192600 0.20778700 0.20930700
0.40784300 0.21399800 0.20977100 0.21137400
0.41176500 0.21605200 0.21175100 0.21343700
0.41568600 0.21809100 0.21373000 0.21549700
0.41960800 0.22011100 0.21570800 0.21755500
0.42352900 0.22209900 0.21767800 0.21959900
0.42745100 0.22407600 0.21964300 0.22163300
0.43137300 0.22604400 0.22161300 0.22365900
0.43529400 0.22800500 0.22358600 0.22567900
0.43921600 0.22994900 0.22556000 0.22768600
0.44313700 0.23186300 0.22750800 0.22965600
0.44705900 0.23377500 0.22944500 0.23161800
0.45098000 0.23569000 0.23138400 0.23358300
0.45490200 0.23761200 0.23332200 0.23554100
0.45882400 0.23955100 0.23527100 0.23750700
0.46274500 0.24147900 0.23722600 0.23946200
0.46666700 0.24339700 0.23916200 0.24139800
0.47058800 0.24528300 0.24106500 0.24329900
0.47451000 0.24712700 0.24291100 0.24515300
0.47843100 0.24895100 0.24469500 0.24695500
0.48235300 0.25075800 0.24644400 0.24872900
0.48627500 0.25255000 0.24816900 0.25048100
0.49019600 0.25435200 0.24988300 0.25222900
0.49411800 0.25619600 0.25162200 0.25401000
0.49803900 0.25810200 0.25341100 0.25584800
0.50196100 0.26010100 0.25527700 0.25776600
0.50588200 0.26220200 0.25723100 0.25977300
0.50980400 0.26438700 0.25927500 0.26186500
0.51372500 0.26658600 0.26136300 0.26395800
0.51764700 0.26880000 0.26344900 0.26605100
0.52156900 0.27104900 0.26554100 0.26815800
0.52549000 0.27332800 0.26766900 0.27028700
0.52941200 0.27562200 0.26984000 0.27243200
0.53333300 0.27795000 0.27204000 0.27459400
0.53725500 0.28031000 0.27428400 0.27678300
0.54117600 0.28266900 0.27654900 0.27896700
0.54509800 0.28503000 0.27881000 0.28112900
0.54902000 0.28739700 0.28107500 0.28327900
0.55294100 0.28975400 0.28335500 0.28543000
0.55686300 0.29211200 0.28564000 0.28757400
0.56078400 0.29444400 0.28794300 0.28973100
0.56470600 0.29670600 0.29023700 0.29188600
0.56862700 0.29892400 0.29247500 0.29399000
0.57254900 0.30111700 0.29468700 0.29606200
0.57647100 0.30330800 0.29689100 0.29812600
0.58039200 0.30549600 0.29910800 0.30021600
0.58431400 0.30765600 0.30132800 0.30232000
0.58823500 0.30978300 0.30352800 0.30442500
0.59215700 0.31188800 0.30570800 0.30652400
0.59607800 0.31395300 0.30787900 0.30863000
0.60000000 0.31598700 0.31002000 0.31073900
0.60392200 0.31800600 0.31214600 0.31284600
0.60784300 0.32002900 0.31427300 0.31496700
0.61176500 0.32206300 0.31642000 0.31711500
0.61568600 0.32410700 0.31858900 0.31930100
0.61960800 0.32616300 0.32078000 0.32152900
0.62352900 0.32822600 0.32299300 0.32379900
0.62745100 0.33024800 0.32517700 0.32609600
0.63137300 0.33228000 0.32735200 0.32835200
0.63529400 0.33433600 0.32954400 0.33061400
0.63921600 0.33644600 0.33177000 0.33288600
0.64313700 0.33861800 0.33405100 0.33519900
0.64705900 0.34085200 0.33638600 0.33755700
0.65098000 0.34312600 0.33875400 0.33994700
0.65490200 0.34542500 0.34113700 0.34235400
0.65882400 0.34772900 0.34351700 0.34475600
0.66274500 0.35006000 0.34592100 0.34716500
0.66666700 0.35240300 0.34831500 0.34957000
0.67058800 0.35471300 0.35066200 0.35192000
0.67451000 0.35703000 0.35301600 0.35423300
0.67843100 0.35934100 0.35534400 0.35653800
0.68235300 0.36160700 0.35761000 0.35879000
0.68627500 0.36384300 0.35984800 0.36098900
0.69019600 0.36609700 0.36207900 0.36318100
0.69411800 0.36836600 0.36429500 0.36535600
0.69803900 0.37063300 0.36647400 0.36750400
0.70196100 0.37288400 0.36862400 0.36961300
0.70588200 0.37516300 0.37077100 0.37170800
0.70980400 0.37749400 0.37295300 0.37381400
0.71372500 0.37990200 0.37519200 0.37596400
0.71764700 0.38234100 0.37744100 0.37815700
0.72156900 0.38481100 0.37970100 0.38035500
0.72549000 0.38732300 0.38200200 0.38258000
0.72941200 0.38987800 0.38434600 0.38485100
0.73333300 0.39245700 0.38672100 0.38717400
0.73725500 0.39503200 0.38910300 0.38952600
0.74117600 0.39756400 0.39146200 0.39188700
0.74509800 0.40007500 0.39382400 0.39423300
0.74902000 0.40254900 0.39619000 0.39659200
0.75294100 0.40497700 0.39853400 0.39896300
0.75686300 0.40737200 0.40087600 0.40133000
0.76078400 0.40971800 0.40320700 0.40370400
0.76470600 0.41201600 0.40551400 0.40608800
0.76862700 0.41425900 0.40778400 0.40847300
0.77254900 0.41652000 0.41007800 0.41085700
0.77647100 0.41886700 0.41247200 0.41330700
0.78039200 0.42134100 0.41501900 0.41588900
0.78431400 0.42399100 0.41775600 0.41867500
0.78823500 0.42683900 0.42070400 0.42169900
0.79215700 0.42992400 0.42391100 0.42496400
0.79607800 0.43328100 0.42739900 0.42853100
0.80000000 0.43688200 0.43116000 0.43236200
0.80392200 0.44067300 0.43511500 0.43643500
0.80784300 0.44462400 0.43922200 0.44058500
0.81176500 0.44877200 0.44351400 0.44485000
0.81568600 0.45311200 0.44797400 0.44924300
0.81960800 0.45761500 0.45262500 0.45375100
0.82352900 0.46241100 0.45758200 0.45852900
0.82745100 0.46744000 0.46274700 0.46354400
0.83137300 0.47258200 0.46798100 0.46866700
0.83529400 0.47775700 0.47325100 0.47384300
0.83921600 0.48279800 0.47835200 0.47895500
0.84313700 0.48757400 0.48329000 0.48384600
0.84705900 0.49228000 0.48812400 0.48865800
0.85098000 0.49686500 0.49277600 0.49333000
0.85490200 0.50141200 0.49736600 0.49793600
0.85882400 0.50602600 0.50198700 0.50259600
0.86274500 0.51072800 0.50672100 0.50737100
0.86666700 0.51549600 0.51156800 0.51223600
0.87058800 0.52028300 0.51638700 0.51711500
0.87451000 0.52488900 0.52098200 0.52179300
0.87843100 0.52912200 0.52504000 0.52604400
0.88235300 0.53277800 0.52852700 0.52967700
0.88627500 0.53590500 0.53149700 0.53275500
0.89019600 0.53858400 0.53401900 0.53537100
0.89411800 0.54088300 0.53616600 0.53761700
0.89803900 0.54287300 0.53802500 0.53956100
0.90196100 0.54461700 0.53970000 0.54127700
0.90588200 0.54622300 0.54123000 0.54286100
0.90980400 0.54772500 0.54264700 0.54433400
0.91372500 0.54913900 0.54398500 0.54572000
0.91764700 0.55049600 0.54526500 0.54705200
0.92156900 0.55182500 0.54650700 0.54835000
0.92549000 0.55314400 0.54774900 0.54963500
0.92941200 0.55450200 0.54901600 0.55095500
0.93333300 0.55591900 0.55032800 0.55232200
0.93725500 0.55742300 0.55171400 0.55376700
0.94117600 0.55905600 0.55321200 0.55532700
0.94509800 0.56089600 0.55489700 0.55707700
0.94902000 0.56303900 0.55684300 0.55910700
0.95294100 0.56559500 0.55914600 0.56153100
0.95686300 0.56875600 0.56205100 0.56454600
0.96078400 0.57288300 0.56588100 0.56853400
0.96470600 0.57828500 0.57102300 0.57385100
0.96862700 0.58524000 0.57788900 0.58082400
0.97254900 0.59339400 0.58612200 0.58906100
0.97647100 0.60195500 0.59465700 0.59765800
0.98039200 0.61059700 0.60299200 0.60620200
0.98431400 0.61949700 0.61149000 0.61498200
0.98823500 0.62841800 0.62007100 0.62376500
0.99215700 0.63828200 0.62981600 0.63358700
0.99607800 0.64797400 0.63932800 0.64324400
1.00000000 0.65752900 0.64853900 0.65273400
END_DATA
CAL    

DESCRIPTOR "Argyll Calibration options and model"
ORIGINATOR "Argyll dispcal"
CREATED "Mon Sep 28 21:38:44 202"

NUMBER_OF_FIELDS 3
BEGIN_DATA_FORMAT
R_P G_P B_P
END_DATA_FORMAT

NUMBER_OF_SETS 32
BEGIN_DATA
-0.0005924210 -0.0000756558 0.0004100120
1.0005920000 1.0000760000 0.9995900000
0.1715700000 0.2894420000 0.3255450000
0.2902420000 0.1808440000 0.1846150000
0.3180070000 0.2469170000 0.2257050000
0.2281690000 0.2213170000 0.1880820000
0.1480120000 0.1654240000 0.1456760000
0.1318040000 0.1266360000 0.1223840000
0.0843001000 0.1250310000 0.1218140000
0.0631395000 0.1103700000 0.1090570000
0.0789013000 0.0837849000 0.0960787000
0.0664935000 0.0824243000 0.0857747000
0.0720469000 0.0787576000 0.0835205000
0.0665142000 0.0746891000 0.0734217000
0.0374699000 0.0599289000 0.0726586000
0.0682207000 0.0570384000 0.0625934000
0.0579872000 0.0427095000 0.0496034000
0.0402792000 0.0505627000 0.0578703000
0.0499361000 0.0580594000 0.0493526000
0.0379011000 0.0597260000 0.0605351000
0.0407700000 0.0458647000 0.0551137000
0.0354281000 0.0344655000 0.0395367000
0.0255689000 0.0355552000 0.0365225000
0.0157149000 0.0367909000 0.0357867000
0.0176445000 0.0382395000 0.0377853000
0.0206177000 0.0367521000 0.0380981000
0.0278669000 0.0324831000 0.0340675000
0.0216361000 0.0320751000 0.0375366000
0.0161878000 0.0263860000 0.0361042000
0.0195868000 0.0287017000 0.0335853000
0.0175052000 0.0356049000 0.0388027000
0.0210701000 0.0388496000 0.0320586000
END_DATA
