HP/HP Elitebook 835 G7/27531 #1 2020-09-28 21-30 0.3127x 0.329y sRGB F-S XYZLUT+MTX/27531 #1 2020-09-28 21-30 0.3127x 0.329y sRGB F-S XYZLUT+MTX.bpc.ti3
CTI3   

DESCRIPTOR "Argyll Calibration Target chart information 3"
ORIGINATOR "Argyll dispread"
CREATED "Mon Sep 28 21:39:48 2020"
DEVICE_CLASS "DISPLAY"
SINGLE_DIM_STEPS "21"
COMP_GREY_STEPS "61"
DARK_REGION_EMPHASIS "1.6"
COLOR_REP "RGB_XYZ"
TARGET_INSTRUMENT "X-Rite i1 DisplayPro, ColorMunki Display"
DISPLAY_TYPE_REFRESH "NO"
DISPLAY_TYPE_BASE_ID "1"
INSTRUMENT_TYPE_SPECTRAL "NO"
LUMINANCE_XYZ_CDM2 "87.467983 91.727069 99.514992"
NORMALIZED_TO_Y_100 "YES"
VIDEO_LUT_CALIBRATION_POSSIBLE "YES"

BEGIN_ARGYLL_COLPROF_ARGS
-v -qh -aX -bn -C "No copyright. Created with DisplayCAL 3.8.9.3 and ArgyllCMS 2.1.2" -M "27531" -A "AU Optronics"
END_ARGYLL_COLPROF_ARGS

OBSERVER "1931_2"
USE_BLACK_POINT_COMPENSATION "NO"
BLACK_POINT_CORRECTION "0.0"
HIRES_B2A "YES"
HIRES_B2A_SIZE "-1"
SMOOTH_B2A "YES"
PATCH_SEQUENCE "OPTIMIZE_DISPLAY_RESPONSE_DELAY"

NUMBER_OF_FIELDS 7
BEGIN_DATA_FORMAT
SAMPLE_ID RGB_R RGB_G RGB_B XYZ_X XYZ_Y XYZ_Z
END_DATA_FORMAT

NUMBER_OF_SETS 588
BEGIN_DATA
1 100.00000 100.00000 100.00000 95.357030 100.00027 108.49059
2 1.9608000 1.9608000 1.9608000 0.1333533 0.1407172 0.1578167
3 3.9216000 3.9216000 3.9216000 0.2652939 0.2867699 0.3426538
4 5.8824000 5.8824000 5.8824000 0.4688254 0.5055775 0.5981150
5 9.8039000 9.8039000 9.8039000 1.0124396 1.0668035 1.1998645
6 13.726000 13.726000 13.726000 1.7501076 1.8773407 2.1032414
7 17.647000 17.647000 17.647000 2.6583267 2.8074128 3.0765378
8 21.569000 21.569000 21.569000 3.7287009 3.9438940 4.2995483
9 25.490000 25.490000 25.490000 5.2370327 5.5409825 6.0198035
10 29.412000 29.412000 29.412000 6.9354879 7.2117698 8.0670963
11 33.333000 33.333000 33.333000 8.9544873 9.4397762 10.176812
12 37.255000 37.255000 37.255000 11.138444 11.672557 12.511552
13 41.176000 41.176000 41.176000 13.791630 14.482527 15.699215
14 45.098000 45.098000 45.098000 16.758252 17.616392 19.003003
15 49.020000 49.020000 49.020000 19.925607 20.796606 22.895226
16 52.941000 52.941000 52.941000 23.690665 24.905140 26.931743
17 56.863000 56.863000 56.863000 28.187272 29.474704 32.023974
18 60.784000 60.784000 60.784000 32.825363 34.555836 37.149325
19 64.706000 64.706000 64.706000 38.030600 39.987102 43.141027
20 68.627000 68.627000 68.627000 43.632579 45.879620 49.349911
21 72.549000 72.549000 72.549000 49.975507 52.387440 56.353261
22 76.471000 76.471000 76.471000 57.189398 59.993354 64.557619
23 80.392000 80.392000 80.392000 65.662724 68.960059 74.158187
24 84.314000 84.314000 84.314000 69.768738 73.151509 79.331805
25 88.235000 88.235000 88.235000 76.722490 80.739594 87.115601
26 92.157000 92.157000 92.157000 80.870332 84.954883 92.077158
27 96.078000 96.078000 96.078000 82.848237 86.820513 94.430317
28 100.00000 47.825300 24.378100 47.807170 31.214399 5.7386633
29 100.00000 53.701300 68.764000 54.655696 36.298381 30.571927
30 100.00000 61.791100 84.687700 61.918945 42.989964 56.806731
31 0.0000000 73.129400 29.869400 21.095556 40.504590 14.904309
32 0.0000000 82.492200 57.825400 32.755006 57.852936 38.772835
33 0.0000000 100.00000 77.522900 42.977917 76.011987 49.863679
34 47.396600 100.00000 80.444900 48.637085 78.486711 53.962093
35 87.459700 100.00000 91.700000 76.657482 93.170401 82.507188
36 4.8077000 0.0000000 0.0000000 0.2196041 0.1604294 0.1168424
37 7.4257000 0.0000000 0.0000000 0.3496102 0.2253606 0.1234654
38 10.204100 0.0000000 0.0000000 0.5189144 0.3129808 0.1374785
39 13.157900 0.0000000 0.0000000 0.7741687 0.4445962 0.1534302
40 16.304300 0.0000000 0.0000000 1.1065544 0.6158678 0.1698466
41 19.662900 0.0000000 0.0000000 1.4636743 0.8003909 0.1838219
42 23.255800 0.0000000 0.0000000 1.9824693 1.0686404 0.2004350
43 27.108400 0.0000000 0.0000000 2.6914051 1.4354686 0.2200534
44 31.250000 0.0000000 0.0000000 3.6756541 1.9442268 0.2463630
45 35.714300 0.0000000 0.0000000 4.7521331 2.5010709 0.2751360
46 40.540500 0.0000000 0.0000000 6.1354683 3.2164142 0.3116207
47 48.935000 0.0000000 0.0000000 9.2901536 4.8472933 0.3958549
48 51.470600 0.0000000 0.0000000 10.268361 5.3532175 0.4220241
49 57.692300 0.0000000 0.0000000 13.701574 7.1286804 0.5123635
50 64.516100 0.0000000 0.0000000 17.741210 9.2197526 0.6167741
51 72.033900 0.0000000 0.0000000 23.164208 12.022892 0.7597129
52 80.357100 0.0000000 0.0000000 30.808280 15.977543 0.9556235
53 89.622600 0.0000000 0.0000000 36.003857 18.747024 1.1141627
54 100.00000 0.0000000 78.180300 50.874829 25.587120 38.424840
55 100.00000 0.0000000 100.00000 62.593406 30.492610 98.891655
56 100.00000 30.103000 100.00000 64.760613 34.091845 100.42874
57 100.00000 53.495600 100.00000 69.581046 42.603040 103.07123
58 38.290800 30.878800 27.027900 10.299270 9.8609221 7.8527236
59 37.382000 65.771200 35.831300 23.958024 36.702023 17.261128
60 74.520400 100.00000 46.995900 54.380838 83.491546 25.018225
61 82.889800 100.00000 78.757500 65.612286 88.706732 53.287842
62 0.0000000 23.255800 0.0000000 1.7867062 3.5631484 0.7626108
63 0.0000000 27.108400 0.0000000 2.2730708 4.5524219 0.9313836
64 0.0000000 31.250000 0.0000000 2.9804396 6.0018387 1.1785048
65 0.0000000 35.714300 0.0000000 3.8691895 7.8313702 1.4992022
66 0.0000000 40.540500 0.0000000 4.9742781 10.089095 1.8884635
67 0.0000000 45.774700 0.0000000 6.5931796 13.401623 2.4669467
68 0.0000000 51.470600 0.0000000 8.2133281 16.702792 3.0398321
69 0.0000000 57.692300 0.0000000 10.930223 22.331650 4.0176791
70 0.0000000 64.516100 0.0000000 14.538518 29.660536 5.2888586
71 0.0000000 72.033900 0.0000000 18.873472 38.583283 6.8216438
72 0.0000000 80.357100 0.0000000 25.140003 51.357265 9.0214494
73 29.466600 82.857400 0.0000000 29.627810 55.898720 9.6480965
74 44.657000 100.00000 0.0000000 39.692288 74.145207 12.533841
75 51.626100 100.00000 37.436900 42.636992 75.318606 19.407886
76 0.0000000 0.0000000 4.8077000 0.1450896 0.1163642 0.3976463
77 0.0000000 0.0000000 7.4257000 0.2050522 0.1405062 0.7159369
78 0.0000000 0.0000000 10.204100 0.2802501 0.1714389 1.1077155
79 0.0000000 0.0000000 13.157900 0.4141076 0.2259315 1.7942878
80 0.0000000 0.0000000 16.304300 0.5642302 0.2875839 2.5817747
81 0.0000000 0.0000000 19.662900 0.7130045 0.3485593 3.3476541
82 0.0000000 0.0000000 23.255800 0.9283315 0.4368875 4.4753102
83 0.0000000 0.0000000 27.108400 1.2408459 0.5653420 6.1234496
84 0.0000000 0.0000000 31.250000 1.6768466 0.7451873 8.4015657
85 0.0000000 0.0000000 35.714300 2.1022463 0.9202748 10.640641
86 0.0000000 0.0000000 40.540500 2.7220841 1.1746548 13.862796
87 0.0000000 0.0000000 45.774700 3.5166090 1.5023988 18.012377
88 0.0000000 0.0000000 51.470600 4.4783689 1.8995487 23.052063
89 0.0000000 0.0000000 57.692300 5.8201104 2.4519870 30.027500
90 0.0000000 0.0000000 64.516100 7.6378992 3.2012479 39.523951
91 0.0000000 0.0000000 72.033900 9.9517457 4.1520061 51.557551
92 0.0000000 0.0000000 80.357100 13.204605 5.5088099 68.564873
93 0.0000000 0.0000000 89.622600 15.742956 6.5599078 81.745260
94 0.0000000 38.614600 100.00000 21.152004 13.053508 97.315343
95 0.7645000 0.7645000 0.7645000 0.0967423 0.1008620 0.1148680
96 1.5432000 1.5432000 1.5432000 0.1193778 0.1257388 0.1425259
97 2.3364000 2.3364000 2.3364000 0.1715606 0.1799425 0.2085420
98 3.1447000 3.1447000 3.1447000 0.2093485 0.2187179 0.2551176
99 3.9683000 3.9683000 3.9683000 0.2766113 0.2988374 0.3594470
100 4.8077000 4.8077000 4.8077000 0.3844710 0.4019340 0.4705042
101 5.6634000 5.6634000 5.6634000 0.4528436 0.4748579 0.5538747
102 6.5359000 6.5359000 6.5359000 0.5857788 0.6391568 0.7586467
103 7.4257000 7.4257000 7.4257000 0.7099559 0.7445563 0.8527999
104 8.3333000 8.3333000 8.3333000 0.8075886 0.8506577 0.9668728
105 9.2593000 9.2593000 9.2593000 0.9972373 1.0502872 1.1841580
106 10.204100 10.204100 10.204100 1.1064203 1.1655152 1.3070280
107 11.168400 11.168400 11.168400 1.2621639 1.3297462 1.4863184
108 12.152800 12.152800 12.152800 1.4819321 1.5944228 1.8002382
109 13.157900 13.157900 13.157900 1.7760731 1.8926080 2.1134543
110 14.184400 14.184400 14.184400 1.9507820 2.0576599 2.2686397
111 15.233000 15.233000 15.233000 2.2421642 2.3912446 2.6522157
112 16.304300 16.304300 16.304300 2.5280771 2.6589571 3.0088800
113 17.399300 17.399300 17.399300 2.7304240 2.8740069 3.2154081
114 18.518500 18.518500 18.518500 3.0011467 3.1726301 3.4707384
115 19.662900 19.662900 19.662900 3.3533736 3.5657362 3.9120934
116 20.833300 20.833300 20.833300 3.7216872 3.9279517 4.3586025
117 22.030700 22.030700 22.030700 4.1161256 4.3601152 4.7501361
118 23.255800 23.255800 23.255800 4.5283140 4.7905897 5.2139318
119 24.509800 24.509800 24.509800 5.0132473 5.3040157 5.7668531
120 25.793600 25.793600 25.793600 5.6074099 5.9385884 6.4490054
121 27.108400 27.108400 27.108400 6.1460388 6.4465786 7.1042245
122 28.455300 28.455300 28.455300 6.8382251 7.1319672 7.9383628
123 29.835400 29.835400 29.835400 7.4585755 7.7420450 8.6730523
124 31.250000 31.250000 31.250000 8.3186366 8.6297500 9.6914877
125 32.700400 32.700400 32.700400 8.9395279 9.3330318 10.349654
126 34.188000 34.188000 34.188000 9.8441031 10.392412 11.214617
127 35.714300 35.714300 35.714300 10.801088 11.296454 12.326180
128 37.280700 37.280700 37.280700 11.758087 12.317860 13.205562
129 38.888900 38.888900 38.888900 12.882739 13.512568 14.496677
130 40.540500 40.540500 40.540500 13.940473 14.573753 16.026691
131 42.237400 42.237400 42.237400 15.590293 16.294509 17.798995
132 43.981500 43.981500 43.981500 16.798901 17.628512 19.276861
133 45.774700 45.774700 45.774700 18.407642 19.355148 20.902372
134 47.619100 47.619100 47.619100 19.637139 20.592955 22.554501
135 49.516900 49.516900 49.516900 21.480010 22.333940 24.633372
136 51.470600 51.470600 51.470600 23.250274 24.202970 26.509551
137 53.482600 53.482600 53.482600 25.596483 26.820667 28.824452
138 55.555600 55.555600 55.555600 28.578615 29.858617 32.526193
139 57.692300 57.692300 57.692300 30.308211 31.623071 34.450990
140 59.895800 59.895800 59.895800 33.931446 35.551163 38.657850
141 62.169300 62.169300 62.169300 37.014643 38.798303 41.662481
142 64.516100 64.516100 64.516100 40.250584 42.312593 45.658279
143 66.939900 66.939900 66.939900 43.759644 45.949847 50.313670
144 69.444400 69.444400 69.444400 47.545411 49.977814 53.905876
145 72.033900 72.033900 72.033900 52.338696 54.960790 59.191869
146 74.712600 74.712600 74.712600 57.377570 60.228114 64.685633
147 77.485400 77.485400 77.485400 62.384805 65.324235 70.382569
148 80.357100 80.357100 80.357100 69.375745 72.870582 78.626825
149 83.333300 83.333300 83.333300 72.760800 76.560923 82.620113
150 86.419700 86.419700 86.419700 77.581823 81.436094 88.297590
151 89.622600 89.622600 89.622600 84.018676 88.301659 96.093525
152 100.00000 25.905000 0.0000000 44.737852 24.995996 1.7124970
153 100.00000 42.900500 0.0000000 46.892789 29.437415 2.4921406
154 100.00000 56.988800 0.0000000 51.051921 36.162007 3.5965732
155 59.059400 46.054000 34.026200 24.177224 22.754172 13.229961
156 61.882700 45.649100 54.693400 29.679298 25.391679 31.069065
157 15.450400 39.856300 38.183200 8.4363145 11.855250 14.238798
158 15.471000 46.116300 83.784300 21.093126 18.618879 76.741506
159 25.375200 49.544900 100.00000 24.215022 17.439580 97.390490
160 26.214900 43.613300 0.0000000 8.4330687 13.296718 2.2873154
161 44.703700 56.748100 0.0000000 18.330405 25.559242 4.0643391
162 63.359300 66.464200 0.0000000 31.955660 39.339800 5.8979095
163 83.766000 70.587900 29.168400 48.697822 48.343414 12.578499
164 0.0000000 50.592900 22.634700 8.6889047 16.339347 7.1232439
165 0.0000000 52.582200 62.129200 15.287766 20.248989 38.150582
166 0.0000000 64.802200 82.826000 26.927286 32.821970 75.910301
167 0.0000000 66.807500 100.00000 26.739654 25.434427 96.579315
168 30.230400 0.0000000 50.922200 7.6182147 3.5371675 22.288931
169 31.854800 0.0000000 71.487400 13.140918 5.8554130 49.288842
170 73.317100 0.0000000 100.00000 31.579257 14.486977 92.956790
171 27.768600 26.262800 43.175300 7.8422780 6.8993322 16.394425
172 35.952600 37.677200 55.822100 14.300738 13.272019 29.265343
173 57.741300 64.144500 72.527900 37.438555 39.805880 56.395839
174 31.248900 0.0000000 100.00000 19.824421 8.4154811 92.344566
175 31.675600 22.163500 100.00000 20.712123 10.308256 92.499660
176 51.254000 52.579100 100.00000 28.980338 20.788216 95.809108
177 50.299100 64.135600 100.00000 32.618692 27.847043 99.365585
178 69.525300 66.653200 100.00000 40.581910 33.197884 101.23530
179 0.0000000 100.00000 55.803800 39.237058 74.836697 29.678835
180 29.211300 100.00000 67.337100 43.154180 76.774114 39.798621
181 100.00000 85.676300 52.733400 66.811615 64.900803 22.913925
182 100.00000 87.149600 70.875100 71.620128 69.807513 39.056443
183 49.855300 64.538100 38.923800 27.327189 36.646186 18.741224
184 64.067500 73.001000 49.996400 43.055894 52.734866 30.496960
185 36.504500 53.450300 32.529700 16.404288 22.943924 12.940353
186 58.976300 53.766600 31.844900 26.038244 27.874012 12.526241
187 100.00000 72.540700 46.235300 55.451362 45.326703 15.760182
188 0.0000000 0.0000000 0.0000000 0.0863338 0.0906638 0.0974138
189 20.337300 0.0000000 32.859400 3.2814373 1.5628172 9.0211709
190 65.962600 28.547200 67.642800 29.356792 17.996256 45.300435
191 100.00000 100.00000 100.00000 92.769291 97.280894 105.67131
192 0.0000000 19.662900 0.0000000 1.2652848 2.4928163 0.5698937
193 0.0000000 28.913400 16.877200 2.9919751 5.2327587 3.5689056
194 0.0000000 64.855100 42.767700 17.342827 30.538548 20.585265
195 24.775900 100.00000 87.642100 46.689818 75.089976 70.723034
196 47.895400 100.00000 100.00000 56.492138 78.732800 105.07894
197 100.00000 27.648700 23.969000 43.714076 24.691589 4.5153208
198 100.00000 46.049800 78.752000 54.108720 33.128517 40.644565
199 0.0000000 0.0000000 2.3364000 0.1047708 0.0998265 0.1853184
200 0.0000000 16.802600 37.226200 3.1534683 2.8446992 11.715987
201 0.0000000 36.034600 51.590900 8.4094417 9.8470427 24.727418
202 33.076500 47.184500 53.271700 15.813073 18.235716 27.689000
203 65.528700 54.287900 70.964800 37.460154 32.915506 53.723773
204 35.201000 0.0000000 32.409400 6.3775055 3.1651584 9.1605684
205 71.833400 0.0000000 50.204900 27.172106 13.664792 22.541941
206 72.234800 0.0000000 64.080200 30.660636 15.131089 39.233285
207 74.727700 0.0000000 80.379000 38.768128 18.745384 69.058455
208 100.00000 0.0000000 34.708500 43.105872 22.196586 6.9120559
209 100.00000 43.063900 38.401900 46.652520 29.095870 9.3473165
210 100.00000 51.744700 55.175600 51.007513 33.553969 19.169066
211 50.654900 19.586400 0.0000000 11.626613 7.9627706 0.8709151
212 60.651600 38.645600 0.0000000 20.411786 17.588604 2.1833408
213 78.002700 46.558300 0.0000000 35.352235 28.768014 3.3166712
214 80.551900 81.570900 0.0000000 55.740590 68.202162 10.092185
215 100.00000 100.00000 0.0000000 77.415020 92.879363 13.342596
216 100.00000 100.00000 29.385200 78.033193 92.924371 17.814334
217 100.00000 100.00000 51.062600 80.997626 95.120907 27.158173
218 100.00000 100.00000 69.094300 85.278542 98.034702 42.154250
219 0.0000000 7.4257000 0.0000000 0.3263223 0.5712597 0.2323094
220 0.0000000 10.204100 0.0000000 0.4589212 0.8447200 0.2816595
221 0.0000000 14.014600 13.568800 1.1118049 1.6209757 2.1781001
222 41.972300 20.445600 33.754100 9.9325713 6.9444703 10.233699
223 0.0000000 0.0000000 0.0000000 0.0879468 0.0922292 0.1000597
224 0.0000000 0.0000000 100.00000 18.220760 7.5453345 94.713544
225 0.0000000 22.802800 100.00000 19.165449 9.5550353 95.158675
226 0.0000000 100.00000 100.00000 53.512455 79.192850 109.21686
227 75.678200 0.0000000 16.852100 26.902127 14.018077 3.5656765
228 78.149500 0.0000000 40.788600 31.807847 16.196463 15.298042
229 100.00000 27.733300 66.738300 48.626345 26.719962 26.440074
230 100.00000 66.929800 67.321200 56.483568 42.754394 30.275879
231 100.00000 73.791800 83.068000 63.917219 50.129107 52.568893
232 100.00000 86.935400 100.00000 84.145291 74.740501 106.54408
233 13.167900 15.452600 0.0000000 1.6508277 2.1636664 0.4726061
234 0.0000000 13.157900 0.0000000 0.7116078 1.3647467 0.3751249
235 0.0000000 16.304300 0.0000000 0.9556787 1.8619383 0.4628195
236 0.0000000 27.071100 26.256700 3.3674959 4.9984618 6.6681167
237 24.308300 61.670400 100.00000 26.954035 23.493700 97.615550
238 41.465100 72.122400 100.00000 32.808984 31.858361 98.305200
239 45.125700 83.602100 100.00000 40.519923 45.911678 102.04297
240 0.0000000 89.622600 0.0000000 30.271343 61.817926 10.976658
241 0.0000000 100.00000 0.0000000 36.304524 74.167876 12.937983
242 0.0000000 100.00000 31.876600 37.657206 75.263189 18.403789
243 100.00000 100.00000 100.00000 101.18230 106.23340 115.32930
244 92.948700 92.948700 92.948700 88.451106 93.093624 101.03721
245 96.405200 96.405200 96.405200 89.514201 93.996625 101.88778
246 53.359300 0.0000000 71.567000 21.962979 10.431841 52.544234
247 60.145400 23.991800 100.00000 29.649009 15.021544 101.47759
248 83.302300 78.455100 100.00000 55.640854 48.722848 106.33029
249 45.774700 0.0000000 0.0000000 8.6124606 4.5029630 0.3880378
250 71.539900 25.897300 0.0000000 25.398362 16.264430 1.4764432
251 77.766300 25.361400 28.264800 31.553028 19.290061 8.3017023
252 54.542500 27.160800 22.177600 15.074895 11.100122 5.4197690
253 64.224700 37.891600 23.868500 23.068382 18.575841 6.9497583
254 76.916900 39.954000 48.804900 36.381020 25.912716 23.435073
255 100.00000 0.0000000 49.588600 44.386897 22.724053 13.243610
256 100.00000 0.0000000 63.670100 46.019057 23.447752 22.770451
257 100.00000 28.267400 83.201800 52.927571 28.667028 48.236369
258 0.0000000 2.3364000 0.0000000 0.1177106 0.1533217 0.1206278
259 0.0000000 4.8077000 0.0000000 0.1938250 0.3049632 0.1642485
260 0.0000000 11.079500 21.272200 1.1973015 1.2184710 3.9358064
261 0.0000000 20.836400 72.756600 11.270908 6.8215265 52.114352
262 0.0000000 52.801100 100.00000 22.901299 17.755006 94.895017
263 84.278200 62.542200 100.00000 47.344500 34.227170 96.193191
264 100.00000 71.797800 100.00000 70.447639 51.015129 98.354448
265 12.848500 0.0000000 14.594000 1.0965551 0.5735446 2.0918737
266 24.150900 0.0000000 16.370800 2.6575975 1.3678245 2.6450276
267 25.889400 38.961600 18.747100 7.5445688 10.751387 4.8416028
268 58.288700 47.510800 44.003100 24.136806 22.762952 19.364508
269 100.00000 0.0000000 0.0000000 41.037541 21.226987 1.2081097
270 100.00000 0.0000000 18.971200 41.755560 21.671078 3.0382062
271 100.00000 63.662800 26.051900 51.451564 38.833192 7.4276278
272 100.00000 100.00000 85.646600 89.700503 99.203632 69.066605
273 29.235500 36.760000 100.00000 23.360569 13.885362 99.486720
274 55.307000 39.377900 100.00000 29.223178 17.444910 99.802146
275 69.370600 51.624000 100.00000 36.569812 24.650801 100.57033
276 45.269500 33.016100 65.222500 19.029445 14.253157 42.404469
277 63.931300 74.165500 69.987200 48.737610 56.355910 57.624206
278 0.0000000 14.440300 48.736200 4.8113916 3.2350894 21.218909
279 0.0000000 30.031100 56.664800 8.2768834 7.8292923 29.879786
280 0.0000000 34.554600 74.748700 14.348536 11.815621 57.022232
281 0.0000000 49.054200 74.902500 17.757620 19.056231 57.259472
282 0.0000000 72.121200 76.557500 29.195129 41.704439 63.563181
283 0.0000000 82.677600 100.00000 33.487525 39.905986 96.947189
284 35.676700 53.199400 52.530400 17.852515 22.178707 26.711782
285 85.560400 62.077400 58.129400 47.659417 39.974803 28.830391
286 60.404500 84.467400 0.0000000 39.658080 61.201182 9.9499576
287 73.610800 100.00000 0.0000000 49.017488 78.091518 12.611707
288 61.832700 100.00000 19.572700 44.038082 74.936613 14.445989
289 26.002400 68.824600 47.751400 22.909978 36.826068 26.026722
290 39.324100 70.746000 69.258100 33.286933 43.911354 54.408744
291 0.0000000 62.377300 56.505600 18.938259 29.523941 33.667834
292 0.0000000 81.907800 72.975700 34.877255 55.888930 57.845387
293 63.710900 100.00000 73.015500 49.340644 76.354752 42.315653
294 37.221000 0.0000000 16.861400 5.6177513 2.8961540 2.8030218
295 41.886000 11.258100 15.506600 7.4121711 4.5395655 2.6673702
296 72.980600 22.683000 38.953800 27.013832 16.088708 13.293368
297 100.00000 27.684600 40.408200 43.151020 24.085625 9.1061688
298 51.951000 0.0000000 15.611400 10.568368 5.4617259 2.5761135
299 54.002300 0.0000000 32.511100 12.883719 6.5304870 8.9483593
300 67.353100 14.608400 69.207800 28.209871 14.800313 45.502926
301 66.245600 100.00000 88.543700 55.155695 77.796550 71.791808
302 77.077600 100.00000 100.00000 65.290080 81.755530 102.23256
303 15.988600 8.8594000 0.0000000 1.3412735 1.1893122 0.2772755
304 29.749300 12.900000 0.0000000 3.7883847 2.8625094 0.4314602
305 26.502900 21.668200 0.0000000 3.9127922 4.1095879 0.6868141
306 37.860500 37.509500 0.0000000 9.2986815 11.024145 1.7162329
307 56.203900 48.617200 0.0000000 19.395449 20.840244 2.9652413
308 100.00000 69.167600 0.0000000 49.740667 39.911876 4.4581602
309 100.00000 83.160400 0.0000000 56.834493 54.137345 6.9923295
310 40.837800 28.875600 34.343500 10.555979 8.9952483 10.917270
311 55.559400 31.112500 46.318400 18.821264 13.662452 19.549550
312 75.700100 35.544800 68.438000 37.582229 24.264017 46.206066
313 83.118000 53.976800 79.531600 50.717915 37.749338 61.929151
314 53.746800 0.0000000 100.00000 23.992362 10.575684 91.851767
315 61.941100 12.198100 85.268400 27.522681 13.620414 73.712326
316 68.954000 28.071000 87.691600 33.095701 18.444887 80.441557
317 41.075000 7.8534000 27.175700 7.8959832 4.3664869 6.4103421
318 58.008000 10.576400 27.789200 15.277306 8.4339464 6.8643140
319 59.451300 22.199100 52.349900 20.252713 12.317170 23.950141
320 60.407000 39.462000 86.774300 29.707627 19.494632 76.459758
321 80.087800 41.007200 100.00000 37.463034 21.981945 92.703871
322 13.216700 48.251000 64.298200 14.651923 17.172831 39.647287
323 11.414300 64.716200 74.077900 24.644094 33.098738 58.013439
324 18.124800 80.530800 85.637300 35.090916 47.274420 80.534763
325 19.146000 86.595100 82.574900 40.588700 62.128272 71.116047
326 58.598300 91.077700 91.848200 55.982439 72.795875 93.505976
327 53.947100 15.893400 10.918000 12.624160 7.8184608 1.8965451
328 86.244800 28.772500 8.4461000 35.420012 21.423729 2.3665630
329 87.356300 37.817900 43.363000 41.429084 26.329738 15.017924
330 63.320300 13.927400 19.869000 18.156432 10.435110 4.2400836
331 81.001100 35.451300 24.224300 34.977971 23.329597 6.7988768
332 85.617800 46.555100 37.879600 41.014392 29.484403 12.620747
333 86.852400 84.137900 57.132000 64.798491 71.520099 34.095416
334 64.966600 77.383400 37.663400 42.453860 55.328994 20.167363
335 79.053100 87.427200 51.368500 56.366453 73.467436 29.391847
336 75.541600 60.780600 0.0000000 38.847895 39.165078 5.2903645
337 80.920600 72.110100 10.052100 48.942172 53.188226 8.3605528
338 89.448900 83.368900 39.444000 59.992467 64.655474 18.776903
339 39.750500 48.011200 21.565600 13.362578 17.688539 6.5764313
340 50.902300 48.222100 40.744500 19.861549 20.873593 16.793668
341 81.217100 49.597700 62.148700 44.460314 33.417254 37.623824
342 0.0000000 0.0000000 0.0000000 0.0863199 0.0905679 0.0970468
343 14.750000 1.1212000 8.9833000 1.1040465 0.6069302 0.9961701
344 15.332700 7.8663000 14.324000 1.6137829 1.1988738 2.2229334
345 20.520200 7.7851000 9.7732000 2.0274465 1.4341297 1.2506776
346 27.853100 7.9597000 16.323100 3.5918686 2.2052286 2.7630528
347 27.768300 7.6315000 26.408900 4.1962706 2.4461673 5.9528125
348 88.606500 13.266500 27.310400 36.909758 19.765130 5.9457434
349 100.00000 100.00000 100.00000 95.879948 100.56054 109.10537
350 11.987900 24.791800 20.113600 3.2042368 4.4911105 4.2566781
351 11.471400 34.624300 42.398000 7.2028594 9.0840105 16.742370
352 16.931200 54.629200 46.070000 14.316017 21.814602 21.651130
353 0.0000000 45.996600 34.959200 8.5307545 14.224658 12.478103
354 32.352100 55.666300 42.856900 17.034891 23.954480 19.490572
355 46.401300 64.297500 57.918500 28.633853 36.213634 36.140188
