HP/HP Elitebook 835 G7/27531 #1 2020-09-28 21-30 0.3127x 0.329y sRGB F-S XYZLUT+MTX/27531 #1 2020-09-28 21-30 0.3127x 0.329y sRGB F-S XYZLUT+MTX.ti1
CTI1   

DESCRIPTOR "Argyll Calibration Target chart information 1"
ORIGINATOR "Argyll targen"
CREATED "Mon Sep 28 21:39:37 2020"
APPROX_WHITE_POINT "95.367058 99.999854 108.613161"
COLOR_REP "RGB"
ACCURATE_EXPECTED_VALUES "true"
DARK_REGION_EMPHASIS "1.6"
WHITE_COLOR_PATCHES "4"
BLACK_COLOR_PATCHES "4"
SINGLE_DIM_STEPS "21"
COMP_GREY_STEPS "61"
OFPS_PATCHES "435"

NUMBER_OF_FIELDS 7
BEGIN_DATA_FORMAT
SAMPLE_ID RGB_R RGB_G RGB_B XYZ_X XYZ_Y XYZ_Z
END_DATA_FORMAT

NUMBER_OF_SETS 588
BEGIN_DATA
1 100.00000 100.00000 100.00000 95.367060 99.999850 108.61320
2 1.9608000 1.9608000 1.9608000 1.1428000 1.1502000 1.1637000
3 3.9216000 3.9216000 3.9216000 1.2856000 1.3005000 1.3273000
4 5.8824000 5.8824000 5.8824000 1.4495000 1.4729000 1.5152000
5 9.8039000 9.8039000 9.8039000 1.9148000 1.9624000 2.0484000
6 13.726000 13.726000 13.726000 2.5817000 2.6639000 2.8126000
7 17.647000 17.647000 17.647000 3.4695000 3.5979000 3.8300000
8 21.569000 21.569000 21.569000 4.5953000 4.7822000 5.1201000
9 25.490000 25.490000 25.490000 5.9745000 6.2332000 6.7007000
10 29.412000 29.412000 29.412000 7.6213000 7.9656000 8.5879000
11 33.333000 33.333000 33.333000 9.5488000 9.9933000 10.797000
12 37.255000 37.255000 37.255000 11.769000 12.329000 13.341000
13 41.176000 41.176000 41.176000 14.294000 14.985000 16.234000
14 45.098000 45.098000 45.098000 17.134000 17.973000 19.489000
15 49.020000 49.020000 49.020000 20.299000 21.303000 23.117000
16 52.941000 52.941000 52.941000 23.800000 24.986000 27.129000
17 56.863000 56.863000 56.863000 27.646000 29.032000 31.536000
18 60.784000 60.784000 60.784000 31.846000 33.450000 36.349000
19 64.706000 64.706000 64.706000 36.409000 38.250000 41.578000
20 68.627000 68.627000 68.627000 41.343000 43.440000 47.232000
21 72.549000 72.549000 72.549000 46.656000 49.030000 53.321000
22 76.471000 76.471000 76.471000 52.356000 55.027000 59.853000
23 80.392000 80.392000 80.392000 58.452000 61.439000 66.838000
24 84.314000 84.314000 84.314000 64.949000 68.275000 74.285000
25 88.235000 88.235000 88.235000 71.857000 75.541000 82.200000
26 92.157000 92.157000 92.157000 79.181000 83.246000 90.594000
27 96.078000 96.078000 96.078000 86.929000 91.397000 99.472000
28 100.00000 47.825300 24.378100 50.332610 36.329960 8.4080990
29 100.00000 53.701300 68.764000 59.798080 43.593960 47.766930
30 100.00000 61.791100 84.687700 68.502880 52.939730 75.991270
31 0.0000000 73.129400 29.869400 19.952900 38.370450 13.854050
32 0.0000000 82.492200 57.825400 30.195140 52.454580 37.829270
33 0.0000000 100.00000 77.522900 45.873840 75.147160 71.142630
34 47.396600 100.00000 80.444900 55.164490 79.841640 76.713040
35 87.459700 100.00000 91.700000 83.062310 93.965100 92.090140
36 4.8077000 0.0000000 0.0000000 0.1923180 0.1415630 0.1536090
37 7.4257000 0.0000000 0.0000000 0.3262430 0.2107650 0.1572550
38 10.204100 0.0000000 0.0000000 0.5134560 0.3075030 0.1623510
39 13.157900 0.0000000 0.0000000 0.7475230 0.4284510 0.1687230
40 16.304300 0.0000000 0.0000000 1.0584670 0.5891240 0.1771880
41 19.662900 0.0000000 0.0000000 1.4511980 0.7920590 0.1878800
42 23.255800 0.0000000 0.0000000 1.9629860 1.0565130 0.2018120
43 27.108400 0.0000000 0.0000000 2.6662020 1.4198830 0.2209560
44 31.250000 0.0000000 0.0000000 3.5464210 1.8747150 0.2449180
45 35.714300 0.0000000 0.0000000 4.6402050 2.4399020 0.2746940
46 40.540500 0.0000000 0.0000000 6.0133590 3.1494460 0.3120750
47 48.935000 0.0000000 0.0000000 8.9424800 4.6629990 0.3918140
48 51.470600 0.0000000 0.0000000 9.9860400 5.2022340 0.4202230
49 57.692300 0.0000000 0.0000000 13.079530 6.8007210 0.5044370
50 64.516100 0.0000000 0.0000000 16.890050 8.7697170 0.6081710
51 72.033900 0.0000000 0.0000000 22.112010 11.468040 0.7503280
52 80.357100 0.0000000 0.0000000 29.007580 15.031160 0.9380460
53 89.622600 0.0000000 0.0000000 34.604340 17.923150 1.0904060
54 100.00000 0.0000000 78.180300 54.119360 26.814680 61.301100
55 100.00000 0.0000000 100.00000 60.832450 29.587280 96.330220
56 100.00000 30.103000 100.00000 63.427310 34.877940 97.253140
57 100.00000 53.495600 100.00000 69.630040 47.524670 99.459260
58 38.290800 30.878800 27.027900 9.2030310 8.8511660 7.0785050
59 37.382000 65.771200 35.831300 21.390880 32.768210 15.451470
60 74.520400 100.00000 46.995900 62.117130 84.347130 31.212270
61 82.889800 100.00000 78.757500 76.806660 91.083520 74.358520
62 0.0000000 23.255800 0.0000000 1.6609510 3.2946300 0.7101960
63 0.0000000 27.108400 0.0000000 2.2023720 4.3985340 0.9027640
64 0.0000000 31.250000 0.0000000 2.8970560 5.8149240 1.1498420
65 0.0000000 35.714300 0.0000000 3.7867630 7.6289460 1.4662850
66 0.0000000 40.540500 0.0000000 4.9016090 9.9020030 1.8628020
67 0.0000000 45.774700 0.0000000 6.3181260 12.790140 2.3666150
68 0.0000000 51.470600 0.0000000 8.1195530 16.463070 3.0073300
69 0.0000000 57.692300 0.0000000 10.607000 21.534730 3.8920430
70 0.0000000 64.516100 0.0000000 13.825370 28.096640 5.0367190
71 0.0000000 72.033900 0.0000000 17.903150 36.410830 6.4870660
72 0.0000000 80.357100 0.0000000 23.553600 47.931530 8.4967630
73 29.466600 82.857400 0.0000000 27.890000 52.103340 9.0314920
74 44.657000 100.00000 0.0000000 41.899750 74.260520 12.631810
75 51.626100 100.00000 37.436900 46.695010 76.519790 23.701490
76 0.0000000 0.0000000 4.8077000 0.1386650 0.1085920 0.4147440
77 0.0000000 0.0000000 7.4257000 0.1995790 0.1337510 0.7325970
78 0.0000000 0.0000000 10.204100 0.2800740 0.1669960 1.1526210
79 0.0000000 0.0000000 13.157900 0.3880500 0.2115920 1.7160430
80 0.0000000 0.0000000 16.304300 0.5196130 0.2659290 2.4025450
81 0.0000000 0.0000000 19.662900 0.6806870 0.3324550 3.2430360
82 0.0000000 0.0000000 23.255800 0.9023940 0.4240230 4.3999100
83 0.0000000 0.0000000 27.108400 1.2085950 0.5504880 5.9976800
84 0.0000000 0.0000000 31.250000 1.5773540 0.7027910 7.9218770
85 0.0000000 0.0000000 35.714300 2.0020800 0.8782090 10.138110
86 0.0000000 0.0000000 40.540500 2.5989540 1.1247260 13.252620
87 0.0000000 0.0000000 45.774700 3.3636640 1.4405620 17.242910
88 0.0000000 0.0000000 51.470600 4.3277710 1.8387520 22.273650
89 0.0000000 0.0000000 57.692300 5.6057220 2.3665630 28.942050
90 0.0000000 0.0000000 64.516100 7.2403250 3.0416770 37.471470
91 0.0000000 0.0000000 72.033900 9.3717780 3.9219970 48.593460
92 0.0000000 0.0000000 80.357100 12.336800 5.1465920 64.065050
93 0.0000000 0.0000000 89.622600 14.870270 6.1929510 77.284790
94 0.0000000 38.614600 100.00000 22.630920 16.442570 96.713310
95 0.7645000 0.7645000 0.7645000 0.0958380 0.0961561 0.1603540
96 1.5432000 1.5432000 1.5432000 0.1168590 0.1184020 0.1831390
97 2.3364000 2.3364000 2.3364000 0.1512980 0.1563670 0.2218490
98 3.1447000 3.1447000 3.1447000 0.2008730 0.2106880 0.2815360
99 3.9683000 3.9683000 3.9683000 0.2649600 0.2814440 0.3589780
100 4.8077000 4.8077000 4.8077000 0.3428660 0.3662650 0.4531340
101 5.6634000 5.6634000 5.6634000 0.4346510 0.4660090 0.5654350
102 6.5359000 6.5359000 6.5359000 0.5376870 0.5754220 0.6838060
103 7.4257000 7.4257000 7.4257000 0.6543120 0.6983750 0.8161070
104 8.3333000 8.3333000 8.3333000 0.7823860 0.8327940 0.9606300
105 9.2593000 9.2593000 9.2593000 0.9228930 0.9801530 1.1182840
106 10.204100 10.204100 10.204100 1.0767320 1.1438000 1.2962540
107 11.168400 11.168400 11.168400 1.2451520 1.3233780 1.4905890
108 12.152800 12.152800 12.152800 1.4286520 1.5203940 1.7069270
109 13.157900 13.157900 13.157900 1.6276250 1.7351690 1.9403290
110 14.184400 14.184400 14.184400 1.8426930 1.9634350 2.1877570
111 15.233000 15.233000 15.233000 2.0747700 2.2084030 2.4499230
112 16.304300 16.304300 16.304300 2.3240010 2.4677920 2.7255900
113 17.399300 17.399300 17.399300 2.5911350 2.7460250 3.0202010
114 18.518500 18.518500 18.518500 2.8772140 3.0438790 3.3357820
115 19.662900 19.662900 19.662900 3.1897090 3.3731910 3.6877070
116 20.833300 20.833300 20.833300 3.5336960 3.7361910 4.0779190
117 22.030700 22.030700 22.030700 3.9177170 4.1433910 4.5157380
118 23.255800 23.255800 23.255800 4.3501780 4.5997690 5.0103760
119 24.509800 24.509800 24.509800 4.8245820 5.0956870 5.5572590
120 25.793600 25.793600 25.793600 5.3451980 5.6318860 6.1643880
121 27.108400 27.108400 27.108400 5.9010170 6.1935080 6.8198560
122 28.455300 28.455300 28.455300 6.4988490 6.8020050 7.5158870
123 29.835400 29.835400 29.835400 7.1437070 7.4681180 8.2499650
124 31.250000 31.250000 31.250000 7.8446780 8.2170330 9.0150940
125 32.700400 32.700400 32.700400 8.5958440 9.0253810 9.8102380
126 34.188000 34.188000 34.188000 9.3953940 9.8754320 10.654870
127 35.714300 35.714300 35.714300 10.252890 10.771660 11.577540
128 37.280700 37.280700 37.280700 11.182570 11.734260 12.616880
129 38.888900 38.888900 38.888900 12.206940 12.806080 13.798840
130 40.540500 40.540500 40.540500 13.337770 14.000780 15.125960
131 42.237400 42.237400 42.237400 14.559900 15.293240 16.535420
132 43.981500 43.981500 43.981500 15.869210 16.665450 18.036750
133 45.774700 45.774700 45.774700 17.266230 18.107590 19.667620
134 47.619100 47.619100 47.619100 18.769350 19.651130 21.446340
135 49.516900 49.516900 49.516900 20.417070 21.371900 23.350870
136 51.470600 51.470600 51.470600 22.257210 23.328650 25.399660
137 53.482600 53.482600 53.482600 24.330730 25.518990 27.686200
138 55.555600 55.555600 55.555600 26.633390 27.913290 30.257360
139 57.692300 57.692300 57.692300 29.116110 30.526620 33.036980
140 59.895800 59.895800 59.895800 31.761760 33.367840 35.992570
141 62.169300 62.169300 62.169300 34.635470 36.431130 39.242690
142 64.516100 64.516100 64.516100 37.779590 39.732640 42.814810
143 66.939900 66.939900 66.939900 41.192320 43.309780 46.640690
144 69.444400 69.444400 69.444400 44.974830 47.241750 50.823520
145 72.033900 72.033900 72.033900 49.210780 51.625470 55.529310
146 74.712600 74.712600 74.712600 54.009860 56.646350 60.937730
147 77.485400 77.485400 77.485400 59.512230 62.455660 67.179240
148 80.357100 80.357100 80.357100 64.721830 67.933880 73.198320
149 83.333300 83.333300 83.333300 68.877670 72.281570 78.155080
150 86.419700 86.419700 86.419700 73.446480 77.182420 83.435720
151 89.622600 89.622600 89.622600 77.630730 81.615460 88.270050
152 100.00000 25.905000 0.0000000 44.564740 26.026770 1.9995660
153 100.00000 42.900500 0.0000000 48.065830 33.165140 3.2448020
154 100.00000 56.988800 0.0000000 52.836120 42.891280 4.9414520
155 59.059400 46.054000 34.026200 21.841410 20.748980 11.871490
156 61.882700 45.649100 54.693400 26.388520 22.603030 28.179830
157 15.450400 39.856300 38.183200 7.8044000 10.907760 13.297830
158 15.471000 46.116300 83.784300 20.506350 18.896360 71.364790
159 25.375200 49.544900 100.00000 27.898470 23.767250 97.849880
160 26.214900 43.613300 0.0000000 8.1270380 12.821850 2.2210130
161 44.703700 56.748100 0.0000000 17.492910 24.472740 3.9456920
162 63.359300 66.464200 0.0000000 30.909260 38.427020 5.8260340
163 83.766000 70.587900 29.168400 49.344450 51.218210 13.820720
164 0.0000000 50.592900 22.634700 8.5743050 16.136520 6.9185060
165 0.0000000 52.582200 62.129200 15.077590 20.011740 37.296210
166 0.0000000 64.802200 82.826000 26.917420 33.735540 72.658640
167 0.0000000 66.807500 100.00000 33.201120 37.994140 100.47280
168 30.230400 0.0000000 50.922200 7.4627020 3.4687540 21.853380
169 31.854800 0.0000000 71.487400 12.796100 5.7092710 47.793870
170 73.317100 0.0000000 100.00000 41.336710 19.513320 95.799490
171 27.768600 26.262800 43.175300 7.6749570 6.7428950 15.971070
172 35.952600 37.677200 55.822100 13.930360 12.977220 28.402870
173 57.741300 64.144500 72.527900 36.102590 38.348720 54.606590
174 31.248900 0.0000000 100.00000 21.756380 9.3956570 95.266460
175 31.675600 22.163500 100.00000 23.284140 12.362780 95.777940
176 51.254000 52.579100 100.00000 36.548740 29.894590 98.443010
177 50.299100 64.135600 100.00000 41.248170 40.091740 100.24730
178 69.525300 66.653200 100.00000 53.251850 48.231640 100.99210
179 0.0000000 100.00000 55.803800 39.728350 72.608980 39.075220
180 29.211300 100.00000 67.337100 45.537280 75.320620 53.747490
181 100.00000 85.676300 52.733400 73.355390 77.450750 34.002860
182 100.00000 87.149600 70.875100 78.660520 81.041560 57.499190
183 49.855300 64.538100 38.923800 25.347060 33.829090 17.251720
184 64.067500 73.001000 49.996400 39.014280 47.824860 27.923220
185 36.504500 53.450300 32.529700 15.237910 21.114250 11.777030
186 58.976300 53.766600 31.844900 24.191080 25.934210 11.740570
187 100.00000 72.540700 46.235300 64.099110 60.410310 25.231340
188 0.0000000 0.0000000 0.0000000 0.0880766 0.0876985 0.1507710
189 20.337300 0.0000000 32.859400 3.1723560 1.5118410 8.7224940
190 65.962600 28.547200 67.642800 28.114930 17.294030 43.133060
191 100.00000 100.00000 100.00000 95.367060 99.999850 108.61320
192 0.0000000 19.662900 0.0000000 1.2339780 2.4240750 0.5583340
193 0.0000000 28.913400 16.877200 2.9370750 5.1538630 3.3850580
194 0.0000000 64.855100 42.767700 16.817750 29.607360 19.829200
195 24.775900 100.00000 87.642100 51.067490 77.513540 87.165730
196 47.895400 100.00000 100.00000 61.286680 82.389640 107.68540
197 100.00000 27.648700 23.969000 45.681640 26.897020 6.6045780
198 100.00000 46.049800 78.752000 60.635430 39.759910 64.636550
199 0.0000000 0.0000000 2.3364000 0.0998905 0.0925779 0.2124170
200 0.0000000 16.802600 37.226200 3.0468350 2.7350520 11.327050
201 0.0000000 36.034600 51.590900 8.1135490 9.5224450 23.725180
202 33.076500 47.184500 53.271700 15.179490 17.501090 26.512510
203 65.528700 54.287900 70.964800 35.576380 31.359810 50.555620
204 35.201000 0.0000000 32.409400 6.0984310 3.0281050 8.5877200
205 71.833400 0.0000000 50.204900 25.973500 13.046770 21.706230
206 72.234800 0.0000000 64.080200 29.307410 14.456100 37.482290
207 74.727700 0.0000000 80.379000 36.540960 17.652820 64.758710
208 100.00000 0.0000000 34.708500 44.433000 22.814080 10.757300
209 100.00000 43.063900 38.401900 50.335700 34.174070 14.875420
210 100.00000 51.744700 55.175600 55.725680 40.699420 30.143320
211 50.654900 19.586400 0.0000000 10.776290 7.3429240 0.8155340
212 60.651600 38.645600 0.0000000 18.976830 16.453970 2.0903840
213 78.002700 46.558300 0.0000000 33.610030 27.226960 3.1817350
214 80.551900 81.570900 0.0000000 53.265980 64.291780 9.5229290
215 100.00000 100.00000 0.0000000 77.156850 92.478780 13.591610
216 100.00000 100.00000 29.385200 78.478520 93.024650 20.488160
217 100.00000 100.00000 51.062600 81.323960 94.199860 35.335750
218 100.00000 100.00000 69.094300 85.549930 95.945240 57.387020
219 0.0000000 7.4257000 0.0000000 0.3046430 0.5292560 0.2277980
220 0.0000000 10.204100 0.0000000 0.4593550 0.8446980 0.2828240
221 0.0000000 14.014600 13.568800 1.0508610 1.5364460 2.0311860
222 41.972300 20.445600 33.754100 9.4093840 6.5946060 9.7301270
223 0.0000000 0.0000000 0.0000000 0.0880766 0.0876985 0.1507710
224 0.0000000 0.0000000 100.00000 18.298290 7.6087700 95.172320
225 0.0000000 22.802800 100.00000 19.811140 10.693330 95.710390
226 0.0000000 100.00000 100.00000 52.832900 78.021350 107.45530
227 75.678200 0.0000000 16.852100 25.549020 13.196780 3.2090210
228 78.149500 0.0000000 40.788600 29.829130 15.191710 14.172070
229 100.00000 27.733300 66.738300 52.567340 29.761440 42.473010
230 100.00000 66.929800 67.321200 65.486840 55.844510 47.841130
231 100.00000 73.791800 83.068000 74.557010 66.017920 75.948110
232 100.00000 86.935400 100.00000 87.832820 84.638300 105.93350
233 13.167900 15.452600 0.0000000 1.5113840 1.9845550 0.4401190
234 0.0000000 13.157900 0.0000000 0.6682050 1.2705220 0.3571060
235 0.0000000 16.304300 0.0000000 0.9220750 1.7881360 0.4474000
236 0.0000000 27.071100 26.256700 3.2445280 4.8200620 6.3673780
237 24.308300 61.670400 100.00000 32.705630 33.863070 99.623190
238 41.465100 72.122400 100.00000 42.379080 47.249830 101.69650
239 45.125700 83.602100 100.00000 50.847170 62.645320 104.30480
240 0.0000000 89.622600 0.0000000 28.332270 57.674760 10.196400
241 0.0000000 100.00000 0.0000000 34.622690 70.500280 12.433710
242 0.0000000 100.00000 31.876600 36.168530 71.138730 20.499950
243 100.00000 100.00000 100.00000 95.367060 99.999850 108.61320
244 92.948700 92.948700 92.948700 79.816130 83.767110 90.909510
245 96.405200 96.405200 96.405200 84.465570 88.536220 96.254660
246 53.359300 0.0000000 71.567000 19.994570 9.4263130 48.119720
247 60.145400 23.991800 100.00000 34.247260 18.395970 96.155850
248 83.302300 78.455100 100.00000 71.269450 68.856150 103.92390
249 45.774700 0.0000000 0.0000000 7.7605910 4.0522860 0.3596400
250 71.539900 25.897300 0.0000000 23.671210 15.228880 1.4304250
251 77.766300 25.361400 28.264800 30.042830 18.276690 7.9203180
252 54.542500 27.160800 22.177600 14.309280 10.589360 5.0798120
253 64.224700 37.891600 23.868500 21.735040 17.525230 6.5622140
254 76.916900 39.954000 48.804900 34.638470 24.647590 22.226050
255 100.00000 0.0000000 49.588600 46.532530 23.681210 21.712750
256 100.00000 0.0000000 63.670100 49.554670 24.929400 37.482350
257 100.00000 28.267400 83.201800 57.962300 32.124040 70.222190
258 0.0000000 2.3364000 0.0000000 0.1125320 0.1375610 0.1594700
259 0.0000000 4.8077000 0.0000000 0.1880370 0.2915080 0.1863240
260 0.0000000 11.079500 21.272200 1.2005770 1.2433880 3.8737500
261 0.0000000 20.836400 72.756600 10.880560 6.6139600 50.279360
262 0.0000000 52.801100 100.00000 26.828470 25.000940 98.206250
263 84.278200 62.542200 100.00000 62.382920 49.832490 100.56800
264 100.00000 71.797800 100.00000 78.506840 65.623580 102.61650
265 12.848500 0.0000000 14.594000 1.0794340 0.5627660 2.0392510
266 24.150900 0.0000000 16.370800 2.5456550 1.3125340 2.4728760
267 25.889400 38.961600 18.747100 7.3881100 10.524000 4.6297070
268 58.288700 47.510800 44.003100 23.112560 21.907040 18.574000
269 100.00000 0.0000000 0.0000000 42.622240 22.066210 1.3086770
270 100.00000 0.0000000 18.971200 43.178830 22.296090 4.2130140
271 100.00000 63.662800 26.051900 56.969860 49.644110 11.422270
272 100.00000 100.00000 85.646600 90.899830 98.154820 85.302990
273 29.235500 36.760000 100.00000 25.230990 17.149900 96.646810
274 55.307000 39.377900 100.00000 34.567810 22.893320 97.099250
275 69.370600 51.624000 100.00000 46.406220 34.443610 98.593850
276 45.269500 33.016100 65.222500 18.075730 13.428750 39.762450
277 63.931300 74.165500 69.987200 44.346100 51.228930 52.556780
278 0.0000000 14.440300 48.736200 4.5335100 3.0302320 20.038090
279 0.0000000 30.031100 56.664800 7.9621120 7.5375060 28.684080
280 0.0000000 34.554600 74.748700 13.755700 11.364040 54.627620
281 0.0000000 49.054200 74.902500 17.545190 18.999600 56.247040
282 0.0000000 72.121200 76.557500 28.832880 41.009570 63.265800
283 0.0000000 82.677600 100.00000 42.946630 57.864240 103.93900
284 35.676700 53.199400 52.530400 17.750210 21.971060 26.515110
285 85.560400 62.077400 58.129400 50.374160 44.594150 34.779630
286 60.404500 84.467400 0.0000000 40.079160 59.682580 9.6396800
287 73.610800 100.00000 0.0000000 57.895030 82.525700 13.067250
288 61.832700 100.00000 19.572700 50.417380 78.600840 15.915020
289 26.002400 68.824600 47.751400 22.029070 35.376520 24.680800
290 39.324100 70.746000 69.258100 31.141290 41.213910 50.408530
291 0.0000000 62.377300 56.505600 18.039980 28.141830 32.099310
292 0.0000000 81.907800 72.975700 33.965640 53.563960 58.843320
293 63.710900 100.00000 73.015500 60.538530 82.895410 63.002040
294 37.221000 0.0000000 16.861400 5.5062000 2.8400870 2.6655010
295 41.886000 11.258100 15.506600 7.2726720 4.4294400 2.5516210
296 72.980600 22.683000 38.953800 26.652140 15.854820 13.284000
297 100.00000 27.684600 40.408200 47.314180 27.579980 15.097240
298 51.951000 0.0000000 15.611400 10.599290 5.4774840 2.5206850
299 54.002300 0.0000000 32.511100 12.776170 6.4777070 8.8174420
300 67.353100 14.608400 69.207800 27.825270 14.603150 44.870530
301 66.245600 100.00000 88.543700 67.059080 85.752040 88.840700
302 77.077600 100.00000 100.00000 79.087890 91.587980 108.17000
303 15.988600 8.8594000 0.0000000 1.3153670 1.1652300 0.2798480
304 29.749300 12.900000 0.0000000 3.7773760 2.8474620 0.4353490
305 26.502900 21.668200 0.0000000 3.9168530 4.1523300 0.7051530
306 37.860500 37.509500 0.0000000 9.3077660 11.060800 1.7415190
307 56.203900 48.617200 0.0000000 19.360050 20.789180 2.9935180
308 100.00000 69.167600 0.0000000 58.789940 55.030510 7.0590480
309 100.00000 83.160400 0.0000000 67.502180 72.793890 10.157730
310 40.837800 28.875600 34.343500 10.265720 8.7948110 10.426580
311 55.559400 31.112500 46.318400 18.115030 13.290050 19.009240
312 75.700100 35.544800 68.438000 36.982570 23.878580 44.954550
313 83.118000 53.976800 79.531600 51.670790 39.174920 66.747590
314 53.746800 0.0000000 100.00000 29.254660 13.270220 95.470580
315 61.941100 12.198100 85.268400 29.496390 14.642120 71.880980
316 68.954000 28.071000 87.691600 36.391530 20.799100 76.232340
317 41.075000 7.8534000 27.175700 7.5424270 4.1848190 6.2787080
318 58.008000 10.576400 27.789200 14.816830 8.1769760 6.8087250
319 59.451300 22.199100 52.349900 19.832880 12.018160 24.012370
320 60.407000 39.462000 86.774300 33.119840 22.605970 75.604480
321 80.087800 41.007200 100.00000 51.971630 32.520490 97.709870
322 13.216700 48.251000 64.298200 14.789450 17.514640 39.660930
323 11.414300 64.716200 74.077900 24.403040 32.680510 57.064600
324 18.124800 80.530800 85.637300 38.566260 54.409530 80.260010
325 19.146000 86.595100 82.574900 41.070750 60.723480 76.939360
326 58.598300 91.077700 91.848200 57.329720 71.746310 89.550090
327 53.947100 15.893400 10.918000 12.160470 7.5203130 1.8620090
328 86.244800 28.772500 8.4461000 35.170930 21.808580 2.6048990
329 87.356300 37.817900 43.363000 40.434220 26.949350 17.712720
330 63.320300 13.927400 19.869000 17.404470 9.9466310 3.9653290
331 81.001100 35.451300 24.224300 33.971270 23.053000 6.8611850
332 85.617800 46.555100 37.879600 40.857960 30.746640 14.597660
333 86.852400 84.137900 57.132000 63.858410 71.138600 38.232340
334 64.966600 77.383400 37.663400 40.793770 53.611450 19.398360
335 79.053100 87.427200 51.368500 59.517380 71.848480 32.633490
336 75.541600 60.780600 0.0000000 36.913590 37.285470 5.0737090
337 80.920600 72.110100 10.052100 47.434850 51.720330 8.2767850
338 89.448900 83.368900 39.444000 61.874960 69.803030 22.296180
339 39.750500 48.011200 21.565600 13.347390 17.323100 6.4130390
340 50.902300 48.222100 40.744500 19.214880 20.260350 16.128450
341 81.217100 49.597700 62.148700 43.507620 33.068620 37.742780
342 0.0000000 0.0000000 0.0000000 0.0880766 0.0876985 0.1507710
343 14.750000 1.1212000 8.9833000 1.0553710 0.5805110 0.9782740
344 15.332700 7.8663000 14.324000 1.5405220 1.1653110 2.0714890
345 20.520200 7.7851000 9.7732000 1.9738950 1.4005650 1.2029590
346 27.853100 7.9597000 16.323100 3.4932300 2.1729630 2.5677320
347 27.768300 7.6315000 26.408900 4.0872930 2.3894490 5.8388350
348 88.606500 13.266500 27.310400 35.846890 19.342670 7.2253870
349 100.00000 100.00000 100.00000 95.367060 99.999850 108.61320
350 11.987900 24.791800 20.113600 3.0503490 4.2687500 4.0181420
351 11.471400 34.624300 42.398000 6.8575480 8.5919440 15.857660
352 16.931200 54.629200 46.070000 13.692250 20.840330 20.803540
353 0.0000000 45.996600 34.959200 8.2154060 13.674230 11.966160
354 32.352100 55.666300 42.856900 16.294000 22.869210 18.486080
355 46.401300 64.297500 57.918500 27.183060 34.256500 34.262400
356 84.076400 68.756400 90.088000 62.094240 54.852960 84.297970
357 40.440000 37.342900 46.190400 13.365940 12.753880 19.186340
358 50.286500 38.036400 52.201000 18.056280 15.309750 24.724140
359 58.512300 49.901400 83.270000 34.045890 27.655770 71.370920
360 57.797600 61.432500 86.925100 39.498270 37.625910 78.540020
361 12.016200 66.730000 53.324200 20.105040 32.577610 29.403790
362 20.334100 71.312200 70.603000 27.758490 39.934460 52.477040
