HP/HP Elitebook 835 G7/27531 #1 2020-09-28 21-30 0.3127x 0.329y sRGB F-S XYZLUT+MTX/27531 #1 2020-09-28 21-30 0.3127x 0.329y sRGB F-S XYZLUT+MTX.ti3
CTI3   

DESCRIPTOR "Argyll Calibration Target chart information 3"
ORIGINATOR "Argyll dispread"
CREATED "Mon Sep 28 21:39:48 2020"
DEVICE_CLASS "DISPLAY"
SINGLE_DIM_STEPS "21"
COMP_GREY_STEPS "61"
DARK_REGION_EMPHASIS "1.6"
COLOR_REP "RGB_XYZ"
TARGET_INSTRUMENT "X-Rite i1 DisplayPro, ColorMunki Display"
DISPLAY_TYPE_REFRESH "NO"
DISPLAY_TYPE_BASE_ID "1"
INSTRUMENT_TYPE_SPECTRAL "NO"
LUMINANCE_XYZ_CDM2 "87.467983 91.727069 99.514992"
NORMALIZED_TO_Y_100 "YES"
VIDEO_LUT_CALIBRATION_POSSIBLE "YES"

BEGIN_ARGYLL_COLPROF_ARGS
-v -qh -aX -bn -C "No copyright. Created with DisplayCAL 3.8.9.3 and ArgyllCMS 2.1.2" -M "27531" -A "AU Optronics"
END_ARGYLL_COLPROF_ARGS

OBSERVER "1931_2"
USE_BLACK_POINT_COMPENSATION "NO"
BLACK_POINT_CORRECTION "0.0"
HIRES_B2A "YES"
HIRES_B2A_SIZE "-1"
SMOOTH_B2A "YES"
PATCH_SEQUENCE "OPTIMIZE_DISPLAY_RESPONSE_DELAY"

NUMBER_OF_FIELDS 7
BEGIN_DATA_FORMAT
SAMPLE_ID RGB_R RGB_G RGB_B XYZ_X XYZ_Y XYZ_Z
END_DATA_FORMAT

NUMBER_OF_SETS 588
BEGIN_DATA
1 100.00000 100.00000 100.00000 95.356780 100.00000 108.49030
2 1.9608000 1.9608000 1.9608000 0.1332000 0.1361650 0.2008040
3 3.9216000 3.9216000 3.9216000 0.2634860 0.2822240 0.3666230
4 5.8824000 5.8824000 5.8824000 0.4656720 0.5010410 0.6065760
5 9.8039000 9.8039000 9.8039000 1.0083080 1.0622910 1.1969260
6 13.726000 13.726000 13.726000 1.7458640 1.8728630 2.0986540
7 17.647000 17.647000 17.647000 2.6541030 2.8029750 3.0717650
8 21.569000 21.569000 21.569000 3.7245200 3.9395050 4.2947910
9 25.490000 25.490000 25.490000 5.2329160 5.5366620 6.0151140
10 29.412000 29.412000 29.412000 6.9314440 7.2075210 8.0624940
11 33.333000 33.333000 33.333000 8.9505300 9.4356230 10.172300
12 37.255000 37.255000 37.255000 11.134580 11.668500 12.507140
13 41.176000 41.176000 41.176000 13.787880 14.478590 15.694940
14 45.098000 45.098000 45.098000 16.754630 17.612590 18.998870
15 49.020000 49.020000 49.020000 19.922120 20.792940 22.891260
16 52.941000 52.941000 52.941000 23.687340 24.901650 26.927950
17 56.863000 56.863000 56.863000 28.184140 29.471410 32.020400
18 60.784000 60.784000 60.784000 32.822430 34.552760 37.145970
19 64.706000 64.706000 64.706000 38.027890 39.984260 43.137930
20 68.627000 68.627000 68.627000 43.630110 45.877030 49.347080
21 72.549000 72.549000 72.549000 49.973310 52.385130 56.350730
22 76.471000 76.471000 76.471000 57.187510 59.991370 64.555440
23 80.392000 80.392000 80.392000 65.661200 68.958460 74.156420
24 84.314000 84.314000 84.314000 69.767390 73.150090 79.330260
25 88.235000 88.235000 88.235000 76.721440 80.738500 87.114390
26 92.157000 92.157000 92.157000 80.869460 84.953970 92.076160
27 96.078000 96.078000 96.078000 82.847450 86.819680 94.429420
28 100.00000 47.825300 24.378100 47.804880 31.211180 5.7339610
29 100.00000 53.701300 68.764000 54.653700 36.295380 30.568290
30 100.00000 61.791100 84.687700 61.917260 42.987250 56.804220
31 0.0000000 73.129400 29.869400 21.092120 40.501770 14.900000
32 0.0000000 82.492200 57.825400 32.752070 57.850860 38.769550
33 0.0000000 100.00000 77.522900 42.975420 76.010690 49.860870
34 47.396600 100.00000 80.444900 48.634830 78.485520 53.959460
35 87.459700 100.00000 91.700000 76.656430 93.169840 82.505780
36 4.8077000 0.0000000 0.0000000 0.2191800 0.1558780 0.1566820
37 7.4257000 0.0000000 0.0000000 0.3484060 0.2208120 0.1543020
38 10.204100 0.0000000 0.0000000 0.5168970 0.3084360 0.1589130
39 13.157900 0.0000000 0.0000000 0.7713100 0.4400570 0.1651000
40 16.304300 0.0000000 0.0000000 1.1031650 0.6113360 0.1739330
41 19.662900 0.0000000 0.0000000 1.4599550 0.7958670 0.1835120
42 23.255800 0.0000000 0.0000000 1.9784720 1.0641280 0.1972470
43 27.108400 0.0000000 0.0000000 2.6872790 1.4309720 0.2156650
44 31.250000 0.0000000 0.0000000 3.6715020 1.9397520 0.2415670
45 35.714300 0.0000000 0.0000000 4.7480060 2.4966200 0.2702390
46 40.540500 0.0000000 0.0000000 6.1313930 3.2119940 0.3066950
47 48.935000 0.0000000 0.0000000 9.2862110 4.8429430 0.3909240
48 51.470600 0.0000000 0.0000000 10.264460 5.3488890 0.4170940
49 57.692300 0.0000000 0.0000000 13.697820 7.1244280 0.5074370
50 64.516100 0.0000000 0.0000000 17.737630 9.2155900 0.6118520
51 72.033900 0.0000000 0.0000000 23.160860 12.018850 0.7547970
52 80.357100 0.0000000 0.0000000 30.805260 15.973670 0.9507160
53 89.622600 0.0000000 0.0000000 36.001060 18.743270 1.1092620
54 100.00000 0.0000000 78.180300 50.872670 25.583660 38.421540
55 100.00000 0.0000000 100.00000 62.591750 30.489360 98.890950
56 100.00000 30.103000 100.00000 64.759050 34.088750 100.42810
57 100.00000 53.495600 100.00000 69.579690 42.600310 103.07070
58 38.290800 30.878800 27.027900 10.295370 9.8567870 7.8481120
59 37.382000 65.771200 35.831300 23.954710 36.699040 17.256920
60 74.520400 100.00000 46.995900 54.378830 83.490570 25.014350
61 82.889800 100.00000 78.757500 65.610760 88.705980 53.285180
62 0.0000000 23.255800 0.0000000 1.7824420 3.5587430 0.7577000
63 0.0000000 27.108400 0.0000000 2.2688270 4.5480590 0.9264760
64 0.0000000 31.250000 0.0000000 2.9762260 5.9975380 1.1736070
65 0.0000000 35.714300 0.0000000 3.8650140 7.8271480 1.4943180
66 0.0000000 40.540500 0.0000000 4.9701500 10.084970 1.8835960
67 0.0000000 45.774700 0.0000000 6.5891210 13.397640 2.4621040
68 0.0000000 51.470600 0.0000000 8.2093390 16.698950 3.0350140
69 0.0000000 57.692300 0.0000000 10.926350 22.328050 4.0129030
70 0.0000000 64.516100 0.0000000 14.534800 29.657250 5.2841370
71 0.0000000 72.033900 0.0000000 18.869940 38.580380 6.8169880
72 0.0000000 80.357100 0.0000000 25.136740 51.354910 9.0168880
73 29.466600 82.857400 0.0000000 29.624740 55.896560 9.6435620
74 44.657000 100.00000 0.0000000 39.689650 74.143830 12.529430
75 51.626100 100.00000 37.436900 42.634480 75.317280 19.403770
76 0.0000000 0.0000000 4.8077000 0.1453020 0.1118110 0.4448290
77 0.0000000 0.0000000 7.4257000 0.2049050 0.1359540 0.7589830
78 0.0000000 0.0000000 10.204100 0.2796830 0.1668880 1.1488160
79 0.0000000 0.0000000 13.157900 0.4129000 0.2213830 1.8418140
80 0.0000000 0.0000000 16.304300 0.5624280 0.2830380 2.6307200
81 0.0000000 0.0000000 19.662900 0.7107260 0.3440160 3.3944520
82 0.0000000 0.0000000 23.255800 0.9255510 0.4323480 4.5163850
83 0.0000000 0.0000000 27.108400 1.2377280 0.5608080 6.1545140
84 0.0000000 0.0000000 31.250000 1.6733260 0.7406610 8.4200580
85 0.0000000 0.0000000 35.714300 2.0984540 0.9157560 10.650380
86 0.0000000 0.0000000 40.540500 2.7180840 1.1701470 13.865430
87 0.0000000 0.0000000 45.774700 3.5125170 1.4979050 18.011280
88 0.0000000 0.0000000 51.470600 4.4742600 1.8950720 23.049370
89 0.0000000 0.0000000 57.692300 5.8160320 2.4475340 30.024260
90 0.0000000 0.0000000 64.516100 7.6338890 3.1968270 39.520810
91 0.0000000 0.0000000 72.033900 9.9478320 4.1476260 51.554840
92 0.0000000 0.0000000 80.357100 13.200830 5.5044880 68.562870
93 0.0000000 0.0000000 89.622600 15.739290 6.5556310 81.743820
94 0.0000000 38.614600 100.00000 21.148570 13.049510 97.314570
95 0.7645000 0.7645000 0.7645000 0.0972011 0.0963081 0.1648860
96 1.5432000 1.5432000 1.5432000 0.1194450 0.1211860 0.1880460
97 2.3364000 2.3364000 2.3364000 0.1708800 0.1753920 0.2454700
98 3.1447000 3.1447000 3.1447000 0.2082110 0.2141690 0.2867930
99 3.9683000 3.9683000 3.9683000 0.2747000 0.2942920 0.3822260
100 4.8077000 4.8077000 4.8077000 0.3818310 0.3973930 0.4848850
101 5.6634000 5.6634000 5.6634000 0.4498240 0.4703200 0.5638750
102 6.5359000 6.5359000 6.5359000 0.5821870 0.6346260 0.7620340
103 7.4257000 7.4257000 7.4257000 0.7061400 0.7400300 0.8535620
104 8.3333000 8.3333000 8.3333000 0.8036180 0.8461360 0.9658190
105 9.2593000 9.2593000 9.2593000 0.9931130 1.0457740 1.1813160
106 10.204100 10.204100 10.204100 1.1022530 1.1610070 1.3036240
107 11.168400 11.168400 11.168400 1.2579590 1.3252450 1.4824000
108 12.152800 12.152800 12.152800 1.4776970 1.5899330 1.7958790
109 13.157900 13.157900 13.157900 1.7718300 1.8881310 2.1088580
110 14.184400 14.184400 14.184400 1.9465400 2.0531900 2.2639720
111 15.233000 15.233000 15.233000 2.2379270 2.3867890 2.6474760
112 16.304300 16.304300 16.304300 2.5238490 2.6545130 3.0041190
113 17.399300 17.399300 17.399300 2.7262030 2.8695720 3.2106370
114 18.518500 18.518500 18.518500 2.9969360 3.1682080 3.4659620
115 19.662900 19.662900 19.662900 3.3491770 3.5613310 3.9073250
116 20.833300 20.833300 20.833300 3.7175060 3.9235620 4.3538480
117 22.030700 22.030700 22.030700 4.1119610 4.3557440 4.7453950
118 23.255800 23.255800 23.255800 4.5241670 4.7862370 5.2092090
119 24.509800 24.509800 24.509800 5.0091210 5.2996850 5.7621530
120 25.793600 25.793600 25.793600 5.6033090 5.9342850 6.4443340
121 27.108400 27.108400 27.108400 6.1419610 6.4422970 7.0995810
122 28.455300 28.455300 28.455300 6.8341770 7.1277150 7.9337550
123 29.835400 29.835400 29.835400 7.4545540 7.7378190 8.6684760
124 31.250000 31.250000 31.250000 8.3146520 8.6255620 9.6869550
125 32.700400 32.700400 32.700400 8.9355700 9.3288740 10.345150
126 34.188000 34.188000 34.188000 9.8401840 10.388300 11.210150
127 35.714300 35.714300 35.714300 10.797210 11.292380 12.321760
128 37.280700 37.280700 37.280700 11.754250 12.313830 13.201180
129 38.888900 38.888900 38.888900 12.878950 13.508590 14.492350
130 40.540500 40.540500 40.540500 13.936730 14.569820 16.022430
131 42.237400 42.237400 42.237400 15.586620 16.290650 17.794810
132 43.981500 43.981500 43.981500 16.795280 17.624710 19.272740
133 45.774700 45.774700 45.774700 18.404090 19.351420 20.898320
134 47.619100 47.619100 47.619100 19.633640 20.589280 22.550520
135 49.516900 49.516900 49.516900 21.476590 22.330340 24.629480
136 51.470600 51.470600 51.470600 23.246930 24.199450 26.505740
137 53.482600 53.482600 53.482600 25.593240 26.817260 28.820740
138 55.555600 55.555600 55.555600 28.575500 29.855340 32.522640
139 57.692300 57.692300 57.692300 30.305170 31.619870 34.447520
140 59.895800 59.895800 59.895800 33.928560 35.548130 38.654560
141 62.169300 62.169300 62.169300 37.011890 38.795410 41.659320
142 64.516100 64.516100 64.516100 40.247970 42.309850 45.655290
143 66.939900 66.939900 66.939900 43.757180 45.947260 50.310880
144 69.444400 69.444400 69.444400 47.543110 49.975400 53.903240
145 72.033900 72.033900 72.033900 52.336600 54.958590 59.189460
146 74.712600 74.712600 74.712600 57.375690 60.226140 64.683460
147 77.485400 77.485400 77.485400 62.383140 65.322480 70.380640
148 80.357100 80.357100 80.357100 69.374380 72.869150 78.625250
149 83.333300 83.333300 83.333300 72.759580 76.559650 82.618710
150 86.419700 86.419700 86.419700 77.580810 81.435030 88.296430
151 89.622600 89.622600 89.622600 84.017940 88.300890 96.092700
152 100.00000 25.905000 0.0000000 44.735430 24.992510 1.7076220
153 100.00000 42.900500 0.0000000 46.890460 29.434120 2.4872990
154 100.00000 56.988800 0.0000000 51.049770 36.159000 3.5917790
155 59.059400 46.054000 34.026200 24.173920 22.750590 13.225580
156 61.882700 45.649100 54.693400 29.676230 25.388210 31.065450
157 15.450400 39.856300 38.183200 8.4323350 11.851200 14.234460
158 15.471000 46.116300 83.784300 21.089690 18.615120 76.739850
159 25.375200 49.544900 100.00000 24.211720 17.435770 97.389720
160 26.214900 43.613300 0.0000000 8.4290890 13.292730 2.2824650
161 44.703700 56.748100 0.0000000 18.326850 25.555780 4.0595650
162 63.359300 66.464200 0.0000000 31.952690 39.336930 5.8932140
163 83.766000 70.587900 29.168400 48.695570 48.340930 12.574090
164 0.0000000 50.592900 22.634700 8.6849360 16.335490 7.1186010
165 0.0000000 52.582200 62.129200 15.284080 20.245300 38.147270
166 0.0000000 64.802200 82.826000 26.924100 32.818820 75.908610
167 0.0000000 66.807500 100.00000 26.736460 25.430960 96.578510
168 30.230400 0.0000000 50.922200 7.6142020 3.5327610 22.284980
169 31.854800 0.0000000 71.487400 13.137140 5.8511060 49.286010
170 73.317100 0.0000000 100.00000 31.576270 14.483040 92.955830
171 27.768600 26.262800 43.175300 7.8382730 6.8950700 16.390180
172 35.952600 37.677200 55.822100 14.297010 13.268030 29.261650
173 57.741300 64.144500 72.527900 37.435820 39.803030 56.393310
174 31.248900 0.0000000 100.00000 19.820930 8.4112840 92.343580
175 31.675600 22.163500 100.00000 20.708670 10.304140 92.498680
176 51.254000 52.579100 100.00000 28.977240 20.784550 95.808270
177 50.299100 64.135600 100.00000 32.615750 27.843680 99.364900
178 69.525300 66.653200 100.00000 40.579310 33.194750 101.23470
179 0.0000000 100.00000 55.803800 39.234400 74.835350 29.675160
180 29.211300 100.00000 67.337100 43.151690 76.772850 39.795380
181 100.00000 85.676300 52.733400 66.810140 64.899030 22.909960
182 100.00000 87.149600 70.875100 71.618860 69.805950 39.053170
183 49.855300 64.538100 38.923800 27.324020 36.643200 18.737080
184 64.067500 73.001000 49.996400 43.053400 52.732570 30.493320
185 36.504500 53.450300 32.529700 16.400650 22.940350 12.935960
186 58.976300 53.766600 31.844900 26.035020 27.870650 12.521830
187 100.00000 72.540700 46.235300 55.449400 45.324090 15.755910
188 0.0000000 0.0000000 0.0000000 0.0869363 0.0861095 0.1490820
189 20.337300 0.0000000 32.859400 3.2773160 1.5583260 9.0182480
190 65.962600 28.547200 67.642800 29.353710 17.992470 45.297430
191 100.00000 100.00000 100.00000 92.768930 97.280510 105.67090
192 0.0000000 19.662900 0.0000000 1.2610020 2.4883650 0.5650100
193 0.0000000 28.913400 16.877200 2.9877620 5.2284250 3.5641110
194 0.0000000 64.855100 42.767700 17.339230 30.535300 20.581200
195 24.775900 100.00000 87.642100 46.687480 75.088640 70.721120
196 47.895400 100.00000 100.00000 56.490220 78.731620 105.07850
197 100.00000 27.648700 23.969000 43.711610 24.688090 4.5105660
198 100.00000 46.049800 78.752000 54.106700 33.125380 40.641360
199 0.0000000 0.0000000 2.3364000 0.1052470 0.0952725 0.2355350
200 0.0000000 16.802600 37.226200 3.1492660 2.8402630 11.711640
201 0.0000000 36.034600 51.590900 8.4054610 9.8429070 24.723530
202 33.076500 47.184500 53.271700 15.809410 18.231940 27.685240
203 65.528700 54.287900 70.964800 37.457420 32.912360 53.721130
204 35.201000 0.0000000 32.409400 6.3734410 3.1607360 9.1560580
205 71.833400 0.0000000 50.204900 27.168930 13.660820 22.537960
206 72.234800 0.0000000 64.080200 30.657610 15.127180 39.230020
207 74.727700 0.0000000 80.379000 38.765450 18.741630 69.056470
208 100.00000 0.0000000 34.708500 43.103380 22.192980 6.9074040
209 100.00000 43.063900 38.401900 46.650180 29.092560 9.3427690
210 100.00000 51.744700 55.175600 51.005360 33.550850 19.164940
211 50.654900 19.586400 0.0000000 11.622770 7.9585540 0.8660040
212 60.651600 38.645600 0.0000000 20.408320 17.584800 2.1784860
213 78.002700 46.558300 0.0000000 35.349410 28.764690 3.3118650
214 80.551900 81.570900 0.0000000 55.738640 68.200530 10.087670
215 100.00000 100.00000 0.0000000 77.414000 92.878790 13.338220
216 100.00000 100.00000 29.385200 78.032200 92.923800 17.810150
217 100.00000 100.00000 51.062600 80.996760 95.120430 27.154390
218 100.00000 100.00000 69.094300 85.277860 98.034350 42.151110
219 0.0000000 7.4257000 0.0000000 0.3229190 0.5667260 0.2379620
220 0.0000000 10.204100 0.0000000 0.4549430 0.8401980 0.2806610
221 0.0000000 14.014600 13.568800 1.1075440 1.6164870 2.1737860
222 41.972300 20.445600 33.754100 9.9286560 6.9402100 10.229190
223 0.0000000 0.0000000 0.0000000 0.0885493 0.0876749 0.1517280
224 0.0000000 0.0000000 100.00000 18.217200 7.5411000 94.712660
225 0.0000000 22.802800 100.00000 19.161930 9.5508870 95.157810
226 0.0000000 100.00000 100.00000 53.510410 79.191690 109.21660
227 75.678200 0.0000000 16.852100 26.898940 14.014120 3.5608810
228 78.149500 0.0000000 40.788600 31.804870 16.192600 15.293750
229 100.00000 27.733300 66.738300 48.624090 26.716550 26.436260
230 100.00000 66.929800 67.321200 56.481650 42.751670 30.272230
231 100.00000 73.791800 83.068000 63.915620 50.126700 52.566200
232 100.00000 86.935400 100.00000 84.144560 74.739150 106.54370
233 13.167900 15.452600 0.0000000 1.6465680 2.1592010 0.4677620
234 0.0000000 13.157900 0.0000000 0.7073560 1.3602470 0.3708710
235 0.0000000 16.304300 0.0000000 0.9513940 1.8574600 0.4580650
236 0.0000000 27.071100 26.256700 3.3632990 4.9941180 6.6634560
237 24.308300 61.670400 100.00000 26.950850 23.490150 97.614790
238 41.465100 72.122400 100.00000 32.806050 31.855170 98.304470
239 45.125700 83.602100 100.00000 40.517320 45.909090 102.04240
240 0.0000000 89.622600 0.0000000 30.268300 61.816020 10.972180
241 0.0000000 100.00000 0.0000000 36.301740 74.166500 12.933590
242 0.0000000 100.00000 31.876600 37.654480 75.261860 18.399630
243 100.00000 100.00000 100.00000 101.18230 106.23340 115.32930
244 92.948700 92.948700 92.948700 88.450560 93.093060 101.03660
245 96.405200 96.405200 96.405200 89.513700 93.996100 101.88720
246 53.359300 0.0000000 71.567000 21.959580 10.427730 52.541540
247 60.145400 23.991800 100.00000 29.645940 15.017630 101.47700
248 83.302300 78.455100 100.00000 55.638900 48.720380 106.32990
249 45.774700 0.0000000 0.0000000 8.6084890 4.4985980 0.3831070
250 71.539900 25.897300 0.0000000 25.395110 16.260570 1.4715580
251 77.766300 25.361400 28.264800 31.550040 19.286330 8.2971100
252 54.542500 27.160800 22.177600 15.071200 11.096040 5.4150530
253 64.224700 37.891600 23.868500 23.065030 18.572080 6.9451080
254 76.916900 39.954000 48.804900 36.378240 25.909270 23.431130
255 100.00000 0.0000000 49.588600 44.384460 22.720470 13.239230
256 100.00000 0.0000000 63.670100 46.016690 23.444200 22.766480
257 100.00000 28.267400 83.201800 52.925500 28.663700 48.233490
258 0.0000000 2.3364000 0.0000000 0.1173790 0.1487700 0.1615780
259 0.0000000 4.8077000 0.0000000 0.1918590 0.3004180 0.1864330
260 0.0000000 11.079500 21.272200 1.1931240 1.2139650 3.9336460
261 0.0000000 20.836400 72.756600 11.267050 6.8172610 52.111640
262 0.0000000 52.801100 100.00000 22.897940 17.751210 94.894140
263 84.278200 62.542200 100.00000 47.342190 34.224080 96.192370
264 100.00000 71.797800 100.00000 70.446320 51.012760 98.353720
265 12.848500 0.0000000 14.594000 1.0933070 0.5690110 2.1039760
266 24.150900 0.0000000 16.370800 2.6534910 1.3633250 2.6414590
267 25.889400 38.961600 18.747100 7.5405510 10.747290 4.8368620
268 58.288700 47.510800 44.003100 24.133500 22.759370 19.360390
269 100.00000 0.0000000 0.0000000 41.034960 21.223340 1.2032130
270 100.00000 0.0000000 18.971200 41.753010 21.667450 3.0333880
271 100.00000 63.662800 26.051900 51.449430 38.830300 7.4229980
272 100.00000 100.00000 85.646600 89.700010 99.203330 69.064620
273 29.235500 36.760000 100.00000 23.357230 13.881400 99.486040
274 55.307000 39.377900 100.00000 29.220090 17.441100 99.801480
275 69.370600 51.624000 100.00000 36.567040 24.647300 100.56970
276 45.269500 33.016100 65.222500 19.025920 14.249210 42.401340
277 63.931300 74.165500 69.987200 48.735360 56.353770 57.621730
278 0.0000000 14.440300 48.736200 4.8072590 3.2306700 21.214940
279 0.0000000 30.031100 56.664800 8.2728970 7.8250700 29.876120
280 0.0000000 34.554600 74.748700 14.344810 11.811570 57.019730
281 0.0000000 49.054200 74.902500 17.754040 19.052490 57.256980
282 0.0000000 72.121200 76.557500 29.192040 41.701670 63.560960
283 0.0000000 82.677600 100.00000 33.484620 39.903140 96.946400
284 35.676700 53.199400 52.530400 17.848940 22.175100 26.707980
285 85.560400 62.077400 58.129400 47.657120 39.971960 28.826680
286 60.404500 84.467400 0.0000000 39.655440 61.199250 9.9454360
287 73.610800 100.00000 0.0000000 49.015250 78.090310 12.607300
288 61.832700 100.00000 19.572700 44.035630 74.935270 14.441660
289 26.002400 68.824600 47.751400 22.906620 36.823090 26.022890
290 39.324100 70.746000 69.258100 33.284020 43.908680 54.406130
291 0.0000000 62.377300 56.505600 18.934730 29.520650 33.664330
292 0.0000000 81.907800 72.975700 34.874410 55.886770 57.842920
293 63.710900 100.00000 73.015500 49.338420 76.353470 42.312520
294 37.221000 0.0000000 16.861400 5.6136560 2.8917200 2.7982280
295 41.886000 11.258100 15.506600 7.4081480 4.5352020 2.6625380
296 72.980600 22.683000 38.953800 27.010650 16.084840 13.288990
297 100.00000 27.684600 40.408200 43.148530 24.082100 9.1016110
298 51.951000 0.0000000 15.611400 10.564480 5.4574020 2.5712760
299 54.002300 0.0000000 32.511100 12.879930 6.5262090 8.9437950
300 67.353100 14.608400 69.207800 28.206740 14.796390 45.499930
301 66.245600 100.00000 88.543700 55.153720 77.795330 71.789940
302 77.077600 100.00000 100.00000 65.288540 81.754480 102.23200
303 15.988600 8.8594000 0.0000000 1.3371230 1.1848050 0.2735100
304 29.749300 12.900000 0.0000000 3.7842100 2.8580740 0.4265490
305 26.502900 21.668200 0.0000000 3.9086190 4.1052060 0.6818970
306 37.860500 37.509500 0.0000000 9.2947390 11.020060 1.7113580
307 56.203900 48.617200 0.0000000 19.391940 20.836580 2.9604200
308 100.00000 69.167600 0.0000000 49.738460 39.909030 4.4534030
309 100.00000 83.160400 0.0000000 56.832590 54.135110 6.9876810
310 40.837800 28.875600 34.343500 10.552090 8.9910760 10.912790
311 55.559400 31.112500 46.318400 18.817730 13.658480 19.545440
312 75.700100 35.544800 68.438000 37.579500 24.260500 46.203100
313 83.118000 53.976800 79.531600 50.715750 37.746400 61.926860
314 53.746800 0.0000000 100.00000 23.989050 10.571580 91.850760
315 61.941100 12.198100 85.268400 27.519520 13.616440 73.710540
316 68.954000 28.071000 87.691600 33.092780 18.441120 80.440060
317 41.075000 7.8534000 27.175700 7.8919810 4.3621160 6.4056730
318 58.008000 10.576400 27.789200 15.273620 8.4297500 6.8596600
319 59.451300 22.199100 52.349900 20.249240 12.313140 23.946220
320 60.407000 39.462000 86.774300 29.704560 19.490910 76.458090
321 80.087800 41.007200 100.00000 37.460300 21.978330 92.702900
322 13.216700 48.251000 64.298200 14.648210 17.169010 39.644040
323 11.414300 64.716200 74.077900 24.640810 33.095600 58.010980
324 18.124800 80.530800 85.637300 35.088080 47.271890 80.533270
325 19.146000 86.595100 82.574900 40.586100 62.126380 71.114150
326 58.598300 91.077700 91.848200 55.980500 72.794440 93.505040
327 53.947100 15.893400 10.918000 12.620360 7.8142380 1.8916780
328 86.244800 28.772500 8.4461000 35.417190 21.420090 2.3617160
329 87.356300 37.817900 43.363000 41.426520 26.326310 15.013620
330 63.320300 13.927400 19.869000 18.152870 10.431000 4.2353170
331 81.001100 35.451300 24.224300 34.975130 23.326040 6.7942200
332 85.617800 46.555100 37.879600 41.011810 29.481110 12.616340
333 86.852400 84.137900 57.132000 64.796930 71.518610 34.091930
334 64.966600 77.383400 37.663400 42.451340 55.326810 20.163280
335 79.053100 87.427200 51.368500 56.364530 73.466030 29.388160
336 75.541600 60.780600 0.0000000 38.845220 39.162200 5.2856430
337 80.920600 72.110100 10.052100 48.939930 53.185950 8.3559630
338 89.448900 83.368900 39.444000 59.990700 64.653690 18.772760
339 39.750500 48.011200 21.565600 13.358810 17.684740 6.5717650
340 50.902300 48.222100 40.744500 19.858060 20.869930 16.789440
341 81.217100 49.597700 62.148700 44.457880 33.414130 37.620490
342 0.0000000 0.0000000 0.0000000 0.0869224 0.0860135 0.1487150
343 14.750000 1.1212000 8.9833000 1.1006850 0.6023980 1.0005860
344 15.332700 7.8663000 14.324000 1.6096570 1.1943670 2.2199850
345 20.520200 7.7851000 9.7732000 2.0232750 1.4296330 1.2464140
346 27.853100 7.9597000 16.323100 3.5876980 2.2007650 2.7583710
347 27.768300 7.6315000 26.408900 4.1921200 2.4417140 5.9482640
348 88.606500 13.266500 27.310400 36.907000 19.761420 5.9410500
349 100.00000 100.00000 100.00000 95.879720 100.56030 109.10510
350 11.987900 24.791800 20.113600 3.2000330 4.4867450 4.2519150
351 11.471400 34.624300 42.398000 7.1988270 9.0798420 16.738140
352 16.931200 54.629200 46.070000 14.312290 21.810980 21.647110
353 0.0000000 45.996600 34.959200 8.5267790 14.220710 12.473690
354 32.352100 55.666300 42.856900 17.031280 23.950950 19.486460
355 46.401300 64.297500 57.918500 28.630740 36.210630 36.136790
