Microsoft/Surface Pro 2017/LP123WQ112604 #1 2020-05-26 10-25 0.3127x 0.329y sRGB M-S XYZLUT+MTX/LP123WQ112604 #1 2020-05-26 10-25 0.3127x 0.329y sRGB M-S XYZLUT+MTX.ti1
CTI1   

DESCRIPTOR "Argyll Calibration Target chart information 1"
ORIGINATOR "Argyll targen"
CREATED "Tue May 26 09:59:04 2020"
SINGLE_DIM_STEPS "25"
COMP_GREY_STEPS "73"
DARK_REGION_EMPHASIS "1.6"
COLOR_REP "RGB"
TARGET_INSTRUMENT "X-Rite i1 DisplayPro, ColorMunki Display"
DISPLAY_TYPE_REFRESH "NO"
INSTRUMENT_TYPE_SPECTRAL "NO"
NORMALIZED_TO_Y_100 "YES"
VIDEO_LUT_CALIBRATION_POSSIBLE "YES"
OBSERVER "1931_2"
USE_BLACK_POINT_COMPENSATION "NO"
BLACK_POINT_CORRECTION "0.0"
HIRES_B2A "YES"
HIRES_B2A_SIZE "-1"
SMOOTH_B2A "YES"
PATCH_SEQUENCE "OPTIMIZE_DISPLAY_RESPONSE_DELAY"

NUMBER_OF_FIELDS 7
BEGIN_DATA_FORMAT
SAMPLE_ID RGB_R RGB_G RGB_B XYZ_X XYZ_Y XYZ_Z
END_DATA_FORMAT

NUMBER_OF_SETS 825
BEGIN_DATA
1 100.00000 100.00000 100.00000 95.173760 100.00000 110.10710
2 1.9608000 1.9608000 1.9608000 0.1498490 0.1545660 0.2002380
3 3.9216000 3.9216000 3.9216000 0.3770590 0.3867810 0.4650890
4 5.8824000 5.8824000 5.8824000 0.5270370 0.5560190 0.6168680
5 9.8039000 9.8039000 9.8039000 1.0679740 1.1361370 1.2036240
6 13.726000 13.726000 13.726000 1.6923960 1.7949320 1.9417150
7 17.647000 17.647000 17.647000 2.4501930 2.5496670 2.9625630
8 21.569000 21.569000 21.569000 3.6441470 3.8451360 4.1552120
9 25.490000 25.490000 25.490000 4.9261880 5.2061580 5.5970710
10 29.412000 29.412000 29.412000 6.5996190 7.0226400 7.5591510
11 33.333000 33.333000 33.333000 8.4871990 8.9253240 9.9317660
12 37.255000 37.255000 37.255000 10.676040 11.341500 12.072560
13 41.176000 41.176000 41.176000 12.993950 13.701160 15.147840
14 45.098000 45.098000 45.098000 16.116700 17.057660 18.450010
15 49.020000 49.020000 49.020000 18.997070 20.156720 22.297050
16 52.941000 52.941000 52.941000 22.734490 23.997020 26.365670
17 56.863000 56.863000 56.863000 26.635370 28.227710 30.439400
18 60.784000 60.784000 60.784000 30.617400 32.048330 35.269840
19 64.706000 64.706000 64.706000 35.162010 36.990730 40.660400
20 68.627000 68.627000 68.627000 40.998830 43.189870 47.205750
21 72.549000 72.549000 72.549000 45.927080 48.336870 53.251190
22 76.471000 76.471000 76.471000 51.450170 53.896310 59.679410
23 80.392000 80.392000 80.392000 57.550540 60.397140 66.445650
24 84.314000 84.314000 84.314000 64.066440 67.229430 74.305950
25 88.235000 88.235000 88.235000 70.919720 74.374960 82.605060
26 92.157000 92.157000 92.157000 78.631380 82.663800 92.171570
27 96.078000 96.078000 96.078000 87.312700 91.668950 101.35660
28 0.0000000 71.125200 59.959200 24.096600 37.091480 35.805820
29 34.765600 72.909400 66.047000 26.577990 39.855530 42.839590
30 0.0000000 58.286200 67.974200 20.033350 25.138710 47.528410
31 35.853900 67.939200 74.200600 26.941710 35.042950 58.090110
32 100.00000 75.471800 77.457300 73.509120 63.387630 61.649470
33 26.505800 9.3803000 0.0000000 2.6571080 1.9158720 0.2929150
34 42.729000 13.015600 0.0000000 6.7647270 4.2576840 0.4507870
35 51.733200 22.972000 0.0000000 12.029110 8.0085550 0.8451270
36 58.682700 30.066000 26.075200 16.227570 12.015360 6.4839260
37 6.0976000 0.0000000 0.0000000 0.3903780 0.2407790 0.1547310
38 8.3333000 0.0000000 0.0000000 0.4777100 0.2850170 0.1567620
39 10.683800 0.0000000 0.0000000 0.6034230 0.3484560 0.1595230
40 13.157900 0.0000000 0.0000000 0.7450410 0.4203260 0.1628540
41 15.765800 0.0000000 0.0000000 0.8712540 0.4839920 0.1656800
42 18.518500 0.0000000 0.0000000 1.1557240 0.6280480 0.1722400
43 21.428600 0.0000000 0.0000000 1.4879450 0.7959810 0.1812360
44 24.509800 0.0000000 0.0000000 1.8275010 0.9678870 0.1891370
45 27.777800 0.0000000 0.0000000 2.4643750 1.2900880 0.2056700
46 31.250000 0.0000000 0.0000000 3.1738520 1.6491420 0.2224660
47 34.946200 0.0000000 0.0000000 4.3316110 2.2348220 0.2525730
48 38.888900 0.0000000 0.0000000 5.7796060 2.9700750 0.2911260
49 43.103500 0.0000000 0.0000000 7.3131600 3.7444360 0.3400900
50 47.619100 0.0000000 0.0000000 9.0593550 4.6287970 0.3900820
51 52.469100 0.0000000 0.0000000 11.070750 5.6474880 0.4640150
52 57.692300 0.0000000 0.0000000 13.825150 7.0418680 0.5666060
53 63.333300 0.0000000 0.0000000 16.412640 8.3491390 0.6511660
54 69.444400 0.0000000 0.0000000 20.370440 10.351990 0.8391600
55 76.087000 0.0000000 0.0000000 25.049770 12.719960 1.0763900
56 83.333300 0.0000000 0.0000000 29.823370 15.134340 1.2962860
57 88.102200 31.245200 22.908500 35.216030 21.748400 6.0970420
58 100.00000 40.977800 31.918100 49.823210 31.801190 10.191240
59 100.00000 57.719200 37.577800 53.842080 42.202570 15.640870
60 100.00000 72.312100 46.921100 61.782560 55.598590 23.897390
61 27.331800 25.808100 0.0000000 4.2455650 5.0067250 0.7352600
62 44.310200 30.254500 0.0000000 9.7522780 8.5943290 1.0970630
63 0.0000000 0.0000000 0.0000000 0.0846519 0.0860636 0.1479480
64 3.9683000 0.0000000 0.0000000 0.2636570 0.1768100 0.1520830
65 1.9380000 0.0000000 0.0000000 0.1436410 0.1161260 0.1493800
66 0.0000000 6.0976000 0.0000000 0.2898480 0.4848160 0.1987530
67 0.0000000 13.157900 0.0000000 0.7515990 1.3816110 0.3154660
68 0.0000000 24.509800 0.0000000 1.9350310 3.6704430 0.6263770
69 0.0000000 27.777800 0.0000000 2.4945400 4.7202110 0.7795950
70 0.0000000 31.250000 0.0000000 3.1224630 5.9690380 0.9676390
71 0.0000000 34.946200 0.0000000 3.8267270 7.2814640 1.1752870
72 0.0000000 38.888900 0.0000000 4.9442320 9.4529110 1.5388510
73 0.0000000 43.103500 0.0000000 6.1871510 11.830590 1.9814750
74 0.0000000 47.619100 0.0000000 7.5089270 14.348620 2.4128480
75 0.0000000 52.469100 0.0000000 9.2742180 17.735770 3.0152730
76 0.0000000 57.692300 0.0000000 11.376140 21.740270 3.6707530
77 0.0000000 63.333300 0.0000000 13.966230 26.701140 4.5366560
78 0.0000000 69.444400 0.0000000 17.412110 33.322530 5.6420490
79 0.0000000 76.087000 0.0000000 21.207230 40.616930 6.8585130
80 0.0000000 83.333300 0.0000000 26.011240 49.852390 8.2704870
81 61.702800 100.00000 0.0000000 41.056770 76.892820 12.487180
82 80.362400 100.00000 0.0000000 54.220100 83.055160 12.875580
83 0.0000000 0.0000000 1.9380000 0.0960216 0.0910635 0.2076200
84 0.0000000 0.0000000 3.9683000 0.1475950 0.1126120 0.4625640
85 0.0000000 0.0000000 6.0976000 0.1932620 0.1314740 0.6891610
86 0.0000000 0.0000000 8.3333000 0.2395680 0.1508320 0.9235740
87 0.0000000 0.0000000 10.683800 0.3349270 0.1908770 1.3993040
88 0.0000000 0.0000000 13.157900 0.4073800 0.2209080 1.7560540
89 0.0000000 0.0000000 15.765800 0.5044010 0.2616930 2.2452580
90 0.0000000 0.0000000 18.518500 0.7150360 0.3496140 3.2958830
91 0.0000000 0.0000000 21.428600 0.9806730 0.4602600 4.6191250
92 0.0000000 0.0000000 24.509800 1.2470040 0.5725780 5.9399540
93 0.0000000 0.0000000 27.777800 1.5631190 0.7043440 7.5147910
94 0.0000000 0.0000000 31.250000 1.8944500 0.8424330 9.1640240
95 0.0000000 0.0000000 34.946200 2.3909080 1.0494970 11.633840
96 0.0000000 0.0000000 38.888900 2.9181860 1.2700290 14.261580
97 0.0000000 0.0000000 43.103500 3.6008360 1.5581520 17.655780
98 0.0000000 0.0000000 47.619100 4.4304500 1.9083860 21.816440
99 0.0000000 0.0000000 52.469100 5.3238020 2.2847590 26.250780
100 0.0000000 0.0000000 57.692300 6.5695300 2.8060880 32.436890
101 0.0000000 0.0000000 63.333300 8.0774450 3.4447760 39.937020
102 0.0000000 0.0000000 69.444400 9.8949230 4.2172950 48.915270
103 0.0000000 0.0000000 76.087000 12.032010 5.1414550 59.536230
104 0.0000000 0.0000000 83.333300 14.686210 6.2811720 72.620570
105 0.0000000 19.551200 79.899100 14.009950 7.5347550 64.541980
106 17.473100 41.948800 91.497000 23.055010 17.654350 89.931010
107 27.627400 51.036700 100.00000 29.870280 25.217410 103.13610
108 53.417100 64.257800 100.00000 42.584830 39.612950 104.66680
109 70.036100 79.151300 100.00000 58.043260 59.004290 106.85760
110 2.6042000 2.6042000 2.6042000 0.2197580 0.2267570 0.2849640
111 3.2808000 3.2808000 3.2808000 0.2555460 0.2598640 0.3472300
112 3.9683000 3.9683000 3.9683000 0.3764260 0.3861170 0.4663970
113 4.6667000 4.6667000 4.6667000 0.4170810 0.4385550 0.5001820
114 5.3763000 5.3763000 5.3763000 0.4819430 0.5324080 0.6163960
115 6.0976000 6.0976000 6.0976000 0.5694910 0.5963640 0.6938460
116 6.8306000 6.8306000 6.8306000 0.5798800 0.6234430 0.7466300
117 7.5758000 7.5758000 7.5758000 0.7003210 0.7363150 0.8418040
118 8.3333000 8.3333000 8.3333000 0.7981310 0.8366800 0.9538140
119 9.1036000 9.1036000 9.1036000 0.9118760 0.9845850 1.1234610
120 9.8870000 9.8870000 9.8870000 1.0606090 1.1285690 1.2024590
121 10.683800 10.683800 10.683800 1.1439430 1.2004280 1.3845360
122 11.494200 11.494200 11.494200 1.3259680 1.4043530 1.5418990
123 12.318800 12.318800 12.318800 1.4043830 1.4794670 1.6826240
124 13.157900 13.157900 13.157900 1.6071560 1.7457140 1.8611730
125 14.011800 14.011800 14.011800 1.7531730 1.8613280 2.0201860
126 14.881000 14.881000 14.881000 1.9150950 2.0357490 2.1965670
127 15.765800 15.765800 15.765800 1.9944740 2.1197990 2.2917280
128 16.666700 16.666700 16.666700 2.2681570 2.4028740 2.6551450
129 17.584100 17.584100 17.584100 2.4288760 2.5274720 2.9538960
130 18.518500 18.518500 18.518500 2.6726180 2.8121290 3.0814750
131 19.470400 19.470400 19.470400 2.9903780 3.1944810 3.5274160
132 20.440200 20.440200 20.440200 3.1691790 3.3406590 3.6424710
133 21.428600 21.428600 21.428600 3.5990320 3.8037080 4.1398780
134 22.435900 22.435900 22.435900 3.8252800 4.0449010 4.5271260
135 23.462800 23.462800 23.462800 4.2054690 4.4493970 4.8293170
136 24.509800 24.509800 24.509800 4.4468580 4.7131410 5.2490000
137 25.577600 25.577600 25.577600 4.8579800 5.1556750 5.5711820
138 26.666700 26.666700 26.666700 5.2943490 5.6016290 6.2150450
139 27.777800 27.777800 27.777800 5.9050910 6.1631530 6.9153860
140 28.911600 28.911600 28.911600 6.2787740 6.6407860 7.3093530
141 30.068700 30.068700 30.068700 6.9252030 7.2463870 8.0915190
142 31.250000 31.250000 31.250000 7.3542110 7.7778340 8.5329970
143 32.456100 32.456100 32.456100 7.8631680 8.2320280 9.1795260
144 33.687900 33.687900 33.687900 8.6196810 9.0680640 10.136620
145 34.946200 34.946200 34.946200 9.1164840 9.5647190 10.642570
146 36.231900 36.231900 36.231900 9.8026130 10.423100 11.439590
147 37.545800 37.545800 37.545800 10.796970 11.318330 12.539590
148 38.888900 38.888900 38.888900 11.477090 12.090770 13.476840
149 40.262200 40.262200 40.262200 12.553230 13.261630 14.745250
150 41.666700 41.666700 41.666700 13.267610 14.117680 15.464420
151 43.103500 43.103500 43.103500 14.610790 15.489710 16.842800
152 44.573600 44.573600 44.573600 15.491730 16.467630 18.000510
153 46.078400 46.078400 46.078400 16.517040 17.572480 19.158760
154 47.619100 47.619100 47.619100 17.828620 18.839540 20.809600
155 49.196800 49.196800 49.196800 18.820320 19.971260 22.187930
156 50.813000 50.813000 50.813000 20.708690 21.850650 24.171610
157 52.469100 52.469100 52.469100 22.063470 23.303020 25.770500
158 54.166700 54.166700 54.166700 23.679330 24.888750 27.368610
159 55.907200 55.907200 55.907200 25.495510 26.919820 29.684730
160 57.692300 57.692300 57.692300 27.055600 28.289320 31.443960
161 59.523800 59.523800 59.523800 29.393140 30.986850 34.587760
162 61.403500 61.403500 61.403500 31.305840 32.897570 36.516920
163 63.333300 63.333300 63.333300 32.993910 34.728890 39.159750
164 65.315300 65.315300 65.315300 36.164840 38.030200 42.030310
165 67.351600 67.351600 67.351600 38.731010 40.758620 44.897870
166 69.444400 69.444400 69.444400 41.537270 43.645190 48.587300
167 71.596200 71.596200 71.596200 44.268170 46.547360 51.675180
168 73.809500 73.809500 73.809500 47.512000 49.741460 55.638810
169 76.087000 76.087000 76.087000 50.700980 53.381340 59.008490
170 78.431400 78.431400 78.431400 54.037720 56.707970 63.904930
171 80.845800 80.845800 80.845800 58.046210 60.914870 67.439240
172 83.333300 83.333300 83.333300 61.883070 65.078730 72.728370
173 85.897400 85.897400 85.897400 66.940870 70.366560 77.365400
174 88.541700 88.541700 88.541700 71.586870 75.036840 83.859300
175 91.269800 91.269800 91.269800 77.303500 80.818510 90.634270
176 0.0000000 48.267100 30.031400 8.7865070 14.874000 8.8079390
177 0.0000000 56.678700 54.419300 16.017980 23.027080 28.963500
178 0.0000000 70.195700 69.963100 26.559810 37.157180 51.064750
179 82.433100 24.303200 0.0000000 31.613130 17.190170 1.6064590
180 100.00000 23.686200 19.325700 46.183410 24.537050 4.2572490
181 80.243200 0.0000000 16.907000 29.465740 14.917610 3.4849720
182 78.964800 30.145500 43.362500 32.190960 18.963230 17.456320
183 79.964500 49.050000 57.050400 39.037150 29.402680 30.987580
184 56.210700 38.103600 34.827500 17.383550 14.692410 10.996560
185 74.227200 58.410800 36.181500 33.026400 31.913700 13.353700
186 90.712100 62.184000 68.907300 55.971960 45.225350 48.109140
187 100.00000 63.205700 100.00000 73.581060 54.939680 106.37230
188 65.023100 0.0000000 100.00000 35.689940 17.159610 100.56080
189 71.236600 25.429300 100.00000 40.638170 22.646660 102.13420
190 84.885400 45.509700 100.00000 53.786580 35.928430 103.47480
191 100.00000 47.164700 100.00000 67.702100 43.886250 103.99630
192 0.0000000 9.1476000 16.741900 0.9228810 0.9940020 2.5983290
193 0.0000000 20.684800 21.296000 2.1067020 2.9130300 4.0695900
194 0.0000000 21.617600 30.070000 2.9905780 3.4204130 8.0472260
195 0.0000000 73.870200 84.128800 33.024700 41.591500 78.025660
196 23.648400 80.702700 100.00000 42.336700 50.980520 107.50780
197 49.159800 82.361000 100.00000 50.159750 56.724550 108.00930
198 0.0000000 17.770100 100.00000 21.294830 10.750080 100.34750
199 0.0000000 29.020000 100.00000 22.912510 13.875020 100.76820
200 26.465500 70.821900 100.00000 37.632200 40.743590 105.18700
201 51.348700 74.454100 100.00000 46.482940 48.395520 105.92980
202 22.710800 8.9048000 17.360700 2.6548430 1.7757250 2.9162480
203 47.424600 25.411400 26.206400 10.782500 8.1386140 6.3094560
204 77.603100 47.288700 29.647800 30.520630 25.231270 10.008810
205 91.561800 65.352800 34.099200 48.984100 44.673700 13.115780
206 100.00000 100.00000 44.749900 76.222920 92.201100 22.031530
207 39.207100 55.835000 11.360500 12.844660 21.227210 3.5155010
208 58.951900 55.384400 12.698200 21.337990 24.354470 3.6848830
209 100.00000 84.532300 0.0000000 67.924090 68.740880 9.3992930
210 100.00000 84.248100 25.135800 67.617140 68.566380 9.4801240
211 0.0000000 91.269800 0.0000000 32.254210 61.867070 10.154150
212 0.0000000 100.00000 0.0000000 39.670550 76.116100 12.325720
213 36.855200 100.00000 0.0000000 39.670550 76.116100 12.325720
214 83.186200 100.00000 80.260300 70.270820 88.330990 68.830280
215 89.260000 100.00000 90.133500 79.912060 92.934030 87.042460
216 100.00000 100.00000 88.617400 89.692570 97.439860 84.647770
217 15.190500 7.5882000 38.291100 3.6104640 1.9490390 12.511960
218 23.077500 33.632000 49.342800 8.8264900 8.8197320 22.272000
219 49.787300 38.228500 48.632000 16.770560 14.179660 21.833450
220 49.907500 55.573000 48.960500 20.817530 24.358850 22.353020
221 80.215300 66.918400 58.355700 45.079440 43.787130 33.422400
222 100.00000 76.546000 66.225900 69.330280 62.647060 44.152750
223 92.527400 16.490400 39.316600 43.430040 21.810650 14.410570
224 100.00000 24.789700 48.618600 50.017490 26.642560 21.979370
225 100.00000 42.684100 55.880900 54.878180 34.619160 29.900930
226 0.0000000 1.9380000 0.0000000 0.1165300 0.1489060 0.1564740
227 14.283200 7.1562000 0.0000000 1.0001820 0.8725570 0.2212700
228 26.162700 43.003300 34.572900 8.5725740 12.687850 10.469670
229 39.085500 52.607900 47.569000 16.030620 20.561440 21.137240
230 45.100600 63.422800 66.808500 25.915140 31.338680 44.774440
231 51.941700 63.004300 81.029600 33.120430 33.924640 67.747110
232 72.350100 68.125600 100.00000 53.606330 48.480530 104.52830
233 51.499300 8.4495000 49.567200 14.652870 7.0581990 23.592570
234 51.466800 27.273400 50.544800 16.305530 10.704680 24.515520
235 75.430700 37.596700 62.555400 34.522260 21.925820 39.564530
236 31.060100 44.281900 26.624900 9.0061920 13.353220 6.7890680
237 32.069900 45.608700 62.057200 15.809210 16.469180 37.175290
238 49.609700 76.405300 66.498100 32.313310 45.128680 44.015820
239 86.482000 78.235700 100.00000 68.353340 63.718430 107.09040
240 100.00000 88.836900 100.00000 86.862130 83.342160 109.19310
241 60.471200 0.0000000 59.528500 21.623630 10.376400 35.896260
242 68.085300 0.0000000 80.973800 32.577030 15.404170 68.949760
243 89.477200 0.0000000 86.257900 52.011730 25.081590 82.311650
244 100.00000 0.0000000 100.00000 61.901460 30.862760 102.29580
245 69.316300 0.0000000 34.991800 23.096970 11.532450 11.898450
246 84.199000 0.0000000 48.645100 36.695140 18.231620 23.634110
247 79.972300 0.0000000 58.807500 34.882590 17.099300 35.636170
248 100.00000 0.0000000 66.167500 53.112970 26.202650 43.906390
249 62.156600 35.843900 0.0000000 18.981540 14.440610 1.7755500
250 100.00000 70.216300 0.0000000 59.847240 52.490100 6.8533450
251 100.00000 72.238600 27.600900 61.244500 55.073270 8.8065920
252 31.243300 67.131100 0.0000000 16.001950 30.587160 5.2201560
253 54.196600 83.525900 0.0000000 28.711200 51.151940 8.4260910
254 100.00000 100.00000 0.0000000 73.673750 91.602880 13.449080
255 100.00000 100.00000 24.860300 74.094100 91.817510 13.393010
256 0.0000000 52.895400 81.485700 22.320600 22.350670 70.573220
257 0.0000000 61.586500 100.00000 32.408080 32.005740 104.16030
258 29.835800 61.415800 100.00000 33.986360 32.806310 104.21030
259 11.328800 20.176500 38.822100 4.1146740 3.5187650 13.356350
260 27.837200 20.377700 50.523500 8.2378630 5.5541520 23.205940
261 62.126800 51.018800 69.656100 30.463100 26.346760 48.517610
262 73.648800 50.667600 78.189900 40.518780 30.718450 62.884710
263 0.6361000 0.6361000 0.6361000 0.0915486 0.0937952 0.1548340
264 1.2821000 1.2821000 1.2821000 0.1034260 0.1059550 0.1617690
265 1.9380000 1.9380000 1.9380000 0.1497940 0.1544650 0.2011230
266 0.0000000 10.776900 10.786800 0.7486300 0.9953820 1.5028000
267 15.775400 12.595400 24.504100 2.3353730 1.9265790 5.0508120
268 30.399900 100.00000 66.081000 45.933370 78.166600 45.273160
269 58.705000 100.00000 78.944500 53.717630 81.238210 64.740600
270 69.124200 100.00000 89.340400 63.137410 85.682790 84.267720
271 0.0000000 61.285000 45.115600 15.685930 25.556980 18.986110
272 0.0000000 82.445000 54.698400 29.394480 49.684430 29.942880
273 0.0000000 85.804800 72.972900 36.959930 56.898120 55.132700
274 0.0000000 100.00000 100.00000 56.884400 79.159780 111.24030
275 27.756700 100.00000 100.00000 56.708210 79.073870 110.25460
276 0.0000000 86.085500 100.00000 45.813760 57.697770 108.46430
277 22.923800 90.499700 100.00000 48.861730 63.555470 109.19120
278 50.271800 100.00000 100.00000 59.315600 80.398300 110.35620
279 0.0000000 14.927700 57.643000 6.9112190 4.0032530 30.865450
280 0.0000000 28.562900 74.157500 13.396880 9.1952420 55.483720
281 23.271200 11.710900 73.608700 12.793230 6.1073590 53.626480
282 53.633900 21.738400 100.00000 31.475820 17.087090 100.88550
283 90.241300 100.00000 100.00000 85.515430 94.335290 110.06810
284 100.00000 100.00000 100.00000 94.817340 99.609480 110.37830
285 0.0000000 35.989700 16.235800 4.4611240 7.9492470 3.0724800
286 54.847700 40.440600 29.317400 16.812170 15.498300 8.1234190
287 68.167700 41.276000 33.493000 23.835360 19.365130 10.906960
288 100.00000 47.673200 46.730700 53.512910 36.902800 21.356510
289 100.00000 26.631800 0.0000000 45.708500 24.380030 2.2181210
290 100.00000 43.362500 0.0000000 49.441820 31.522300 3.4416120
291 100.00000 57.672900 0.0000000 54.048600 40.657060 4.9835770
292 100.00000 60.537600 22.359600 55.154510 43.544420 6.5836200
293 100.00000 63.392300 53.444200 59.054660 48.087080 29.109080
294 11.133500 0.0000000 12.876400 0.9941210 0.5161070 1.8469870
295 25.026700 0.0000000 20.611700 3.1131400 1.5477150 4.1633020
296 25.399800 43.245000 81.171700 19.825660 16.853200 67.435010
297 40.479800 50.723600 89.613800 28.553200 24.512440 84.508790
298 77.542400 36.450400 0.0000000 29.561980 19.678330 2.2562980
299 82.039900 49.722800 0.0000000 36.277930 28.229510 3.5678070
300 0.0000000 100.00000 30.041300 39.601120 75.501980 13.849650
301 0.0000000 100.00000 53.127400 42.987650 76.915510 30.710880
302 0.0000000 100.00000 71.907100 47.689880 79.415540 52.507380
303 31.849400 100.00000 79.120700 50.029530 80.388150 64.003460
304 0.0000000 84.954000 85.846200 40.672090 56.436170 80.010700
305 0.0000000 100.00000 87.535100 53.386420 81.813040 80.810480
306 39.530900 100.00000 90.053800 54.271950 81.673030 86.769770
307 0.0000000 32.626200 24.909200 4.2586190 6.6636300 5.8249820
308 0.0000000 32.077400 35.196900 5.2236560 6.9517390 11.103930
309 0.0000000 44.749600 50.694500 10.884830 13.960270 24.806320
310 0.0000000 35.435200 49.432000 7.9685540 8.7278650 22.719280
311 0.0000000 36.677200 64.752700 11.968000 10.967580 40.957950
312 0.0000000 48.269700 66.128000 15.458120 16.960540 44.366910
313 0.0000000 3.9683000 0.0000000 0.2038240 0.3182420 0.1784330
314 0.0000000 15.765800 0.0000000 0.8776860 1.6245320 0.3506480
315 13.529500 21.170100 8.6250000 1.8948640 2.9150900 1.1190830
316 67.700700 28.024600 35.713500 22.554030 14.078570 11.568100
317 76.212500 33.714000 72.193200 36.879340 21.717560 53.997820
318 56.691000 23.959600 62.498000 20.949430 12.038300 38.729550
319 60.479300 28.308200 76.077000 27.029670 15.773210 58.887710
320 27.633400 0.0000000 60.504100 9.6857670 4.3406940 34.947070
321 39.368500 22.481000 63.904700 14.150570 8.6562730 38.532540
322 0.0000000 11.955600 27.595900 1.8338940 1.5675190 6.5400120
323 0.0000000 11.484600 38.677200 3.1287750 2.0625760 13.122740
324 0.0000000 85.625600 39.422800 29.070550 53.016020 17.569010
325 52.596100 100.00000 26.175400 39.294450 75.325930 12.425520
326 70.729100 100.00000 29.375600 47.604870 79.537570 12.947800
327 0.0000000 18.518500 0.0000000 1.1316690 2.1167540 0.4168700
328 0.0000000 21.428600 0.0000000 1.5125240 2.8550050 0.5170570
329 15.177900 22.247500 0.0000000 2.1261440 3.3022560 0.5591380
330 34.466000 29.978400 58.721300 12.406520 9.4735660 32.048260
331 48.372100 40.455300 63.836300 19.844770 16.480280 38.824340
332 68.345800 40.288600 100.00000 42.035510 27.720280 102.97680
333 84.885200 62.016800 100.00000 59.359190 47.291320 105.09310
334 100.00000 77.434000 100.00000 79.593270 68.466620 108.29870
335 31.137500 0.0000000 13.276800 3.9316220 1.9986840 2.1592570
336 36.063100 9.4971000 13.856100 5.1198780 3.0043270 2.0933190
337 46.189800 70.464800 33.050800 21.945050 35.801150 11.588890
338 60.552900 82.842700 33.129400 33.020020 51.787180 12.511330
339 68.628800 86.673700 56.593400 44.703400 61.140310 32.976920
340 86.564500 100.00000 66.307600 67.900740 88.024800 46.935480
341 100.00000 100.00000 78.308600 85.426860 95.492820 66.088960
342 22.123800 0.0000000 42.147700 4.9655730 2.2801750 15.898640
343 43.052500 0.0000000 53.100200 12.064580 5.6886900 26.448910
344 72.047100 70.472600 61.404700 40.896870 44.197760 37.152890
345 87.063300 74.681500 88.144100 62.723310 57.310020 82.439380
346 44.275500 0.0000000 14.379500 8.1722410 4.1404070 2.5146440
347 43.634600 22.336100 39.518000 10.809790 7.1935730 14.436740
348 41.114300 0.0000000 26.233200 7.6835320 3.8164080 6.7639080
349 54.027500 0.0000000 26.155400 13.132270 6.5784420 6.8968110
350 65.178800 16.191200 37.306700 20.227010 10.363910 12.624890
351 50.147900 0.0000000 39.105300 12.622360 6.1777910 14.834170
352 65.258400 0.0000000 44.505000 21.354090 10.523090 19.244220
353 100.00000 23.684100 64.447800 53.174670 27.465370 40.750520
354 100.00000 41.912100 67.224000 57.211220 34.898100 44.343420
355 100.00000 0.0000000 34.564100 46.818610 23.550890 11.989480
356 100.00000 0.0000000 49.509400 49.237410 24.572330 23.978640
357 0.0000000 8.3333000 0.0000000 0.3841040 0.6687820 0.2231460
358 0.0000000 10.683800 0.0000000 0.5207370 0.9335140 0.2591460
359 11.006500 12.241200 0.0000000 1.0147630 1.2983820 0.2883050
