Microsoft/Surface Pro 5/LP123WQ112604 #1 2020-05-26 09-42 0.3127x 0.329y sRGB M-S XYZLUT+MTX/LP123WQ112604 #1 2020-05-26 09-42 0.3127x 0.329y sRGB M-S XYZLUT+MTX.bpc.ti3
CTI3   

DESCRIPTOR "Argyll Calibration Target chart information 3"
ORIGINATOR "Argyll dispread"
CREATED "Tue May 26 09:59:04 2020"
DEVICE_CLASS "DISPLAY"
SINGLE_DIM_STEPS "25"
COMP_GREY_STEPS "73"
DARK_REGION_EMPHASIS "1.6"
COLOR_REP "RGB_XYZ"
TARGET_INSTRUMENT "X-Rite i1 DisplayPro, ColorMunki Display"
DISPLAY_TYPE_REFRESH "NO"
INSTRUMENT_TYPE_SPECTRAL "NO"
LUMINANCE_XYZ_CDM2 "308.264173 323.896191 356.632675"
NORMALIZED_TO_Y_100 "YES"
VIDEO_LUT_CALIBRATION_POSSIBLE "YES"

BEGIN_ARGYLL_COLPROF_ARGS
-v -qh -aX -bn -C "No copyright. Created with DisplayCAL 3.8.9.3 and ArgyllCMS 2.1.2" -M "LP123WQ112604" -A "LG Display"
END_ARGYLL_COLPROF_ARGS

OBSERVER "1931_2"
USE_BLACK_POINT_COMPENSATION "NO"
BLACK_POINT_CORRECTION "0.0"
HIRES_B2A "YES"
HIRES_B2A_SIZE "-1"
SMOOTH_B2A "YES"
PATCH_SEQUENCE "OPTIMIZE_DISPLAY_RESPONSE_DELAY"

NUMBER_OF_FIELDS 7
BEGIN_DATA_FORMAT
SAMPLE_ID RGB_R RGB_G RGB_B XYZ_X XYZ_Y XYZ_Z
END_DATA_FORMAT

NUMBER_OF_SETS 825
BEGIN_DATA
1 100.00000 100.00000 100.00000 95.173760 100.00000 110.10710
2 1.9608000 1.9608000 1.9608000 0.1475763 0.1543837 0.1581264
3 3.9216000 3.9216000 3.9216000 0.3759977 0.3865992 0.4471554
4 5.8824000 5.8824000 5.8824000 0.5263953 0.5558375 0.6073053
5 9.8039000 9.8039000 9.8039000 1.0677406 1.1359565 1.2022172
6 13.726000 13.726000 13.726000 1.6922135 1.7947527 1.9412828
7 17.647000 17.647000 17.647000 2.4500212 2.5494891 2.9623160
8 21.569000 21.569000 21.569000 3.6439797 3.8449605 4.1550135
9 25.490000 25.490000 25.490000 4.9260232 5.2059850 5.5968796
10 29.412000 29.412000 29.412000 6.5994573 7.0224703 7.5589638
11 33.333000 33.333000 33.333000 8.4870408 8.9251578 9.9315831
12 37.255000 37.255000 37.255000 10.675886 11.341338 12.072381
13 41.176000 41.176000 41.176000 12.993800 13.701002 15.147667
14 45.098000 45.098000 45.098000 16.116556 17.057509 18.449843
15 49.020000 49.020000 49.020000 18.996931 20.156574 22.296890
16 52.941000 52.941000 52.941000 22.734358 23.996881 26.365517
17 56.863000 56.863000 56.863000 26.635245 28.227579 30.439255
18 60.784000 60.784000 60.784000 30.617282 32.048206 35.269703
19 64.706000 64.706000 64.706000 35.161900 36.990615 40.660273
20 68.627000 68.627000 68.627000 40.998731 43.189766 47.205635
21 72.549000 72.549000 72.549000 45.926990 48.336776 53.251086
22 76.471000 76.471000 76.471000 51.450090 53.896226 59.679318
23 80.392000 80.392000 80.392000 57.550471 60.397068 66.445570
24 84.314000 84.314000 84.314000 64.066383 67.229370 74.305885
25 88.235000 88.235000 88.235000 70.919676 74.374913 82.605010
26 92.157000 92.157000 92.157000 78.631350 82.663768 92.171537
27 96.078000 96.078000 96.078000 87.312686 91.668935 101.35658
28 0.0000000 71.125200 59.959200 24.096470 37.091365 35.805684
29 34.765600 72.909400 66.047000 26.577865 39.855420 42.839467
30 0.0000000 58.286200 67.974200 20.033213 25.138573 47.528296
31 35.853900 67.939200 74.200600 26.941585 35.042831 58.090015
32 100.00000 75.471800 77.457300 73.509080 63.387563 61.649382
33 26.505800 9.3803000 0.0000000 2.6569274 1.9156930 0.2926061
34 42.729000 13.015600 0.0000000 6.7645654 4.2575092 0.4505859
35 51.733200 22.972000 0.0000000 12.028958 8.0083871 0.8449276
36 58.682700 30.066000 26.075200 16.227426 12.015199 6.4837369
37 6.0976000 0.0000000 0.0000000 0.3886763 0.2405969 0.1240103
38 8.3333000 0.0000000 0.0000000 0.4762394 0.2848350 0.1306507
39 10.683800 0.0000000 0.0000000 0.6022254 0.3482741 0.1388580
40 13.157900 0.0000000 0.0000000 0.7440854 0.4201442 0.1470160
41 15.765800 0.0000000 0.0000000 0.8704521 0.4838104 0.1531765
42 18.518500 0.0000000 0.0000000 1.1551128 0.6278666 0.1649273
43 21.428600 0.0000000 0.0000000 1.4875020 0.7957999 0.1773169
44 24.509800 0.0000000 0.0000000 1.8271702 0.9677062 0.1870247
45 27.777800 0.0000000 0.0000000 2.4641409 1.2899078 0.2048356
46 31.250000 0.0000000 0.0000000 3.1736574 1.6489625 0.2220457
47 34.946200 0.0000000 0.0000000 4.3314377 2.2346435 0.2523226
48 38.888900 0.0000000 0.0000000 5.7794410 2.9698979 0.2909154
49 43.103500 0.0000000 0.0000000 7.3129991 3.7442603 0.3398873
50 47.619100 0.0000000 0.0000000 9.0591977 4.6286229 0.3898812
51 52.469100 0.0000000 0.0000000 11.070596 5.6473158 0.4638148
52 57.692300 0.0000000 0.0000000 13.825002 7.0416983 0.5664060
53 63.333300 0.0000000 0.0000000 16.412496 8.3489717 0.6509662
54 69.444400 0.0000000 0.0000000 20.370303 10.351826 0.8389605
55 76.087000 0.0000000 0.0000000 25.049642 12.719801 1.0761910
56 83.333300 0.0000000 0.0000000 29.823251 15.134185 1.2960874
57 88.102200 31.245200 22.908500 35.215921 21.748257 6.0968521
58 100.00000 40.977800 31.918100 49.823127 31.801066 10.191058
59 100.00000 57.719200 37.577800 53.842005 42.202465 15.640698
60 100.00000 72.312100 46.921100 61.782499 55.598509 23.897233
61 27.331800 25.808100 0.0000000 4.2453990 5.0065516 0.7350601
62 44.310200 30.254500 0.0000000 9.7521221 8.5941622 1.0968640
63 0.0000000 0.0000000 0.0000000 0.0817871 0.0858812 0.0940168
64 3.9683000 0.0000000 0.0000000 0.2615490 0.1766278 0.1132551
65 1.9380000 0.0000000 0.0000000 0.1410514 0.1159437 0.1009407
66 0.0000000 6.0976000 0.0000000 0.2890605 0.4846344 0.1862878
67 0.0000000 13.157900 0.0000000 0.7514028 1.3814310 0.3147886
68 0.0000000 24.509800 0.0000000 1.9348606 3.6702672 0.6261745
69 0.0000000 27.777800 0.0000000 2.4943708 4.7200371 0.7793950
70 0.0000000 31.250000 0.0000000 3.1222950 5.9688664 0.9674397
71 0.0000000 34.946200 0.0000000 3.8265603 7.2812948 1.1750882
72 0.0000000 38.888900 0.0000000 4.9440673 9.4527457 1.5386528
73 0.0000000 43.103500 0.0000000 6.1869886 11.830429 1.9812776
74 0.0000000 47.619100 0.0000000 7.5087670 14.348464 2.4126514
75 0.0000000 52.469100 0.0000000 9.2740612 17.735620 3.0150775
76 0.0000000 57.692300 0.0000000 11.375987 21.740127 3.6705587
77 0.0000000 63.333300 0.0000000 13.966082 26.701006 4.5364633
78 0.0000000 69.444400 0.0000000 17.411968 33.322408 5.6418583
79 0.0000000 76.087000 0.0000000 21.207095 40.616822 6.8583245
80 0.0000000 83.333300 0.0000000 26.011114 49.852298 8.2703011
81 61.702800 100.00000 0.0000000 41.056671 76.892778 12.487002
82 80.362400 100.00000 0.0000000 54.220025 83.055129 12.875403
83 0.0000000 0.0000000 1.9380000 0.0932006 0.0908811 0.1545635
84 0.0000000 0.0000000 3.9683000 0.1449742 0.1124297 0.4135024
85 0.0000000 0.0000000 6.0976000 0.1908043 0.1312917 0.6433536
86 0.0000000 0.0000000 8.3333000 0.2372666 0.1506497 0.8808864
87 0.0000000 0.0000000 10.683800 0.3329166 0.1906948 1.3529560
88 0.0000000 0.0000000 13.157900 0.4055621 0.2207259 1.7076920
89 0.0000000 0.0000000 15.765800 0.5028133 0.2615109 2.1961638
90 0.0000000 0.0000000 18.518500 0.7138430 0.3494321 3.2500106
91 0.0000000 0.0000000 21.428600 0.9797557 0.4600783 4.5810850
92 0.0000000 0.0000000 24.509800 1.2462610 0.5723965 5.9104918
93 0.0000000 0.0000000 27.777800 1.5625472 0.7041628 7.4939292
94 0.0000000 0.0000000 31.250000 1.8940132 0.8422520 9.1500328
95 0.0000000 0.0000000 34.946200 2.3905961 1.0493164 11.626248
96 0.0000000 0.0000000 38.888900 2.9179402 1.2698488 14.257366
97 0.0000000 0.0000000 43.103500 3.6006314 1.5579723 17.653656
98 0.0000000 0.0000000 47.619100 4.4302676 1.9082070 21.815401
99 0.0000000 0.0000000 52.469100 5.3236304 2.2845806 26.250228
100 0.0000000 0.0000000 57.692300 6.5693655 2.8059106 32.436601
101 0.0000000 0.0000000 63.333300 8.0772851 3.4445998 39.936844
102 0.0000000 0.0000000 69.444400 9.8947671 4.2171202 48.915144
103 0.0000000 0.0000000 76.087000 12.031858 5.1412819 59.536134
104 0.0000000 0.0000000 83.333300 14.686063 6.2810009 72.620501
105 0.0000000 19.551200 79.899100 14.009802 7.5345862 64.541897
106 17.473100 41.948800 91.497000 23.054878 17.654200 89.930973
107 27.627400 51.036700 100.00000 29.870161 25.217273 103.13609
108 53.417100 64.257800 100.00000 42.584734 39.612840 104.66679
109 70.036100 79.151300 100.00000 58.043192 59.004215 106.85759
110 2.6042000 2.6042000 2.6042000 0.2179748 0.2265749 0.2526224
111 3.2808000 3.2808000 3.2808000 0.2539482 0.2596819 0.3185888
112 3.9683000 3.9683000 3.9683000 0.3753625 0.3859352 0.4484193
113 4.6667000 4.6667000 4.6667000 0.4161767 0.4383733 0.4853802
114 5.3763000 5.3763000 5.3763000 0.4812572 0.5322264 0.6059544
115 6.0976000 6.0976000 6.0976000 0.5689162 0.5961826 0.6856180
116 6.8306000 6.8306000 6.8306000 0.5793448 0.6232616 0.7391918
117 7.5758000 7.5758000 7.5758000 0.6999138 0.7361338 0.8369170
118 8.3333000 8.3333000 8.3333000 0.7977998 0.8364990 0.9504422
119 9.1036000 9.1036000 9.1036000 0.9116091 0.9844043 1.1212886
120 9.8870000 9.8870000 9.8870000 1.0603743 1.1283885 1.2010214
121 10.683800 10.683800 10.683800 1.1437194 1.2002477 1.3832682
122 11.494200 11.494200 11.494200 1.3257665 1.4041730 1.5410967
123 12.318800 12.318800 12.318800 1.4041868 1.4792872 1.6819140
124 13.157900 13.157900 13.157900 1.6069722 1.7455347 1.8607154
125 14.011800 14.011800 14.011800 1.7529923 1.8611489 2.0197860
126 14.881000 14.881000 14.881000 1.9149178 2.0355702 2.1962319
127 15.765800 15.765800 15.765800 1.9942981 2.1196203 2.2914154
128 16.666700 16.666700 16.666700 2.2679841 2.4026959 2.6548827
129 17.584100 17.584100 17.584100 2.4287041 2.5272941 2.9536466
130 18.518500 18.518500 18.518500 2.6724476 2.8119516 3.0812494
131 19.470400 19.470400 19.470400 2.9902090 3.1943043 3.5272061
132 20.440200 20.440200 20.440200 3.1690105 3.3404826 3.6422648
133 21.428600 21.428600 21.428600 3.5988646 3.8035324 4.1396791
134 22.435900 22.435900 22.435900 3.8251131 4.0447259 4.5269294
135 23.462800 23.462800 23.462800 4.2053029 4.4492226 4.8291228
136 24.509800 24.509800 24.509800 4.4466923 4.7129671 5.2488072
137 25.577600 25.577600 25.577600 4.8578151 5.1555019 5.5709905
138 26.666700 26.666700 26.666700 5.2941849 5.6014567 6.2148550
139 27.777800 27.777800 27.777800 5.9049280 6.1629817 6.9151974
140 28.911600 28.911600 28.911600 6.2786117 6.6406156 7.3091653
141 30.068700 30.068700 30.068700 6.9250419 7.2462177 8.0913327
142 31.250000 31.250000 31.250000 7.3540507 7.7776657 8.5328116
143 32.456100 32.456100 32.456100 7.8630086 8.2318605 9.1793418
144 33.687900 33.687900 33.687900 8.6195230 9.0678980 10.136438
145 34.946200 34.946200 34.946200 9.1163269 9.5645539 10.642388
146 36.231900 36.231900 36.231900 9.8024572 10.422936 11.439410
147 37.545800 37.545800 37.545800 10.796816 11.318168 12.539412
148 38.888900 38.888900 38.888900 11.476937 12.090610 13.476664
149 40.262200 40.262200 40.262200 12.553079 13.261472 14.745076
150 41.666700 41.666700 41.666700 13.267460 14.117523 15.464247
151 43.103500 43.103500 43.103500 14.610643 15.489556 16.842630
152 44.573600 44.573600 44.573600 15.491585 16.467478 18.000342
153 46.078400 46.078400 46.078400 16.516896 17.572330 19.158594
154 47.619100 47.619100 47.619100 17.828479 18.839392 20.809437
155 49.196800 49.196800 49.196800 18.820181 19.971114 22.187770
156 50.813000 50.813000 50.813000 20.708554 21.850507 24.171453
157 52.469100 52.469100 52.469100 22.063337 23.302880 25.770346
158 54.166700 54.166700 54.166700 23.679199 24.888613 27.368459
159 55.907200 55.907200 55.907200 25.495383 26.919687 29.684583
160 57.692300 57.692300 57.692300 27.055476 28.289189 31.443816
161 59.523800 59.523800 59.523800 29.393020 30.986724 34.587622
162 61.403500 61.403500 61.403500 31.305723 32.897448 36.516786
163 63.333300 63.333300 63.333300 32.993797 34.728771 39.159620
164 65.315300 65.315300 65.315300 36.164732 38.030087 42.030186
165 67.351600 67.351600 67.351600 38.730907 40.758512 44.897751
166 69.444400 69.444400 69.444400 41.537172 43.645087 48.587188
167 71.596200 71.596200 71.596200 44.268077 46.547262 51.675073
168 73.809500 73.809500 73.809500 47.511913 49.741368 55.638711
169 76.087000 76.087000 76.087000 50.700899 53.381255 59.008397
170 78.431400 78.431400 78.431400 54.037645 56.707891 63.904846
171 80.845800 80.845800 80.845800 58.046142 60.914799 67.439162
172 83.333300 83.333300 83.333300 61.883009 65.078666 72.728302
173 85.897400 85.897400 85.897400 66.940818 70.366506 77.365340
174 88.541700 88.541700 88.541700 71.586827 75.036794 83.859252
175 91.269800 91.269800 91.269800 77.303467 80.818475 90.634234
176 0.0000000 48.267100 30.031400 8.7863493 14.873845 8.8077541
177 0.0000000 56.678700 54.419300 16.017836 23.026939 28.963352
178 0.0000000 70.195700 69.963100 26.559685 37.157065 51.064642
179 82.433100 24.303200 0.0000000 31.613014 17.190019 1.6062610
180 100.00000 23.686200 19.325700 46.183321 24.536912 4.2570558
181 80.243200 0.0000000 16.907000 29.465620 14.917455 3.4847774
182 78.964800 30.145500 43.362500 32.190845 18.963082 17.456151
183 79.964500 49.050000 57.050400 39.037048 29.402551 30.987436
184 56.210700 38.103600 34.827500 17.383408 14.692254 10.996379
185 74.227200 58.410800 36.181500 33.026287 31.913576 13.353523
186 90.712100 62.184000 68.907300 55.971888 45.225250 48.109027
187 100.00000 63.205700 100.00000 73.581021 54.939598 106.37229
188 65.023100 0.0000000 100.00000 35.689831 17.159459 100.56078
189 71.236600 25.429300 100.00000 40.638070 22.646519 102.13419
190 84.885400 45.509700 100.00000 53.786504 35.928313 103.47479
191 100.00000 47.164700 100.00000 67.702050 43.886148 103.99629
192 0.0000000 9.1476000 16.741900 0.9226166 0.9938213 2.5947986
193 0.0000000 20.684800 21.296000 2.1065311 2.9128528 4.0693669
194 0.0000000 21.617600 30.070000 2.9904092 3.4202367 8.0470224
195 0.0000000 73.870200 84.128800 33.024587 41.591393 78.025601
196 23.648400 80.702700 100.00000 42.336604 50.980431 107.50780
197 49.159800 82.361000 100.00000 50.159668 56.724471 108.00930
198 0.0000000 17.770100 100.00000 21.294695 10.749917 100.34748
199 0.0000000 29.020000 100.00000 22.912378 13.874863 100.76818
200 26.465500 70.821900 100.00000 37.632095 40.743482 105.18699
201 51.348700 74.454100 100.00000 46.482851 48.395426 105.92979
202 22.710800 8.9048000 17.360700 2.6546573 1.7755457 2.9157285
203 47.424600 25.411400 26.206400 10.782346 8.1384463 6.3092665
204 77.603100 47.288700 29.647800 30.520512 25.231134 10.008627
205 91.561800 65.352800 34.099200 48.984016 44.673599 13.115603
206 100.00000 100.00000 44.749900 76.222885 92.201086 22.031369
207 39.207100 55.835000 11.360500 12.844510 21.227066 3.5153064
208 58.951900 55.384400 12.698200 21.337855 24.354332 3.6846887
209 100.00000 84.532300 0.0000000 67.924040 68.740823 9.3991092
210 100.00000 84.248100 25.135800 67.617090 68.566323 9.4799403
211 0.0000000 91.269800 0.0000000 32.254095 61.867000 10.153968
212 0.0000000 100.00000 0.0000000 39.670449 76.116056 12.325542
213 36.855200 100.00000 0.0000000 39.670449 76.116056 12.325542
214 83.186200 100.00000 80.260300 70.270775 88.330969 68.830205
215 89.260000 100.00000 90.133500 79.912032 92.934017 87.042418
216 100.00000 100.00000 88.617400 89.692560 97.439855 84.647724
217 15.190500 7.5882000 38.291100 3.6102837 1.9488600 12.511235
218 23.077500 33.632000 49.342800 8.8263324 8.8195656 22.271840
219 49.787300 38.228500 48.632000 16.770417 14.179503 21.833289
220 49.907500 55.573000 48.960500 20.817394 24.358712 22.352860
221 80.215300 66.918400 58.355700 45.079349 43.787027 33.422260
222 100.00000 76.546000 66.225900 69.330233 62.646992 44.152630
223 92.527400 16.490400 39.316600 43.429946 21.810507 14.410395
224 100.00000 24.789700 48.618600 50.017408 26.642426 21.979209
225 100.00000 42.684100 55.880900 54.878106 34.619041 29.900784
226 0.0000000 1.9380000 0.0000000 0.1142133 0.1487237 0.1134842
227 14.283200 7.1562000 0.0000000 0.9998553 0.8723761 0.2183126
228 26.162700 43.003300 34.572900 8.5724159 12.687691 10.469488
229 39.085500 52.607900 47.569000 16.030476 20.561295 21.137078
230 45.100600 63.422800 66.808500 25.915014 31.338555 44.774321
231 51.941700 63.004300 81.029600 33.120317 33.924519 67.747033
232 72.350100 68.125600 100.00000 53.606254 48.480436 104.52829
233 51.499300 8.4495000 49.567200 14.652723 7.0580294 23.592412
234 51.466800 27.273400 50.544800 16.305386 10.704517 24.515364
235 75.430700 37.596700 62.555400 34.522149 21.925677 39.564401
236 31.060100 44.281900 26.624900 9.0060347 13.353062 6.7888794
237 32.069900 45.608700 62.057200 15.809065 16.469028 37.175157
238 49.609700 76.405300 66.498100 32.313195 45.128580 44.015699
239 86.482000 78.235700 100.00000 68.353291 63.718364 107.09039
240 100.00000 88.836900 100.00000 86.862115 83.342130 109.19310
241 60.471200 0.0000000 59.528500 21.623496 10.376236 35.896125
242 68.085300 0.0000000 80.973800 32.576916 15.404016 68.949685
243 89.477200 0.0000000 86.257900 52.011651 25.081453 82.311599
244 100.00000 0.0000000 100.00000 61.901399 30.862634 102.29579
245 69.316300 0.0000000 34.991800 23.096838 11.532289 11.898271
246 84.199000 0.0000000 48.645100 36.695033 18.231471 23.633952
247 79.972300 0.0000000 58.807500 34.882480 17.099149 35.636034
248 100.00000 0.0000000 66.167500 53.112893 26.202515 43.906269
249 62.156600 35.843900 0.0000000 18.981401 14.440454 1.7753523
250 100.00000 70.216300 0.0000000 59.847176 52.490013 6.8531565
251 100.00000 72.238600 27.600900 61.244438 55.073188 8.8064071
252 31.243300 67.131100 0.0000000 16.001805 30.587033 5.2199645
253 54.196600 83.525900 0.0000000 28.711079 51.151851 8.4259054
254 100.00000 100.00000 0.0000000 73.673711 91.602865 13.448904
255 100.00000 100.00000 24.860300 74.094062 91.817495 13.392833
256 0.0000000 52.895400 81.485700 22.320467 22.350528 70.573148
257 0.0000000 61.586500 100.00000 32.407965 32.005616 104.16029
258 29.835800 61.415800 100.00000 33.986248 32.806187 104.21029
259 11.328800 20.176500 38.822100 4.1145073 3.5185889 13.356153
260 27.837200 20.377700 50.523500 8.2377043 5.5539796 23.205780
261 62.126800 51.018800 69.656100 30.462982 26.346626 48.517498
262 73.648800 50.667600 78.189900 40.518680 30.718324 62.884624
263 0.6361000 0.6361000 0.6361000 0.0887539 0.0936128 0.1023008
264 1.2821000 1.2821000 1.2821000 0.1007450 0.1057727 0.1115054
265 1.9380000 1.9380000 1.9380000 0.1475206 0.1542827 0.1589958
266 0.0000000 10.776900 10.786800 0.7483712 0.9952013 1.5002992
267 15.775400 12.595400 24.504100 2.3351931 1.9264000 5.0503043
268 30.399900 100.00000 66.081000 45.933280 78.166560 45.273042
269 58.705000 100.00000 78.944500 53.717554 81.238176 64.740517
270 69.124200 100.00000 89.340400 63.137352 85.682764 84.267673
271 0.0000000 61.285000 45.115600 15.685785 25.556844 18.985944
272 0.0000000 82.445000 54.698400 29.394360 49.684338 29.942734
273 0.0000000 85.804800 72.972900 36.959824 56.898041 55.132600
274 0.0000000 100.00000 100.00000 56.884330 79.159742 111.24030
275 27.756700 100.00000 100.00000 56.708140 79.073832 110.25460
276 0.0000000 86.085500 100.00000 45.813670 57.697693 108.46430
277 22.923800 90.499700 100.00000 48.861645 63.555403 109.19120
278 50.271800 100.00000 100.00000 59.315535 80.398264 110.35620
279 0.0000000 14.927700 57.643000 6.9110576 4.0030778 30.865291
280 0.0000000 28.562900 74.157500 13.396731 9.1950763 55.483620
281 23.271200 11.710900 73.608700 12.793080 6.1071876 53.626376
282 53.633900 21.738400 100.00000 31.475704 17.086939 100.88548
283 90.241300 100.00000 100.00000 85.515412 94.335280 110.06810
284 100.00000 100.00000 100.00000 94.817339 99.609479 110.37830
285 0.0000000 35.989700 16.235800 4.4609584 7.9490790 3.0722846
286 54.847700 40.440600 29.317400 16.812027 15.498146 8.1232328
287 68.167700 41.276000 33.493000 23.835230 19.364983 10.906779
288 100.00000 47.673200 46.730700 53.512834 36.902685 21.356348
289 100.00000 26.631800 0.0000000 45.708410 24.379892 2.2179241
290 100.00000 43.362500 0.0000000 49.441737 31.522175 3.4414173
291 100.00000 57.672900 0.0000000 54.048525 40.656952 4.9833851
292 100.00000 60.537600 22.359600 55.154437 43.544317 6.5834310
293 100.00000 63.392300 53.444200 59.054594 48.086985 29.108932
294 11.133500 0.0000000 12.876400 0.9933401 0.5159254 1.8301612
295 25.026700 0.0000000 20.611700 3.1129370 1.5475353 4.1623397
296 25.399800 43.245000 81.171700 19.825522 16.853048 67.434932
297 40.479800 50.723600 89.613800 28.553078 24.512302 84.508743
298 77.542400 36.450400 0.0000000 29.561860 19.678183 2.2561011
299 82.039900 49.722800 0.0000000 36.277822 28.229379 3.5676125
300 0.0000000 100.00000 30.041300 39.601019 75.501935 13.849474
301 0.0000000 100.00000 53.127400 42.987555 76.915468 30.710735
302 0.0000000 100.00000 71.907100 47.689793 79.415502 52.507275
303 31.849400 100.00000 79.120700 50.029448 80.388114 64.003376
304 0.0000000 84.954000 85.846200 40.671991 56.436090 80.010645
305 0.0000000 100.00000 87.535100 53.386344 81.813007 80.810427
306 39.530900 100.00000 90.053800 54.271875 81.672997 86.769727
307 0.0000000 32.626200 24.909200 4.2584530 6.6634596 5.8247916
308 0.0000000 32.077400 35.196900 5.2234918 6.9515692 11.103749
309 0.0000000 44.749600 50.694500 10.884676 13.960113 24.806164
310 0.0000000 35.435200 49.432000 7.9683948 8.7276984 22.719120
311 0.0000000 36.677200 64.752700 11.967848 10.967417 40.957824
312 0.0000000 48.269700 66.128000 15.457974 16.960388 44.366790
313 0.0000000 3.9683000 0.0000000 0.2025035 0.3180600 0.1553299
314 0.0000000 15.765800 0.0000000 0.8775018 1.6243524 0.3502124
315 13.529500 21.170100 8.6250000 1.8946928 2.9149128 1.1188716
316 67.700700 28.024600 35.713500 22.553897 14.078413 11.567920
317 76.212500 33.714000 72.193200 36.879234 21.717417 53.997718
318 56.691000 23.959600 62.498000 20.949295 12.038139 38.729420
319 60.479300 28.308200 76.077000 27.029546 15.773056 58.887617
320 27.633400 0.0000000 60.504100 9.6856107 4.3405194 34.946924
321 39.368500 22.481000 63.904700 14.150422 8.6561063 38.532409
322 0.0000000 11.955600 27.595900 1.8337004 1.5673393 6.5388409
323 0.0000000 11.484600 38.677200 3.1285980 2.0623972 13.122137
324 0.0000000 85.625600 39.422800 29.070429 53.015934 17.568841
325 52.596100 100.00000 26.175400 39.294348 75.325885 12.425342
326 70.729100 100.00000 29.375600 47.604783 79.537533 12.947623
327 0.0000000 18.518500 0.0000000 1.1314933 2.1165753 0.4166038
328 0.0000000 21.428600 0.0000000 1.5123521 2.8548277 0.5168441
329 15.177900 22.247500 0.0000000 2.1259737 3.3020795 0.5589327
330 34.466000 29.978400 58.721300 12.406369 9.4734008 32.048118
331 48.372100 40.455300 63.836300 19.844632 16.480128 38.824210
332 68.345800 40.288600 100.00000 42.035413 27.720148 102.97679
333 84.885200 62.016800 100.00000 59.359125 47.291224 105.09309
334 100.00000 77.434000 100.00000 79.593242 68.466562 108.29870
335 31.137500 0.0000000 13.276800 3.9314431 1.9985051 2.1589103
336 36.063100 9.4971000 13.856100 5.1197120 3.0041500 2.0931061
337 46.189800 70.464800 33.050800 21.944916 35.801033 11.588710
338 60.552900 82.842700 33.129400 33.019907 51.787092 12.511152
339 68.628800 86.673700 56.593400 44.703308 61.140239 32.976779
340 86.564500 100.00000 66.307600 67.900690 88.024778 46.935365
341 100.00000 100.00000 78.308600 85.426842 95.492812 66.088880
342 22.123800 0.0000000 42.147700 4.9654010 2.2799966 15.898180
343 43.052500 0.0000000 53.100200 12.064428 5.6885179 26.448756
344 72.047100 70.472600 61.404700 40.896771 44.197658 37.152757
345 87.063300 74.681500 88.144100 62.723251 57.309942 82.439329
346 44.275500 0.0000000 14.379500 8.1720819 4.1402320 2.5144454
347 43.634600 22.336100 39.518000 10.809636 7.1934036 14.436565
348 41.114300 0.0000000 26.233200 7.6833719 3.8162324 6.7637119
349 54.027500 0.0000000 26.155400 13.132120 6.5782715 6.8966225
350 65.178800 16.191200 37.306700 20.226873 10.363746 12.624712
351 50.147900 0.0000000 39.105300 12.622209 6.1776197 14.833996
352 65.258400 0.0000000 44.505000 21.353955 10.522927 19.244054
353 100.00000 23.684100 64.447800 53.174593 27.465238 40.750393
354 100.00000 41.912100 67.224000 57.211151 34.897981 44.343300
355 100.00000 0.0000000 34.564100 46.818522 23.550750 11.989301
