Microsoft/Surface Pro 5/LP123WQ112604 #1 2020-05-26 09-42 0.3127x 0.329y sRGB M-S XYZLUT+MTX/LP123WQ112604 #1 2020-05-26 09-42 0.3127x 0.329y sRGB M-S XYZLUT+MTX.ti1
CTI1   

DESCRIPTOR "Argyll Calibration Target chart information 1"
ORIGINATOR "Argyll targen"
CREATED "Tue May 26 09:58:48 2020"
APPROX_WHITE_POINT "93.905543 97.606127 109.336476"
COLOR_REP "RGB"
ACCURATE_EXPECTED_VALUES "true"
DARK_REGION_EMPHASIS "1.6"
WHITE_COLOR_PATCHES "4"
BLACK_COLOR_PATCHES "4"
SINGLE_DIM_STEPS "25"
COMP_GREY_STEPS "73"
OFPS_PATCHES "648"

NUMBER_OF_FIELDS 7
BEGIN_DATA_FORMAT
SAMPLE_ID RGB_R RGB_G RGB_B XYZ_X XYZ_Y XYZ_Z
END_DATA_FORMAT

NUMBER_OF_SETS 825
BEGIN_DATA
1 100.00000 100.00000 100.00000 93.905540 97.606130 109.33650
2 1.9608000 1.9608000 1.9608000 1.1428000 1.1502000 1.1637000
3 3.9216000 3.9216000 3.9216000 1.2856000 1.3005000 1.3273000
4 5.8824000 5.8824000 5.8824000 1.4495000 1.4729000 1.5152000
5 9.8039000 9.8039000 9.8039000 1.9148000 1.9624000 2.0484000
6 13.726000 13.726000 13.726000 2.5817000 2.6639000 2.8126000
7 17.647000 17.647000 17.647000 3.4695000 3.5979000 3.8300000
8 21.569000 21.569000 21.569000 4.5953000 4.7822000 5.1201000
9 25.490000 25.490000 25.490000 5.9745000 6.2332000 6.7007000
10 29.412000 29.412000 29.412000 7.6213000 7.9656000 8.5879000
11 33.333000 33.333000 33.333000 9.5488000 9.9933000 10.797000
12 37.255000 37.255000 37.255000 11.769000 12.329000 13.341000
13 41.176000 41.176000 41.176000 14.294000 14.985000 16.234000
14 45.098000 45.098000 45.098000 17.134000 17.973000 19.489000
15 49.020000 49.020000 49.020000 20.299000 21.303000 23.117000
16 52.941000 52.941000 52.941000 23.800000 24.986000 27.129000
17 56.863000 56.863000 56.863000 27.646000 29.032000 31.536000
18 60.784000 60.784000 60.784000 31.846000 33.450000 36.349000
19 64.706000 64.706000 64.706000 36.409000 38.250000 41.578000
20 68.627000 68.627000 68.627000 41.343000 43.440000 47.232000
21 72.549000 72.549000 72.549000 46.656000 49.030000 53.321000
22 76.471000 76.471000 76.471000 52.356000 55.027000 59.853000
23 80.392000 80.392000 80.392000 58.452000 61.439000 66.838000
24 84.314000 84.314000 84.314000 64.949000 68.275000 74.285000
25 88.235000 88.235000 88.235000 71.857000 75.541000 82.200000
26 92.157000 92.157000 92.157000 79.181000 83.246000 90.594000
27 96.078000 96.078000 96.078000 86.929000 91.397000 99.472000
28 0.0000000 71.125200 59.959200 23.589780 36.197350 35.500720
29 34.765600 72.909400 66.047000 29.669560 40.441370 43.552060
30 0.0000000 58.286200 67.974200 19.398280 25.036100 43.917600
31 35.853900 67.939200 74.200600 29.706260 36.712890 54.289620
32 100.00000 75.471800 77.457300 68.617650 61.852600 61.648110
33 26.505800 9.3803000 0.0000000 2.5466720 1.8537210 0.3459660
34 42.729000 13.015600 0.0000000 6.2584980 4.0545340 0.5568520
35 51.733200 22.972000 0.0000000 10.085650 7.3848150 0.9747140
36 58.682700 30.066000 26.075200 15.140710 11.496940 6.4853320
37 6.0976000 0.0000000 0.0000000 0.2889840 0.1891140 0.1561240
38 8.3333000 0.0000000 0.0000000 0.3959460 0.2432330 0.1604440
39 10.683800 0.0000000 0.0000000 0.5324010 0.3122730 0.1659550
40 13.157900 0.0000000 0.0000000 0.6903560 0.3921930 0.1723350
41 15.765800 0.0000000 0.0000000 0.8802610 0.4882770 0.1800050
42 18.518500 0.0000000 0.0000000 1.1346600 0.6169940 0.1902800
43 21.428600 0.0000000 0.0000000 1.4807160 0.7920850 0.2042570
44 24.509800 0.0000000 0.0000000 1.8895010 0.9989150 0.2207680
45 27.777800 0.0000000 0.0000000 2.3748600 1.2444870 0.2403710
46 31.250000 0.0000000 0.0000000 2.9895890 1.5555170 0.2652000
47 34.946200 0.0000000 0.0000000 3.7558720 1.9432270 0.2961500
48 38.888900 0.0000000 0.0000000 4.6428560 2.3920070 0.3319750
49 43.103500 0.0000000 0.0000000 5.7708310 2.9627200 0.3775340
50 47.619100 0.0000000 0.0000000 7.0791020 3.6246550 0.4303740
51 52.469100 0.0000000 0.0000000 8.7936300 4.4921400 0.4996240
52 57.692300 0.0000000 0.0000000 10.950990 5.5836840 0.5867590
53 63.333300 0.0000000 0.0000000 13.448960 6.8475600 0.6876510
54 69.444400 0.0000000 0.0000000 16.682510 8.4836140 0.8182530
55 76.087000 0.0000000 0.0000000 20.364050 10.346330 0.9669500
56 83.333300 0.0000000 0.0000000 24.917540 12.650220 1.1508640
57 88.102200 31.245200 22.908500 31.872040 20.274480 6.1173560
58 100.00000 40.977800 31.918100 44.704590 29.805760 11.056380
59 100.00000 57.719200 37.577800 51.041820 41.085360 15.775280
60 100.00000 72.312100 46.921100 59.554990 55.364380 24.837890
61 27.331800 25.808100 0.0000000 4.2952710 5.0316620 0.8497450
62 44.310200 30.254500 0.0000000 8.8880120 8.4362080 1.2393900
63 0.0000000 0.0000000 0.0000000 0.0843852 0.0855946 0.1478600
64 3.9683000 0.0000000 0.0000000 0.1918020 0.1399430 0.1521980
65 1.9380000 0.0000000 0.0000000 0.1144920 0.1008270 0.1490760
66 0.0000000 6.0976000 0.0000000 0.2800260 0.4612460 0.2080190
67 0.0000000 13.157900 0.0000000 0.6910880 1.2505280 0.3344210
68 0.0000000 24.509800 0.0000000 1.8816780 3.5365880 0.7005280
69 0.0000000 27.777800 0.0000000 2.4021520 4.5359540 0.8605740
70 0.0000000 31.250000 0.0000000 3.0193000 5.7209430 1.0503460
71 0.0000000 34.946200 0.0000000 3.7706350 7.1635860 1.2813820
72 0.0000000 38.888900 0.0000000 4.6803220 8.9102830 1.5611110
73 0.0000000 43.103500 0.0000000 5.8085920 11.076680 1.9080540
74 0.0000000 47.619100 0.0000000 7.2277860 13.801680 2.3444560
75 0.0000000 52.469100 0.0000000 8.9045600 17.021270 2.8600650
76 0.0000000 57.692300 0.0000000 10.919830 20.890800 3.4797600
77 0.0000000 63.333300 0.0000000 13.239120 25.344080 4.1929420
78 0.0000000 69.444400 0.0000000 16.585170 31.768870 5.2218550
79 0.0000000 76.087000 0.0000000 20.003410 38.332240 6.2729610
80 0.0000000 83.333300 0.0000000 24.519170 47.002990 7.6615600
81 61.702800 100.00000 0.0000000 48.866140 75.888270 11.774110
82 80.362400 100.00000 0.0000000 59.157240 81.095170 12.189770
83 0.0000000 0.0000000 1.9380000 0.0932514 0.0896003 0.1911730
84 0.0000000 0.0000000 3.9683000 0.1276690 0.1051500 0.3593080
85 0.0000000 0.0000000 6.0976000 0.1781080 0.1279390 0.6057180
86 0.0000000 0.0000000 8.3333000 0.2310700 0.1518670 0.8644480
87 0.0000000 0.0000000 10.683800 0.3006700 0.1833120 1.2044580
88 0.0000000 0.0000000 13.157900 0.3879270 0.2227350 1.6307290
89 0.0000000 0.0000000 15.765800 0.5000150 0.2733760 2.1783020
90 0.0000000 0.0000000 18.518500 0.6376400 0.3355540 2.8506290
91 0.0000000 0.0000000 21.428600 0.7988180 0.4083750 3.6380220
92 0.0000000 0.0000000 24.509800 0.9980150 0.4983720 4.6111410
93 0.0000000 0.0000000 27.777800 1.2617920 0.6175460 5.8997460
94 0.0000000 0.0000000 31.250000 1.6117630 0.7756630 7.6094350
95 0.0000000 0.0000000 34.946200 1.9969100 0.9496710 9.4909580
96 0.0000000 0.0000000 38.888900 2.4539440 1.1561590 11.723670
97 0.0000000 0.0000000 43.103500 3.0703340 1.4346440 14.734870
98 0.0000000 0.0000000 47.619100 3.8187560 1.7727800 18.391070
99 0.0000000 0.0000000 52.469100 4.7087690 2.1748870 22.738980
100 0.0000000 0.0000000 57.692300 5.7224140 2.6328510 27.690860
101 0.0000000 0.0000000 63.333300 7.0488690 3.2321420 34.170880
102 0.0000000 0.0000000 69.444400 8.7738600 4.0114910 42.597840
103 0.0000000 0.0000000 76.087000 10.710790 4.8865930 52.060150
104 0.0000000 0.0000000 83.333300 13.111650 5.9713010 63.788890
105 0.0000000 19.551200 79.899100 13.053080 7.6291820 58.251540
106 17.473100 41.948800 91.497000 22.762940 18.288240 81.708600
107 27.627400 51.036700 100.00000 30.405000 26.082620 99.330660
108 53.417100 64.257800 100.00000 42.576890 39.799990 101.25000
109 70.036100 79.151300 100.00000 58.504550 59.327420 104.05960
110 2.6042000 2.6042000 2.6042000 0.1974250 0.2044180 0.2469480
111 3.2808000 3.2808000 3.2808000 0.2597310 0.2695690 0.3135140
112 3.9683000 3.9683000 3.9683000 0.3318610 0.3453200 0.3934050
113 4.6667000 4.6667000 4.6667000 0.4091870 0.4267500 0.4815880
114 5.3763000 5.3763000 5.3763000 0.4955000 0.5180840 0.5819540
115 6.0976000 6.0976000 6.0976000 0.5783490 0.6071100 0.6741410
116 6.8306000 6.8306000 6.8306000 0.6606770 0.6965560 0.7632290
117 7.5758000 7.5758000 7.5758000 0.7498670 0.7932270 0.8603010
118 8.3333000 8.3333000 8.3333000 0.8514610 0.9024900 0.9719970
119 9.1036000 9.1036000 9.1036000 0.9594860 1.0182120 1.0910990
120 9.8870000 9.8870000 9.8870000 1.0751980 1.1418110 1.2214370
121 10.683800 10.683800 10.683800 1.1974200 1.2716070 1.3605390
122 11.494200 11.494200 11.494200 1.3253900 1.4072900 1.5092020
123 12.318800 12.318800 12.318800 1.4595350 1.5477500 1.6697330
124 13.157900 13.157900 13.157900 1.6006000 1.6942660 1.8417650
125 14.011800 14.011800 14.011800 1.7501770 1.8476560 2.0303700
126 14.881000 14.881000 14.881000 1.9076560 2.0089850 2.2314660
127 15.765800 15.765800 15.765800 2.0836480 2.1886370 2.4526830
128 16.666700 16.666700 16.666700 2.2713380 2.3803270 2.6883860
129 17.584100 17.584100 17.584100 2.4861480 2.6034130 2.9413790
130 18.518500 18.518500 18.518500 2.7190280 2.8468000 3.2101160
131 19.470400 19.470400 19.470400 2.9832980 3.1286960 3.4941430
132 20.440200 20.440200 20.440200 3.2670420 3.4318780 3.7961470
133 21.428600 21.428600 21.428600 3.5739380 3.7622870 4.1183970
134 22.435900 22.435900 22.435900 3.8990940 4.1123660 4.4608300
135 23.462800 23.462800 23.462800 4.2385660 4.4751610 4.8331700
136 24.509800 24.509800 24.509800 4.6004240 4.8626850 5.2367170
137 25.577600 25.577600 25.577600 4.9892970 5.2791440 5.6817890
138 26.666700 26.666700 26.666700 5.4131470 5.7348340 6.1725000
139 27.777800 27.777800 27.777800 5.8700330 6.2267980 6.7049720
140 28.911600 28.911600 28.911600 6.3659330 6.7521590 7.3002590
141 30.068700 30.068700 30.068700 6.8931180 7.3046720 7.9402040
142 31.250000 31.250000 31.250000 7.4518820 7.8809330 8.6292620
143 32.456100 32.456100 32.456100 8.0455940 8.4971670 9.3281030
144 33.687900 33.687900 33.687900 8.6778880 9.1601930 10.047550
145 34.946200 34.946200 34.946200 9.3546460 9.8852950 10.772770
146 36.231900 36.231900 36.231900 10.068280 10.655020 11.539160
147 37.545800 37.545800 37.545800 10.818610 11.457280 12.379270
148 38.888900 38.888900 38.888900 11.608350 12.287260 13.321040
149 40.262200 40.262200 40.262200 12.472320 13.184430 14.386790
150 41.666700 41.666700 41.666700 13.431400 14.190210 15.520530
151 43.103500 43.103500 43.103500 14.480990 15.302860 16.724740
152 44.573600 44.573600 44.573600 15.609060 16.512070 18.007350
153 46.078400 46.078400 46.078400 16.763680 17.754050 19.387740
154 47.619100 47.619100 47.619100 17.956870 19.027930 20.870190
155 49.196800 49.196800 49.196800 19.250960 20.392610 22.442840
156 50.813000 50.813000 50.813000 20.678510 21.884920 24.092380
157 52.469100 52.469100 52.469100 22.238190 23.517110 25.802950
158 54.166700 54.166700 54.166700 23.899550 25.271730 27.575750
159 55.907200 55.907200 55.907200 25.630050 27.096820 29.442050
160 57.692300 57.692300 57.692300 27.424460 28.936140 31.461660
161 59.523800 59.523800 59.523800 29.310420 30.821390 33.679340
162 61.403500 61.403500 61.403500 31.334030 32.885380 36.108420
163 63.333300 63.333300 63.333300 33.568180 35.252600 38.755760
164 65.315300 65.315300 65.315300 36.143930 38.021700 41.727790
165 67.351600 67.351600 67.351600 38.988970 41.051190 44.978670
166 69.444400 69.444400 69.444400 41.872780 44.092780 48.342220
167 71.596200 71.596200 71.596200 44.702160 47.036970 51.730580
168 73.809500 73.809500 73.809500 47.664930 50.068120 55.260500
169 76.087000 76.087000 76.087000 50.909470 53.393970 59.004340
170 78.431400 78.431400 78.431400 54.448950 57.099800 63.009360
171 80.845800 80.845800 80.845800 58.276490 61.142850 67.417090
172 83.333300 83.333300 83.333300 62.379590 65.453320 72.305600
173 85.897400 85.897400 85.897400 66.768840 70.045070 77.640660
174 88.541700 88.541700 88.541700 71.566440 75.112120 83.543770
175 91.269800 91.269800 91.269800 76.966600 80.847660 90.051470
176 0.0000000 48.267100 30.031400 8.8334510 14.832570 9.2361890
177 0.0000000 56.678700 54.419300 15.526030 22.412150 27.727140
178 0.0000000 70.195700 69.963100 25.824450 36.529580 48.529440
179 82.433100 24.303200 0.0000000 26.097980 15.746630 1.6705940
180 100.00000 23.686200 19.325700 40.270620 22.762870 5.1074070
181 80.243200 0.0000000 16.907000 23.403330 11.858600 3.3695810
182 78.964800 30.145500 43.362500 27.893820 17.861240 16.661220
183 79.964500 49.050000 57.050400 35.869030 28.651450 30.288590
184 56.210700 38.103600 34.827500 16.633120 14.595580 11.200770
185 74.227200 58.410800 36.181500 32.392620 32.011570 14.314900
186 90.712100 62.184000 68.907300 51.179510 43.307970 46.932230
187 100.00000 63.205700 100.00000 70.844530 53.326530 102.24520
188 65.023100 0.0000000 100.00000 34.039730 16.195340 97.262540
189 71.236600 25.429300 100.00000 39.312060 21.596790 97.991870
190 84.885400 45.509700 100.00000 52.183740 34.535640 99.725580
191 100.00000 47.164700 100.00000 64.755530 41.635000 100.37280
192 0.0000000 9.1476000 16.741900 0.9023360 0.9770520 2.5165850
193 0.0000000 20.684800 21.296000 2.0744480 2.8691130 3.9947560
194 0.0000000 21.617600 30.070000 2.8894750 3.4136010 7.4268210
195 0.0000000 73.870200 84.128800 32.140470 42.074680 70.993280
196 23.648400 80.702700 100.00000 44.262950 53.509920 103.74660
197 49.159800 82.361000 100.00000 51.122810 58.493070 104.30930
198 0.0000000 17.770100 100.00000 20.804490 10.853790 96.983910
199 0.0000000 29.020000 100.00000 22.381580 13.881970 97.468860
200 26.465500 70.821900 100.00000 39.146470 43.121300 102.06670
201 51.348700 74.454100 100.00000 47.152530 49.751460 102.87720
202 22.710800 8.9048000 17.360700 2.4820900 1.7546510 2.7261740
203 47.424600 25.411400 26.206400 9.9966660 7.7743830 6.1180430
204 77.603100 47.288700 29.647800 29.688420 24.944350 9.8041300
205 91.561800 65.352800 34.099200 46.795390 43.747900 14.679910
206 100.00000 100.00000 44.749900 77.387970 90.143500 28.644540
207 39.207100 55.835000 11.360500 15.093670 22.000300 4.6167770
208 58.951900 55.384400 12.698200 21.753910 25.121600 5.0698720
209 100.00000 84.532300 0.0000000 63.218030 67.699440 9.4354490
210 100.00000 84.248100 25.135800 63.989370 67.770750 14.067780
211 0.0000000 91.269800 0.0000000 30.309510 58.121050 9.4420900
212 0.0000000 100.00000 0.0000000 36.234130 69.496950 11.263910
213 36.855200 100.00000 0.0000000 40.329460 71.569030 11.429320
214 83.186200 100.00000 80.260300 72.914180 87.408790 70.607600
215 89.260000 100.00000 90.133500 80.858390 91.221790 89.397160
216 100.00000 100.00000 88.617400 89.245780 95.500850 86.572510
217 15.190500 7.5882000 38.291100 3.3949850 2.0152000 11.460370
218 23.077500 33.632000 49.342800 9.1411310 9.2551670 21.027490
219 49.787300 38.228500 48.632000 16.129020 14.272230 20.957310
220 49.907500 55.573000 48.960500 21.825550 25.062430 22.972120
221 80.215300 66.918400 58.355700 43.815190 43.277430 33.965350
222 100.00000 76.546000 66.225900 65.933360 61.522840 45.781860
223 92.527400 16.490400 39.316600 34.823390 18.722670 13.543720
224 100.00000 24.789700 48.618600 43.746170 24.564250 21.365670
225 100.00000 42.684100 55.880900 48.858500 32.392590 29.135290
226 0.0000000 1.9380000 0.0000000 0.1095870 0.1339850 0.1556090
227 14.283200 7.1562000 0.0000000 1.0137380 0.9034560 0.2510610
228 26.162700 43.003300 34.572900 9.6927510 12.897110 11.134400
229 39.085500 52.607900 47.569000 17.288740 21.136500 21.261880
230 45.100600 63.422800 66.808500 27.484720 32.187970 43.176660
231 51.941700 63.004300 81.029600 33.777920 34.840930 64.105940
232 72.350100 68.125600 100.00000 53.756490 48.504610 102.27730
233 51.499300 8.4495000 49.567200 12.815360 6.7516070 20.553490
234 51.466800 27.273400 50.544800 14.898930 10.505820 22.021750
235 75.430700 37.596700 62.555400 31.032640 21.453630 35.330060
236 31.060100 44.281900 26.624900 10.125250 13.724410 7.4045790
237 32.069900 45.608700 62.057200 16.304070 17.137030 34.732850
238 49.609700 76.405300 66.498100 35.648830 46.081520 44.916530
239 86.482000 78.235700 100.00000 67.963520 63.311830 104.29030
240 100.00000 88.836900 100.00000 86.036120 82.496000 106.91660
241 60.471200 0.0000000 59.528500 18.218440 8.9333750 30.162250
242 68.085300 0.0000000 80.973800 28.142050 13.621720 60.316450
243 89.477200 0.0000000 86.257900 43.249780 21.159860 70.389420
244 100.00000 0.0000000 100.00000 57.755800 28.194770 98.220420
245 69.316300 0.0000000 34.991800 18.532710 9.3158950 10.181970
246 84.199000 0.0000000 48.645100 29.405150 14.708520 20.318790
247 79.972300 0.0000000 58.807500 28.644220 14.217230 29.795690
248 100.00000 0.0000000 66.167500 45.734560 22.763590 39.494060
249 62.156600 35.843900 0.0000000 16.805540 14.047420 1.8623830
250 100.00000 70.216300 0.0000000 54.904500 51.736580 6.8790390
251 100.00000 72.238600 27.600900 57.069750 54.188110 12.863610
252 31.243300 67.131100 0.0000000 18.224160 30.809310 4.9501710
253 54.196600 83.525900 0.0000000 34.054120 52.006150 8.0804550
254 100.00000 100.00000 0.0000000 74.143600 88.677700 12.795060
255 100.00000 100.00000 24.860300 75.083100 89.102170 17.384760
256 0.0000000 52.895400 81.485700 21.429740 22.920250 63.299680
257 0.0000000 61.586500 100.00000 32.189180 32.713610 100.48470
258 29.835800 61.415800 100.00000 34.755960 33.905350 100.56820
259 11.328800 20.176500 38.822100 4.1533080 3.7431230 12.073930
260 27.837200 20.377700 50.523500 7.8938050 5.5665160 21.456450
261 62.126800 51.018800 69.656100 29.938550 26.433970 45.962820
262 73.648800 50.667600 78.189900 38.355900 30.379000 58.481030
263 0.6361000 0.6361000 0.6361000 0.0929701 0.0945112 0.1541850
264 1.2821000 1.2821000 1.2821000 0.1149760 0.1180040 0.1715790
265 1.9380000 1.9380000 1.9380000 0.1485600 0.1532240 0.2001390
266 0.0000000 10.776900 10.786800 0.7587030 1.0578920 1.3605590
267 15.775400 12.595400 24.504100 2.3643970 1.9960180 4.8165880
268 30.399900 100.00000 66.081000 46.695770 74.372230 49.068780
269 58.705000 100.00000 78.944500 59.056710 80.420850 67.953730
270 69.124200 100.00000 89.340400 68.076220 84.773110 87.215870
271 0.0000000 61.285000 45.115600 15.597830 25.021610 20.043560
272 0.0000000 82.445000 54.698400 28.977510 48.163090 32.104570
273 0.0000000 85.804800 72.972900 35.871460 54.554870 55.566020
274 0.0000000 100.00000 100.00000 55.996080 78.425380 107.80530
275 27.756700 100.00000 100.00000 58.283180 79.582570 107.89770
276 0.0000000 86.085500 100.00000 46.124670 59.471230 104.76990
277 22.923800 90.499700 100.00000 51.029370 66.638910 105.85310
278 50.271800 100.00000 100.00000 63.855730 82.402070 108.12280
279 0.0000000 14.927700 57.643000 6.4372410 4.0210310 27.861920
280 0.0000000 28.562900 74.157500 12.589220 9.3388120 50.002020
281 23.271200 11.710900 73.608700 12.123470 6.3674640 48.679750
282 53.633900 21.738400 100.00000 30.447990 16.385360 97.496620
283 90.241300 100.00000 100.00000 85.586700 93.397110 109.00050
284 100.00000 100.00000 100.00000 93.905540 97.606130 109.33650
285 0.0000000 35.989700 16.235800 4.4464610 7.8181990 3.4940110
286 54.847700 40.440600 29.317400 16.054760 15.126620 8.5412520
287 68.167700 41.276000 33.493000 22.962920 18.913160 11.007500
288 100.00000 47.673200 46.730700 48.731810 34.631820 21.356700
289 100.00000 26.631800 0.0000000 40.117790 23.344530 2.3321250
290 100.00000 43.362500 0.0000000 43.798280 30.411470 3.4638760
291 100.00000 57.672900 0.0000000 48.822300 40.058110 5.0087610
292 100.00000 60.537600 22.359600 50.668570 42.472300 9.1020700
293 100.00000 63.392300 53.444200 55.984390 46.754380 29.208580
294 11.133500 0.0000000 12.876400 0.8524770 0.4583700 1.5966480
295 25.026700 0.0000000 20.611700 2.6286070 1.3367360 3.4830730
296 25.399800 43.245000 81.171700 20.035470 17.673190 61.857440
297 40.479800 50.723600 89.613800 28.744890 25.313800 78.730990
298 77.542400 36.450400 0.0000000 25.285200 18.537140 2.2425270
299 82.039900 49.722800 0.0000000 31.909220 27.263210 3.5252410
300 0.0000000 100.00000 30.041300 37.632800 70.128870 18.096720
301 0.0000000 100.00000 53.127400 40.980270 71.641250 34.449850
302 0.0000000 100.00000 71.907100 45.628250 73.741210 57.156230
303 31.849400 100.00000 79.120700 50.823630 76.252170 67.894710
304 0.0000000 84.954000 85.846200 39.568050 55.375350 76.273580
305 0.0000000 100.00000 87.535100 50.885690 76.116520 82.839990
306 39.530900 100.00000 90.053800 56.669100 78.984790 88.253030
307 0.0000000 32.626200 24.909200 4.2237150 6.6487000 5.7382270
308 0.0000000 32.077400 35.196900 5.1132530 6.8948440 10.569380
309 0.0000000 44.749600 50.694500 10.619640 14.006650 23.053020
310 0.0000000 35.435200 49.432000 7.9444490 9.2116900 21.165130
311 0.0000000 36.677200 64.752700 11.510230 11.245520 37.266550
312 0.0000000 48.269700 66.128000 15.166050 17.694850 40.168530
313 0.0000000 3.9683000 0.0000000 0.1811620 0.2714160 0.1776190
314 0.0000000 15.765800 0.0000000 0.8721430 1.5981740 0.3900950
315 13.529500 21.170100 8.6250000 2.2154620 3.0579190 1.3420270
316 67.700700 28.024600 35.713500 20.095460 13.440500 11.242060
317 76.212500 33.714000 72.193200 33.333000 21.225910 48.315390
318 56.691000 23.959600 62.498000 18.993910 11.717860 34.086480
319 60.479300 28.308200 76.077000 25.211140 15.631050 53.274980
320 27.633400 0.0000000 60.504100 8.6234860 4.0663650 30.877790
321 39.368500 22.481000 63.904700 13.391840 8.5803260 35.560220
322 0.0000000 11.955600 27.595900 1.7749120 1.6262390 5.9844270
323 0.0000000 11.484600 38.677200 2.9255460 2.1023770 11.741830
324 0.0000000 85.625600 39.422800 28.490380 51.039660 20.070450
325 52.596100 100.00000 26.175400 46.034940 74.399420 16.701660
326 70.729100 100.00000 29.375600 54.836840 78.837130 18.463100
327 0.0000000 18.518500 0.0000000 1.1154980 2.0654410 0.4649270
328 0.0000000 21.428600 0.0000000 1.4631750 2.7330170 0.5718380
329 15.177900 22.247500 0.0000000 2.3208990 3.3204810 0.6354720
330 34.466000 29.978400 58.721300 12.219570 9.7357180 29.763330
331 48.372100 40.455300 63.836300 19.378530 16.500960 36.638440
332 68.345800 40.288600 100.00000 40.798720 26.594230 98.853780
333 84.885200 62.016800 100.00000 58.240980 46.166370 101.58820
334 100.00000 77.434000 100.00000 78.453830 67.937190 104.58510
335 31.137500 0.0000000 13.276800 3.2765450 1.6840120 1.7700140
336 36.063100 9.4971000 13.856100 4.7095670 2.9399560 2.0425460
337 46.189800 70.464800 33.050800 25.426590 36.907490 14.044460
338 60.552900 82.842700 33.129400 38.049610 53.299670 16.485640
339 68.628800 86.673700 56.593400 48.354790 61.954540 35.439390
340 86.564500 100.00000 66.307600 71.008200 86.669870 50.365450
341 100.00000 100.00000 78.308600 85.452300 93.786960 68.040530
342 22.123800 0.0000000 42.147700 4.4124680 2.1215470 14.088210
343 43.052500 0.0000000 53.100200 10.496940 5.0971610 23.538060
344 72.047100 70.472600 61.404700 41.565760 44.820590 37.799580
345 87.063300 74.681500 88.144100 61.484330 57.436360 79.957230
346 44.275500 0.0000000 14.379500 6.4757750 3.3002460 2.1188140
347 43.634600 22.336100 39.518000 9.8852570 7.0314440 12.850060
348 41.114300 0.0000000 26.233200 6.2486790 3.1478710 5.4615850
349 54.027500 0.0000000 26.155400 10.464030 5.2810220 5.6010850
350 65.178800 16.191200 37.306700 17.349570 9.8627670 11.574690
351 50.147900 0.0000000 39.105300 10.297860 5.1232640 12.184990
352 65.258400 0.0000000 44.505000 17.608210 8.7783960 16.382640
353 100.00000 23.684100 64.447800 46.933430 25.772700 37.658010
354 100.00000 41.912100 67.224000 51.412690 33.219100 42.633980
355 100.00000 0.0000000 34.564100 39.866620 20.112460 10.827900
356 100.00000 0.0000000 49.509400 42.071440 21.108590 21.598900
357 0.0000000 8.3333000 0.0000000 0.3932150 0.6785800 0.2428250
358 0.0000000 10.683800 0.0000000 0.5331190 0.9472110 0.2858460
359 11.006500 12.241200 0.0000000 1.0993600 1.3732220 0.3350680
360 21.445000 15.750200 0.0000000 2.2694070 2.3035050 0.4462220
361 28.645300 43.052800 0.0000000 8.2278560 12.278820 2.0016270
362 37.178300 56.148400 73.965900 24.499580 26.397120 52.292160
