Microsoft/Surface Pro 3/120QL01-001 #1 2019-02-19 08-41 0.3127x 0.329y sRGB F-S XYZLUT+MTX/120QL01-001 #1 2019-02-19 08-41 0.3127x 0.329y sRGB F-S XYZLUT+MTX.ti1
CTI1   

DESCRIPTOR "Argyll Calibration Target chart information 1"
ORIGINATOR "Argyll targen"
CREATED "Tue Feb 19 08:35:33 2019"
SINGLE_DIM_STEPS "5"
COMP_GREY_STEPS "52"
MULTI_DIM_STEPS "5"
COLOR_REP "RGB"
TARGET_INSTRUMENT "X-Rite i1 DisplayPro, ColorMunki Display"
DISPLAY_TYPE_REFRESH "NO"
DISPLAY_TYPE_BASE_ID "1"
INSTRUMENT_TYPE_SPECTRAL "NO"
NORMALIZED_TO_Y_100 "YES"
VIDEO_LUT_CALIBRATION_POSSIBLE "YES"
OBSERVER "1931_2"
USE_BLACK_POINT_COMPENSATION "NO"
BLACK_POINT_CORRECTION "0.0"
HIRES_B2A "YES"
HIRES_B2A_SIZE "-1"
SMOOTH_B2A "YES"
PATCH_SEQUENCE "OPTIMIZE_DISPLAY_RESPONSE_DELAY"

NUMBER_OF_FIELDS 7
BEGIN_DATA_FORMAT
SAMPLE_ID RGB_R RGB_G RGB_B XYZ_X XYZ_Y XYZ_Z
END_DATA_FORMAT

NUMBER_OF_SETS 175
BEGIN_DATA
1 100.0000 100.0000 100.0000 92.85090 100.0000 112.3532
2 100.0000 100.0000 75.00000 86.11081 100.3840 56.84926
3 100.0000 100.0000 100.0000 101.6271 109.4115 122.9610
4 100.0000 100.0000 100.0000 101.6271 109.4115 122.9610
5 0.000000 0.000000 0.000000 0.102562 0.103210 0.206929
6 25.00000 0.000000 0.000000 1.956773 1.101833 0.243011
7 50.00000 0.000000 0.000000 7.684122 4.203050 0.424313
8 75.00000 0.000000 0.000000 16.41630 9.106929 0.759773
9 100.0000 0.000000 0.000000 38.53230 20.91789 1.516444
10 100.0000 0.000000 25.00000 39.24584 21.21637 5.383474
11 100.0000 25.00000 25.00000 42.61276 25.47572 6.370805
12 100.0000 50.00000 25.00000 50.35683 37.07757 8.133228
13 100.0000 75.00000 25.00000 59.65827 56.02162 11.13210
14 0.000000 0.000000 25.00000 0.886073 0.435650 4.309496
15 25.00000 0.000000 25.00000 2.741974 1.432480 4.410862
16 75.00000 0.000000 100.0000 30.87935 14.71909 83.58021
17 100.0000 0.000000 100.0000 48.31289 24.15406 84.43429
18 1.960800 1.960800 1.960800 0.180694 0.181059 0.283292
19 3.921600 3.921600 3.921600 0.320307 0.329054 0.437171
20 5.882400 5.882400 5.882400 0.510374 0.539226 0.627906
21 7.843100 7.843100 7.843100 0.702183 0.713530 0.830686
22 9.803900 9.803900 9.803900 0.973374 1.021996 1.162578
23 11.76500 11.76500 11.76500 1.194401 1.250718 1.483833
24 13.72600 13.72600 13.72600 1.530141 1.615376 1.842519
25 15.68600 15.68600 15.68600 1.846302 1.955786 2.213382
26 17.64700 17.64700 17.64700 2.269967 2.387885 2.737876
27 19.60800 19.60800 19.60800 2.833049 2.985983 3.254053
28 21.56900 21.56900 21.56900 3.255978 3.406297 3.677942
29 23.52900 23.52900 23.52900 3.908563 4.131998 4.454619
30 27.45100 27.45100 27.45100 5.209215 5.504154 5.989503
31 29.41200 29.41200 29.41200 5.778592 6.074108 6.566054
32 31.37300 31.37300 31.37300 6.614710 6.921731 7.606308
33 33.33300 33.33300 33.33300 7.475490 7.927115 8.519402
34 35.29400 35.29400 35.29400 8.414882 8.886689 9.725997
35 37.25500 37.25500 37.25500 9.542894 9.984190 10.98770
36 39.21600 39.21600 39.21600 10.57577 11.19629 12.11319
37 41.17600 41.17600 41.17600 11.62853 12.30621 13.24844
38 43.13700 43.13700 43.13700 12.79122 13.35202 14.67374
39 45.09800 45.09800 45.09800 13.96868 14.72452 16.20342
40 47.05900 47.05900 47.05900 15.21263 16.00918 17.47172
41 49.02000 49.02000 49.02000 16.32373 17.23710 19.03315
42 50.98000 50.98000 50.98000 17.73548 18.60662 20.34535
43 52.94100 52.94100 52.94100 19.16778 20.03540 22.12859
44 54.90200 54.90200 54.90200 20.36248 21.31910 23.79590
45 56.86300 56.86300 56.86300 21.80431 22.82283 25.47370
46 58.82400 58.82400 58.82400 23.11815 24.17314 26.84912
47 60.78400 60.78400 60.78400 24.74473 25.89487 28.24339
48 62.74500 62.74500 62.74500 27.28131 28.38052 31.71899
49 64.70600 64.70600 64.70600 29.35076 30.47787 33.74533
50 66.66700 66.66700 66.66700 31.20249 32.74123 35.85089
51 68.62700 68.62700 68.62700 32.87835 34.62571 37.87956
52 70.58800 70.58800 70.58800 35.00247 36.79947 40.01314
53 72.54900 72.54900 72.54900 36.87035 38.82755 41.94299
54 76.47100 76.47100 76.47100 41.23810 43.53263 47.15098
55 78.43100 78.43100 78.43100 45.39611 47.93238 51.97217
56 80.39200 80.39200 80.39200 48.80248 51.30615 55.63302
57 82.35300 82.35300 82.35300 51.23541 54.09888 58.72169
58 84.31400 84.31400 84.31400 53.74731 56.64648 61.22772
59 86.27500 86.27500 86.27500 56.08957 58.67802 64.68985
60 88.23500 88.23500 88.23500 58.32757 61.38981 67.01041
61 90.19600 90.19600 90.19600 61.80673 64.84058 70.86387
62 92.15700 92.15700 92.15700 65.32967 68.75247 74.72440
63 94.11800 94.11800 94.11800 72.78024 76.34165 83.39752
64 96.07800 96.07800 96.07800 78.91006 82.60407 92.06854
65 98.03900 98.03900 98.03900 86.88120 92.14733 103.6530
66 25.00000 25.00000 0.000000 3.416602 3.999156 0.738740
67 50.00000 25.00000 0.000000 9.557495 7.398193 0.923164
68 75.00000 25.00000 0.000000 17.99056 11.58376 1.097504
69 100.0000 25.00000 0.000000 33.42952 20.33473 1.764467
70 100.0000 50.00000 0.000000 43.88066 32.48257 3.534408
71 50.00000 50.00000 0.000000 14.62069 17.62564 2.554951
72 75.00000 50.00000 0.000000 26.23870 23.81304 2.867616
73 25.00000 50.00000 0.000000 8.432985 14.19894 2.327923
74 25.00000 75.00000 0.000000 17.24422 32.18858 5.174408
75 50.00000 75.00000 0.000000 23.33638 35.56843 5.298748
76 75.00000 75.00000 0.000000 32.78218 39.32963 5.411248
77 100.0000 75.00000 0.000000 49.78625 47.02013 5.729954
78 25.00000 100.0000 0.000000 34.19576 67.06153 10.81150
79 50.00000 100.0000 0.000000 40.09927 70.84412 11.40393
80 75.00000 100.0000 0.000000 55.24253 83.85116 12.83864
81 100.0000 100.0000 0.000000 80.05401 99.59690 13.87391
82 100.0000 100.0000 25.00000 80.89989 99.97794 18.23737
83 50.00000 0.000000 25.00000 8.866789 4.759412 4.592656
84 50.00000 25.00000 50.00000 13.07127 8.869840 19.55202
85 0.000000 25.00000 0.000000 1.536589 3.038180 0.649531
86 0.000000 25.00000 25.00000 2.346844 3.423431 4.816856
87 25.49000 25.49000 25.49000 4.439901 4.671041 5.111960
88 50.00000 25.00000 25.00000 9.911894 7.384529 4.957525
89 75.00000 25.00000 25.00000 18.55964 11.85772 4.784037
90 0.000000 50.00000 0.000000 6.247590 12.62830 2.155839
91 0.000000 50.00000 25.00000 7.057211 13.04923 6.216587
92 25.00000 50.00000 25.00000 8.956960 14.12071 6.336660
93 50.00000 50.00000 25.00000 14.59711 16.87883 6.457716
94 75.00000 50.00000 25.00000 22.88332 20.61055 6.173715
95 0.000000 75.00000 0.000000 13.87346 28.01870 4.741136
96 0.000000 75.00000 25.00000 16.14271 31.53729 9.219938
97 25.00000 75.00000 25.00000 18.11406 32.71967 9.350033
98 50.00000 75.00000 25.00000 24.28120 36.05868 9.551428
99 75.00000 75.00000 25.00000 34.07565 40.41638 9.400896
100 0.000000 100.0000 0.000000 32.57521 66.13390 10.75372
101 0.000000 100.0000 25.00000 33.26141 66.50978 14.36478
102 25.00000 100.0000 25.00000 34.89045 67.43768 14.46255
103 50.00000 100.0000 25.00000 40.52621 70.61451 14.99626
104 75.00000 100.0000 25.00000 55.08435 82.61285 16.75824
105 0.000000 0.000000 50.00000 3.586641 1.567868 18.67368
106 25.00000 0.000000 50.00000 5.496540 2.596498 18.89194
107 50.00000 0.000000 50.00000 11.56659 5.880311 19.01189
108 75.00000 0.000000 50.00000 22.30749 11.63180 18.34580
109 100.0000 0.000000 50.00000 36.83979 19.48575 16.09649
110 100.0000 0.000000 75.00000 39.11706 20.42480 35.48902
111 100.0000 25.00000 75.00000 40.31802 22.81152 36.07748
112 75.00000 0.000000 25.00000 17.35285 9.388773 4.271188
113 75.00000 25.00000 50.00000 22.61932 14.05491 18.92298
114 100.0000 25.00000 50.00000 47.20559 27.54194 21.44835
115 25.00000 25.00000 50.00000 7.095722 5.662216 19.75237
116 25.00000 50.00000 50.00000 11.97474 15.72858 21.15672
117 75.00000 50.00000 50.00000 29.60217 25.31706 21.35660
118 100.0000 50.00000 50.00000 43.87060 31.61981 18.67131
119 100.0000 50.00000 75.00000 44.20740 30.76066 37.27509
120 25.00000 75.00000 50.00000 18.77435 30.57317 21.18963
121 50.00000 75.00000 50.00000 24.38003 33.52511 22.03272
122 75.00000 75.00000 50.00000 36.25562 41.00598 22.98807
123 100.0000 75.00000 50.00000 52.95936 48.53749 22.19241
124 100.0000 75.00000 75.00000 57.02036 50.25659 43.94364
125 25.00000 100.0000 50.00000 37.35164 68.46043 27.06683
126 50.00000 100.0000 50.00000 43.19499 71.86789 28.12759
127 75.00000 100.0000 50.00000 57.61904 83.61848 30.83838
128 100.0000 100.0000 50.00000 83.71624 101.2166 33.19360
129 25.00000 0.000000 75.00000 10.28192 4.593418 44.27605
130 50.00000 0.000000 75.00000 16.42389 7.922725 44.43049
131 75.00000 0.000000 75.00000 28.05505 14.19504 44.93530
132 75.00000 25.00000 75.00000 28.49437 16.58697 44.00660
133 75.00000 50.00000 100.0000 42.51440 29.59560 100.5865
134 25.00000 25.00000 75.00000 11.55917 7.472216 43.92002
135 25.00000 50.00000 100.0000 26.15083 20.71118 99.91770
136 0.000000 25.00000 50.00000 5.070246 4.536471 19.35130
137 0.000000 25.00000 75.00000 9.297682 6.020296 42.19830
138 0.000000 50.00000 75.00000 12.95958 14.70325 40.17141
139 25.00000 50.00000 75.00000 14.74195 15.73244 40.54632
140 50.00000 50.00000 75.00000 20.11196 18.64538 40.70557
141 75.00000 50.00000 75.00000 29.27524 23.37202 40.06754
142 74.51000 74.51000 74.51000 37.12943 39.05984 42.71267
143 0.000000 75.00000 75.00000 20.99284 30.95291 43.01568
144 25.00000 75.00000 75.00000 23.77896 33.44235 45.13167
145 50.00000 75.00000 75.00000 31.14485 38.58005 47.79943
146 0.000000 75.00000 50.00000 18.50771 32.12099 22.97610
147 0.000000 100.0000 50.00000 37.08278 70.26347 27.96506
148 0.000000 100.0000 75.00000 41.34526 72.06373 50.51526
149 25.00000 100.0000 75.00000 43.53426 73.71285 51.47167
150 50.00000 100.0000 75.00000 52.10704 81.23472 54.73833
151 75.00000 100.0000 75.00000 66.02672 91.00466 57.57612
152 75.00000 100.0000 100.0000 78.13325 96.09248 120.7874
153 25.00000 0.000000 100.0000 22.27860 9.460491 107.8701
154 50.00000 0.000000 100.0000 28.46231 12.81212 108.0243
155 0.000000 0.000000 75.00000 8.377269 3.561510 44.09540
156 0.000000 0.000000 100.0000 18.24467 7.395124 96.35105
157 0.000000 25.00000 100.0000 19.09696 9.995105 94.64979
158 25.00000 25.00000 100.0000 20.81443 10.95356 94.83206
159 50.00000 25.00000 100.0000 26.26263 13.91058 94.99086
160 75.00000 25.00000 100.0000 36.35235 19.47003 95.31483
161 100.0000 25.00000 100.0000 59.88490 32.13085 102.8650
162 100.0000 50.00000 100.0000 68.67464 44.42653 110.6346
163 50.00000 25.00000 75.00000 18.03723 10.99123 45.22711
164 50.00000 50.00000 100.0000 35.15693 26.28698 110.2651
165 0.000000 50.00000 50.00000 10.01517 14.60205 20.92700
166 0.000000 50.00000 100.0000 26.83665 21.69696 109.9304
167 0.000000 75.00000 100.0000 36.10500 40.44740 112.7978
168 25.00000 75.00000 100.0000 38.08737 41.63013 112.9797
169 50.00000 75.00000 100.0000 44.40769 45.08011 113.3259
170 75.00000 75.00000 100.0000 56.18841 51.47733 113.8305
171 100.0000 75.00000 100.0000 78.69156 63.74313 114.8471
172 0.000000 100.0000 100.0000 58.16921 85.33358 120.1422
173 25.00000 100.0000 100.0000 60.08742 86.36496 120.3226
174 50.00000 100.0000 100.0000 66.48363 89.73087 120.4738
175 100.0000 100.0000 100.0000 100.5547 108.2496 121.9958
END_DATA