Microsoft/Surface Pro 3/120QL01-001 #1 2019-02-19 08-41 0.3127x 0.329y sRGB F-S XYZLUT+MTX/120QL01-001 #1 2019-02-19 08-41 0.3127x 0.329y sRGB F-S XYZLUT+MTX.cal
CAL    

DESCRIPTOR "Argyll Device Calibration Curves"
ORIGINATOR "Argyll dispcal"
CREATED "Tue Feb 19 08:47:43 2019"
DEVICE_CLASS "DISPLAY"
COLOR_REP "RGB"
VIDEO_LUT_CALIBRATION_POSSIBLE "YES"
TV_OUTPUT_ENCODING "NO"
DEVICE_TYPE "n"
TARGET_WHITE_XYZ "231.156488 243.205898 264.865269"
TARGET_GAMMA "sRGB"
DEGREE_OF_BLACK_OUTPUT_OFFSET "1.0"
BLACK_POINT_CORRECTION "0.0"
BLACK_NEUTRAL_BLEND_RATE "4.0"
BLACK_POINT_HACK "YES"
QUALITY "low"

BEGIN_ARGYLL_DISPCAL_ARGS
-v2 -d1 -c1 -yn -P0.474576271186,0.29696969697,1.49647887324 -ql -m -w0.3127,0.329 -gs -f1.0 -k0 -A4.0 -b
END_ARGYLL_DISPCAL_ARGS


NUMBER_OF_FIELDS 4
BEGIN_DATA_FORMAT
RGB_I RGB_R RGB_G RGB_B
END_DATA_FORMAT

NUMBER_OF_SETS 256
BEGIN_DATA
0.00000000 0.00000000 0.00000000 0.00000000
0.00392157 0.00801881 0.00847232 0.00795137
0.00784314 0.01539580 0.01600630 0.01508680
0.01176470 0.02220490 0.02274980 0.02152580
0.01568630 0.02850950 0.02882080 0.02736550
0.01960780 0.03436360 0.03432120 0.03268780
0.02352940 0.03982300 0.03935320 0.03758710
0.02745100 0.04492740 0.04401320 0.04214090
0.03137250 0.04972800 0.04837190 0.04641890
0.03529410 0.05426260 0.05248000 0.05045290
0.03921570 0.05857440 0.05638270 0.05427160
0.04313730 0.06269970 0.06010520 0.05792520
0.04705880 0.06665770 0.06366970 0.06144130
0.05098040 0.07045950 0.06711660 0.06484180
0.05490200 0.07413920 0.07045230 0.06815230
0.05882350 0.07770930 0.07372170 0.07138550
0.06274510 0.08121220 0.07692180 0.07458790
0.06666670 0.08466580 0.08002920 0.07776480
0.07058820 0.08804490 0.08304240 0.08088080
0.07450980 0.09134640 0.08601550 0.08393850
0.07843140 0.09461370 0.08896280 0.08698220
0.08235290 0.09786620 0.09186550 0.09002080
0.08627450 0.10109900 0.09472220 0.09303980
0.09019610 0.10430400 0.09753480 0.09603840
0.09411760 0.10748300 0.10030200 0.09903010
0.09803920 0.11062300 0.10307900 0.10202400
0.10196100 0.11377600 0.10587500 0.10506800
0.10588200 0.11696200 0.10868600 0.10816500
0.10980400 0.12017800 0.11149300 0.11130800
0.11372500 0.12340800 0.11427700 0.11445800
0.11764700 0.12662000 0.11703900 0.11759800
0.12156900 0.12981300 0.11978600 0.12073500
0.12549000 0.13299200 0.12253300 0.12387700
0.12941200 0.13616500 0.12526200 0.12702100
0.13333300 0.13930900 0.12796200 0.13012800
0.13725500 0.14242200 0.13068000 0.13322800
0.14117600 0.14555600 0.13342200 0.13634300
0.14509800 0.14871400 0.13618700 0.13946800
0.14902000 0.15189300 0.13897400 0.14259200
0.15294100 0.15509100 0.14177800 0.14570600
0.15686300 0.15830800 0.14458300 0.14878200
0.16078400 0.16151500 0.14738100 0.15181000
0.16470600 0.16471300 0.15016600 0.15478100
0.16862700 0.16790400 0.15293200 0.15770200
0.17254900 0.17109100 0.15569400 0.16060100
0.17647100 0.17430500 0.15847500 0.16349500
0.18039200 0.17755300 0.16126800 0.16638000
0.18431400 0.18082000 0.16406100 0.16927600
0.18823500 0.18411700 0.16686800 0.17218000
0.19215700 0.18743800 0.16967900 0.17505300
0.19607800 0.19073700 0.17245400 0.17788100
0.20000000 0.19399700 0.17518500 0.18065700
0.20392200 0.19721500 0.17786300 0.18337800
0.20784300 0.20039900 0.18050300 0.18606400
0.21176500 0.20357000 0.18312500 0.18875000
0.21568600 0.20674700 0.18575400 0.19146600
0.21960800 0.20994500 0.18841600 0.19421800
0.22352900 0.21317500 0.19112000 0.19700800
0.22745100 0.21643800 0.19386700 0.19982900
0.23137300 0.21972400 0.19664400 0.20268700
0.23529400 0.22303500 0.19944500 0.20559200
0.23921600 0.22638100 0.20228600 0.20854800
0.24313700 0.22973200 0.20517200 0.21150200
0.24705900 0.23303600 0.20805800 0.21443700
0.25098000 0.23631200 0.21091900 0.21738900
0.25490200 0.23960000 0.21377800 0.22038600
0.25882400 0.24290100 0.21665800 0.22341400
0.26274500 0.24620600 0.21955100 0.22646800
0.26666700 0.24950900 0.22245800 0.22954400
0.27058800 0.25280800 0.22537000 0.23263800
0.27451000 0.25609000 0.22828300 0.23572500
0.27843100 0.25936800 0.23118500 0.23881600
0.28235300 0.26267600 0.23408800 0.24193400
0.28627500 0.26601900 0.23702100 0.24508100
0.29019600 0.26939500 0.23998800 0.24825500
0.29411800 0.27280300 0.24297500 0.25144500
0.29803900 0.27620900 0.24598300 0.25460600
0.30196100 0.27963900 0.24897300 0.25777100
0.30588200 0.28313800 0.25196600 0.26097000
0.30980400 0.28672300 0.25501800 0.26421700
0.31372500 0.29040400 0.25814200 0.26752300
0.31764700 0.29414000 0.26135200 0.27084200
0.32156900 0.29788600 0.26462400 0.27414100
0.32549000 0.30164900 0.26788800 0.27743700
0.32941200 0.30543200 0.27113600 0.28074100
0.33333300 0.30923000 0.27437800 0.28405500
0.33725500 0.31305500 0.27760500 0.28739700
0.34117600 0.31687800 0.28083000 0.29074600
0.34509800 0.32065100 0.28407000 0.29406600
0.34902000 0.32435600 0.28728500 0.29734800
0.35294100 0.32798500 0.29045200 0.30058200
0.35686300 0.33153900 0.29355100 0.30375900
0.36078400 0.33502400 0.29656800 0.30688200
0.36470600 0.33844200 0.29950900 0.30995500
0.36862700 0.34185700 0.30238000 0.31301500
0.37254900 0.34534300 0.30518600 0.31616000
0.37647100 0.34890500 0.30800200 0.31940600
0.38039200 0.35254900 0.31090100 0.32276000
0.38431400 0.35628200 0.31389500 0.32622000
0.38823500 0.36009900 0.31699200 0.32976400
0.39215700 0.36398800 0.32019500 0.33335900
0.39607800 0.36794900 0.32348100 0.33699800
0.40000000 0.37196500 0.32683600 0.34069200
0.40392200 0.37597800 0.33024800 0.34438000
0.40784300 0.37998900 0.33372000 0.34806200
0.41176500 0.38396500 0.33720000 0.35170000
0.41568600 0.38791000 0.34068900 0.35529500
0.41960800 0.39182200 0.34416700 0.35884900
0.42352900 0.39575700 0.34762900 0.36241500
0.42745100 0.39973300 0.35107000 0.36603000
0.43137300 0.40376800 0.35450500 0.36971700
0.43529400 0.40785600 0.35797000 0.37348300
0.43921600 0.41194400 0.36148600 0.37727300
0.44313700 0.41599500 0.36508300 0.38102500
0.44705900 0.42001100 0.36873800 0.38475000
0.45098000 0.42401100 0.37237500 0.38848000
0.45490200 0.42798300 0.37597300 0.39219200
0.45882400 0.43191100 0.37953500 0.39587500
0.46274500 0.43578400 0.38307100 0.39951300
0.46666700 0.43960500 0.38656600 0.40310700
0.47058800 0.44343400 0.39000100 0.40670800
0.47451000 0.44727400 0.39336800 0.41032100
0.47843100 0.45111800 0.39668000 0.41394000
0.48235300 0.45494200 0.39999600 0.41755300
0.48627500 0.45866600 0.40330000 0.42108300
0.49019600 0.46228200 0.40659100 0.42451700
0.49411800 0.46582000 0.40986200 0.42787200
0.49803900 0.46932800 0.41304600 0.43120500
0.50196100 0.47278400 0.41612500 0.43449500
0.50588200 0.47617000 0.41911500 0.43772100
0.50980400 0.47950200 0.42207400 0.44090000
0.51372500 0.48277500 0.42500600 0.44401200
0.51764700 0.48599900 0.42788900 0.44706300
0.52156900 0.48918200 0.43073900 0.45005600
0.52549000 0.49232700 0.43356300 0.45299600
0.52941200 0.49544600 0.43636100 0.45588400
0.53333300 0.49854000 0.43913800 0.45872300
0.53725500 0.50160700 0.44190400 0.46151300
0.54117600 0.50465000 0.44466100 0.46425600
0.54509800 0.50766400 0.44741300 0.46694800
0.54902000 0.51066600 0.45016100 0.46961400
0.55294100 0.51370700 0.45290300 0.47231300
0.55686300 0.51680600 0.45563600 0.47505900
0.56078400 0.51996500 0.45834200 0.47785000
0.56470600 0.52318600 0.46105000 0.48068900
0.56862700 0.52646800 0.46381100 0.48357500
0.57254900 0.52980200 0.46662900 0.48650800
0.57647100 0.53318500 0.46950500 0.48948800
0.58039200 0.53661100 0.47244000 0.49251200
0.58431400 0.54007300 0.47543400 0.49558300
0.58823500 0.54357200 0.47848300 0.49871700
0.59215700 0.54707600 0.48158000 0.50187600
0.59607800 0.55062200 0.48471800 0.50509200
0.60000000 0.55422000 0.48789700 0.50838300
0.60392200 0.55781100 0.49110100 0.51169500
0.60784300 0.56139200 0.49431200 0.51502200
0.61176500 0.56497600 0.49757500 0.51835300
0.61568600 0.56862200 0.50085900 0.52173000
0.61960800 0.57236200 0.50412500 0.52518300
0.62352900 0.57618700 0.50737300 0.52869500
0.62745100 0.58007100 0.51061100 0.53226800
0.63137300 0.58398400 0.51390000 0.53586700
0.63529400 0.58791800 0.51724800 0.53947300
0.63921600 0.59188200 0.52066000 0.54308300
0.64313700 0.59585700 0.52411300 0.54668500
0.64705900 0.59981400 0.52755400 0.55024900
0.65098000 0.60373100 0.53097500 0.55374500
0.65490200 0.60760800 0.53439000 0.55715800
0.65882400 0.61145600 0.53778000 0.56049100
0.66274500 0.61533700 0.54112400 0.56379100
0.66666700 0.61927600 0.54440000 0.56713000
0.67058800 0.62327100 0.54760200 0.57051500
0.67451000 0.62730600 0.55073700 0.57394100
0.67843100 0.63133700 0.55384900 0.57738400
0.68235300 0.63535000 0.55700300 0.58081400
0.68627500 0.63932600 0.56021200 0.58422100
0.69019600 0.64327000 0.56346500 0.58758700
0.69411800 0.64717800 0.56673300 0.59092000
0.69803900 0.65109600 0.57000700 0.59422500
0.70196100 0.65507500 0.57327400 0.59752900
0.70588200 0.65911700 0.57652700 0.60088200
0.70980400 0.66324300 0.57976900 0.60429700
0.71372500 0.66746500 0.58299000 0.60780500
0.71764700 0.67176900 0.58622600 0.61141800
0.72156900 0.67614200 0.58953400 0.61514300
0.72549000 0.68046400 0.59290700 0.61898600
0.72941200 0.68470200 0.59636200 0.62289200
0.73333300 0.68885600 0.59991600 0.62674500
0.73725500 0.69293200 0.60358500 0.63054500
0.74117600 0.69694700 0.60736800 0.63429700
0.74509800 0.70091500 0.61119900 0.63801100
0.74902000 0.70484700 0.61497700 0.64170400
0.75294100 0.70880100 0.61870200 0.64537500
0.75686300 0.71276200 0.62238400 0.64904600
0.76078400 0.71673900 0.62604500 0.65275400
0.76470600 0.72072000 0.62970500 0.65649400
0.76862700 0.72469600 0.63336300 0.66028500
0.77254900 0.72866100 0.63704600 0.66409400
0.77647100 0.73261000 0.64076300 0.66791600
0.78039200 0.73658600 0.64449900 0.67175000
0.78431400 0.74056500 0.64826300 0.67562200
0.78823500 0.74450000 0.65203000 0.67954300
0.79215700 0.74839200 0.65579200 0.68344600
0.79607800 0.75225000 0.65955100 0.68732600
0.80000000 0.75607800 0.66331500 0.69121200
0.80392200 0.75987600 0.66711800 0.69510900
0.80784300 0.76364400 0.67089500 0.69902200
0.81176500 0.76738800 0.67465100 0.70291600
0.81568600 0.77113300 0.67840900 0.70678300
0.81960800 0.77493400 0.68218900 0.71066700
0.82352900 0.77881100 0.68600300 0.71459700
0.82745100 0.78277000 0.68983300 0.71861000
0.83137300 0.78678100 0.69369200 0.72267300
0.83529400 0.79084600 0.69762900 0.72678300
0.83921600 0.79496500 0.70169500 0.73094400
0.84313700 0.79921900 0.70590500 0.73523500
0.84705900 0.80365200 0.71022700 0.73971500
0.85098000 0.80825900 0.71465300 0.74436200
0.85490200 0.81297800 0.71920100 0.74909200
0.85882400 0.81773600 0.72397000 0.75382400
0.86274500 0.82252800 0.72894600 0.75857700
0.86666700 0.82735400 0.73404000 0.76333200
0.87058800 0.83219100 0.73913300 0.76808000
0.87451000 0.83707800 0.74423700 0.77290200
0.87843100 0.84212600 0.74935200 0.77781800
0.88235300 0.84739200 0.75449900 0.78290200
0.88627500 0.85297900 0.75986300 0.78827600
0.89019600 0.85898300 0.76556800 0.79398900
0.89411800 0.86542300 0.77181300 0.80009600
0.89803900 0.87235800 0.77868600 0.80661500
0.90196100 0.87980600 0.78620900 0.81352200
0.90588200 0.88767600 0.79435600 0.82081000
0.90980400 0.89594100 0.80294700 0.82845800
0.91372500 0.90447800 0.81187900 0.83627600
0.91764700 0.91306700 0.82077200 0.84419700
0.92156900 0.92181900 0.82966100 0.85218700
0.92549000 0.93053300 0.83848200 0.86003700
0.92941200 0.93902000 0.84711700 0.86759400
0.93333300 0.94710700 0.85545100 0.87480800
0.93725500 0.95460700 0.86314500 0.88146200
0.94117600 0.96139600 0.87004500 0.88750200
0.94509800 0.96752100 0.87615600 0.89295700
0.94902000 0.97305500 0.88147600 0.89785800
0.95294100 0.97805300 0.88606900 0.90223100
0.95686300 0.98257300 0.89010400 0.90615500
0.96078400 0.98671600 0.89368100 0.90970400
0.96470600 0.99053500 0.89687500 0.91292800
0.96862700 0.99406700 0.89974400 0.91587000
0.97254900 0.99734200 0.90233600 0.91856600
0.97647100 1.00000000 0.90468800 0.92104500
0.98039200 1.00000000 0.90683300 0.92333200
0.98431400 1.00000000 0.90879600 0.92544900
0.98823500 1.00000000 0.91060000 0.92741500
0.99215700 1.00000000 0.91226400 0.92924400
0.99607800 1.00000000 0.91380300 0.93095100
1.00000000 1.00000000 0.91523000 0.93254700
END_DATA
CAL    

DESCRIPTOR "Argyll Calibration options and model"
ORIGINATOR "Argyll dispcal"
CREATED "Tue Feb 19 08:47:43 201"

NUMBER_OF_FIELDS 3
BEGIN_DATA_FORMAT
R_P G_P B_P
END_DATA_FORMAT

NUMBER_OF_SETS 32
BEGIN_DATA
0.000268175 0.000339336 0.001150770
0.999732000 0.999661000 0.998849000
1.684920000 1.471689000 2.103042000
0.507870000 0.423939000 0.191596000
0.103300000 0.173935000 0.200486000
0.154464000 0.168015000 0.137841000
0.125884000 0.181150000 0.134267000
0.106414000 0.112791000 0.115780000
0.091057700 0.078376400 0.102465000
0.089501600 0.073462900 0.099520600
0.083265300 0.084176400 0.083745600
0.079940100 0.088353900 0.082563500
0.077846300 0.073920500 0.077336800
0.065151900 0.070380500 0.078805000
0.059114600 0.065917600 0.056555700
0.064190200 0.067015100 0.070308200
0.056640600 0.054379200 0.056092300
0.057969300 0.049093100 0.050291200
0.051369400 0.040684300 0.064157900
0.048792100 0.050302200 0.051819900
0.039921800 0.048164500 0.045828800
0.038536100 0.041266700 0.046716100
0.035747900 0.045633700 0.041816100
0.036221900 0.039328500 0.038332900
0.035476600 0.036045600 0.038993100
0.032744800 0.035958400 0.037417800
0.031688200 0.036529700 0.036518100
0.030192500 0.036660800 0.036299400
0.027654700 0.033486200 0.031885700
0.027463000 0.030254100 0.034664800
0.025804600 0.025489600 0.034556300
0.024502300 0.026782700 0.032143000
END_DATA