HP/HP Elitebook 835 G7/27531 #1 2020-09-28 22-23 0.3127x 0.329y sRGB F-S XYZLUT+MTX/27531 #1 2020-09-28 22-23 0.3127x 0.329y sRGB F-S XYZLUT+MTX.cal
CAL    

DESCRIPTOR "Argyll Device Calibration Curves"
ORIGINATOR "Argyll dispcal"
CREATED "Mon Sep 28 22:27:29 2020"
DEVICE_CLASS "DISPLAY"
COLOR_REP "RGB"
VIDEO_LUT_CALIBRATION_POSSIBLE "YES"
TV_OUTPUT_ENCODING "NO"
DEVICE_TYPE "n"
TARGET_WHITE_XYZ "401.281078 422.198512 459.798562"
TARGET_GAMMA "sRGB"
DEGREE_OF_BLACK_OUTPUT_OFFSET "1.0"
BLACK_POINT_CORRECTION "0.0"
BLACK_NEUTRAL_BLEND_RATE "4.0"
BLACK_POINT_HACK "YES"
QUALITY "low"

BEGIN_ARGYLL_DISPCAL_ARGS
-v2 -d1 -c1 -yn -P0.499094202899,0.496212121212,1.24580152672 -ql -m -w0.3127,0.329 -gs -f1.0 -k0 -A4.0 -b
END_ARGYLL_DISPCAL_ARGS


NUMBER_OF_FIELDS 4
BEGIN_DATA_FORMAT
RGB_I RGB_R RGB_G RGB_B
END_DATA_FORMAT

NUMBER_OF_SETS 256
BEGIN_DATA
0.00000000 0.00000000 0.00000000 0.00000000
0.00392157 0.00907472 0.00906878 0.00900743
0.00784314 0.01726700 0.01722060 0.01714280
0.01176470 0.02469950 0.02458780 0.02452680
0.01568630 0.03147330 0.03127860 0.03125910
0.01960780 0.03767050 0.03738450 0.03742200
0.02352940 0.04335240 0.04299410 0.04308460
0.02745100 0.04858890 0.04819320 0.04832150
0.03137250 0.05346190 0.05306240 0.05321470
0.03529410 0.05803410 0.05765990 0.05782900
0.03921570 0.06235300 0.06202960 0.06220900
0.04313730 0.06646280 0.06621260 0.06639910
0.04705880 0.07041110 0.07024910 0.07044050
0.05098040 0.07423750 0.07417450 0.07437150
0.05490200 0.07797410 0.07801610 0.07822150
0.05882350 0.08165240 0.08179360 0.08201190
0.06274510 0.08529190 0.08552510 0.08576290
0.06666670 0.08890040 0.08921660 0.08948440
0.07058820 0.09248900 0.09288690 0.09319460
0.07450980 0.09606060 0.09653380 0.09689230
0.07843140 0.09961890 0.10016500 0.10058500
0.08235290 0.10317800 0.10378500 0.10427500
0.08627450 0.10673300 0.10739000 0.10795600
0.09019610 0.11028700 0.11099200 0.11163700
0.09411760 0.11384900 0.11458900 0.11531900
0.09803920 0.11741000 0.11818000 0.11900000
0.10196100 0.12096800 0.12176500 0.12267700
0.10588200 0.12453200 0.12536400 0.12636100
0.10980400 0.12810600 0.12896700 0.13004200
0.11372500 0.13168100 0.13257500 0.13371800
0.11764700 0.13525700 0.13617600 0.13738000
0.12156900 0.13882300 0.13977100 0.14103200
0.12549000 0.14239500 0.14337600 0.14468700
0.12941200 0.14598000 0.14697900 0.14833400
0.13333300 0.14956700 0.15057500 0.15197200
0.13725500 0.15315900 0.15417100 0.15560700
0.14117600 0.15675500 0.15774600 0.15922300
0.14509800 0.16033600 0.16129700 0.16281900
0.14902000 0.16390800 0.16483900 0.16641000
0.15294100 0.16748600 0.16837800 0.17000000
0.15686300 0.17106900 0.17190200 0.17357300
0.16078400 0.17464100 0.17540700 0.17712600
0.16470600 0.17820200 0.17889900 0.18066600
0.16862700 0.18175500 0.18237700 0.18419000
0.17254900 0.18529400 0.18582000 0.18767500
0.17647100 0.18880400 0.18923000 0.19112500
0.18039200 0.19229200 0.19260800 0.19454000
0.18431400 0.19575600 0.19595800 0.19792500
0.18823500 0.19920900 0.19929500 0.20129400
0.19215700 0.20266200 0.20262500 0.20464900
0.19607800 0.20611000 0.20593600 0.20798000
0.20000000 0.20954300 0.20922900 0.21128700
0.20392200 0.21296200 0.21250300 0.21456800
0.20784300 0.21637000 0.21577200 0.21783900
0.21176500 0.21978600 0.21904300 0.22110700
0.21568600 0.22321400 0.22231700 0.22437000
0.21960800 0.22664200 0.22557700 0.22761400
0.22352900 0.23005800 0.22882500 0.23084300
0.22745100 0.23348200 0.23207900 0.23407100
0.23137300 0.23692500 0.23533900 0.23729800
0.23529400 0.24038200 0.23860300 0.24052000
0.23921600 0.24386000 0.24187600 0.24373800
0.24313700 0.24737500 0.24517400 0.24696600
0.24705900 0.25094100 0.24851000 0.25022200
0.25098000 0.25455100 0.25188100 0.25350900
0.25490200 0.25818600 0.25527400 0.25681800
0.25882400 0.26184600 0.25868900 0.26014800
0.26274500 0.26552800 0.26212600 0.26349800
0.26666700 0.26923300 0.26558400 0.26687000
0.27058800 0.27294400 0.26904900 0.27025300
0.27451000 0.27667200 0.27253500 0.27365200
0.27843100 0.28042000 0.27604400 0.27707600
0.28235300 0.28419400 0.27958400 0.28053000
0.28627500 0.28799100 0.28315900 0.28401700
0.29019600 0.29176900 0.28674600 0.28753000
0.29411800 0.29550900 0.29031100 0.29103300
0.29803900 0.29922300 0.29386000 0.29452100
0.30196100 0.30292700 0.29740100 0.29800400
0.30588200 0.30662900 0.30094700 0.30149400
0.30980400 0.31033100 0.30450200 0.30499300
0.31372500 0.31401200 0.30805900 0.30850400
0.31764700 0.31768100 0.31160200 0.31201100
0.32156900 0.32133800 0.31514200 0.31551600
0.32549000 0.32498600 0.31867700 0.31902200
0.32941200 0.32862700 0.32221000 0.32253100
0.33333300 0.33226600 0.32574900 0.32604500
0.33725500 0.33592200 0.32929600 0.32956900
0.34117600 0.33959600 0.33286800 0.33311000
0.34509800 0.34327200 0.33644800 0.33667700
0.34902000 0.34695000 0.34002900 0.34025300
0.35294100 0.35062800 0.34360900 0.34383600
0.35686300 0.35430600 0.34719000 0.34742700
0.36078400 0.35798100 0.35077400 0.35102700
0.36470600 0.36167500 0.35435900 0.35463800
0.36862700 0.36538800 0.35796300 0.35826200
0.37254900 0.36909900 0.36159100 0.36191800
0.37647100 0.37280400 0.36521600 0.36559800
0.38039200 0.37651600 0.36883700 0.36927700
0.38431400 0.38024100 0.37246200 0.37296200
0.38823500 0.38397100 0.37610100 0.37666100
0.39215700 0.38772100 0.37974800 0.38036800
0.39607800 0.39150800 0.38340900 0.38407900
0.40000000 0.39534500 0.38709600 0.38780700
0.40392200 0.39923400 0.39082100 0.39156200
0.40784300 0.40315700 0.39458600 0.39535200
0.41176500 0.40704900 0.39838300 0.39917600
0.41568600 0.41090100 0.40215300 0.40300200
0.41960800 0.41472200 0.40588000 0.40678100
0.42352900 0.41852400 0.40957300 0.41051200
0.42745100 0.42232000 0.41324300 0.41421100
0.43137300 0.42610700 0.41690900 0.41789400
0.43529400 0.42988900 0.42056800 0.42157700
0.43921600 0.43367800 0.42422300 0.42525500
0.44313700 0.43746600 0.42788500 0.42893300
0.44705900 0.44125700 0.43154800 0.43261200
0.45098000 0.44506200 0.43521300 0.43628700
0.45490200 0.44886400 0.43889400 0.43996400
0.45882400 0.45264700 0.44258700 0.44365500
0.46274500 0.45642200 0.44627200 0.44734400
0.46666700 0.46020200 0.44995500 0.45102000
0.47058800 0.46398600 0.45365100 0.45469600
0.47451000 0.46775000 0.45737000 0.45838900
0.47843100 0.47151100 0.46109500 0.46209500
0.48235300 0.47527200 0.46482100 0.46579600
0.48627500 0.47903200 0.46856000 0.46950200
0.49019600 0.48278900 0.47230700 0.47321400
0.49411800 0.48654600 0.47606000 0.47693100
0.49803900 0.49030100 0.47981700 0.48064900
0.50196100 0.49405500 0.48357700 0.48436900
0.50588200 0.49780700 0.48734000 0.48809000
0.50980400 0.50158100 0.49110700 0.49181200
0.51372500 0.50538100 0.49489000 0.49553500
0.51764700 0.50918200 0.49871500 0.49927800
0.52156900 0.51298500 0.50254800 0.50305700
0.52549000 0.51678800 0.50638800 0.50684000
0.52941200 0.52059400 0.51023300 0.51062500
0.53333300 0.52440000 0.51408500 0.51441400
0.53725500 0.52820700 0.51794400 0.51820600
0.54117600 0.53201600 0.52181500 0.52200200
0.54509800 0.53582700 0.52569800 0.52580400
0.54902000 0.53962300 0.52959700 0.52961200
0.55294100 0.54342700 0.53349100 0.53343100
0.55686300 0.54724700 0.53739500 0.53724500
0.56078400 0.55106100 0.54131600 0.54106700
0.56470600 0.55486700 0.54522500 0.54490100
0.56862700 0.55867800 0.54911700 0.54872100
0.57254900 0.56249600 0.55300200 0.55252300
0.57647100 0.56633400 0.55688200 0.55631600
0.58039200 0.57020600 0.56076800 0.56010900
0.58431400 0.57410200 0.56467200 0.56390900
0.58823500 0.57796900 0.56858300 0.56773000
0.59215700 0.58180200 0.57245000 0.57156800
0.59607800 0.58561400 0.57627700 0.57537900
0.60000000 0.58941900 0.58007800 0.57915500
0.60392200 0.59321400 0.58386800 0.58290800
0.60784300 0.59700200 0.58764100 0.58666100
0.61176500 0.60078600 0.59140300 0.59040900
0.61568600 0.60458000 0.59515800 0.59415400
0.61960800 0.60838000 0.59892000 0.59789900
0.62352900 0.61218400 0.60268600 0.60166000
0.62745100 0.61599400 0.60645400 0.60543200
0.63137300 0.61979300 0.61022800 0.60921300
0.63529400 0.62357200 0.61398600 0.61300200
0.63921600 0.62734000 0.61772800 0.61679300
0.64313700 0.63110100 0.62146000 0.62057100
0.64705900 0.63485400 0.62519100 0.62434400
0.65098000 0.63859400 0.62891600 0.62811300
0.65490200 0.64233300 0.63264400 0.63187400
0.65882400 0.64608700 0.63638600 0.63562300
0.66274500 0.64987800 0.64015900 0.63937600
0.66666700 0.65371700 0.64398000 0.64314000
0.67058800 0.65761500 0.64786300 0.64693900
0.67451000 0.66157300 0.65182200 0.65078900
0.67843100 0.66559500 0.65586200 0.65470700
0.68235300 0.66965600 0.65998500 0.65869900
0.68627500 0.67365400 0.66411300 0.66276600
0.69019600 0.67757300 0.66816900 0.66689000
0.69411800 0.68141400 0.67215000 0.67096600
0.69803900 0.68517800 0.67606000 0.67497500
0.70196100 0.68887900 0.67991200 0.67891500
0.70588200 0.69253500 0.68372300 0.68279500
0.70980400 0.69617000 0.68751100 0.68663200
0.71372500 0.69979500 0.69129200 0.69044500
0.71764700 0.70342000 0.69506800 0.69425400
0.72156900 0.70705300 0.69885100 0.69806400
0.72549000 0.71069000 0.70263700 0.70188300
0.72941200 0.71433100 0.70642500 0.70571000
0.73333300 0.71799200 0.71022400 0.70953500
0.73725500 0.72167100 0.71402900 0.71335900
0.74117600 0.72537300 0.71784200 0.71718300
0.74509800 0.72910200 0.72166400 0.72100500
0.74902000 0.73283600 0.72546700 0.72482800
0.75294100 0.73658300 0.72926100 0.72863500
0.75686300 0.74035900 0.73305400 0.73240800
0.76078400 0.74416500 0.73684700 0.73616400
0.76470600 0.74800300 0.74064000 0.73990200
0.76862700 0.75188800 0.74444700 0.74362600
0.77254900 0.75581100 0.74827400 0.74733700
0.77647100 0.75976800 0.75211800 0.75105900
0.78039200 0.76375600 0.75598000 0.75480000
0.78431400 0.76776800 0.75985500 0.75856000
0.78823500 0.77180200 0.76374400 0.76234000
0.79215700 0.77583000 0.76762600 0.76614300
0.79607800 0.77985700 0.77150500 0.76996300
0.80000000 0.78389400 0.77538900 0.77378700
0.80392200 0.78794000 0.77928100 0.77762400
0.80784300 0.79202400 0.78320200 0.78148300
0.81176500 0.79616100 0.78716700 0.78536900
0.81568600 0.80035600 0.79118200 0.78930600
0.81960800 0.80455600 0.79521400 0.79330400
0.82352900 0.80870800 0.79920200 0.79736700
0.82745100 0.81281500 0.80314600 0.80144900
0.83137300 0.81690200 0.80706800 0.80549700
0.83529400 0.82098400 0.81098200 0.80951600
0.83921600 0.82507500 0.81490800 0.81352500
0.84313700 0.82916800 0.81884400 0.81754100
0.84705900 0.83326400 0.82278900 0.82158400
0.85098000 0.83736700 0.82674500 0.82564500
0.85490200 0.84147500 0.83071800 0.82972400
0.85882400 0.84558100 0.83470700 0.83382800
0.86274500 0.84969600 0.83871200 0.83795600
0.86666700 0.85385000 0.84275100 0.84210700
0.87058800 0.85804700 0.84683800 0.84628200
0.87451000 0.86223600 0.85095900 0.85050700
0.87843100 0.86638900 0.85505700 0.85479200
0.88235300 0.87053000 0.85913700 0.85909200
0.88627500 0.87467600 0.86322400 0.86337900
0.89019600 0.87883300 0.86731800 0.86767400
0.89411800 0.88300700 0.87143300 0.87199200
0.89803900 0.88720800 0.87557100 0.87633300
0.90196100 0.89143300 0.87974200 0.88069600
0.90588200 0.89564900 0.88393100 0.88509300
0.90980400 0.89985900 0.88812400 0.88951800
0.91372500 0.90407900 0.89233100 0.89394500
0.91764700 0.90832800 0.89656900 0.89838600
0.92156900 0.91260000 0.90085000 0.90285600
0.92549000 0.91687300 0.90514100 0.90736500
0.92941200 0.92116600 0.90944000 0.91188000
0.93333300 0.92548300 0.91377100 0.91639800
0.93725500 0.92978900 0.91811400 0.92095200
0.94117600 0.93410800 0.92246400 0.92552000
0.94509800 0.93842900 0.92683700 0.93011200
0.94902000 0.94276000 0.93121300 0.93472900
0.95294100 0.94710200 0.93560200 0.93936700
0.95686300 0.95145800 0.94000300 0.94402700
0.96078400 0.95582700 0.94441700 0.94870500
0.96470600 0.96020600 0.94884100 0.95340400
0.96862700 0.96459700 0.95327900 0.95812500
0.97254900 0.96900100 0.95773300 0.96286400
0.97647100 0.97341300 0.96220600 0.96762400
0.98039200 0.97783200 0.96670000 0.97240400
0.98431400 0.98225700 0.97121400 0.97720500
0.98823500 0.98669000 0.97574900 0.98202800
0.99215700 0.99113000 0.98030500 0.98687200
0.99607800 0.99557800 0.98488200 0.99173800
1.00000000 1.00000000 0.98948100 0.99662500
END_DATA
CAL    

DESCRIPTOR "Argyll Calibration options and model"
ORIGINATOR "Argyll dispcal"
CREATED "Mon Sep 28 22:27:29 202"

NUMBER_OF_FIELDS 3
BEGIN_DATA_FORMAT
R_P G_P B_P
END_DATA_FORMAT

NUMBER_OF_SETS 32
BEGIN_DATA
0.0000767833 0.0001962910 0.0006607850
0.9999230000 0.9998040000 0.9993390000
1.4591160000 1.6237890000 1.6293610000
0.5636870000 0.3087740000 0.2826320000
0.0987072000 0.1944290000 0.1847910000
0.1414650000 0.1470440000 0.1500800000
0.1146080000 0.1256780000 0.1276780000
0.0856402000 0.1021750000 0.1114210000
0.0779121000 0.0957079000 0.1019790000
0.0861974000 0.0847637000 0.0896822000
0.0738600000 0.0676441000 0.0766049000
0.0728047000 0.0712593000 0.0774998000
0.0626862000 0.0654229000 0.0699551000
0.0516400000 0.0550756000 0.0602757000
0.0562186000 0.0545675000 0.0534161000
0.0533619000 0.0478213000 0.0546378000
0.0464382000 0.0462142000 0.0509016000
0.0453876000 0.0487480000 0.0498795000
0.0404615000 0.0344967000 0.0363652000
0.0366313000 0.0403166000 0.0384642000
0.0344089000 0.0456221000 0.0454483000
0.0309996000 0.0358781000 0.0367293000
0.0304033000 0.0332782000 0.0298312000
0.0290592000 0.0334703000 0.0283891000
0.0276298000 0.0309308000 0.0274930000
0.0274620000 0.0320685000 0.0276898000
0.0249031000 0.0295565000 0.0267934000
0.0235489000 0.0276224000 0.0256142000
0.0234283000 0.0275304000 0.0245382000
0.0209736000 0.0251674000 0.0217137000
0.0201074000 0.0225011000 0.0175022000
0.0161356000 0.0254219000 0.0195214000
END_DATA
