HP/HP Elitebook 835 G7/27531 #1 2020-09-28 22-23 0.3127x 0.329y sRGB F-S XYZLUT+MTX/27531 #1 2020-09-28 22-23 0.3127x 0.329y sRGB F-S XYZLUT+MTX.bpc.ti3
CTI3   

DESCRIPTOR "Argyll Calibration Target chart information 3"
ORIGINATOR "Argyll dispread"
CREATED "Mon Sep 28 22:28:22 2020"
DEVICE_CLASS "DISPLAY"
SINGLE_DIM_STEPS "21"
COMP_GREY_STEPS "61"
DARK_REGION_EMPHASIS "1.6"
COLOR_REP "RGB_XYZ"
TARGET_INSTRUMENT "X-Rite i1 DisplayPro, ColorMunki Display"
DISPLAY_TYPE_REFRESH "NO"
DISPLAY_TYPE_BASE_ID "1"
INSTRUMENT_TYPE_SPECTRAL "NO"
LUMINANCE_XYZ_CDM2 "399.136719 419.499304 457.529787"
NORMALIZED_TO_Y_100 "YES"
VIDEO_LUT_CALIBRATION_POSSIBLE "YES"

BEGIN_ARGYLL_COLPROF_ARGS
-v -qh -aX -bn -C "No copyright. Created with DisplayCAL 3.8.9.3 and ArgyllCMS 2.1.2" -M "27531" -A "AU Optronics"
END_ARGYLL_COLPROF_ARGS

OBSERVER "1931_2"
USE_BLACK_POINT_COMPENSATION "NO"
BLACK_POINT_CORRECTION "0.0"
HIRES_B2A "YES"
HIRES_B2A_SIZE "-1"
SMOOTH_B2A "YES"
PATCH_SEQUENCE "OPTIMIZE_DISPLAY_RESPONSE_DELAY"

NUMBER_OF_FIELDS 7
BEGIN_DATA_FORMAT
SAMPLE_ID RGB_R RGB_G RGB_B XYZ_X XYZ_Y XYZ_Z
END_DATA_FORMAT

NUMBER_OF_SETS 588
BEGIN_DATA
1 100.00000 100.00000 100.00000 95.145980 100.00000 109.06570
2 1.9608000 1.9608000 1.9608000 0.1340358 0.1408390 0.1629579
3 3.9216000 3.9216000 3.9216000 0.2869717 0.3019230 0.3513688
4 5.8824000 5.8824000 5.8824000 0.4725972 0.4981451 0.5761548
5 9.8039000 9.8039000 9.8039000 0.9877023 1.0475902 1.1951181
6 13.726000 13.726000 13.726000 1.7025565 1.8070794 2.0438457
7 17.647000 17.647000 17.647000 2.6041529 2.7620776 3.1101235
8 21.569000 21.569000 21.569000 3.6499897 3.8685269 4.3266505
9 25.490000 25.490000 25.490000 4.9472573 5.2135872 5.7733537
10 29.412000 29.412000 29.412000 6.6101307 6.9646786 7.6229476
11 33.333000 33.333000 33.333000 8.5599482 9.0079361 9.8269751
12 37.255000 37.255000 37.255000 10.771870 11.335169 12.368817
13 41.176000 41.176000 41.176000 13.308900 13.998329 15.273707
14 45.098000 45.098000 45.098000 16.234121 17.059530 18.632298
15 49.020000 49.020000 49.020000 19.470722 20.466401 22.354299
16 52.941000 52.941000 52.941000 22.987863 24.210552 26.394760
17 56.863000 56.863000 56.863000 26.914464 28.360823 30.888731
18 60.784000 60.784000 60.784000 31.144895 32.838944 35.745932
19 64.706000 64.706000 64.706000 35.618106 37.565285 40.920674
20 68.627000 68.627000 68.627000 40.590667 42.803266 46.594615
21 72.549000 72.549000 72.549000 45.927308 48.461688 52.904206
22 76.471000 76.471000 76.471000 51.488300 54.329799 59.349768
23 80.392000 80.392000 80.392000 57.669441 60.848411 66.249740
24 84.314000 84.314000 84.314000 64.327203 67.800272 73.783842
25 88.235000 88.235000 88.235000 71.517854 75.337934 81.999073
26 92.157000 92.157000 92.157000 78.820896 82.984646 90.531496
27 96.078000 96.078000 96.078000 86.735738 91.277008 99.744848
28 45.850100 0.0000000 50.355100 11.390780 5.5010633 20.689648
29 51.960600 39.417500 55.439800 19.049272 16.130360 27.274760
30 73.303300 0.0000000 17.096500 21.091522 10.920899 3.2056846
31 76.746400 0.0000000 32.207000 24.371393 12.501049 8.5890508
32 100.00000 61.113300 39.907200 56.197321 46.530087 17.975608
33 100.00000 71.773500 66.363200 65.924023 58.482000 44.982985
34 59.273300 54.101600 0.0000000 21.685172 24.589902 3.5736646
35 69.273000 57.339600 25.060900 29.303384 30.308443 9.0239370
36 0.0000000 36.797500 58.132300 9.2107693 9.9826094 29.451171
37 0.0000000 62.578700 80.702800 23.320613 29.346173 62.722569
38 34.164900 72.304100 84.521100 33.111765 41.092296 71.287171
39 100.00000 89.385500 100.00000 87.522628 84.463126 106.42950
40 4.8077000 0.0000000 0.0000000 0.1867557 0.1269570 0.0772370
41 19.662900 0.0000000 0.0000000 1.3585436 0.7339131 0.1363370
42 23.255800 0.0000000 0.0000000 1.8062261 0.9659772 0.1505140
43 27.108400 0.0000000 0.0000000 2.4459594 1.2981383 0.1691891
44 31.250000 0.0000000 0.0000000 3.3264496 1.7550024 0.1939789
45 35.714300 0.0000000 0.0000000 4.3169184 2.2707765 0.2215461
46 40.540500 0.0000000 0.0000000 5.6057623 2.9389667 0.2577548
47 45.774700 0.0000000 0.0000000 7.4059575 3.8726409 0.3076646
48 48.623800 0.0000000 0.0000000 8.4298330 4.4028080 0.3352364
49 51.470600 0.0000000 0.0000000 9.4906283 4.9535582 0.3653657
50 57.692300 0.0000000 0.0000000 12.182100 6.3485925 0.4393349
51 64.516100 0.0000000 0.0000000 15.664451 8.1600259 0.5359159
52 72.033900 0.0000000 0.0000000 19.891982 10.350128 0.6511809
53 80.357100 0.0000000 0.0000000 25.332523 13.168759 0.7981750
54 89.622600 0.0000000 0.0000000 32.864735 17.085570 0.9969780
55 87.571400 14.148800 19.233000 32.191655 17.653930 4.2514288
56 28.671900 13.665200 0.0000000 3.3786114 2.7053156 0.3930435
57 31.706600 18.338900 15.555800 4.8618790 4.0570259 2.7181737
58 0.0000000 10.204100 0.0000000 0.4233552 0.8043932 0.2303587
59 0.0000000 13.157900 0.0000000 0.6287220 1.2247723 0.3057988
60 0.0000000 16.304300 0.0000000 0.8830494 1.7443584 0.3961668
61 0.0000000 19.662900 0.0000000 1.1647095 2.3225195 0.4971755
62 0.0000000 23.255800 0.0000000 1.5290368 3.0691527 0.6280035
63 0.0000000 27.108400 0.0000000 2.0222195 4.0969679 0.8078272
64 0.0000000 31.250000 0.0000000 2.7328878 5.5302393 1.0586539
65 0.0000000 35.714300 0.0000000 3.5496950 7.1953687 1.3494221
66 0.0000000 40.540500 0.0000000 4.5790052 9.3242232 1.7211282
67 0.0000000 45.774700 0.0000000 6.0363586 12.307539 2.2451463
68 0.0000000 51.470600 0.0000000 7.7431180 15.798310 2.8527495
69 0.0000000 57.692300 0.0000000 10.029770 20.436981 3.6613557
70 0.0000000 64.516100 0.0000000 12.918230 26.350052 4.6918799
71 0.0000000 72.033900 0.0000000 16.453601 33.599094 5.9503132
72 0.0000000 80.357100 0.0000000 20.955892 42.806646 7.5399516
73 28.699300 86.207600 0.0000000 27.372704 51.738138 8.9066459
74 29.123200 100.00000 87.608400 50.877489 77.481605 82.590244
75 0.0000000 88.015400 100.00000 44.144108 60.179810 104.87280
76 73.500300 89.016100 100.00000 65.729733 72.664163 105.74910
77 86.909200 100.00000 100.00000 83.647297 94.006509 108.73310
78 0.0000000 0.0000000 10.204100 0.2515719 0.1388810 1.0849920
79 0.0000000 0.0000000 13.157900 0.3646592 0.1847180 1.6666612
80 0.0000000 0.0000000 16.304300 0.5001681 0.2396760 2.3735411
81 0.0000000 0.0000000 19.662900 0.6522420 0.3013870 3.1668365
82 0.0000000 0.0000000 23.255800 0.8473350 0.3805141 4.1860308
83 0.0000000 0.0000000 27.108400 1.1132536 0.4884961 5.5784119
84 0.0000000 0.0000000 31.250000 1.4743689 0.6347581 7.4665451
85 0.0000000 0.0000000 35.714300 1.8994629 0.8088452 9.6913381
86 0.0000000 0.0000000 40.540500 2.4649062 1.0364402 12.636528
87 0.0000000 0.0000000 45.774700 3.2368592 1.3518283 16.665095
88 0.0000000 0.0000000 51.470600 4.1379304 1.7196614 21.370342
89 0.0000000 0.0000000 57.692300 5.3176900 2.2012925 27.522214
90 0.0000000 0.0000000 64.516100 6.8544377 2.8306486 35.528155
91 0.0000000 0.0000000 72.033900 8.7537444 3.6047878 45.433549
92 0.0000000 0.0000000 80.357100 11.119760 4.5693221 57.736022
93 35.901900 0.0000000 100.00000 22.853973 9.9133233 95.791527
94 38.672700 45.810600 100.00000 29.806654 22.886841 98.077727
95 59.142800 68.029700 100.00000 45.967878 43.997777 101.26590
96 80.877000 79.686300 100.00000 64.844103 63.189161 103.83660
97 0.0000000 2.3364000 0.0000000 0.0951259 0.1370160 0.0881681
98 3.1447000 3.1447000 3.1447000 0.2212054 0.2317520 0.2720050
99 3.9683000 3.9683000 3.9683000 0.2868142 0.3016250 0.3513173
100 4.8077000 4.8077000 4.8077000 0.3572719 0.3753351 0.4387652
101 5.6634000 5.6634000 5.6634000 0.4325751 0.4559791 0.5311013
102 6.5359000 6.5359000 6.5359000 0.5557533 0.5879801 0.6796892
103 7.4257000 7.4257000 7.4257000 0.6517373 0.6890241 0.7919813
104 8.3333000 8.3333000 8.3333000 0.7511190 0.7953242 0.9129830
105 9.2593000 9.2593000 9.2593000 0.9210176 0.9755322 1.1173135
106 10.204100 10.204100 10.204100 1.0485229 1.1134352 1.2699553
107 11.168400 11.168400 11.168400 1.1782943 1.2497253 1.4236813
108 12.152800 12.152800 12.152800 1.3879426 1.4715223 1.6763978
109 13.157900 13.157900 13.157900 1.6154094 1.7131794 1.9466023
110 14.184400 14.184400 14.184400 1.7764896 1.8843844 2.1354839
111 15.233000 15.233000 15.233000 2.0364616 2.1631525 2.4423073
112 16.304300 16.304300 16.304300 2.3114053 2.4530686 2.7659358
113 17.399300 17.399300 17.399300 2.5027534 2.6536776 2.9863296
114 18.518500 18.518500 18.518500 2.7962435 2.9636097 3.3327663
115 19.662900 19.662900 19.662900 3.0938541 3.2817597 3.6772580
116 20.833300 20.833300 20.833300 3.4365045 3.6334468 4.0718909
117 22.030700 22.030700 22.030700 3.7774428 3.9850429 4.4582361
118 23.255800 23.255800 23.255800 4.1279500 4.3566710 4.8680114
119 24.509800 24.509800 24.509800 4.5110891 4.7546211 5.2976752
120 25.793600 25.793600 25.793600 5.0754133 5.3563042 5.9257698
121 27.108400 27.108400 27.108400 5.5620934 5.8602324 6.4654412
122 28.455300 28.455300 28.455300 6.2291646 6.5678675 7.1997964
123 29.835400 29.835400 29.835400 6.7736278 7.1337657 7.8050966
124 31.250000 31.250000 31.250000 7.5403329 7.9296809 8.6664459
125 32.700400 32.700400 32.700400 8.0982551 8.5413400 9.3294160
126 34.188000 34.188000 34.188000 8.9571123 9.4252942 10.282496
127 35.714300 35.714300 35.714300 9.7809685 10.310918 11.236146
128 37.280700 37.280700 37.280700 10.727610 11.292949 12.325437
129 38.888900 38.888900 38.888900 11.689360 12.310619 13.415107
130 40.540500 40.540500 40.540500 12.723790 13.390729 14.640617
131 42.237400 42.237400 42.237400 14.119761 14.850530 16.229398
132 43.981500 43.981500 43.981500 15.290051 16.080200 17.545948
133 45.774700 45.774700 45.774700 16.795081 17.646150 19.270758
134 47.619100 47.619100 47.619100 18.070291 18.992031 20.768879
135 49.516900 49.516900 49.516900 19.731732 20.753531 22.675789
136 51.470600 51.470600 51.470600 21.485092 22.603061 24.673390
137 53.482600 53.482600 53.482600 23.347523 24.558742 26.807010
138 55.555600 55.555600 55.555600 25.670233 27.037872 29.486021
139 57.692300 57.692300 57.692300 27.710344 29.197183 31.801561
140 59.895800 59.895800 59.895800 30.272454 31.896704 34.752432
141 62.169300 62.169300 62.169300 32.866815 34.649974 37.749013
142 64.516100 64.516100 64.516100 35.662156 37.597435 40.972304
143 66.939900 66.939900 66.939900 38.520606 40.607036 44.286284
144 69.444400 69.444400 69.444400 41.648657 43.908297 47.872855
145 72.033900 72.033900 72.033900 45.322688 47.823617 52.231546
146 74.712600 74.712600 74.712600 49.153839 51.896568 56.681087
147 77.485400 77.485400 77.485400 53.218960 56.179549 61.311799
148 80.357100 80.357100 80.357100 57.596231 60.770321 66.214720
149 83.333300 83.333300 83.333300 62.241742 65.607382 71.389491
150 86.419700 86.419700 86.419700 67.767953 71.394793 77.744642
151 89.622600 89.622600 89.622600 74.491175 78.430305 85.506864
152 92.948700 92.948700 92.948700 80.297886 84.530086 92.316006
153 96.405200 96.405200 96.405200 87.564398 92.113898 100.71340
154 54.915900 0.0000000 78.520100 21.495022 10.015578 55.041287
155 58.979600 0.0000000 100.00000 31.219565 14.245999 96.053507
156 63.995900 0.0000000 68.264900 23.007043 11.116129 40.539674
157 78.970100 0.0000000 100.00000 42.653037 20.169901 96.385907
158 79.399700 28.965900 100.00000 45.349678 25.181422 97.289637
159 0.0000000 100.00000 80.315000 45.648638 74.965474 70.124301
160 0.0000000 100.00000 100.00000 52.902010 78.004295 107.89250
161 38.819500 100.00000 100.00000 58.214821 80.781375 108.08440
162 68.038200 100.00000 100.00000 70.532304 87.190277 108.41140
163 0.0000000 40.590100 41.307600 7.2576739 10.638449 14.949787
164 0.0000000 57.528900 54.337100 14.763201 22.470001 28.081081
165 0.0000000 73.858600 62.079700 23.533333 37.904605 38.625993
166 0.0000000 70.687700 76.896400 25.793983 36.261945 57.953528
167 0.0000000 76.965400 100.00000 37.401376 46.440507 102.47990
168 31.445600 78.907000 100.00000 41.959977 50.567448 103.02320
169 55.399900 89.807700 100.00000 56.808911 68.869873 105.68590
170 76.608100 54.858700 63.605800 38.301666 32.985164 38.317473
171 100.00000 61.899800 71.183100 62.694552 49.747708 50.231376
172 65.989000 50.806400 40.504900 26.548524 25.243412 16.078038
173 79.592700 59.164900 53.370400 40.060957 36.680575 28.068861
174 45.496400 100.00000 0.0000000 41.866197 74.259684 12.408907
175 65.657700 100.00000 22.470100 51.544020 79.197855 16.692958
176 82.599400 100.00000 42.621100 64.585533 85.760637 27.612420
177 82.320200 100.00000 61.611100 67.662763 86.976157 45.253965
178 100.00000 100.00000 64.105100 83.511947 95.148629 48.546625
179 0.0000000 89.622600 0.0000000 27.070724 55.263309 9.6884111
180 0.0000000 100.00000 32.710600 36.067336 71.061253 20.326579
181 33.928300 100.00000 50.585800 42.540937 74.162684 33.281662
182 100.00000 49.772400 0.0000000 49.475389 36.806465 3.8277147
183 100.00000 68.048200 0.0000000 56.787111 51.748818 6.4295053
184 100.00000 100.00000 0.0000000 76.720506 92.349578 13.357687
185 100.00000 100.00000 37.940600 78.932766 93.274138 24.801060
186 64.398700 100.00000 56.485400 55.278200 80.667065 39.357363
187 71.578500 100.00000 76.223900 64.223943 84.788316 64.206469
188 0.0000000 0.0000000 0.0000000 0.0570751 0.0599899 0.0654127
189 0.0000000 78.154000 30.470900 20.999612 40.645216 14.156547
190 0.0000000 100.00000 57.363600 39.768297 72.546523 39.548723
191 100.00000 100.00000 100.00000 95.169290 99.990570 109.11050
192 28.024800 46.234700 0.0000000 8.7362742 13.935209 2.3666764
193 50.305500 62.592000 0.0000000 21.139212 29.421883 4.6641379
194 52.435200 75.899300 38.861800 30.904255 44.151227 18.730188
195 66.693000 88.803300 41.630900 45.759078 63.525341 23.540059
196 0.0000000 22.099500 35.038400 3.1766394 3.5572618 9.8192621
197 0.0000000 22.485300 46.143700 4.7120621 4.2436760 17.554144
198 0.0000000 28.198100 63.910800 8.8744053 7.2114617 35.480362
199 60.827600 27.491300 71.214800 24.417933 14.934850 45.746815
200 0.0000000 10.720000 21.362100 1.1305826 1.1344782 3.7949087
201 0.0000000 11.170500 34.740700 2.2454832 1.6267654 9.4832587
202 100.00000 0.0000000 48.238500 45.821918 23.380342 20.010449
203 100.00000 0.0000000 63.331100 48.702829 24.561542 35.072152
204 100.00000 28.837600 64.403600 51.372579 29.509513 37.515523
205 100.00000 46.284800 78.478100 59.024751 39.030405 58.397878
206 50.583600 0.0000000 16.378500 9.6575644 4.9915652 2.6887801
207 58.212800 14.381400 26.537500 14.139221 8.2828180 6.1100852
208 63.468500 34.322100 44.343500 21.495532 15.918870 17.312428
209 0.0000000 37.279300 17.696800 4.3973802 8.1374879 4.0998188
210 0.0000000 48.119300 35.255700 8.5781202 14.531839 11.959707
211 43.141700 62.893500 38.162800 20.844792 29.088423 15.822148
212 42.272800 66.913700 69.192200 28.258734 35.207204 46.527045
213 100.00000 78.087700 84.659100 74.479365 67.372992 73.587761
214 100.00000 0.0000000 100.00000 60.581192 29.468943 96.902207
215 100.00000 26.936200 100.00000 62.662232 33.707004 97.621137
216 100.00000 46.401000 100.00000 66.905253 42.371646 99.151538
217 0.0000000 7.4257000 0.0000000 0.2767054 0.5039361 0.1731667
218 0.0000000 11.303300 12.457300 0.7756723 1.0694192 1.7050684
219 100.00000 0.0000000 0.0000000 42.199757 21.907801 1.2246831
220 100.00000 0.0000000 19.732500 42.810137 22.159761 4.4029618
221 100.00000 0.0000000 33.985100 43.910108 22.614451 10.196066
222 100.00000 28.183900 47.567500 47.932069 27.890303 20.235169
223 0.0000000 0.0000000 0.0000000 0.0570948 0.0599885 0.0654507
224 0.0000000 0.0000000 2.3364000 0.0769086 0.0681286 0.1703188
225 0.0000000 0.0000000 89.622600 14.370131 5.9154214 74.697571
226 30.868400 33.133300 100.00000 24.726333 15.522240 96.944407
227 0.0000000 22.757200 77.885300 11.853250 7.2483167 54.598607
228 0.0000000 40.937100 80.760800 15.912111 14.189819 60.089538
229 32.083000 67.733300 100.00000 36.425206 38.994125 101.01060
230 100.00000 77.358200 100.00000 79.921926 68.979693 103.79400
231 28.302700 19.223600 38.942600 6.0483195 4.5720891 12.238765
232 28.114400 31.811900 47.644400 8.9832253 8.5670190 19.237678
233 38.441200 32.782700 67.657700 15.774181 11.965529 40.981694
234 51.015400 40.972400 89.476000 28.427984 20.446151 76.131132
235 60.294600 55.809600 100.00000 41.415267 33.871874 99.489168
236 81.028800 0.0000000 51.995900 30.224774 15.229650 23.011429
237 100.00000 0.0000000 77.724600 52.483160 26.115072 54.792567
238 100.00000 28.724800 82.541800 56.235591 31.411754 63.159939
239 16.311800 0.0000000 10.886400 1.2423195 0.6490151 1.2781506
240 29.922300 0.0000000 27.706900 4.1255132 2.0432905 6.0300637
241 48.540300 0.0000000 36.585500 10.392650 5.2046372 10.461436
242 72.564000 31.669300 40.201100 25.430343 17.236530 14.374997
243 100.00000 100.00000 100.00000 95.161740 99.972750 109.11030
244 73.695700 79.342700 0.0000000 41.161837 52.322169 7.8918877
245 75.742400 100.00000 0.0000000 56.595411 81.891186 12.810197
246 0.0000000 100.00000 0.0000000 34.522495 70.397883 12.229807
247 29.495300 100.00000 22.503100 38.224536 72.280783 16.282108
248 50.792200 100.00000 71.883500 52.659850 78.893675 57.715338
249 68.947000 0.0000000 55.908400 23.087103 11.457209 26.545540
250 79.469700 30.092700 68.713500 35.153396 21.273671 42.336714
251 7.4257000 0.0000000 0.0000000 0.3101550 0.1907760 0.0868535
252 10.204100 0.0000000 0.0000000 0.4779175 0.2774330 0.0979283
253 13.157900 0.0000000 0.0000000 0.7163769 0.4009341 0.1109545
254 16.304300 0.0000000 0.0000000 1.0134974 0.5549171 0.1239003
255 30.162100 55.117900 100.00000 30.742225 28.057173 99.146968
256 0.0000000 0.0000000 100.00000 18.425082 7.5962708 95.729717
257 0.0000000 23.177200 100.00000 19.916512 10.678729 96.302337
258 0.0000000 40.510900 100.00000 23.042853 17.035980 97.403317
259 0.0000000 54.350100 100.00000 27.302354 25.781632 98.934828
260 0.0000000 66.098000 100.00000 32.050525 35.506704 100.65650
261 0.0000000 83.281600 55.115000 27.517964 48.274278 33.348232
262 20.046600 86.915300 67.315800 34.116705 55.263319 48.224145
263 61.923800 25.107500 0.0000000 15.992521 10.954179 1.1114740
264 75.430600 46.922400 0.0000000 28.171684 24.381922 2.9797915
265 83.130900 78.139100 51.807900 51.387809 56.197769 29.854491
266 40.195500 40.605300 0.0000000 10.168980 12.415369 1.9198922
267 42.002000 40.693900 31.170500 12.274300 13.403519 9.3019440
268 54.030700 52.912600 64.310600 25.818283 25.387022 38.652533
269 0.0000000 0.0000000 4.8077000 0.1149570 0.0835725 0.3693460
270 0.0000000 0.0000000 7.4257000 0.1718718 0.1066880 0.6705136
271 34.150200 0.0000000 16.694500 4.4241374 2.2730375 2.6380586
272 38.145600 15.349400 22.637800 6.4974275 4.4402700 4.5632756
273 56.762900 16.743500 38.847000 15.018581 8.9017201 12.400847
274 0.0000000 4.8077000 0.0000000 0.1667390 0.2813040 0.1252796
275 0.0000000 22.508000 13.554400 1.7777247 3.0456507 2.2943263
276 22.138500 36.544700 17.885600 5.9067665 8.6858030 4.2164688
277 58.168200 32.639400 23.059300 16.177711 12.812629 5.6958592
278 100.00000 46.362500 27.014800 49.537189 35.121834 9.1422830
279 100.00000 52.592600 49.665200 54.395010 40.411936 24.514610
280 29.843400 24.241700 0.0000000 4.6080782 4.9004721 0.7614247
281 52.699800 36.070800 0.0000000 13.565100 12.568309 1.6644912
282 55.563300 37.021300 17.645100 15.662301 13.878429 4.4233988
283 100.00000 60.018100 21.911500 54.024110 44.847637 9.1011740
284 100.00000 73.895400 31.379500 61.043542 58.025420 15.059337
285 32.710500 45.501900 37.530400 11.667140 14.916700 13.278017
286 40.375300 50.032900 71.482700 21.648842 21.607611 47.396285
287 56.246100 60.487000 83.457700 34.890866 33.867994 67.559630
288 100.00000 63.531400 85.601900 67.570493 52.808059 72.406721
289 100.00000 100.00000 86.566000 89.967119 97.803609 82.333884
290 14.111600 16.691200 0.0000000 1.6531207 2.2016145 0.4304949
291 20.007800 30.300300 0.0000000 3.8814390 5.8478594 1.0285960
292 28.723100 35.406300 41.303000 8.7736942 9.5893483 14.637147
293 0.7645000 0.7645000 0.7645000 0.0721271 0.0760011 0.0851206
294 1.5432000 1.5432000 1.5432000 0.1093354 0.1150050 0.1322388
295 2.3364000 2.3364000 2.3364000 0.1614261 0.1692820 0.1973464
296 0.0000000 56.701700 22.927800 10.490150 20.172731 7.5907826
297 44.729600 72.388600 63.990500 30.500294 40.604916 41.056484
298 80.920400 30.846800 0.0000000 28.272154 18.732850 1.7494932
299 100.00000 30.670100 0.0000000 44.767348 27.198302 2.1477703
300 100.00000 85.598300 26.459300 67.396943 71.708603 15.192087
301 100.00000 87.840700 70.830000 76.474086 78.058865 54.573617
302 13.481800 0.0000000 20.362600 1.3633034 0.6645531 3.4500841
303 22.063500 0.0000000 38.129500 3.7867465 1.7542004 11.228796
304 35.731500 17.009500 61.749100 11.387680 6.5876835 32.486741
305 54.367000 24.719600 100.00000 31.013695 16.755720 96.687767
306 82.402200 52.027100 100.00000 53.466380 38.188125 99.422688
307 43.537900 12.869300 73.614200 16.393071 8.3608220 48.205445
308 78.327400 30.744100 85.235600 39.227377 22.969531 67.536700
309 17.303600 62.416200 51.766000 17.209301 26.692462 26.211890
310 15.263100 78.111000 88.414400 34.305465 46.231897 78.784973
311 43.595300 85.635500 88.739700 44.769618 58.508260 81.368183
312 30.263500 63.960100 0.0000000 15.623091 27.257233 4.6628889
313 53.499900 82.400600 0.0000000 32.450045 50.596508 8.2533568
314 15.740600 22.479200 27.148400 3.4268757 3.8335759 6.1923478
315 25.672600 22.514300 32.411700 5.1336973 4.6647321 8.7096595
316 44.265900 87.024300 38.926200 34.381455 55.961859 20.959399
317 73.190200 89.617100 66.982700 55.242060 69.149343 49.040446
318 89.594500 100.00000 76.649600 77.138886 91.452128 65.162889
319 17.884100 52.721900 34.443300 11.099230 18.031720 12.161167
320 21.752800 70.978500 50.547600 21.510512 34.998954 26.602800
321 65.775300 72.557900 89.670600 47.544289 48.664808 81.341563
322 3.8891000 17.257400 23.807000 1.9009523 2.2941995 4.8126327
323 15.149300 23.674300 37.884600 4.5908661 4.5156570 11.807074
324 15.002200 33.219700 47.397200 7.3772779 8.1701389 19.210268
325 35.583800 50.155600 49.915600 15.602651 18.945551 22.935079
326 67.730800 63.765000 71.889900 38.769796 38.441845 50.180786
327 79.664700 66.702000 75.987900 48.518629 45.227167 56.986467
328 90.288300 68.627000 84.378000 60.420902 52.583069 70.790771
329 80.740200 29.038800 25.322700 28.942104 18.492950 6.6310074
330 81.912900 22.130400 8.9255000 28.078314 16.668510 2.1587663
331 91.111900 43.862100 12.562000 39.633997 28.988693 4.4777739
332 63.180500 35.788300 7.4459000 18.553882 15.033630 2.3910844
333 68.707400 46.919400 21.030700 24.982093 22.675391 6.4959563
334 73.113000 46.661300 32.245400 28.223574 24.094152 10.823256
335 42.425700 30.445600 7.7091000 8.9477393 8.5746670 1.8553712
336 58.046300 46.766300 10.409800 18.882222 19.366091 3.7875717
337 64.259600 70.301400 12.980700 31.353975 39.944816 7.6205006
338 79.805400 74.077700 14.538400 42.997137 49.018828 8.9399359
339 100.00000 83.862400 0.0000000 65.358563 69.246403 9.4737061
340 100.00000 26.731500 18.307400 44.714768 26.173882 4.8159319
341 100.00000 32.249100 35.085700 46.921578 28.584223 11.700007
342 0.0000000 0.0000000 0.0000000 0.0571035 0.0600168 0.0654577
343 32.431100 0.0000000 57.524900 8.8935429 4.0492119 27.770712
344 38.944100 56.734900 65.158800 21.945622 25.546582 39.937623
345 54.348900 62.309200 73.841300 32.075995 33.937714 52.517936
346 74.972500 68.947800 27.677900 37.714756 42.288526 11.980487
347 77.096100 83.646100 33.444600 47.760839 59.566750 17.462928
348 85.440100 91.301600 51.933100 61.731762 74.456424 32.902482
349 100.00000 100.00000 100.00000 95.132910 99.946860 109.11030
350 90.251600 56.246800 6.1817000 42.755177 36.624115 4.8614749
351 88.617100 88.068300 13.474700 58.298271 69.838823 11.856797
352 91.766900 87.676500 41.306900 62.831512 71.576113 23.595449
353 33.202200 38.444000 10.746000 8.1418861 10.536268 2.7810864
354 45.905400 42.185000 17.894300 13.096150 14.534419 4.8750080
355 78.316300 47.525400 52.596200 34.869166 27.611103 25.730720
