HP/HP Elitebook 835 G7/27531 #1 2020-09-28 22-23 0.3127x 0.329y sRGB F-S XYZLUT+MTX/27531 #1 2020-09-28 22-23 0.3127x 0.329y sRGB F-S XYZLUT+MTX.ti1
CTI1   

DESCRIPTOR "Argyll Calibration Target chart information 1"
ORIGINATOR "Argyll targen"
CREATED "Mon Sep 28 22:28:08 2020"
APPROX_WHITE_POINT "95.164209 99.999885 109.001225"
COLOR_REP "RGB"
ACCURATE_EXPECTED_VALUES "true"
DARK_REGION_EMPHASIS "1.6"
WHITE_COLOR_PATCHES "4"
BLACK_COLOR_PATCHES "4"
SINGLE_DIM_STEPS "21"
COMP_GREY_STEPS "61"
OFPS_PATCHES "435"

NUMBER_OF_FIELDS 7
BEGIN_DATA_FORMAT
SAMPLE_ID RGB_R RGB_G RGB_B XYZ_X XYZ_Y XYZ_Z
END_DATA_FORMAT

NUMBER_OF_SETS 588
BEGIN_DATA
1 100.00000 100.00000 100.00000 95.164210 99.999880 109.00120
2 1.9608000 1.9608000 1.9608000 1.1428000 1.1502000 1.1637000
3 3.9216000 3.9216000 3.9216000 1.2856000 1.3005000 1.3273000
4 5.8824000 5.8824000 5.8824000 1.4495000 1.4729000 1.5152000
5 9.8039000 9.8039000 9.8039000 1.9148000 1.9624000 2.0484000
6 13.726000 13.726000 13.726000 2.5817000 2.6639000 2.8126000
7 17.647000 17.647000 17.647000 3.4695000 3.5979000 3.8300000
8 21.569000 21.569000 21.569000 4.5953000 4.7822000 5.1201000
9 25.490000 25.490000 25.490000 5.9745000 6.2332000 6.7007000
10 29.412000 29.412000 29.412000 7.6213000 7.9656000 8.5879000
11 33.333000 33.333000 33.333000 9.5488000 9.9933000 10.797000
12 37.255000 37.255000 37.255000 11.769000 12.329000 13.341000
13 41.176000 41.176000 41.176000 14.294000 14.985000 16.234000
14 45.098000 45.098000 45.098000 17.134000 17.973000 19.489000
15 49.020000 49.020000 49.020000 20.299000 21.303000 23.117000
16 52.941000 52.941000 52.941000 23.800000 24.986000 27.129000
17 56.863000 56.863000 56.863000 27.646000 29.032000 31.536000
18 60.784000 60.784000 60.784000 31.846000 33.450000 36.349000
19 64.706000 64.706000 64.706000 36.409000 38.250000 41.578000
20 68.627000 68.627000 68.627000 41.343000 43.440000 47.232000
21 72.549000 72.549000 72.549000 46.656000 49.030000 53.321000
22 76.471000 76.471000 76.471000 52.356000 55.027000 59.853000
23 80.392000 80.392000 80.392000 58.452000 61.439000 66.838000
24 84.314000 84.314000 84.314000 64.949000 68.275000 74.285000
25 88.235000 88.235000 88.235000 71.857000 75.541000 82.200000
26 92.157000 92.157000 92.157000 79.181000 83.246000 90.594000
27 96.078000 96.078000 96.078000 86.929000 91.397000 99.472000
28 45.850100 0.0000000 50.355100 11.469220 5.5463210 21.006260
29 51.960600 39.417500 55.439800 19.102890 16.102360 27.457890
30 73.303300 0.0000000 17.096500 21.162330 10.948120 3.1692340
31 76.746400 0.0000000 32.207000 24.407420 12.517690 8.6813500
32 100.00000 61.113300 39.907200 56.152050 46.385360 17.765220
33 100.00000 71.773500 66.363200 65.925310 58.381410 44.896380
34 59.273300 54.101600 0.0000000 21.820810 24.713560 3.5477810
35 69.273000 57.339600 25.060900 29.215380 30.287920 8.9707340
36 0.0000000 36.797500 58.132300 9.3083700 10.063790 29.789370
37 0.0000000 62.578700 80.702800 23.404160 29.379490 62.921860
38 34.164900 72.304100 84.521100 33.166510 41.247370 71.120550
39 100.00000 89.385500 100.00000 87.446980 84.245140 106.28800
40 4.8077000 0.0000000 0.0000000 0.1949650 0.1296080 0.1077160
41 19.662900 0.0000000 0.0000000 1.3789130 0.7434060 0.1402690
42 23.255800 0.0000000 0.0000000 1.8553620 0.9904140 0.1533700
43 27.108400 0.0000000 0.0000000 2.4989520 1.3240730 0.1710660
44 31.250000 0.0000000 0.0000000 3.3447030 1.7625390 0.1943210
45 35.714300 0.0000000 0.0000000 4.4042660 2.3118530 0.2234550
46 40.540500 0.0000000 0.0000000 5.7429380 3.0058660 0.2602630
47 45.774700 0.0000000 0.0000000 7.4687820 3.9006030 0.3077160
48 48.623800 0.0000000 0.0000000 8.5068500 4.4387730 0.3362590
49 51.470600 0.0000000 0.0000000 9.6047510 5.0079620 0.3664470
50 57.692300 0.0000000 0.0000000 12.297450 6.4039500 0.4404850
51 64.516100 0.0000000 0.0000000 15.647950 8.1409630 0.5326110
52 72.033900 0.0000000 0.0000000 19.916730 10.354050 0.6499850
53 80.357100 0.0000000 0.0000000 25.421120 13.207710 0.8013330
54 89.622600 0.0000000 0.0000000 32.738480 17.001280 1.0025310
55 87.571400 14.148800 19.233000 32.295570 17.691320 4.2397410
56 28.671900 13.665200 0.0000000 3.4085270 2.7220060 0.3931950
57 31.706600 18.338900 15.555800 4.8606770 4.0384070 2.6742640
58 0.0000000 10.204100 0.0000000 0.4332900 0.8210200 0.2351000
59 0.0000000 13.157900 0.0000000 0.6302660 1.2231480 0.3043530
60 0.0000000 16.304300 0.0000000 0.8834500 1.7400250 0.3933690
61 0.0000000 19.662900 0.0000000 1.1956510 2.3773840 0.5031330
62 0.0000000 23.255800 0.0000000 1.5811410 3.1643640 0.6386650
63 0.0000000 27.108400 0.0000000 2.0904170 4.2040530 0.8177170
64 0.0000000 31.250000 0.0000000 2.7722740 5.5960660 1.0574460
65 0.0000000 35.714300 0.0000000 3.6353270 7.3579940 1.3608800
66 0.0000000 40.540500 0.0000000 4.7295610 9.5918760 1.7455940
67 0.0000000 45.774700 0.0000000 6.1335780 12.458180 2.2392210
68 0.0000000 51.470600 0.0000000 7.9215310 16.108300 2.8678340
69 0.0000000 57.692300 0.0000000 10.185890 20.731000 3.6639450
70 0.0000000 64.516100 0.0000000 12.991940 26.459550 4.6504990
71 0.0000000 72.033900 0.0000000 16.580140 33.784890 5.9120500
72 0.0000000 80.357100 0.0000000 21.127830 43.069010 7.5109360
73 28.699300 86.207600 0.0000000 27.524000 51.945410 8.8699780
74 29.123200 100.00000 87.608400 51.003800 77.621240 82.998030
75 0.0000000 88.015400 100.00000 44.323900 60.493560 104.80540
76 73.500300 89.016100 100.00000 65.735840 72.613250 105.61100
77 86.909200 100.00000 100.00000 83.425480 93.914130 108.67850
78 0.0000000 0.0000000 10.204100 0.2594700 0.1416020 1.1406180
79 0.0000000 0.0000000 13.157900 0.3659990 0.1853490 1.6954800
80 0.0000000 0.0000000 16.304300 0.5025410 0.2414230 2.4066700
81 0.0000000 0.0000000 19.662900 0.6697620 0.3100950 3.2776540
82 0.0000000 0.0000000 23.255800 0.8748150 0.3943030 4.3456880
83 0.0000000 0.0000000 27.108400 1.1410000 0.5036170 5.7321330
84 0.0000000 0.0000000 31.250000 1.4950130 0.6489980 7.5760390
85 0.0000000 0.0000000 35.714300 1.9521690 0.8367370 9.9571680
86 0.0000000 0.0000000 40.540500 2.5350060 1.0760890 12.992920
87 0.0000000 0.0000000 45.774700 3.2866950 1.3847830 16.908160
88 0.0000000 0.0000000 51.470600 4.2280690 1.7713740 21.811370
89 0.0000000 0.0000000 57.692300 5.4128200 2.2579110 27.982240
90 0.0000000 0.0000000 64.516100 6.8938740 2.8661310 35.696420
91 0.0000000 0.0000000 72.033900 8.8069580 3.6517720 45.660870
92 0.0000000 0.0000000 80.357100 11.196740 4.6331750 58.108220
93 35.901900 0.0000000 100.00000 22.805090 9.8736440 95.816430
94 38.672700 45.810600 100.00000 29.632100 22.678610 97.975720
95 59.142800 68.029700 100.00000 45.871280 43.976820 101.16280
96 80.877000 79.686300 100.00000 64.830340 63.146760 103.67170
97 0.0000000 2.3364000 0.0000000 0.0974992 0.1355030 0.1170420
98 3.1447000 3.1447000 3.1447000 0.2205570 0.2298560 0.2880340
99 3.9683000 3.9683000 3.9683000 0.2903420 0.3043610 0.3690970
100 4.8077000 4.8077000 4.8077000 0.3702930 0.3891240 0.4624620
101 5.6634000 5.6634000 5.6634000 0.4578650 0.4818340 0.5660050
102 6.5359000 6.5359000 6.5359000 0.5554680 0.5858230 0.6816420
103 7.4257000 7.4257000 7.4257000 0.6610100 0.6981380 0.8069110
104 8.3333000 8.3333000 8.3333000 0.7826560 0.8281610 0.9513330
105 9.2593000 9.2593000 9.2593000 0.9148100 0.9689580 1.1088170
106 10.204100 10.204100 10.204100 1.0613680 1.1251900 1.2834990
107 11.168400 11.168400 11.168400 1.2212470 1.2954610 1.4736020
108 12.152800 12.152800 12.152800 1.3984790 1.4834920 1.6841770
109 13.157900 13.157900 13.157900 1.5916150 1.6886160 1.9138480
110 14.184400 14.184400 14.184400 1.8026150 1.9127410 2.1630300
111 15.233000 15.233000 15.233000 2.0299780 2.1539290 2.4322780
112 16.304300 16.304300 16.304300 2.2758080 2.4142280 2.7221510
113 17.399300 17.399300 17.399300 2.5386580 2.6928600 3.0310320
114 18.518500 18.518500 18.518500 2.8213040 2.9916970 3.3626090
115 19.662900 19.662900 19.662900 3.1234210 3.3111420 3.7130220
116 20.833300 20.833300 20.833300 3.4492350 3.6542470 4.0890620
117 22.030700 22.030700 22.030700 3.8028050 4.0244950 4.4928570
118 23.255800 23.255800 23.255800 4.1904130 4.4293380 4.9296890
119 24.509800 24.509800 24.509800 4.6158920 4.8727860 5.4060410
120 25.793600 25.793600 25.793600 5.0867750 5.3643520 5.9309340
121 27.108400 27.108400 27.108400 5.6094640 5.9120000 6.5128820
122 28.455300 28.455300 28.455300 6.1828230 6.5140280 7.1530210
123 29.835400 29.835400 29.835400 6.8107560 7.1741580 7.8555960
124 31.250000 31.250000 31.250000 7.4910850 7.8878610 8.6197710
125 32.700400 32.700400 32.700400 8.2259750 8.6588060 9.4542590
126 34.188000 34.188000 34.188000 9.0176240 9.4902530 10.356160
127 35.714300 35.714300 35.714300 9.8708570 10.386840 11.333470
128 37.280700 37.280700 37.280700 10.794110 11.357660 12.392450
129 38.888900 38.888900 38.888900 11.793850 12.407960 13.538740
130 40.540500 40.540500 40.540500 12.886600 13.554090 14.790740
131 42.237400 42.237400 42.237400 14.075300 14.799670 16.154500
132 43.981500 43.981500 43.981500 15.368210 16.154830 17.638180
133 45.774700 45.774700 45.774700 16.768150 17.623820 19.247060
134 47.619100 47.619100 47.619100 18.274380 19.209760 20.977870
135 49.516900 49.516900 49.516900 19.892270 20.920720 22.837460
136 51.470600 51.470600 51.470600 21.633450 22.767890 24.837620
137 53.482600 53.482600 53.482600 23.518710 24.768390 27.000490
138 55.555600 55.555600 55.555600 25.565180 26.935150 29.345280
139 57.692300 57.692300 57.692300 27.775260 29.273120 31.878630
140 59.895800 59.895800 59.895800 30.145260 31.780640 34.601680
141 62.169300 62.169300 62.169300 32.677990 34.458470 37.521910
142 64.516100 64.516100 64.516100 35.412850 37.346900 40.671500
143 66.939900 66.939900 66.939900 38.404850 40.502010 44.104430
144 69.444400 69.444400 69.444400 41.668870 43.951570 47.892380
145 72.033900 72.033900 72.033900 45.182930 47.670960 52.014870
146 74.712600 74.712600 74.712600 48.947150 51.649520 56.395410
147 77.485400 77.485400 77.485400 53.063550 55.993340 61.084700
148 80.357100 80.357100 80.357100 57.624780 60.790140 66.212460
149 83.333300 83.333300 83.333300 62.637370 66.038730 71.875060
150 86.419700 86.419700 86.419700 68.134460 71.794740 78.145310
151 89.622600 89.622600 89.622600 74.023210 77.965830 84.964840
152 92.948700 92.948700 92.948700 80.387190 84.638740 92.416870
153 96.405200 96.405200 96.405200 87.427250 91.987030 100.47210
154 54.915900 0.0000000 78.520100 21.624020 10.099060 55.508890
155 58.979600 0.0000000 100.00000 31.253870 14.253780 96.048730
156 63.995900 0.0000000 68.264900 23.120420 11.180350 40.862690
157 78.970100 0.0000000 100.00000 42.770360 20.224330 96.365390
158 79.399700 28.965900 100.00000 45.397750 25.121140 97.189760
159 0.0000000 100.00000 80.315000 45.727650 75.149380 70.185520
160 0.0000000 100.00000 100.00000 52.957100 78.118280 107.84070
161 38.819500 100.00000 100.00000 58.133530 80.801910 107.98300
162 68.038200 100.00000 100.00000 70.483820 87.204730 108.32260
163 0.0000000 40.590100 41.307600 7.3186510 10.674920 15.172130
164 0.0000000 57.528900 54.337100 14.814260 22.528420 28.078790
165 0.0000000 73.858600 62.079700 23.799390 38.276480 38.966670
166 0.0000000 70.687700 76.896400 26.005200 36.548400 58.300250
167 0.0000000 76.965400 100.00000 37.533360 46.630640 102.41800
168 31.445600 78.907000 100.00000 41.960520 50.600480 102.89610
169 55.399900 89.807700 100.00000 56.721340 68.748930 105.53530
170 76.608100 54.858700 63.605800 38.468280 33.049470 38.417050
171 100.00000 61.899800 71.183100 62.598330 49.561110 49.767230
172 65.989000 50.806400 40.504900 26.549690 25.160150 16.104520
173 79.592700 59.164900 53.370400 40.078810 36.626150 28.044040
174 45.496400 100.00000 0.0000000 41.914410 74.371190 12.450050
175 65.657700 100.00000 22.470100 51.571160 79.294950 16.688070
176 82.599400 100.00000 42.621100 64.408720 85.735750 27.359930
177 82.320200 100.00000 61.611100 67.616210 87.029890 45.175750
178 100.00000 100.00000 64.105100 83.550140 95.230370 48.508420
179 0.0000000 89.622600 0.0000000 27.046770 55.152540 9.5919310
180 0.0000000 100.00000 32.710600 36.180470 71.228670 20.458280
181 33.928300 100.00000 50.585800 42.520390 74.252840 33.260310
182 100.00000 49.772400 0.0000000 49.566840 36.842980 3.8308410
183 100.00000 68.048200 0.0000000 56.816050 51.642280 6.3795370
184 100.00000 100.00000 0.0000000 76.811470 92.463020 13.409580
185 100.00000 100.00000 37.940600 78.959930 93.345320 24.599980
186 64.398700 100.00000 56.485400 55.239330 80.728680 39.287570
187 71.578500 100.00000 76.223900 64.100460 84.805050 64.412770
188 0.0000000 0.0000000 0.0000000 0.0604522 0.0598715 0.1040170
189 0.0000000 78.154000 30.470900 21.210630 41.015120 14.160390
190 0.0000000 100.00000 57.363600 39.889940 72.752030 39.779380
191 100.00000 100.00000 100.00000 95.164210 99.999880 109.00120
192 28.024800 46.234700 0.0000000 8.8792790 14.085690 2.3581350
193 50.305500 62.592000 0.0000000 21.252920 29.484450 4.6099860
194 52.435200 75.899300 38.861800 30.790240 43.978690 18.665650
195 66.693000 88.803300 41.630900 45.888290 63.801850 23.511430
196 0.0000000 22.099500 35.038400 3.2672940 3.6423900 10.059720
197 0.0000000 22.485300 46.143700 4.7761620 4.3319890 17.710430
198 0.0000000 28.198100 63.910800 8.9511170 7.2932250 35.743000
199 60.827600 27.491300 71.214800 24.396680 14.936380 45.608140
200 0.0000000 10.720000 21.362100 1.1670290 1.1735540 3.9043250
201 0.0000000 11.170500 34.740700 2.2787050 1.6763670 9.5567270
202 100.00000 0.0000000 48.238500 45.886320 23.427580 20.113160
203 100.00000 0.0000000 63.331100 48.829880 24.636410 35.444920
204 100.00000 28.837600 64.403600 51.374640 29.431920 37.529780
205 100.00000 46.284800 78.478100 59.056030 38.982620 58.489560
206 50.583600 0.0000000 16.378500 9.7007210 5.0096970 2.6777020
207 58.212800 14.381400 26.537500 14.240420 8.3099910 6.0839900
208 63.468500 34.322100 44.343500 21.403240 15.813920 17.344940
209 0.0000000 37.279300 17.696800 4.4795630 8.2517910 4.1287690
210 0.0000000 48.119300 35.255700 8.6774960 14.648830 12.076530
211 43.141700 62.893500 38.162800 20.974320 29.299500 15.913250
212 42.272800 66.913700 69.192200 28.281150 35.173260 46.789430
213 100.00000 78.087700 84.659100 74.553020 67.407880 73.503810
214 100.00000 0.0000000 100.00000 60.620290 29.478340 96.856190
215 100.00000 26.936200 100.00000 62.624940 33.570830 97.560990
216 100.00000 46.401000 100.00000 66.876450 42.250310 99.055750
217 0.0000000 7.4257000 0.0000000 0.2834820 0.5151880 0.1824310
218 0.0000000 11.303300 12.457300 0.7799030 1.0748400 1.7084590
219 100.00000 0.0000000 0.0000000 42.267560 21.941480 1.2645430
220 100.00000 0.0000000 19.732500 42.880600 22.193230 4.4576030
221 100.00000 0.0000000 33.985100 43.973370 22.642000 10.149410
222 100.00000 28.183900 47.567500 47.971470 27.862450 20.316060
223 0.0000000 0.0000000 0.0000000 0.0604522 0.0598715 0.1040170
224 0.0000000 0.0000000 2.3364000 0.0798632 0.0678429 0.2051210
225 0.0000000 0.0000000 89.622600 14.358870 5.9317560 74.578420
226 30.868400 33.133300 100.00000 24.672970 15.502330 96.859430
227 0.0000000 22.757200 77.885300 11.914820 7.3137590 54.743300
228 0.0000000 40.937100 80.760800 16.089380 14.416940 60.437690
229 32.083000 67.733300 100.00000 36.282520 38.791080 100.85340
230 100.00000 77.358200 100.00000 79.958690 68.957750 103.65520
231 28.302700 19.223600 38.942600 6.0888930 4.6037520 12.385600
232 28.114400 31.811900 47.644400 9.0247220 8.6120150 19.510260
233 38.441200 32.782700 67.657700 15.715450 11.916880 40.833920
234 51.015400 40.972400 89.476000 28.444790 20.514500 76.234400
235 60.294600 55.809600 100.00000 41.288450 33.783770 99.373370
236 81.028800 0.0000000 51.995900 30.178620 15.214980 23.008000
237 100.00000 0.0000000 77.724600 52.611870 26.189550 55.143720
238 100.00000 28.724800 82.541800 56.378660 31.456710 63.683480
239 16.311800 0.0000000 10.886400 1.2329290 0.6438580 1.2836220
240 29.922300 0.0000000 27.706900 4.1842680 2.0763590 6.0558220
241 48.540300 0.0000000 36.585500 10.465660 5.2398460 10.699630
242 72.564000 31.669300 40.201100 25.451860 17.206620 14.296930
243 100.00000 100.00000 100.00000 95.164210 99.999880 109.00120
244 73.695700 79.342700 0.0000000 41.395250 52.669750 7.8753020
245 75.742400 100.00000 0.0000000 56.761030 82.068190 12.858270
246 0.0000000 100.00000 0.0000000 34.604370 70.581420 12.249050
247 29.495300 100.00000 22.503100 38.280520 72.404420 16.332900
248 50.792200 100.00000 71.883500 52.585870 78.965500 57.846000
249 68.947000 0.0000000 55.908400 23.102140 11.467170 26.617030
250 79.469700 30.092700 68.713500 35.143280 21.222870 42.603250
251 7.4257000 0.0000000 0.0000000 0.3194520 0.1941460 0.1111390
252 10.204100 0.0000000 0.0000000 0.4895130 0.2823110 0.1158150
253 13.157900 0.0000000 0.0000000 0.7162550 0.3998620 0.1220490
254 16.304300 0.0000000 0.0000000 1.0107210 0.5525230 0.1301460
255 30.162100 55.117900 100.00000 30.611470 27.857620 98.996630
256 0.0000000 0.0000000 100.00000 18.413190 7.5967320 95.695670
257 0.0000000 23.177200 100.00000 19.924670 10.682430 96.227080
258 0.0000000 40.510900 100.00000 23.075040 17.113910 97.334690
259 0.0000000 54.350100 100.00000 27.282910 25.704300 98.814100
260 0.0000000 66.098000 100.00000 32.051480 35.439370 100.49070
261 0.0000000 83.281600 55.115000 27.743120 48.680270 33.346480
262 20.046600 86.915300 67.315800 34.113750 55.262530 48.087410
263 61.923800 25.107500 0.0000000 16.074910 11.027910 1.1115490
264 75.430600 46.922400 0.0000000 28.427650 24.531460 2.9618600
265 83.130900 78.139100 51.807900 51.521350 56.407580 29.830760
266 40.195500 40.605300 0.0000000 10.324230 12.516490 1.9045620
267 42.002000 40.693900 31.170500 12.330890 13.436050 9.3610680
268 54.030700 52.912600 64.310600 25.804520 25.404090 38.678330
269 0.0000000 0.0000000 4.8077000 0.1207990 0.0846539 0.4183380
270 0.0000000 0.0000000 7.4257000 0.1789800 0.1085470 0.7213770
271 34.150200 0.0000000 16.694500 4.4769340 2.2999000 2.6113110
272 38.145600 15.349400 22.637800 6.5678110 4.4798040 4.5480650
273 56.762900 16.743500 38.847000 14.989780 8.8683440 12.493600
274 0.0000000 4.8077000 0.0000000 0.1754330 0.2946050 0.1444420
275 0.0000000 22.508000 13.554400 1.8167090 3.1208350 2.2833910
276 22.138500 36.544700 17.885600 5.9645610 8.7780700 4.1669460
277 58.168200 32.639400 23.059300 16.287230 12.903820 5.6685110
278 100.00000 46.362500 27.014800 49.585720 35.130970 9.0510500
279 100.00000 52.592600 49.665200 54.369160 40.358270 24.248360
280 29.843400 24.241700 0.0000000 4.6793960 4.9503850 0.7621080
281 52.699800 36.070800 0.0000000 13.753010 12.717260 1.6633150
282 55.563300 37.021300 17.645100 15.690340 13.978380 4.4053890
283 100.00000 60.018100 21.911500 54.047980 44.794450 8.9706800
284 100.00000 73.895400 31.379500 61.189300 58.211110 14.943270
285 32.710500 45.501900 37.530400 11.769340 15.033560 13.247100
286 40.375300 50.032900 71.482700 21.672750 21.584290 47.626930
287 56.246100 60.487000 83.457700 35.002650 33.981220 67.557010
288 100.00000 63.531400 85.601900 67.632790 52.751330 72.645880
289 100.00000 100.00000 86.566000 90.009590 97.883050 82.152980
290 14.111600 16.691200 0.0000000 1.6571070 2.1926230 0.4256010
291 20.007800 30.300300 0.0000000 3.9646530 5.9600280 1.0361400
292 28.723100 35.406300 41.303000 8.8979800 9.7114230 14.833090
293 0.7645000 0.7645000 0.7645000 0.0744605 0.0745915 0.1200620
294 1.5432000 1.5432000 1.5432000 0.1098080 0.1125660 0.1608780
295 2.3364000 2.3364000 2.3364000 0.1602670 0.1659520 0.2193380
296 0.0000000 56.701700 22.927800 10.598940 20.278790 7.6672950
297 44.729600 72.388600 63.990500 30.515880 40.561200 41.131130
298 80.920400 30.846800 0.0000000 28.477670 18.813870 1.7411010
299 100.00000 30.670100 0.0000000 44.876860 27.268370 2.1819260
300 100.00000 85.598300 26.459300 67.619460 72.015090 15.188400
301 100.00000 87.840700 70.830000 76.481470 78.058880 54.185840
302 13.481800 0.0000000 20.362600 1.3909970 0.6799650 3.4918340
303 22.063500 0.0000000 38.129500 3.8560590 1.7936650 11.457260
304 35.731500 17.009500 61.749100 11.503970 6.6712840 32.881380
305 54.367000 24.719600 100.00000 30.858460 16.637290 96.588660
306 82.402200 52.027100 100.00000 53.358220 37.974750 99.265540
307 43.537900 12.869300 73.614200 16.427530 8.3914120 48.296640
308 78.327400 30.744100 85.235600 39.319090 23.034600 68.007140
309 17.303600 62.416200 51.766000 17.365400 26.901510 26.342130
310 15.263100 78.111000 88.414400 34.527940 46.535350 79.255600
311 43.595300 85.635500 88.739700 45.037910 58.949960 81.639990
312 30.263500 63.960100 0.0000000 15.819260 27.556650 4.6497900
313 53.499900 82.400600 0.0000000 32.734210 50.960820 8.2289670
314 15.740600 22.479200 27.148400 3.4694220 3.8905680 6.2758950
315 25.672600 22.514300 32.411700 5.2237810 4.7562470 8.7236800
316 44.265900 87.024300 38.926200 34.468280 56.120350 20.986510
317 73.190200 89.617100 66.982700 55.018670 68.848610 48.815380
318 89.594500 100.00000 76.649600 77.292370 91.631100 65.404910
319 17.884100 52.721900 34.443300 11.221550 18.284480 12.185460
320 21.752800 70.978500 50.547600 21.635820 35.161200 26.637670
321 65.775300 72.557900 89.670600 47.426990 48.640120 81.019240
322 3.8891000 17.257400 23.807000 1.9131910 2.3109380 4.8459160
323 15.149300 23.674300 37.884600 4.6082100 4.5777640 11.834560
324 15.002200 33.219700 47.397200 7.4409710 8.1963900 19.344900
325 35.583800 50.155600 49.915600 15.693770 19.051650 23.138730
326 67.730800 63.765000 71.889900 38.724720 38.365150 50.363890
327 79.664700 66.702000 75.987900 48.674030 45.395110 56.955480
328 90.288300 68.627000 84.378000 60.554970 52.662480 71.027790
329 80.740200 29.038800 25.322700 28.986270 18.506590 6.5770080
330 81.912900 22.130400 8.9255000 28.134270 16.718140 2.1542760
331 91.111900 43.862100 12.562000 39.790120 29.054100 4.4519390
332 63.180500 35.788300 7.4459000 18.664830 15.160620 2.3958020
333 68.707400 46.919400 21.030700 25.064430 22.712820 6.4115540
334 73.113000 46.661300 32.245400 28.429970 24.248560 10.864070
335 42.425700 30.445600 7.7091000 9.0285800 8.6101500 1.8361950
336 58.046300 46.766300 10.409800 19.031910 19.566920 3.7545250
337 64.259600 70.301400 12.980700 31.460320 40.140280 7.5851780
338 79.805400 74.077700 14.538400 42.949740 49.016420 8.8561410
339 100.00000 83.862400 0.0000000 65.474880 69.319320 9.4238300
340 100.00000 26.731500 18.307400 44.781710 26.194280 4.7688800
341 100.00000 32.249100 35.085700 46.983960 28.597380 11.775950
342 0.0000000 0.0000000 0.0000000 0.0604522 0.0598715 0.1040170
343 32.431100 0.0000000 57.524900 8.9292040 4.0845950 27.902480
344 38.944100 56.734900 65.158800 22.013100 25.548570 40.052510
345 54.348900 62.309200 73.841300 32.028760 33.893750 52.760110
346 74.972500 68.947800 27.677900 37.829730 42.337590 11.824470
347 77.096100 83.646100 33.444600 47.836990 59.789660 17.443390
348 85.440100 91.301600 51.933100 61.724070 74.419150 32.934780
349 100.00000 100.00000 100.00000 95.164210 99.999880 109.00120
350 90.251600 56.246800 6.1817000 42.918480 36.847030 4.8471960
351 88.617100 88.068300 13.474700 58.180380 69.674290 11.760080
352 91.766900 87.676500 41.306900 62.786900 71.423250 23.504130
353 33.202200 38.444000 10.746000 8.1785920 10.598790 2.8026330
354 45.905400 42.185000 17.894300 13.118690 14.518550 4.7982060
355 78.316300 47.525400 52.596200 34.918010 27.703140 25.834900
356 84.970700 61.689300 87.852500 54.350780 44.598880 76.148390
357 100.00000 61.561500 100.00000 72.296890 53.316150 100.96150
358 31.398600 0.0000000 77.249200 13.583460 5.9708090 53.352830
359 44.429900 10.887500 88.488800 21.299770 10.206200 72.760940
360 61.924800 26.343700 88.710300 30.208990 17.107190 73.909060
361 62.845800 41.442400 100.00000 38.033110 25.223250 97.821420
362 22.578400 8.4875000 31.783100 3.5187250 2.1139940 7.9827870
