HP/HP Elitebook 835 G7/27531 #1 2020-09-28 22-23 0.3127x 0.329y sRGB F-S XYZLUT+MTX/27531 #1 2020-09-28 22-23 0.3127x 0.329y sRGB F-S XYZLUT+MTX.ti3
CTI3   

DESCRIPTOR "Argyll Calibration Target chart information 3"
ORIGINATOR "Argyll dispread"
CREATED "Mon Sep 28 22:28:22 2020"
DEVICE_CLASS "DISPLAY"
SINGLE_DIM_STEPS "21"
COMP_GREY_STEPS "61"
DARK_REGION_EMPHASIS "1.6"
COLOR_REP "RGB_XYZ"
TARGET_INSTRUMENT "X-Rite i1 DisplayPro, ColorMunki Display"
DISPLAY_TYPE_REFRESH "NO"
DISPLAY_TYPE_BASE_ID "1"
INSTRUMENT_TYPE_SPECTRAL "NO"
LUMINANCE_XYZ_CDM2 "399.136719 419.499304 457.529787"
NORMALIZED_TO_Y_100 "YES"
VIDEO_LUT_CALIBRATION_POSSIBLE "YES"

BEGIN_ARGYLL_COLPROF_ARGS
-v -qh -aX -bn -C "No copyright. Created with DisplayCAL 3.8.9.3 and ArgyllCMS 2.1.2" -M "27531" -A "AU Optronics"
END_ARGYLL_COLPROF_ARGS

OBSERVER "1931_2"
USE_BLACK_POINT_COMPENSATION "NO"
BLACK_POINT_CORRECTION "0.0"
HIRES_B2A "YES"
HIRES_B2A_SIZE "-1"
SMOOTH_B2A "YES"
PATCH_SEQUENCE "OPTIMIZE_DISPLAY_RESPONSE_DELAY"

NUMBER_OF_FIELDS 7
BEGIN_DATA_FORMAT
SAMPLE_ID RGB_R RGB_G RGB_B XYZ_X XYZ_Y XYZ_Z
END_DATA_FORMAT

NUMBER_OF_SETS 588
BEGIN_DATA
1 100.00000 100.00000 100.00000 95.145980 100.00000 109.06570
2 1.9608000 1.9608000 1.9608000 0.1365570 0.1408630 0.1915700
3 3.9216000 3.9216000 3.9216000 0.2883740 0.3019470 0.3671790
4 5.8824000 5.8824000 5.8824000 0.4732810 0.4981690 0.5837450
5 9.8039000 9.8039000 9.8039000 0.9878150 1.0476140 1.1962130
6 13.726000 13.726000 13.726000 1.7025920 1.8071030 2.0440250
7 17.647000 17.647000 17.647000 2.6041770 2.7621010 3.1101710
8 21.569000 21.569000 21.569000 3.6500120 3.8685500 4.3266790
9 25.490000 25.490000 25.490000 4.9472790 5.2136100 5.7733790
10 29.412000 29.412000 29.412000 6.6101520 6.9647010 7.6229720
11 33.333000 33.333000 33.333000 8.5599690 9.0079580 9.8269990
12 37.255000 37.255000 37.255000 10.771890 11.335190 12.368840
13 41.176000 41.176000 41.176000 13.308920 13.998350 15.273730
14 45.098000 45.098000 45.098000 16.234140 17.059550 18.632320
15 49.020000 49.020000 49.020000 19.470740 20.466420 22.354320
16 52.941000 52.941000 52.941000 22.987880 24.210570 26.394780
17 56.863000 56.863000 56.863000 26.914480 28.360840 30.888750
18 60.784000 60.784000 60.784000 31.144910 32.838960 35.745950
19 64.706000 64.706000 64.706000 35.618120 37.565300 40.920690
20 68.627000 68.627000 68.627000 40.590680 42.803280 46.594630
21 72.549000 72.549000 72.549000 45.927320 48.461700 52.904220
22 76.471000 76.471000 76.471000 51.488310 54.329810 59.349780
23 80.392000 80.392000 80.392000 57.669450 60.848420 66.249750
24 84.314000 84.314000 84.314000 64.327210 67.800280 73.783850
25 88.235000 88.235000 88.235000 71.517860 75.337940 81.999080
26 92.157000 92.157000 92.157000 78.820900 82.984650 90.531500
27 96.078000 96.078000 96.078000 86.735740 91.277010 99.744850
28 45.850100 0.0000000 50.355100 11.390800 5.5010860 20.689670
29 51.960600 39.417500 55.439800 19.049290 16.130380 27.274780
30 73.303300 0.0000000 17.096500 21.091540 10.920920 3.2057100
31 76.746400 0.0000000 32.207000 24.371410 12.501070 8.5890750
32 100.00000 61.113300 39.907200 56.197330 46.530100 17.975630
33 100.00000 71.773500 66.363200 65.924030 58.482010 44.983000
34 59.273300 54.101600 0.0000000 21.685190 24.589920 3.5736900
35 69.273000 57.339600 25.060900 29.303400 30.308460 9.0239610
36 0.0000000 36.797500 58.132300 9.2107900 9.9826310 29.451190
37 0.0000000 62.578700 80.702800 23.320630 29.346190 62.722580
38 34.164900 72.304100 84.521100 33.111780 41.092310 71.287180
39 100.00000 89.385500 100.00000 87.522630 84.463130 106.42950
40 4.8077000 0.0000000 0.0000000 0.1894070 0.1269810 0.1073380
41 19.662900 0.0000000 0.0000000 1.3589350 0.7339370 0.1394320
42 23.255800 0.0000000 0.0000000 1.8064300 0.9660010 0.1517890
43 27.108400 0.0000000 0.0000000 2.4460530 1.2981620 0.1696160
44 31.250000 0.0000000 0.0000000 3.3264950 1.7550260 0.1941120
45 35.714300 0.0000000 0.0000000 4.3169480 2.2708000 0.2216020
46 40.540500 0.0000000 0.0000000 5.6057860 2.9389900 0.2577880
47 45.774700 0.0000000 0.0000000 7.4059790 3.8726640 0.3076920
48 48.623800 0.0000000 0.0000000 8.4298540 4.4028310 0.3352630
49 51.470600 0.0000000 0.0000000 9.4906490 4.9535810 0.3653920
50 57.692300 0.0000000 0.0000000 12.182120 6.3486150 0.4393610
51 64.516100 0.0000000 0.0000000 15.664470 8.1600480 0.5359420
52 72.033900 0.0000000 0.0000000 19.892000 10.350150 0.6512070
53 80.357100 0.0000000 0.0000000 25.332540 13.168780 0.7982010
54 89.622600 0.0000000 0.0000000 32.864750 17.085590 0.9970040
55 87.571400 14.148800 19.233000 32.191670 17.653950 4.2514540
56 28.671900 13.665200 0.0000000 3.3786360 2.7053390 0.3930810
57 31.706600 18.338900 15.555800 4.8619010 4.0570490 2.7182010
58 0.0000000 10.204100 0.0000000 0.4235820 0.8044170 0.2327190
59 0.0000000 13.157900 0.0000000 0.6287890 1.2247960 0.3063320
60 0.0000000 16.304300 0.0000000 0.8830820 1.7443820 0.3963030
61 0.0000000 19.662900 0.0000000 1.1647350 2.3225430 0.4972280
62 0.0000000 23.255800 0.0000000 1.5290600 3.0691760 0.6280350
63 0.0000000 27.108400 0.0000000 2.0222420 4.0969910 0.8078540
64 0.0000000 31.250000 0.0000000 2.7329100 5.5302620 1.0586800
65 0.0000000 35.714300 0.0000000 3.5497170 7.1953910 1.3494480
66 0.0000000 40.540500 0.0000000 4.5790270 9.3242450 1.7211540
67 0.0000000 45.774700 0.0000000 6.0363800 12.307560 2.2451720
68 0.0000000 51.470600 0.0000000 7.7431390 15.798330 2.8527750
69 0.0000000 57.692300 0.0000000 10.029790 20.437000 3.6613810
70 0.0000000 64.516100 0.0000000 12.918250 26.350070 4.6919050
71 0.0000000 72.033900 0.0000000 16.453620 33.599110 5.9503380
72 0.0000000 80.357100 0.0000000 20.955910 42.806660 7.5399760
73 28.699300 86.207600 0.0000000 27.372720 51.738150 8.9066700
74 29.123200 100.00000 87.608400 50.877500 77.481610 82.590250
75 0.0000000 88.015400 100.00000 44.144120 60.179820 104.87280
76 73.500300 89.016100 100.00000 65.729740 72.664170 105.74910
77 86.909200 100.00000 100.00000 83.647300 94.006510 108.73310
78 0.0000000 0.0000000 10.204100 0.2541110 0.1389050 1.1164280
79 0.0000000 0.0000000 13.157900 0.3668090 0.1847420 1.7019440
80 0.0000000 0.0000000 16.304300 0.5019280 0.2397000 2.4099460
81 0.0000000 0.0000000 19.662900 0.6536470 0.3014110 3.2018940
82 0.0000000 0.0000000 23.255800 0.8483910 0.3805380 4.2174340
83 0.0000000 0.0000000 27.108400 1.1141020 0.4885200 5.6037280
84 0.0000000 0.0000000 31.250000 1.4749620 0.6347820 7.4841600
85 0.0000000 0.0000000 35.714300 1.8998300 0.8088690 9.7020370
86 0.0000000 0.0000000 40.540500 2.4651010 1.0364640 12.641910
87 0.0000000 0.0000000 45.774700 3.2369540 1.3518520 16.667380
88 0.0000000 0.0000000 51.470600 4.1379820 1.7196850 21.371290
89 0.0000000 0.0000000 57.692300 5.3177220 2.2013160 27.522560
90 0.0000000 0.0000000 64.516100 6.8544620 2.8306720 35.528270
91 0.0000000 0.0000000 72.033900 8.7537660 3.6048110 45.433590
92 0.0000000 0.0000000 80.357100 11.119780 4.5693450 57.736040
93 35.901900 0.0000000 100.00000 22.853990 9.9133450 95.791530
94 38.672700 45.810600 100.00000 29.806670 22.886860 98.077730
95 59.142800 68.029700 100.00000 45.967890 43.997790 101.26590
96 80.877000 79.686300 100.00000 64.844110 63.189170 103.83660
97 0.0000000 2.3364000 0.0000000 0.0976823 0.1370400 0.1171830
98 3.1447000 3.1447000 3.1447000 0.2230170 0.2317760 0.2924980
99 3.9683000 3.9683000 3.9683000 0.2882180 0.3016490 0.3671450
100 4.8077000 4.8077000 4.8077000 0.3583440 0.3753590 0.4507970
101 5.6634000 5.6634000 5.6634000 0.4333730 0.4560030 0.5399970
102 6.5359000 6.5359000 6.5359000 0.5562460 0.5880040 0.6850920
103 7.4257000 7.4257000 7.4257000 0.6520790 0.6890480 0.7956570
104 8.3333000 8.3333000 8.3333000 0.7513530 0.7953480 0.9154270
105 9.2593000 9.2593000 9.2593000 0.9211520 0.9755560 1.1186680
106 10.204100 10.204100 10.204100 1.0486200 1.1134590 1.2708650
107 11.168400 11.168400 11.168400 1.1783680 1.2497490 1.4243130
108 12.152800 12.152800 12.152800 1.3879940 1.4715460 1.6767650
109 13.157900 13.157900 13.157900 1.6154480 1.7132030 1.9468190
110 14.184400 14.184400 14.184400 1.7765230 1.8844080 2.1356390
111 15.233000 15.233000 15.233000 2.0364900 2.1631760 2.4424040
112 16.304300 16.304300 16.304300 2.3114310 2.4530920 2.7660010
113 17.399300 17.399300 17.399300 2.5027780 2.6537010 2.9863820
114 18.518500 18.518500 18.518500 2.7962670 2.9636330 3.3328070
115 19.662900 19.662900 19.662900 3.0938770 3.2817830 3.6772920
116 20.833300 20.833300 20.833300 3.4365270 3.6334700 4.0719210
117 22.030700 22.030700 22.030700 3.7774650 3.9850660 4.4582640
118 23.255800 23.255800 23.255800 4.1279720 4.3566940 4.8680380
119 24.509800 24.509800 24.509800 4.5111110 4.7546440 5.2977010
120 25.793600 25.793600 25.793600 5.0754350 5.3563270 5.9257950
121 27.108400 27.108400 27.108400 5.5621150 5.8602550 6.4654660
122 28.455300 28.455300 28.455300 6.2291860 6.5678900 7.1998210
123 29.835400 29.835400 29.835400 6.7736490 7.1337880 7.8051210
124 31.250000 31.250000 31.250000 7.5403540 7.9297030 8.6664700
125 32.700400 32.700400 32.700400 8.0982760 8.5413620 9.3294400
126 34.188000 34.188000 34.188000 8.9571330 9.4253160 10.282520
127 35.714300 35.714300 35.714300 9.7809890 10.310940 11.236170
128 37.280700 37.280700 37.280700 10.727630 11.292970 12.325460
129 38.888900 38.888900 38.888900 11.689380 12.310640 13.415130
130 40.540500 40.540500 40.540500 12.723810 13.390750 14.640640
131 42.237400 42.237400 42.237400 14.119780 14.850550 16.229420
132 43.981500 43.981500 43.981500 15.290070 16.080220 17.545970
133 45.774700 45.774700 45.774700 16.795100 17.646170 19.270780
134 47.619100 47.619100 47.619100 18.070310 18.992050 20.768900
135 49.516900 49.516900 49.516900 19.731750 20.753550 22.675810
136 51.470600 51.470600 51.470600 21.485110 22.603080 24.673410
137 53.482600 53.482600 53.482600 23.347540 24.558760 26.807030
138 55.555600 55.555600 55.555600 25.670250 27.037890 29.486040
139 57.692300 57.692300 57.692300 27.710360 29.197200 31.801580
140 59.895800 59.895800 59.895800 30.272470 31.896720 34.752450
141 62.169300 62.169300 62.169300 32.866830 34.649990 37.749030
142 64.516100 64.516100 64.516100 35.662170 37.597450 40.972320
143 66.939900 66.939900 66.939900 38.520620 40.607050 44.286300
144 69.444400 69.444400 69.444400 41.648670 43.908310 47.872870
145 72.033900 72.033900 72.033900 45.322700 47.823630 52.231560
146 74.712600 74.712600 74.712600 49.153850 51.896580 56.681100
147 77.485400 77.485400 77.485400 53.218970 56.179560 61.311810
148 80.357100 80.357100 80.357100 57.596240 60.770330 66.214730
149 83.333300 83.333300 83.333300 62.241750 65.607390 71.389500
150 86.419700 86.419700 86.419700 67.767960 71.394800 77.744650
151 89.622600 89.622600 89.622600 74.491180 78.430310 85.506870
152 92.948700 92.948700 92.948700 80.297890 84.530090 92.316010
153 96.405200 96.405200 96.405200 87.564400 92.113900 100.71340
154 54.915900 0.0000000 78.520100 21.495040 10.015600 55.041300
155 58.979600 0.0000000 100.00000 31.219580 14.246020 96.053510
156 63.995900 0.0000000 68.264900 23.007060 11.116150 40.539690
157 78.970100 0.0000000 100.00000 42.653050 20.169920 96.385910
158 79.399700 28.965900 100.00000 45.349690 25.181440 97.289640
159 0.0000000 100.00000 80.315000 45.648650 74.965480 70.124310
160 0.0000000 100.00000 100.00000 52.902020 78.004300 107.89250
161 38.819500 100.00000 100.00000 58.214830 80.781380 108.08440
162 68.038200 100.00000 100.00000 70.532310 87.190280 108.41140
163 0.0000000 40.590100 41.307600 7.2576950 10.638470 14.949810
164 0.0000000 57.528900 54.337100 14.763220 22.470020 28.081100
165 0.0000000 73.858600 62.079700 23.533350 37.904620 38.626010
166 0.0000000 70.687700 76.896400 25.794000 36.261960 57.953540
167 0.0000000 76.965400 100.00000 37.401390 46.440520 102.47990
168 31.445600 78.907000 100.00000 41.959990 50.567460 103.02320
169 55.399900 89.807700 100.00000 56.808920 68.869880 105.68590
170 76.608100 54.858700 63.605800 38.301680 32.985180 38.317490
171 100.00000 61.899800 71.183100 62.694560 49.747720 50.231390
172 65.989000 50.806400 40.504900 26.548540 25.243430 16.078060
173 79.592700 59.164900 53.370400 40.060970 36.680590 28.068880
174 45.496400 100.00000 0.0000000 41.866210 74.259690 12.408930
175 65.657700 100.00000 22.470100 51.544030 79.197860 16.692980
176 82.599400 100.00000 42.621100 64.585540 85.760640 27.612440
177 82.320200 100.00000 61.611100 67.662770 86.976160 45.253980
178 100.00000 100.00000 64.105100 83.511950 95.148630 48.546640
179 0.0000000 89.622600 0.0000000 27.070740 55.263320 9.6884350
180 0.0000000 100.00000 32.710600 36.067350 71.061260 20.326600
181 33.928300 100.00000 50.585800 42.540950 74.162690 33.281680
182 100.00000 49.772400 0.0000000 49.475400 36.806480 3.8277400
183 100.00000 68.048200 0.0000000 56.787120 51.748830 6.4295300
184 100.00000 100.00000 0.0000000 76.720510 92.349580 13.357710
185 100.00000 100.00000 37.940600 78.932770 93.274140 24.801080
186 64.398700 100.00000 56.485400 55.278210 80.667070 39.357380
187 71.578500 100.00000 76.223900 64.223950 84.788320 64.206480
188 0.0000000 0.0000000 0.0000000 0.0604526 0.0600139 0.1038220
189 0.0000000 78.154000 30.470900 20.999630 40.645230 14.156570
190 0.0000000 100.00000 57.363600 39.768310 72.546530 39.548740
191 100.00000 100.00000 100.00000 95.169290 99.990570 109.11050
192 28.024800 46.234700 0.0000000 8.7362950 13.935230 2.3667020
193 50.305500 62.592000 0.0000000 21.139230 29.421900 4.6641630
194 52.435200 75.899300 38.861800 30.904270 44.151240 18.730210
195 66.693000 88.803300 41.630900 45.759090 63.525350 23.540080
196 0.0000000 22.099500 35.038400 3.1766620 3.5572850 9.8192960
197 0.0000000 22.485300 46.143700 4.7120840 4.2436990 17.554170
198 0.0000000 28.198100 63.910800 8.8744260 7.2114840 35.480380
199 60.827600 27.491300 71.214800 24.417950 14.934870 45.746830
200 0.0000000 10.720000 21.362100 1.1306780 1.1345020 3.7966400
201 0.0000000 11.170500 34.740700 2.2455310 1.6267890 9.4839780
202 100.00000 0.0000000 48.238500 45.821930 23.380360 20.010470
203 100.00000 0.0000000 63.331100 48.702840 24.561560 35.072170
204 100.00000 28.837600 64.403600 51.372590 29.509530 37.515540
205 100.00000 46.284800 78.478100 59.024760 39.030420 58.397890
206 50.583600 0.0000000 16.378500 9.6575850 4.9915880 2.6888060
207 58.212800 14.381400 26.537500 14.139240 8.2828400 6.1101100
208 63.468500 34.322100 44.343500 21.495550 15.918890 17.312450
209 0.0000000 37.279300 17.696800 4.3974020 8.1375100 4.0998440
210 0.0000000 48.119300 35.255700 8.5781410 14.531860 11.959730
211 43.141700 62.893500 38.162800 20.844810 29.088440 15.822170
212 42.272800 66.913700 69.192200 28.258750 35.207220 46.527060
213 100.00000 78.087700 84.659100 74.479370 67.373000 73.587770
214 100.00000 0.0000000 100.00000 60.581200 29.468960 96.902210
215 100.00000 26.936200 100.00000 62.662240 33.707020 97.621140
216 100.00000 46.401000 100.00000 66.905260 42.371660 99.151540
217 0.0000000 7.4257000 0.0000000 0.2773750 0.5039600 0.1805930
218 0.0000000 11.303300 12.457300 0.7757700 1.0694430 1.7063480
219 100.00000 0.0000000 0.0000000 42.199770 21.907820 1.2247090
220 100.00000 0.0000000 19.732500 42.810150 22.159780 4.4029870
221 100.00000 0.0000000 33.985100 43.910120 22.614470 10.196090
222 100.00000 28.183900 47.567500 47.932080 27.890320 20.235190
223 0.0000000 0.0000000 0.0000000 0.0604723 0.0600125 0.1038600
224 0.0000000 0.0000000 2.3364000 0.0801886 0.0681526 0.2076130
225 0.0000000 0.0000000 89.622600 14.370150 5.9154440 74.697580
226 30.868400 33.133300 100.00000 24.726350 15.522260 96.944410
227 0.0000000 22.757200 77.885300 11.853270 7.2483390 54.598620
228 0.0000000 40.937100 80.760800 15.912130 14.189840 60.089550
229 32.083000 67.733300 100.00000 36.425220 38.994140 101.01060
230 100.00000 77.358200 100.00000 79.921930 68.979700 103.79400
231 28.302700 19.223600 38.942600 6.0483410 4.5721120 12.238790
232 28.114400 31.811900 47.644400 8.9832460 8.5670410 19.237700
233 38.441200 32.782700 67.657700 15.774200 11.965550 40.981710
234 51.015400 40.972400 89.476000 28.428000 20.446170 76.131140
235 60.294600 55.809600 100.00000 41.415280 33.871890 99.489170
236 81.028800 0.0000000 51.995900 30.224790 15.229670 23.011450
237 100.00000 0.0000000 77.724600 52.483170 26.115090 54.792580
238 100.00000 28.724800 82.541800 56.235600 31.411770 63.159950
239 16.311800 0.0000000 10.886400 1.2428240 0.6490390 1.2833140
240 29.922300 0.0000000 27.706900 4.1255480 2.0433140 6.0302620
241 48.540300 0.0000000 36.585500 10.392670 5.2046600 10.461460
242 72.564000 31.669300 40.201100 25.430360 17.236550 14.375020
243 100.00000 100.00000 100.00000 95.161740 99.972750 109.11030
244 73.695700 79.342700 0.0000000 41.161850 52.322180 7.8919120
245 75.742400 100.00000 0.0000000 56.595420 81.891190 12.810220
246 0.0000000 100.00000 0.0000000 34.522510 70.397890 12.229830
247 29.495300 100.00000 22.503100 38.224550 72.280790 16.282130
248 50.792200 100.00000 71.883500 52.659860 78.893680 57.715350
249 68.947000 0.0000000 55.908400 23.087120 11.457230 26.545560
250 79.469700 30.092700 68.713500 35.153410 21.273690 42.336730
251 7.4257000 0.0000000 0.0000000 0.3122580 0.1908000 0.1106810
252 10.204100 0.0000000 0.0000000 0.4794510 0.2774570 0.1152400
253 13.157900 0.0000000 0.0000000 0.7173530 0.4009580 0.1218890
254 16.304300 0.0000000 0.0000000 1.0141230 0.5549410 0.1300250
255 30.162100 55.117900 100.00000 30.742240 28.057190 99.146970
256 0.0000000 0.0000000 100.00000 18.425100 7.5962930 95.729720
257 0.0000000 23.177200 100.00000 19.916530 10.678750 96.302340
258 0.0000000 40.510900 100.00000 23.042870 17.036000 97.403320
259 0.0000000 54.350100 100.00000 27.302370 25.781650 98.934830
260 0.0000000 66.098000 100.00000 32.050540 35.506720 100.65650
261 0.0000000 83.281600 55.115000 27.517980 48.274290 33.348250
262 20.046600 86.915300 67.315800 34.116720 55.263330 48.224160
263 61.923800 25.107500 0.0000000 15.992540 10.954200 1.1115000
264 75.430600 46.922400 0.0000000 28.171700 24.381940 2.9798170
265 83.130900 78.139100 51.807900 51.387820 56.197780 29.854510
266 40.195500 40.605300 0.0000000 10.169000 12.415390 1.9199180
267 42.002000 40.693900 31.170500 12.274320 13.403540 9.3019680
268 54.030700 52.912600 64.310600 25.818300 25.387040 38.652550
269 0.0000000 0.0000000 4.8077000 0.1180590 0.0835965 0.4046040
270 0.0000000 0.0000000 7.4257000 0.1747250 0.1067120 0.7029250
271 34.150200 0.0000000 16.694500 4.4241670 2.2730610 2.6381420
272 38.145600 15.349400 22.637800 6.4974490 4.4402930 4.5633020
273 56.762900 16.743500 38.847000 15.018600 8.9017420 12.400870
274 0.0000000 4.8077000 0.0000000 0.1682510 0.2813280 0.1423450
275 0.0000000 22.508000 13.554400 1.7777480 3.0456740 2.2943620
276 22.138500 36.544700 17.885600 5.9067880 8.6858250 4.2164940
277 58.168200 32.639400 23.059300 16.177730 12.812650 5.6958840
278 100.00000 46.362500 27.014800 49.537200 35.121850 9.1423070
279 100.00000 52.592600 49.665200 54.395020 40.411950 24.514630
280 29.843400 24.241700 0.0000000 4.6081000 4.9004950 0.7614510
281 52.699800 36.070800 0.0000000 13.565120 12.568330 1.6645170
282 55.563300 37.021300 17.645100 15.662320 13.878450 4.4234240
283 100.00000 60.018100 21.911500 54.024120 44.847650 9.1011980
284 100.00000 73.895400 31.379500 61.043550 58.025430 15.059360
285 32.710500 45.501900 37.530400 11.667160 14.916720 13.278040
286 40.375300 50.032900 71.482700 21.648860 21.607630 47.396300
287 56.246100 60.487000 83.457700 34.890880 33.868010 67.559640
288 100.00000 63.531400 85.601900 67.570500 52.808070 72.406730
289 100.00000 100.00000 86.566000 89.967120 97.803610 82.333890
290 14.111600 16.691200 0.0000000 1.6531480 2.2016380 0.4305560
291 20.007800 30.300300 0.0000000 3.8814610 5.8478820 1.0286220
292 28.723100 35.406300 41.303000 8.7737150 9.5893700 14.637170
293 0.7645000 0.7645000 0.7645000 0.0753152 0.0760251 0.1213630
294 1.5432000 1.5432000 1.5432000 0.1121040 0.1150290 0.1636820
295 2.3364000 2.3364000 2.3364000 0.1637000 0.1693060 0.2231290
296 0.0000000 56.701700 22.927800 10.490170 20.172750 7.5908070
297 44.729600 72.388600 63.990500 30.500310 40.604930 41.056500
298 80.920400 30.846800 0.0000000 28.272170 18.732870 1.7495190
299 100.00000 30.670100 0.0000000 44.767360 27.198320 2.1477960
300 100.00000 85.598300 26.459300 67.396950 71.708610 15.192110
301 100.00000 87.840700 70.830000 76.474090 78.058870 54.573630
302 13.481800 0.0000000 20.362600 1.3638090 0.6645770 3.4594880
303 22.063500 0.0000000 38.129500 3.7867940 1.7542240 11.229370
304 35.731500 17.009500 61.749100 11.387700 6.5877060 32.486760
305 54.367000 24.719600 100.00000 31.013710 16.755740 96.687770
306 82.402200 52.027100 100.00000 53.466390 38.188140 99.422690
307 43.537900 12.869300 73.614200 16.393090 8.3608440 48.205460
308 78.327400 30.744100 85.235600 39.227390 22.969550 67.536710
309 17.303600 62.416200 51.766000 17.209320 26.692480 26.211910
310 15.263100 78.111000 88.414400 34.305480 46.231910 78.784980
311 43.595300 85.635500 88.739700 44.769630 58.508270 81.368190
312 30.263500 63.960100 0.0000000 15.623110 27.257250 4.6629140
313 53.499900 82.400600 0.0000000 32.450060 50.596520 8.2533810
314 15.740600 22.479200 27.148400 3.4268980 3.8335990 6.1923770
315 25.672600 22.514300 32.411700 5.1337190 4.6647550 8.7096850
316 44.265900 87.024300 38.926200 34.381470 55.961870 20.959420
317 73.190200 89.617100 66.982700 55.242070 69.149350 49.040460
318 89.594500 100.00000 76.649600 77.138890 91.452130 65.162900
319 17.884100 52.721900 34.443300 11.099250 18.031740 12.161190
320 21.752800 70.978500 50.547600 21.510530 34.998970 26.602820
321 65.775300 72.557900 89.670600 47.544300 48.664820 81.341570
322 3.8891000 17.257400 23.807000 1.9009790 2.2942230 4.8127400
323 15.149300 23.674300 37.884600 4.5908880 4.5156800 11.807100
324 15.002200 33.219700 47.397200 7.3772990 8.1701610 19.210290
325 35.583800 50.155600 49.915600 15.602670 18.945570 22.935100
326 67.730800 63.765000 71.889900 38.769810 38.441860 50.180800
327 79.664700 66.702000 75.987900 48.518640 45.227180 56.986480
328 90.288300 68.627000 84.378000 60.420910 52.583080 70.790780
329 80.740200 29.038800 25.322700 28.942120 18.492970 6.6310320
330 81.912900 22.130400 8.9255000 28.078330 16.668530 2.1587920
331 91.111900 43.862100 12.562000 39.634010 28.988710 4.4777990
332 63.180500 35.788300 7.4459000 18.553900 15.033650 2.3911100
333 68.707400 46.919400 21.030700 24.982110 22.675410 6.4959810
334 73.113000 46.661300 32.245400 28.223590 24.094170 10.823280
335 42.425700 30.445600 7.7091000 8.9477600 8.5746890 1.8553970
336 58.046300 46.766300 10.409800 18.882240 19.366110 3.7875970
337 64.259600 70.301400 12.980700 31.353990 39.944830 7.6205250
338 79.805400 74.077700 14.538400 42.997150 49.018840 8.9399600
339 100.00000 83.862400 0.0000000 65.358570 69.246410 9.4737300
340 100.00000 26.731500 18.307400 44.714780 26.173900 4.8159570
341 100.00000 32.249100 35.085700 46.921590 28.584240 11.700030
342 0.0000000 0.0000000 0.0000000 0.0604810 0.0600408 0.1038670
343 32.431100 0.0000000 57.524900 8.8935640 4.0492350 27.770740
344 38.944100 56.734900 65.158800 21.945640 25.546600 39.937640
345 54.348900 62.309200 73.841300 32.076010 33.937730 52.517950
346 74.972500 68.947800 27.677900 37.714770 42.288540 11.980510
347 77.096100 83.646100 33.444600 47.760850 59.566760 17.462950
348 85.440100 91.301600 51.933100 61.731770 74.456430 32.902500
349 100.00000 100.00000 100.00000 95.132910 99.946860 109.11030
350 90.251600 56.246800 6.1817000 42.755190 36.624130 4.8615000
351 88.617100 88.068300 13.474700 58.298280 69.838830 11.856820
352 91.766900 87.676500 41.306900 62.831520 71.576120 23.595470
353 33.202200 38.444000 10.746000 8.1419070 10.536290 2.7811120
354 45.905400 42.185000 17.894300 13.096170 14.534440 4.8750330
355 78.316300 47.525400 52.596200 34.869180 27.611120 25.730740
