KOIOS/K2418U/K2418U #2 2021-02-09 09-11 0.3127x 0.329y sRGB F-S XYZLUT+MTX/K2418U #2 2021-02-09 09-11 0.3127x 0.329y sRGB F-S XYZLUT+MTX.ti1
CTI1   

DESCRIPTOR "Argyll Calibration Target chart information 1"
ORIGINATOR "Argyll targen"
CREATED "Tue Feb 09 09:17:08 2021"
APPROX_WHITE_POINT "95.387268 100.000000 110.664368"
COLOR_REP "RGB"
ACCURATE_EXPECTED_VALUES "true"
DARK_REGION_EMPHASIS "1.6"
WHITE_COLOR_PATCHES "4"
BLACK_COLOR_PATCHES "4"
SINGLE_DIM_STEPS "21"
COMP_GREY_STEPS "61"
OFPS_PATCHES "435"

NUMBER_OF_FIELDS 7
BEGIN_DATA_FORMAT
SAMPLE_ID RGB_R RGB_G RGB_B XYZ_X XYZ_Y XYZ_Z
END_DATA_FORMAT

NUMBER_OF_SETS 588
BEGIN_DATA
1 100.0000 100.0000 100.0000 95.38727 100.0000 110.6644
2 1.960800 1.960800 1.960800 1.142800 1.150200 1.163700
3 3.921600 3.921600 3.921600 1.285600 1.300500 1.327300
4 5.882400 5.882400 5.882400 1.449500 1.472900 1.515200
5 9.803900 9.803900 9.803900 1.914800 1.962400 2.048400
6 13.72600 13.72600 13.72600 2.581700 2.663900 2.812600
7 17.64700 17.64700 17.64700 3.469500 3.597900 3.830000
8 21.56900 21.56900 21.56900 4.595300 4.782200 5.120100
9 25.49000 25.49000 25.49000 5.974500 6.233200 6.700700
10 29.41200 29.41200 29.41200 7.621300 7.965600 8.587900
11 33.33300 33.33300 33.33300 9.548800 9.993300 10.79700
12 37.25500 37.25500 37.25500 11.76900 12.32900 13.34100
13 41.17600 41.17600 41.17600 14.29400 14.98500 16.23400
14 45.09800 45.09800 45.09800 17.13400 17.97300 19.48900
15 49.02000 49.02000 49.02000 20.29900 21.30300 23.11700
16 52.94100 52.94100 52.94100 23.80000 24.98600 27.12900
17 56.86300 56.86300 56.86300 27.64600 29.03200 31.53600
18 60.78400 60.78400 60.78400 31.84600 33.45000 36.34900
19 64.70600 64.70600 64.70600 36.40900 38.25000 41.57800
20 68.62700 68.62700 68.62700 41.34300 43.44000 47.23200
21 72.54900 72.54900 72.54900 46.65600 49.03000 53.32100
22 76.47100 76.47100 76.47100 52.35600 55.02700 59.85300
23 80.39200 80.39200 80.39200 58.45200 61.43900 66.83800
24 84.31400 84.31400 84.31400 64.94900 68.27500 74.28500
25 88.23500 88.23500 88.23500 71.85700 75.54100 82.20000
26 92.15700 92.15700 92.15700 79.18100 83.24600 90.59400
27 96.07800 96.07800 96.07800 86.92900 91.39700 99.47200
28 27.35070 44.61710 77.89350 19.24782 16.84557 59.25866
29 63.07900 56.56300 77.16970 34.93132 30.99676 58.84175
30 0.000000 76.99180 43.40470 22.56389 41.49642 20.05205
31 0.000000 76.29270 70.91880 27.87979 42.29933 50.97630
32 0.000000 100.0000 88.82860 49.85782 77.99857 84.98034
33 0.000000 100.0000 100.0000 54.56380 79.33404 110.5460
34 0.000000 84.59920 100.0000 43.23304 55.63028 108.3739
35 27.49970 90.33590 100.0000 49.63213 65.16169 109.1416
36 62.86980 92.11740 100.0000 62.85611 73.98582 109.4335
37 78.02620 100.0000 100.0000 77.77129 91.08231 110.6133
38 0.000000 19.18110 72.95880 10.58199 5.131112 50.50517
39 0.000000 33.40250 73.88680 13.00960 9.744526 52.31858
40 0.000000 38.30780 100.0000 23.62395 14.60842 104.6149
41 0.000000 53.67640 100.0000 28.09899 23.97013 105.4727
42 0.000000 69.10910 100.0000 34.55308 37.47196 106.7099
43 33.99250 70.92890 100.0000 39.26084 41.26705 106.8917
44 0.000000 55.83160 57.93670 15.32628 21.73922 32.04427
45 40.97610 66.15720 62.67420 26.29635 33.81224 38.76445
46 40.54050 0.000000 0.000000 5.906532 3.202290 0.554529
47 45.77470 0.000000 0.000000 7.550365 4.034443 0.559296
48 51.47060 0.000000 0.000000 9.623707 5.084025 0.565310
49 57.69230 0.000000 0.000000 12.26033 6.418757 0.572957
50 61.15440 0.000000 0.000000 13.86347 7.230311 0.577606
51 64.51610 0.000000 0.000000 15.60150 8.110149 0.582647
52 70.60140 32.70290 34.86110 24.00865 16.77444 11.24900
53 32.75730 13.63820 0.000000 4.502131 3.375044 0.655668
54 53.32510 19.87340 0.000000 11.46990 7.727695 0.774144
55 54.24700 0.000000 14.50880 11.11382 5.763997 2.384833
56 76.33260 0.000000 30.95150 24.02951 12.05167 8.539232
57 100.0000 0.000000 55.23880 46.13416 22.47670 27.27486
58 100.0000 0.000000 69.03180 49.37182 23.39549 44.86373
59 100.0000 33.28970 82.66860 56.48446 31.12255 66.95785
60 74.77030 64.45850 0.000000 34.53517 38.18738 3.077369
61 78.09330 80.59840 0.000000 44.97893 56.78709 4.692663
62 78.64950 100.0000 0.000000 59.15685 85.88775 7.343956
63 84.31110 100.0000 26.19140 64.07995 88.14983 12.97547
64 0.000000 31.25000 0.000000 3.171108 6.194377 1.067695
65 0.000000 35.71430 0.000000 4.058131 8.050013 1.237736
66 0.000000 40.54050 0.000000 5.141554 10.31652 1.445426
67 0.000000 45.77470 0.000000 6.577599 13.32070 1.720714
68 0.000000 51.47060 0.000000 8.338884 17.00527 2.058349
69 0.000000 57.69230 0.000000 10.55296 21.63709 2.482784
70 0.000000 64.51610 0.000000 13.35984 27.50903 3.020857
71 0.000000 72.03390 0.000000 16.98497 35.09273 3.715788
72 0.000000 80.35710 0.000000 21.58612 44.71827 4.597821
73 0.000000 89.62260 0.000000 27.67813 57.46263 5.765648
74 36.83750 100.0000 87.94570 54.01723 80.18022 83.13641
75 43.86390 100.0000 100.0000 61.08327 82.63438 110.5649
76 0.000000 0.000000 4.807700 0.477683 0.439227 0.900775
77 0.000000 0.000000 7.425700 0.526232 0.453005 1.164522
78 0.000000 0.000000 10.20410 0.598388 0.473481 1.556513
79 0.000000 0.000000 13.15790 0.694373 0.500720 2.077962
80 0.000000 0.000000 16.30430 0.820106 0.536401 2.761017
81 0.000000 0.000000 19.66290 0.984756 0.583125 3.655490
82 0.000000 0.000000 23.25580 1.213400 0.648010 4.897616
83 0.000000 0.000000 27.10840 1.523933 0.736134 6.584611
84 0.000000 0.000000 31.25000 1.900479 0.842990 8.630225
85 0.000000 0.000000 35.71430 2.358743 0.973037 11.11978
86 0.000000 0.000000 40.54050 2.938256 1.137492 14.26803
87 0.000000 0.000000 45.77470 3.676843 1.347089 18.28046
88 0.000000 0.000000 51.47060 4.604216 1.610261 23.31849
89 0.000000 0.000000 57.69230 5.825010 1.956699 29.95055
90 0.000000 0.000000 64.51610 7.418189 2.408814 38.60562
91 0.000000 0.000000 72.03390 9.322715 2.949283 48.95211
92 0.000000 0.000000 80.35710 11.77182 3.644294 62.25709
93 0.000000 0.000000 89.62260 15.03079 4.569128 79.96168
94 31.99180 0.000000 100.0000 22.78234 7.516706 103.8188
95 80.61940 0.000000 100.0000 44.31894 18.41912 103.8813
96 0.000000 2.336400 0.000000 0.461718 0.526380 0.548310
97 2.336400 2.336400 2.336400 0.545562 0.562719 0.697582
98 3.144700 3.144700 3.144700 0.607577 0.628295 0.769009
99 3.968300 3.968300 3.968300 0.672634 0.696226 0.843699
100 4.807700 4.807700 4.807700 0.742709 0.769768 0.924924
101 5.663400 5.663400 5.663400 0.815828 0.846278 1.009889
102 6.535900 6.535900 6.535900 0.897400 0.931419 1.104873
103 7.425700 7.425700 7.425700 0.983319 1.021119 1.205938
104 8.333300 8.333300 8.333300 1.092721 1.135831 1.332584
105 9.259300 9.259300 9.259300 1.211127 1.260130 1.469020
106 10.20410 10.20410 10.20410 1.344774 1.400238 1.624031
107 11.16840 11.16840 11.16840 1.490983 1.553064 1.791004
108 12.15280 12.15280 12.15280 1.653045 1.722627 1.978305
109 13.15790 13.15790 13.15790 1.828844 1.906808 2.180284
110 14.18440 14.18440 14.18440 2.020728 2.107070 2.402696
111 15.23300 15.23300 15.23300 2.229118 2.325010 2.644789
112 16.30430 16.30430 16.30430 2.455043 2.561602 2.908338
113 17.39930 17.39930 17.39930 2.701702 2.820349 3.197196
114 18.51850 18.51850 18.51850 2.968780 3.100557 3.510700
115 19.66290 19.66290 19.66290 3.266890 3.414016 3.861605
116 20.83330 20.83330 20.83330 3.596916 3.759992 4.250062
117 22.03070 22.03070 22.03070 3.967675 4.148914 4.689183
118 23.25580 23.25580 23.25580 4.386918 4.587210 5.184546
119 24.50980 24.50980 24.50980 4.849772 5.070532 5.732232
120 25.79360 25.79360 25.79360 5.361496 5.605381 6.334972
121 27.10840 27.10840 27.10840 5.915273 6.184246 6.981323
122 28.45530 28.45530 28.45530 6.513577 6.812384 7.668130
123 29.83540 29.83540 29.83540 7.160017 7.494364 8.397018
124 31.25000 31.25000 31.25000 7.859416 8.236401 9.168608
125 32.70040 32.70040 32.70040 8.602123 9.024206 9.989651
126 34.18800 34.18800 34.18800 9.392450 9.859873 10.87522
127 35.71430 35.71430 35.71430 10.23175 10.74201 11.83118
128 37.28070 37.28070 37.28070 11.12808 11.67994 12.86735
129 38.88890 38.88890 38.88890 12.09808 12.69505 13.98429
130 40.54050 40.54050 40.54050 13.16431 13.81568 15.19081
131 42.23740 42.23740 42.23740 14.33702 15.05567 16.49081
132 43.98150 43.98150 43.98150 15.61457 16.41121 17.91322
133 45.77470 45.77470 45.77470 16.98278 17.86161 19.48329
134 47.61910 47.61910 47.61910 18.44169 19.40117 21.19035
135 49.51690 49.51690 49.51690 20.02017 21.05747 22.98326
136 51.47060 51.47060 51.47060 21.74478 22.85894 24.86497
137 53.48260 53.48260 53.48260 23.62308 24.81284 26.95430
138 55.55560 55.55560 55.55560 25.64830 26.91649 29.33141
139 57.69230 57.69230 57.69230 27.81628 29.17193 31.92911
140 59.89580 59.89580 59.89580 30.15413 31.60401 34.70687
141 62.16930 62.16930 62.16930 32.71887 34.25533 37.77656
142 64.51610 64.51610 64.51610 35.55750 37.18737 41.13195
143 66.93990 66.93990 66.93990 38.66978 40.42978 44.65783
144 69.44440 69.44440 69.44440 41.96750 43.87854 48.29488
145 72.03390 72.03390 72.03390 45.44595 47.51808 52.18601
146 74.71260 74.71260 74.71260 49.21370 51.49238 56.49652
147 77.48540 77.48540 77.48540 53.27598 55.80270 61.26696
148 80.35710 80.35710 80.35710 57.66778 60.45662 66.38802
149 83.33330 83.33330 83.33330 62.51093 65.58075 71.89901
150 86.41970 86.41970 86.41970 67.85986 71.28103 78.15168
151 89.62260 89.62260 89.62260 73.89275 77.60563 85.28038
152 92.94870 92.94870 92.94870 80.58409 84.64893 93.35876
153 96.40520 96.40520 96.40520 87.73270 92.18934 101.9660
154 80.35710 0.000000 0.000000 25.13186 12.93468 0.610288
155 100.0000 27.35150 0.000000 43.30733 25.42263 1.054352
156 100.0000 46.42150 0.000000 47.59153 34.38510 1.875626
157 100.0000 55.72190 39.57200 53.04786 41.45242 15.52158
158 100.0000 62.00860 55.96240 58.14001 47.32400 30.35528
159 50.43060 24.01730 28.66600 12.02862 8.517161 7.657408
160 60.55620 54.18350 31.28950 23.92533 26.03562 10.38671
161 0.000000 100.0000 0.000000 35.55433 73.93951 7.275502
162 34.64410 100.0000 0.000000 39.52454 75.94934 7.287017
163 58.72750 100.0000 0.000000 47.86630 80.17217 7.311210
164 100.0000 100.0000 0.000000 76.37779 94.60547 7.393902
165 0.000000 34.27100 35.80580 5.721414 7.989104 11.81826
166 0.000000 60.16710 45.79910 14.78552 24.57938 20.42986
167 65.83800 73.69850 57.95300 39.24597 46.51524 33.64063
168 9.484600 18.97610 11.32450 1.977151 2.732259 1.930729
169 30.53720 23.58190 18.48110 5.479593 5.272922 3.614809
170 36.46340 69.50070 56.45650 25.29343 36.16847 31.47527
171 50.77620 87.87780 72.90040 44.52526 62.00375 55.24183
172 85.43450 93.13220 100.0000 77.63781 82.72156 109.6255
173 10.20410 0.000000 0.000000 0.811246 0.622916 0.539751
174 13.15790 0.000000 0.000000 1.020948 0.729073 0.540359
175 16.30430 0.000000 0.000000 1.290757 0.865658 0.541141
176 37.13000 79.52700 0.000000 25.67414 46.01572 4.517763
177 50.86530 100.0000 35.27810 46.42205 79.01853 17.62025
178 100.0000 100.0000 33.84510 78.12475 95.10122 16.88438
179 36.08670 37.35160 0.000000 8.719563 10.95811 1.316541
180 50.36480 49.58020 13.28260 16.78454 20.24789 3.530723
181 54.75980 55.06450 100.0000 39.17583 30.35836 105.5978
182 58.38570 67.82770 100.0000 46.09037 42.32832 106.6262
183 19.66290 0.000000 0.000000 1.636482 1.040674 0.542144
184 35.58920 0.000000 14.34720 4.934999 2.637497 2.332985
185 60.23650 0.000000 35.55240 15.35360 7.555388 11.05988
186 72.56530 26.85920 48.78680 26.02258 15.71381 21.35228
187 100.0000 31.51120 51.82980 48.29895 28.17198 24.30867
188 0.000000 0.000000 0.000000 0.411014 0.420308 0.538590
189 0.000000 73.49460 80.68820 29.20574 39.92902 66.14031
190 48.16900 82.62430 100.0000 49.91720 57.01005 108.1547
191 100.0000 100.0000 100.0000 95.38727 100.0000 110.6644
192 80.87160 48.87000 0.000000 32.57597 27.95416 1.971416
193 100.0000 79.56640 0.000000 61.94567 64.41372 4.627290
194 100.0000 88.90100 76.52900 78.17544 79.94380 61.13365
195 23.21360 11.88300 28.31580 3.768998 2.551478 7.250397
196 39.60560 22.00910 32.75140 8.590486 6.280573 9.691351
197 57.41960 35.35320 61.96550 22.09052 15.64346 35.90012
198 0.000000 13.75850 28.62200 2.222800 1.957062 7.417355
199 0.000000 16.35140 48.93070 4.943565 3.078877 21.18452
200 28.75020 24.52930 49.30380 8.563818 6.301672 21.69274
201 35.57640 35.86180 67.47930 16.03024 12.43546 43.35099
202 55.76820 40.88110 100.0000 35.25097 21.46457 104.7641
203 78.81100 66.79620 100.0000 57.14289 47.13823 106.5648
204 83.10670 81.24470 100.0000 67.75964 64.70224 108.0469
205 0.000000 0.000000 2.336400 0.438461 0.428097 0.687699
206 0.764500 0.764500 0.764500 0.432869 0.443559 0.564669
207 1.543200 1.543200 1.543200 0.483251 0.496825 0.625685
208 23.25580 0.000000 0.000000 2.113511 1.282159 0.543528
209 28.70920 22.17970 0.000000 4.411484 4.561587 0.802136
210 29.37880 32.42120 10.32060 6.387914 8.136864 2.155189
211 29.42010 70.57160 38.37370 21.32455 35.63529 15.84348
212 48.81570 100.0000 76.02780 53.77616 80.93081 61.83584
213 73.25180 100.0000 82.21040 67.78002 87.59581 72.22923
214 0.000000 27.10840 0.000000 2.444806 4.674965 0.928464
215 30.54230 59.58800 0.000000 14.33037 24.71123 2.632076
216 100.0000 63.54750 0.000000 53.75124 47.27111 3.056431
217 100.0000 71.33480 25.17100 58.40855 55.29610 8.928737
218 100.0000 71.00520 47.59310 60.85123 55.69384 23.05508
219 58.74520 48.76670 0.000000 19.79400 21.43275 1.928293
220 77.77850 50.39180 100.0000 50.04838 33.33276 105.3282
221 58.08860 0.000000 100.0000 31.44569 11.90233 103.8439
222 58.65690 24.53910 100.0000 33.34613 15.47378 104.1601
223 0.000000 0.000000 0.000000 0.411014 0.420308 0.538590
224 27.10840 0.000000 0.000000 2.768562 1.613764 0.545428
225 31.25000 0.000000 0.000000 3.609857 2.039650 0.547868
226 35.71430 0.000000 0.000000 4.636909 2.559572 0.550846
227 79.52490 0.000000 46.25740 27.91764 13.60164 18.76102
228 81.02790 0.000000 61.17770 31.77551 14.92140 34.22795
229 0.000000 4.807700 0.000000 0.534852 0.679376 0.562330
230 0.000000 0.000000 100.0000 19.42049 5.814842 103.8091
231 0.000000 22.16000 100.0000 20.75256 8.601524 104.0644
232 21.56640 0.000000 25.81400 2.875509 1.444802 5.991398
233 40.09480 0.000000 31.54290 7.296817 3.568517 8.798377
234 44.01930 0.000000 50.92660 11.08285 4.910192 22.84250
235 52.37890 0.000000 73.99870 19.44721 7.954713 51.90733
236 74.19270 0.000000 82.65480 33.35263 14.40722 66.27061
237 100.0000 0.000000 100.0000 60.24395 26.48080 103.9275
238 100.0000 28.00430 100.0000 62.42364 31.04067 104.3453
239 0.000000 19.66290 0.000000 1.467679 2.630833 0.741151
240 0.000000 23.25580 0.000000 1.882034 3.497657 0.820582
241 0.000000 61.30310 78.90780 22.88810 27.71016 62.03802
242 66.04370 80.81510 100.0000 56.91184 58.80331 107.9669
243 100.0000 100.0000 100.0000 95.38727 100.0000 110.6644
244 0.000000 13.15790 0.000000 0.935551 1.517631 0.639143
245 0.000000 16.30430 0.000000 1.166207 2.000160 0.683359
246 27.39670 36.33800 42.53010 9.390302 10.33417 16.43019
247 27.97820 43.21220 43.97300 11.36259 13.91674 17.85352
248 40.53860 51.54720 49.90590 17.79290 20.95634 23.44925
249 44.79060 55.31640 61.57380 22.77431 25.03037 36.46367
250 0.000000 7.425700 0.000000 0.623357 0.864526 0.579296
251 0.000000 10.20410 0.000000 0.757168 1.144456 0.604947
252 0.000000 14.31250 17.09310 1.459775 1.810267 3.070036
253 0.000000 25.13520 17.87300 2.624412 4.180015 3.486477
254 100.0000 84.04200 41.54570 67.34230 70.89651 19.59401
255 100.0000 84.93360 59.28930 71.02546 72.99517 36.54972
256 100.0000 85.80630 87.11940 79.49625 76.45421 79.50961
257 100.0000 70.28470 85.35460 69.94272 57.63316 74.30223
258 100.0000 76.55110 100.0000 79.23697 66.21387 107.5684
259 100.0000 88.49740 100.0000 86.71240 81.85233 109.0014
260 0.000000 76.06910 25.76400 20.13569 39.87793 9.554451
261 0.000000 100.0000 25.63950 36.54287 74.22004 12.64584
262 0.000000 100.0000 45.27830 38.74351 74.84454 24.60100
263 0.000000 100.0000 61.40220 41.79583 75.71073 41.18295
264 0.000000 100.0000 75.53440 45.44772 76.74707 61.02215
265 0.000000 39.97070 20.47250 5.621756 10.20177 4.781716
266 32.92170 42.91740 20.37880 9.948888 13.60131 4.907699
267 47.22130 59.38050 37.39970 20.96665 27.46532 14.25856
268 63.80320 90.94480 37.16100 45.55883 67.57029 17.46996
269 100.0000 100.0000 55.56280 81.34360 96.01467 34.37101
270 100.0000 100.0000 71.82340 85.23363 97.11859 55.50392
271 100.0000 100.0000 88.90500 90.71127 98.67304 85.26163
272 28.19880 47.76940 100.0000 28.74405 21.25195 105.1121
273 100.0000 47.06050 100.0000 66.78935 40.17364 105.1822
274 35.62510 9.645500 41.13430 7.536272 3.949800 14.75952
275 48.48740 27.75720 48.07580 14.24790 10.00798 20.72110
276 100.0000 32.30310 66.44620 51.68866 29.40892 41.92649
277 100.0000 52.02620 79.95270 60.58351 41.24739 63.25204
278 100.0000 62.71180 100.0000 72.39720 51.90517 106.2572
279 55.95410 100.0000 54.33010 51.36590 80.89437 32.93592
280 72.98910 100.0000 65.00080 62.80431 86.14847 46.06045
281 49.85530 57.94740 0.000000 19.21973 26.17775 2.526173
282 51.94640 60.27520 28.20460 22.17545 28.84721 9.271411
283 28.45330 0.000000 57.51470 8.402507 3.269900 29.75297
284 32.27410 24.44100 70.61500 14.00818 7.990880 47.25990
285 60.19410 66.30620 74.58280 36.80427 38.56133 55.46460
286 75.70470 27.54030 0.000000 24.28764 15.84282 1.004960
287 87.43230 39.65220 12.69270 34.99829 25.02992 2.940927
288 72.03390 0.000000 0.000000 19.96030 10.31669 0.595289
289 77.21100 0.000000 17.72820 23.58368 12.04537 3.182878
290 100.0000 27.21160 21.19420 43.94824 25.56385 4.653964
291 100.0000 43.65130 23.43100 47.60730 32.94415 6.150730
292 100.0000 45.45790 44.08740 50.31911 34.64738 18.17668
293 0.000000 26.01510 36.23740 4.281076 4.888150 11.79661
294 0.000000 42.97740 55.33000 10.69913 13.04975 28.28659
295 67.41950 57.82050 64.72540 34.49674 32.26464 40.89484
296 89.62260 0.000000 0.000000 32.00586 16.41448 0.630225
297 100.0000 0.000000 0.000000 41.23448 21.08626 0.656990
298 100.0000 0.000000 14.93310 41.58558 21.18590 2.564345
299 100.0000 0.000000 28.75720 42.49289 21.44338 7.493384
300 100.0000 0.000000 42.18340 43.97799 21.86482 15.56133
301 4.807700 0.000000 0.000000 0.552201 0.491781 0.538999
302 7.425700 0.000000 0.000000 0.655757 0.544204 0.539300
303 44.07130 29.70390 0.000000 9.470921 8.928608 1.031806
304 61.87070 37.19950 0.000000 18.17835 15.69420 1.337759
305 84.13880 56.55890 45.34160 40.69451 35.50952 19.85882
306 38.83280 30.43430 19.05990 8.576641 8.567388 3.994229
307 61.36380 30.10100 70.99940 25.15210 15.05926 48.00332
308 85.14980 73.47100 72.80050 54.94472 53.46084 53.47823
309 74.81570 16.77630 39.54880 24.83463 13.50855 13.79744
310 88.81800 15.03890 39.91520 34.43590 18.14217 14.05040
311 90.90060 17.94500 52.39930 38.33892 20.06957 24.46776
312 100.0000 52.46770 63.41380 56.22823 40.28083 38.81079
313 13.07650 24.31580 25.17370 3.578577 4.371241 6.012539
314 12.83070 31.11230 36.36110 5.750078 7.008789 12.04107
315 15.36450 34.18160 51.08480 8.668271 8.969467 23.60827
316 21.60760 42.70040 53.61680 11.74996 13.53660 26.42897
317 31.77850 54.67030 58.25000 18.28802 22.55776 32.33771
318 59.50720 58.28380 43.31340 26.34774 29.34479 18.31748
319 62.60200 68.71070 44.69760 32.62788 39.73264 20.28810
320 84.37710 75.76950 46.99470 49.96868 54.17004 22.96833
321 14.88610 13.17020 24.20200 2.561703 2.147962 5.383782
322 18.24650 13.78070 41.68910 4.725967 2.908297 15.19560
323 88.39810 36.52160 40.93450 37.38325 24.61319 15.36552
324 73.01420 45.80480 26.76160 27.80587 23.84010 7.663940
325 87.69100 46.60630 35.35550 38.74164 29.56677 12.21976
326 16.82970 50.22370 24.09970 9.727069 16.87110 6.682892
327 15.67590 63.02740 53.63920 18.10467 27.84539 27.79078
328 37.88280 83.58800 54.06740 32.99984 52.59960 30.33693
329 57.39030 91.37820 63.52770 47.44663 68.01602 42.77005
330 63.07550 100.0000 91.90590 65.54080 85.65652 91.88987
331 0.000000 43.29910 34.91160 7.729809 12.36851 11.68772
332 11.52340 46.39750 65.39580 14.47645 16.00258 41.01820
333 10.04200 56.12190 65.39110 17.58236 22.65820 41.62602
334 22.52640 64.16340 85.58010 27.87810 31.69740 74.06881
335 68.85780 70.68660 10.60510 34.19013 42.69552 4.719733
336 69.86840 78.49040 27.40030 39.90888 52.01904 10.62779
337 69.51550 78.62970 41.98410 41.35870 52.52838 19.21606
338 17.32730 23.60080 0.000000 2.905303 4.087489 0.832101
339 18.96440 33.59840 31.31700 6.272065 8.157315 9.285328
340 52.87480 44.08610 55.15100 20.76527 18.64610 28.17747
341 65.45730 50.76340 66.40660 31.30196 26.59796 42.70629
342 0.000000 0.000000 0.000000 0.411014 0.420308 0.538590
343 3.895500 20.32420 41.53230 4.299556 3.579279 15.18642
344 0.000000 18.69510 85.75180 14.51804 6.163374 72.13360
345 4.658800 35.22330 86.47240 17.50101 11.71409 74.05400
346 2.417700 43.82630 86.49760 19.49329 15.98710 74.49896
347 88.45470 13.04340 17.79990 32.03029 17.14009 3.323479
348 100.0000 26.47220 35.87880 45.13439 25.68954 11.70919
349 100.0000 100.0000 100.0000 95.38727 100.0000 110.6644
350 55.05520 44.48420 47.77170 20.50034 18.98024 21.15829
351 59.69200 54.87590 48.13160 25.91443 26.95538 22.11954
352 70.69920 59.80830 58.08500 35.63097 34.40975 32.56045
353 72.96650 68.06430 77.77110 45.71057 44.19738 60.79387
354 32.36380 10.47350 26.11480 5.245084 3.211129 6.203054
355 32.23460 8.270700 70.02850 12.46707 5.053325 46.17683
356 32.29060 0.000000 78.96540 14.76980 5.257729 59.92799
357 45.73230 13.55090 87.64670 21.93478 9.110197 75.89020
358 66.82060 14.64280 88.70280 31.78260 14.12634 78.14341
359 86.26210 16.61220 86.99840 43.70381 20.54791 74.65957
360 91.17740 55.22650 85.58760 55.63402 40.10009 73.49165
361 6.424500 10.11320 17.58400 1.423320 1.369892 3.145799
362 10.85460 9.919200 49.44710 5.042645 2.431479 21.56205
363 18.81870 12.48560 60.15410 7.975754 3.687734 32.97441
364 18.40650 15.42980 73.54850 11.50981 5.053595 51.33184
365 40.84820 39.80140 88.76990 24.82745 16.82077 79.00683
366 46.82240 53.02340 87.69970 30.21777 25.82743 77.51603
367 78.73030 89.45470 90.47480 66.17538 73.43150 87.10191
368 66.13160 23.84780 4.979700 18.12466 11.82920 1.259780
369 75.14500 41.00240 11.10000 26.90086 21.46789 2.692334
370 76.84960 56.70060 11.93770 32.89617 32.30333 3.787527
371 89.70090 67.42190 10.30340 46.57838 46.45082 4.408324
372 94.40600 71.09330 36.87710 54.20114 52.72516 15.02593
373 93.50830 90.01260 83.65140 75.22397 79.21384 73.37215
374 57.52530 73.92450 65.26450 36.93848 45.15324 43.02170
375 65.23710 76.65120 74.60370 44.67233 50.89298 56.51424
376 74.32660 78.67210 88.47590 55.70418 57.28211 81.42813
377 35.88700 46.04450 60.59660 16.97834 17.36506 34.63633
378 42.87230 49.10110 72.50890 22.82114 21.11915 51.03734
379 43.57540 70.82050 84.06410 35.36340 40.64514 71.82868
380 63.82510 80.65620 84.77030 49.37810 56.22170 74.19637
381 69.14430 91.18310 86.03150 59.91168 72.64710 77.99795
382 17.77230 38.34300 12.15010 5.892913 9.818226 2.698414
383 52.67630 40.67130 12.53130 15.14429 15.37297 2.900092
384 58.01750 27.04800 23.16970 15.22478 10.95211 5.286332
385 63.83000 31.60340 41.34310 20.69051 14.58472 15.42059
386 82.11280 32.29270 45.13210 32.46757 20.63763 18.38512
387 89.44060 38.79910 59.00890 41.86323 26.97859 32.40793
388 36.60570 35.85210 26.74580 9.611832 10.66617 7.131851
389 49.60320 42.57710 34.45740 15.95803 16.22972 11.41205
390 73.58980 58.21890 40.83260 33.80367 33.15427 16.51543
391 69.14470 66.07070 34.00060 33.68988 38.55472 12.79019
392 89.62950 69.95320 54.77110 52.36071 50.29811 29.71573
393 100.0000 76.38060 67.45180 67.87454 62.81805 46.33779
394 47.77760 19.83460 10.74120 9.499521 6.678883 1.870236
395 54.99410 33.61670 13.40170 14.60866 12.65097 2.775006
396 66.31860 33.34640 15.68380 20.16309 15.35858 3.270059
397 75.36470 36.09590 25.34290 26.66541 19.40548 6.553451
398 85.06280 80.45430 61.37120 55.91123 60.79901 38.55736
399 85.19860 87.98550 74.46950 64.23842 72.00446 57.69452
