KOIOS/K2418U/K2418U #2 2021-02-09 09-11 0.3127x 0.329y sRGB F-S XYZLUT+MTX/K2418U #2 2021-02-09 09-11 0.3127x 0.329y sRGB F-S XYZLUT+MTX.bpc.ti3
CTI3   

DESCRIPTOR "Argyll Calibration Target chart information 3"
ORIGINATOR "Argyll dispread"
CREATED "Tue Feb 09 09:17:15 2021"
DEVICE_CLASS "DISPLAY"
SINGLE_DIM_STEPS "21"
COMP_GREY_STEPS "61"
DARK_REGION_EMPHASIS "1.6"
COLOR_REP "RGB_XYZ"
TARGET_INSTRUMENT "X-Rite i1 DisplayPro, ColorMunki Display"
DISPLAY_TYPE_REFRESH "NO"
DISPLAY_TYPE_BASE_ID "1"
INSTRUMENT_TYPE_SPECTRAL "NO"
LUMINANCE_XYZ_CDM2 "211.597419 221.739138 245.743979"
NORMALIZED_TO_Y_100 "YES"
VIDEO_LUT_CALIBRATION_POSSIBLE "YES"

BEGIN_ARGYLL_COLPROF_ARGS
-v -qh -aX -bn -C "No copyright. Created with DisplayCAL 3.8.9.3 and ArgyllCMS 2.1.2" -M "KOIOS K2418U"
END_ARGYLL_COLPROF_ARGS

OBSERVER "1931_2"
USE_BLACK_POINT_COMPENSATION "NO"
BLACK_POINT_CORRECTION "0.0"
HIRES_B2A "YES"
HIRES_B2A_SIZE "-1"
SMOOTH_B2A "YES"
PATCH_SEQUENCE "OPTIMIZE_DISPLAY_RESPONSE_DELAY"

NUMBER_OF_FIELDS 7
BEGIN_DATA_FORMAT
SAMPLE_ID RGB_R RGB_G RGB_B XYZ_X XYZ_Y XYZ_Z
END_DATA_FORMAT

NUMBER_OF_SETS 588
BEGIN_DATA
1 100.0000 100.0000 100.0000 95.42631 100.0000 110.8258
2 1.960800 1.960800 1.960800 0.514551 0.537973 0.616059
3 3.921600 3.921600 3.921600 0.672969 0.701826 0.817210
4 5.882400 5.882400 5.882400 0.804892 0.836563 0.983002
5 9.803900 9.803900 9.803900 1.276792 1.330412 1.539498
6 13.72600 13.72600 13.72600 1.932363 2.015070 2.294078
7 17.64700 17.64700 17.64700 2.750378 2.870256 3.253200
8 21.56900 21.56900 21.56900 3.787039 3.962240 4.471601
9 25.49000 25.49000 25.49000 5.242711 5.479907 6.203430
10 29.41200 29.41200 29.41200 6.960443 7.277323 8.195528
11 33.33300 33.33300 33.33300 8.957717 9.408913 10.35593
12 37.25500 37.25500 37.25500 11.10858 11.65968 12.84879
13 41.17600 41.17600 41.17600 13.56520 14.22918 15.67305
14 45.09800 45.09800 45.09800 16.49395 17.35091 18.82828
15 49.02000 49.02000 49.02000 19.57410 20.59691 22.61881
16 52.94100 52.94100 52.94100 23.11026 24.28396 26.23781
17 56.86300 56.86300 56.86300 26.98584 28.30145 30.97490
18 60.78400 60.78400 60.78400 31.10108 32.60218 35.79907
19 64.70600 64.70600 64.70600 35.77209 37.39115 41.48274
20 68.62700 68.62700 68.62700 40.95506 42.82838 47.16947
21 72.54900 72.54900 72.54900 46.14190 48.23239 52.94156
22 76.47100 76.47100 76.47100 51.81685 54.24714 59.49027
23 80.39200 80.39200 80.39200 57.70126 60.50209 66.55568
24 84.31400 84.31400 84.31400 64.17963 67.31662 73.70738
25 88.23500 88.23500 88.23500 71.11855 74.78495 82.06675
26 92.15700 92.15700 92.15700 78.97018 82.82658 91.19560
27 96.07800 96.07800 96.07800 87.06889 91.54506 101.2779
28 27.35070 44.61710 77.89350 19.70284 16.83093 63.44859
29 63.07900 56.56300 77.16970 34.87982 30.44738 60.44560
30 0.000000 76.99180 43.40470 23.71612 43.94495 20.39034
31 0.000000 76.29270 70.91880 29.33125 44.61386 53.31215
32 0.000000 100.0000 88.82860 52.54362 82.34498 89.15874
33 0.000000 100.0000 100.0000 57.48514 83.40309 116.7837
34 0.000000 84.59920 100.0000 45.52720 58.08411 115.6840
35 27.49970 90.33590 100.0000 50.72100 66.70477 114.5497
36 62.86980 92.11740 100.0000 62.67805 74.40744 112.6107
37 78.02620 100.0000 100.0000 77.56724 91.65695 112.2443
38 0.000000 19.18110 72.95880 11.39161 5.280358 55.32533
39 0.000000 33.40250 73.88680 13.73830 9.917310 56.65294
40 0.000000 38.30780 100.0000 25.68510 15.06933 116.2932
41 0.000000 53.67640 100.0000 30.05956 24.73336 115.6173
42 0.000000 69.10910 100.0000 36.48311 38.62224 115.4096
43 33.99250 70.92890 100.0000 40.10026 41.70472 113.6921
44 0.000000 55.83160 57.93670 16.04466 22.67691 34.03451
45 40.97610 66.15720 62.67420 26.25754 34.51832 39.21960
46 40.54050 0.000000 0.000000 6.603982 3.533000 0.496303
47 45.77470 0.000000 0.000000 8.409448 4.446341 0.496366
48 51.47060 0.000000 0.000000 10.71742 5.616665 0.496074
49 57.69230 0.000000 0.000000 13.64175 7.097069 0.505538
50 61.15440 0.000000 0.000000 15.62528 8.102688 0.504981
51 64.51610 0.000000 0.000000 17.57474 9.089928 0.512879
52 70.60140 32.70290 34.86110 24.82844 16.86735 10.81402
53 32.75730 13.63820 0.000000 4.865056 3.538113 0.582210
54 53.32510 19.87340 0.000000 12.37879 8.100819 0.667285
55 54.24700 0.000000 14.50880 12.11029 6.249100 2.153415
56 76.33260 0.000000 30.95150 26.29307 13.17139 8.609620
57 100.0000 0.000000 55.23880 50.94693 24.88150 28.30976
58 100.0000 0.000000 69.03180 54.04954 25.71733 46.78865
59 100.0000 33.28970 82.66860 59.43719 31.71873 69.17611
60 74.77030 64.45850 0.000000 36.04077 39.52769 3.024923
61 78.09330 80.59840 0.000000 46.81595 59.31063 4.771170
62 78.64950 100.0000 0.000000 61.73163 90.43222 7.663023
63 84.31110 100.0000 26.19140 65.92711 91.62276 11.54828
64 0.000000 31.25000 0.000000 3.406311 6.795705 1.057982
65 0.000000 35.71430 0.000000 4.334572 8.703540 1.227206
66 0.000000 40.54050 0.000000 5.470913 11.12839 1.446868
67 0.000000 45.77470 0.000000 7.074254 14.46057 1.745815
68 0.000000 51.47060 0.000000 9.060107 18.58366 2.116873
69 0.000000 57.69230 0.000000 11.50441 23.66630 2.583009
70 0.000000 64.51610 0.000000 14.67236 30.31545 3.188400
71 0.000000 72.03390 0.000000 18.53228 38.37782 3.928663
72 0.000000 80.35710 0.000000 23.54012 48.81290 4.887026
73 0.000000 89.62260 0.000000 30.72005 63.86174 6.279541
74 36.83750 100.0000 87.94570 54.91255 82.82031 85.27378
75 43.86390 100.0000 100.0000 61.86560 84.58819 114.7654
76 0.000000 0.000000 4.807700 0.459745 0.434164 0.814452
77 0.000000 0.000000 7.425700 0.513337 0.446862 1.112599
78 0.000000 0.000000 10.20410 0.589463 0.465904 1.531598
79 0.000000 0.000000 13.15790 0.701739 0.497296 2.124596
80 0.000000 0.000000 16.30430 0.839048 0.531668 2.883090
81 0.000000 0.000000 19.66290 1.006284 0.578827 3.813462
82 0.000000 0.000000 23.25580 1.264138 0.647614 5.235037
83 0.000000 0.000000 27.10840 1.625310 0.748685 7.218064
84 0.000000 0.000000 31.25000 2.116483 0.886004 9.914938
85 0.000000 0.000000 35.71430 2.628702 1.030154 12.72823
86 0.000000 0.000000 40.54050 3.234286 1.204929 16.04403
87 0.000000 0.000000 45.77470 4.114599 1.452761 20.81685
88 0.000000 0.000000 51.47060 5.083331 1.731330 26.12807
89 0.000000 0.000000 57.69230 6.551642 2.155095 34.08842
90 0.000000 0.000000 64.51610 8.346061 2.668344 43.84221
91 0.000000 0.000000 72.03390 10.40938 3.265648 55.04893
92 0.000000 0.000000 80.35710 13.32981 4.097435 70.87402
93 0.000000 0.000000 89.62260 17.37103 5.247665 92.77215
94 31.99180 0.000000 100.0000 25.23149 8.184842 117.4701
95 80.61940 0.000000 100.0000 47.70906 19.74850 114.1495
96 0.000000 2.336400 0.000000 0.443258 0.511364 0.482051
97 2.336400 2.336400 2.336400 0.516932 0.539759 0.621445
98 3.144700 3.144700 3.144700 0.595081 0.620585 0.721624
99 3.968300 3.968300 3.968300 0.676097 0.704308 0.824339
100 4.807700 4.807700 4.807700 0.719603 0.750304 0.878312
101 5.663400 5.663400 5.663400 0.809730 0.840261 0.990897
102 6.535900 6.535900 6.535900 0.915078 0.950578 1.123208
103 7.425700 7.425700 7.425700 0.987551 1.051534 1.177728
104 8.333300 8.333300 8.333300 1.086712 1.129182 1.321891
105 9.259300 9.259300 9.259300 1.234928 1.314261 1.470417
106 10.20410 10.20410 10.20410 1.354458 1.410088 1.627428
107 11.16840 11.16840 11.16840 1.485414 1.541515 1.782176
108 12.15280 12.15280 12.15280 1.619406 1.685858 1.936979
109 13.15790 13.15790 13.15790 1.850911 1.929192 2.212156
110 14.18440 14.18440 14.18440 1.980313 2.079073 2.290074
111 15.23300 15.23300 15.23300 2.212086 2.344394 2.590183
112 16.30430 16.30430 16.30430 2.462848 2.571924 2.929899
113 17.39930 17.39930 17.39930 2.654408 2.767574 3.161043
114 18.51850 18.51850 18.51850 2.944212 3.095341 3.388930
115 19.66290 19.66290 19.66290 3.221837 3.405163 3.776556
116 20.83330 20.83330 20.83330 3.557181 3.712978 4.214763
117 22.03070 22.03070 22.03070 3.936242 4.109460 4.667686
118 23.25580 23.25580 23.25580 4.359336 4.549807 5.181647
119 24.50980 24.50980 24.50980 4.795775 5.007110 5.683294
120 25.79360 25.79360 25.79360 5.429601 5.669027 6.426993
121 27.10840 27.10840 27.10840 5.915862 6.173550 6.994885
122 28.45530 28.45530 28.45530 6.628482 6.943919 7.864606
123 29.83540 29.83540 29.83540 7.171968 7.489919 8.494237
124 31.25000 31.25000 31.25000 8.016454 8.359343 9.473635
125 32.70040 32.70040 32.70040 8.542394 8.978088 9.930272
126 34.18800 34.18800 34.18800 9.361980 9.747976 10.99959
127 35.71430 35.71430 35.71430 10.24011 10.70523 12.13301
128 37.28070 37.28070 37.28070 11.18134 11.70645 12.99367
129 38.88890 38.88890 38.88890 12.25580 12.84494 14.21423
130 40.54050 40.54050 40.54050 13.17777 13.74582 15.18504
131 42.23740 42.23740 42.23740 14.54060 15.24003 16.90470
132 43.98150 43.98150 43.98150 15.75724 16.53006 18.33730
133 45.77470 45.77470 45.77470 17.01993 17.83556 19.79691
134 47.61910 47.61910 47.61910 18.36958 19.22433 21.34229
135 49.51690 49.51690 49.51690 20.03738 21.04494 22.89007
136 51.47060 51.47060 51.47060 21.82441 22.93589 24.86574
137 53.48260 53.48260 53.48260 23.61529 24.79372 26.92648
138 55.55560 55.55560 55.55560 25.96663 27.19096 29.93048
139 57.69230 57.69230 57.69230 27.94954 29.21591 32.24821
140 59.89580 59.89580 59.89580 30.42685 31.83064 35.25395
141 62.16930 62.16930 62.16930 33.08205 34.62602 38.25998
142 64.51610 64.51610 64.51610 35.96157 37.57559 41.86512
143 66.93990 66.93990 66.93990 39.14263 40.93190 44.95824
144 69.44440 69.44440 69.44440 42.07669 43.93046 48.56337
145 72.03390 72.03390 72.03390 45.91546 47.92904 52.85711
146 74.71260 74.71260 74.71260 49.59969 51.91924 57.23876
147 77.48540 77.48540 77.48540 53.78737 56.36125 62.30596
148 80.35710 80.35710 80.35710 57.97643 60.73153 67.20051
149 83.33330 83.33330 83.33330 62.27869 65.26110 71.66749
150 86.41970 86.41970 86.41970 67.70571 71.11287 78.19640
151 89.62260 89.62260 89.62260 74.41755 78.00831 86.00877
152 92.94870 92.94870 92.94870 80.81646 84.64357 93.82157
153 96.40520 96.40520 96.40520 88.22502 92.59204 102.8408
154 80.35710 0.000000 0.000000 28.07557 14.41106 0.540898
155 100.0000 27.35150 0.000000 48.17037 27.62663 0.937153
156 100.0000 46.42150 0.000000 51.78940 36.13113 1.740173
157 100.0000 55.72190 39.57200 56.02316 42.61609 13.91844
158 100.0000 62.00860 55.96240 60.58576 48.07591 29.40913
159 50.43060 24.01730 28.66600 12.61989 8.654351 7.522826
160 60.55620 54.18350 31.28950 24.34273 26.49802 9.810739
161 0.000000 100.0000 0.000000 39.13849 81.39992 7.926107
162 34.64410 100.0000 0.000000 42.10421 81.91042 7.792276
163 58.72750 100.0000 0.000000 50.37090 85.47127 7.736638
164 100.0000 100.0000 0.000000 80.64930 99.43732 7.701766
165 0.000000 34.27100 35.80580 5.920687 8.204094 12.72381
166 0.000000 60.16710 45.79910 15.65445 26.21017 21.32979
167 65.83800 73.69850 57.95300 39.60268 47.39907 33.31828
168 9.484600 18.97610 11.32450 1.958498 2.778211 1.858845
169 30.53720 23.58190 18.48110 5.572678 5.315381 3.361646
170 36.46340 69.50070 56.45650 25.50339 37.08002 32.07495
171 50.77620 87.87780 72.90040 44.62808 63.30297 55.87768
172 85.43450 93.13220 100.0000 77.74374 82.42237 112.4292
173 10.20410 0.000000 0.000000 0.831311 0.629496 0.486972
174 13.15790 0.000000 0.000000 1.071761 0.750879 0.500730
175 16.30430 0.000000 0.000000 1.372392 0.899213 0.501018
176 37.13000 79.52700 0.000000 26.98956 48.97296 4.694621
177 50.86530 100.0000 35.27810 47.93697 83.36351 16.54209
178 100.0000 100.0000 33.84510 80.87286 98.54932 14.76699
179 36.08670 37.35160 0.000000 9.081930 11.43533 1.244816
180 50.36480 49.58020 13.28260 17.28487 20.85880 3.156158
181 54.75980 55.06450 100.0000 40.04796 29.90083 113.7516
182 58.38570 67.82770 100.0000 46.70510 42.19404 113.3422
183 19.66290 0.000000 0.000000 1.729435 1.077741 0.513138
184 35.58920 0.000000 14.34720 5.365469 2.830354 2.262480
185 60.23650 0.000000 35.55240 16.98786 8.318066 11.92924
186 72.56530 26.85920 48.78680 27.25465 15.90620 21.75060
187 100.0000 31.51120 51.82980 51.89243 29.38572 23.91432
188 0.000000 0.000000 0.000000 0.405434 0.425613 0.466158
189 0.000000 73.49460 80.68820 30.95238 42.05307 71.07098
190 48.16900 82.62430 100.0000 50.62246 57.78694 114.4013
191 100.0000 100.0000 100.0000 96.11384 100.5907 112.1107
192 80.87160 48.87000 0.000000 34.57406 29.14532 1.880844
193 100.0000 79.56640 0.000000 66.02696 67.38874 4.679515
194 100.0000 88.90100 76.52900 79.55977 81.00641 60.18328
195 23.21360 11.88300 28.31580 3.850789 2.528570 7.661138
196 39.60560 22.00910 32.75140 8.910228 6.290182 10.06006
197 57.41960 35.35320 61.96550 22.48150 15.36851 37.58429
198 0.000000 13.75850 28.62200 2.332859 1.979432 8.183600
199 0.000000 16.35140 48.93070 5.387147 3.166716 23.92756
200 28.75020 24.52930 49.30380 8.720105 6.258428 23.24323
201 35.57640 35.86180 67.47930 16.21072 12.08561 46.45266
202 55.76820 40.88110 100.0000 36.32040 20.93801 114.0009
203 78.81100 66.79620 100.0000 57.82906 46.63284 112.2181
204 83.10670 81.24470 100.0000 68.10257 64.26110 112.1858
205 0.000000 0.000000 2.336400 0.426646 0.431453 0.600185
206 0.764500 0.764500 0.764500 0.428917 0.451797 0.499695
207 1.543200 1.543200 1.543200 0.488927 0.512088 0.583844
208 23.25580 0.000000 0.000000 2.278214 1.353189 0.509673
209 28.70920 22.17970 0.000000 4.628171 4.758054 0.737054
210 29.37880 32.42120 10.32060 6.572240 8.506810 1.953765
211 29.42010 70.57160 38.37370 21.78515 37.13322 15.66243
212 48.81570 100.0000 76.02780 54.50497 83.74940 62.84088
213 73.25180 100.0000 82.21040 68.26291 89.40018 72.66722
214 0.000000 27.10840 0.000000 2.610945 5.068925 0.916716
215 30.54230 59.58800 0.000000 15.15915 26.57173 2.696536
216 100.0000 63.54750 0.000000 58.04668 49.84693 3.029125
217 100.0000 71.33480 25.17100 61.74471 57.48292 7.577854
218 100.0000 71.00520 47.59310 63.44111 57.15176 21.20457
219 58.74520 48.76670 0.000000 20.89370 22.35029 1.852216
220 77.77850 50.39180 100.0000 51.06907 32.54083 112.6847
221 58.08860 0.000000 100.0000 34.24443 12.81540 116.7244
222 58.65690 24.53910 100.0000 35.25587 15.57202 114.8698
223 0.000000 0.000000 0.000000 0.406082 0.426137 0.467568
224 27.10840 0.000000 0.000000 3.031926 1.730157 0.507212
225 31.25000 0.000000 0.000000 4.042463 2.238750 0.500991
226 35.71430 0.000000 0.000000 5.132285 2.790392 0.502164
227 79.52490 0.000000 46.25740 30.52658 14.86636 19.79757
228 81.02790 0.000000 61.17770 34.50975 16.19417 36.72856
229 0.000000 4.807700 0.000000 0.525303 0.676955 0.519912
230 0.000000 0.000000 100.0000 22.56928 6.724671 120.9144
231 0.000000 22.16000 100.0000 23.37475 9.183162 118.9723
232 21.56640 0.000000 25.81400 3.032315 1.480008 6.524463
233 40.09480 0.000000 31.54290 7.956497 3.843610 9.512329
234 44.01930 0.000000 50.92660 11.93877 5.234621 25.06230
235 52.37890 0.000000 73.99870 21.10183 8.565876 57.46037
236 74.19270 0.000000 82.65480 35.92039 15.46495 72.77657
237 100.0000 0.000000 100.0000 66.00522 29.05234 113.8546
238 100.0000 28.00430 100.0000 66.41166 31.97529 112.0120
239 0.000000 19.66290 0.000000 1.551996 2.843998 0.725641
240 0.000000 23.25580 0.000000 1.968612 3.717655 0.798558
241 0.000000 61.30310 78.90780 24.24036 28.99798 66.92613
242 66.04370 80.81510 100.0000 57.22110 58.87102 113.6330
243 100.0000 100.0000 100.0000 96.30190 100.7438 112.5390
244 0.000000 13.15790 0.000000 0.964493 1.604191 0.625234
245 0.000000 16.30430 0.000000 1.207962 2.116766 0.662680
246 27.39670 36.33800 42.53010 9.530215 10.51541 17.21731
247 27.97820 43.21220 43.97300 11.53838 14.21236 18.87711
248 40.53860 51.54720 49.90590 17.86355 21.23166 23.78351
249 44.79060 55.31640 61.57380 23.00463 25.28335 37.91430
250 0.000000 7.425700 0.000000 0.646612 0.927742 0.567919
251 0.000000 10.20410 0.000000 0.771736 1.194779 0.591232
252 0.000000 14.31250 17.09310 1.478161 1.822024 3.265235
253 0.000000 25.13520 17.87300 2.719241 4.418698 3.513102
254 100.0000 84.04200 41.54570 69.85503 72.90716 17.51448
255 100.0000 84.93360 59.28930 73.04680 74.59090 34.54927
256 100.0000 85.80630 87.11940 80.86396 77.07436 80.32366
257 100.0000 70.28470 85.35460 71.60781 57.58595 75.85251
258 100.0000 76.55110 100.0000 80.77618 66.08900 111.4227
259 100.0000 88.49740 100.0000 87.91773 82.13577 111.7546
260 0.000000 76.06910 25.76400 21.71848 43.33941 9.477659
261 0.000000 100.0000 25.63950 39.68119 81.02047 12.41604
262 0.000000 100.0000 45.27830 41.60361 81.06377 24.42579
263 0.000000 100.0000 61.40220 44.66997 81.34540 42.55310
264 0.000000 100.0000 75.53440 48.41614 82.01656 64.27617
265 0.000000 39.97070 20.47250 5.970884 10.98893 4.763646
266 32.92170 42.91740 20.37880 10.17966 14.06938 4.581387
267 47.22130 59.38050 37.39970 21.10429 28.09344 13.78725
268 63.80320 90.94480 37.16100 47.07228 71.24856 16.26101
269 100.0000 100.0000 55.56280 83.54176 98.85854 32.39679
270 100.0000 100.0000 71.82340 86.83611 99.22312 54.03591
271 100.0000 100.0000 88.90500 91.85877 100.0130 85.34043
272 28.19880 47.76940 100.0000 30.20031 21.26407 116.1568
273 100.0000 47.06050 100.0000 69.67575 40.13061 111.4991
274 35.62510 9.645500 41.13430 7.952078 4.018861 16.11474
275 48.48740 27.75720 48.07580 14.83777 10.07179 22.09958
276 100.0000 32.30310 66.44620 55.19752 30.45550 42.56545
277 100.0000 52.02620 79.95270 63.25916 41.69201 64.91429
278 100.0000 62.71180 100.0000 74.55390 51.72347 111.4479
279 55.95410 100.0000 54.33010 52.60328 84.56181 32.37261
280 72.98910 100.0000 65.00080 63.66413 88.82723 45.21659
281 49.85530 57.94740 0.000000 20.34791 27.78445 2.541491
282 51.94640 60.27520 28.20460 22.76823 30.06004 8.709858
283 28.45330 0.000000 57.51470 9.283718 3.534092 33.98747
284 32.27410 24.44100 70.61500 14.54935 7.856336 51.89213
285 60.19410 66.30620 74.58280 37.11307 38.98795 57.46956
286 75.70470 27.54030 0.000000 26.17650 16.63574 0.886670
287 87.43230 39.65220 12.69270 37.71413 26.13511 2.388774
288 72.03390 0.000000 0.000000 22.55154 11.61675 0.534502
289 77.21100 0.000000 17.72820 26.11937 13.32396 2.936841
290 100.0000 27.21160 21.19420 48.45139 27.45743 3.915327
291 100.0000 43.65130 23.43100 51.58998 34.58349 5.200197
292 100.0000 45.45790 44.08740 53.66380 35.70261 17.22267
293 0.000000 26.01510 36.23740 4.493852 5.066095 12.77265
294 0.000000 42.97740 55.33000 11.48918 13.92192 31.04310
295 67.41950 57.82050 64.72540 35.08182 32.30810 41.96148
296 89.62260 0.000000 0.000000 36.72816 18.80736 0.577848
297 100.0000 0.000000 0.000000 47.23598 24.12489 0.614423
298 100.0000 0.000000 14.93310 47.27233 24.08076 2.171846
299 100.0000 0.000000 28.75720 47.94038 24.21985 7.187105
300 100.0000 0.000000 42.18340 49.29394 24.52996 16.10381
301 4.807700 0.000000 0.000000 0.542695 0.490116 0.471077
302 7.425700 0.000000 0.000000 0.661818 0.549661 0.482092
303 44.07130 29.70390 0.000000 10.07383 9.377333 0.948312
304 61.87070 37.19950 0.000000 19.65131 16.57246 1.244329
305 84.13880 56.55890 45.34160 42.28954 36.15259 19.11828
306 38.83280 30.43430 19.05990 8.930606 8.872312 3.742888
307 61.36380 30.10100 70.99940 26.01996 15.00653 51.49402
308 85.14980 73.47100 72.80050 55.91273 54.02648 54.17794
309 74.81570 16.77630 39.54880 26.60808 14.17828 13.94600
310 88.81800 15.03890 39.91520 37.67369 19.54475 14.01542
311 90.90060 17.94500 52.39930 41.64941 21.43806 25.30871
312 100.0000 52.46770 63.41380 59.20601 41.15936 39.34151
313 13.07650 24.31580 25.17370 3.589802 4.443651 6.230232
314 12.83070 31.11230 36.36110 5.908531 7.193963 12.92020
315 15.36450 34.18160 51.08480 8.849313 9.002142 25.42998
316 21.60760 42.70040 53.61680 12.17195 13.92052 28.80431
317 31.77850 54.67030 58.25000 18.63856 23.00769 34.42892
318 59.50720 58.28380 43.31340 26.98589 30.12148 18.05113
319 62.60200 68.71070 44.69760 33.29384 40.77987 19.59073
320 84.37710 75.76950 46.99470 51.33113 55.58495 21.70627
321 14.88610 13.17020 24.20200 2.597157 2.141100 5.828693
322 18.24650 13.78070 41.68910 4.983670 2.903440 16.88720
323 88.39810 36.52160 40.93450 39.44070 25.17821 14.66858
324 73.01420 45.80480 26.76160 28.99142 24.33844 6.909323
325 87.69100 46.60630 35.35550 40.90570 30.27832 11.39260
326 16.82970 50.22370 24.09970 10.07860 17.93926 6.499921
327 15.67590 63.02740 53.63920 19.05222 29.57580 29.64778
328 37.88280 83.58800 54.06740 33.78333 54.78142 30.78876
329 57.39030 91.37820 63.52770 48.40876 70.86399 43.00544
330 63.07550 100.0000 91.90590 66.28678 87.75498 94.86740
331 0.000000 43.29910 34.91160 8.236341 13.23008 12.52769
332 11.52340 46.39750 65.39580 15.12551 16.38758 44.74174
333 10.04200 56.12190 65.39110 18.48261 23.70766 44.89909
334 22.52640 64.16340 85.58010 29.09230 32.82689 80.28626
335 68.85780 70.68660 10.60510 35.76027 44.47858 4.336419
336 69.86840 78.49040 27.40030 41.04438 53.99373 9.600812
337 69.51550 78.62970 41.98410 42.22506 54.32281 18.13901
338 17.32730 23.60080 0.000000 2.992235 4.265423 0.786734
339 18.96440 33.59840 31.31700 6.339523 8.323729 9.789587
340 52.87480 44.08610 55.15100 21.22014 18.66481 29.77411
341 65.45730 50.76340 66.40660 31.81724 26.49978 44.05643
342 0.000000 0.000000 0.000000 0.408048 0.428073 0.471545
343 3.895500 20.32420 41.53230 4.587708 3.646488 17.03082
344 0.000000 18.69510 85.75180 16.45311 6.620390 83.12459
345 4.658800 35.22330 86.47240 19.13066 12.04843 83.94620
346 2.417700 43.82630 86.49760 21.27097 16.74162 83.90662
347 88.45470 13.04340 17.79990 35.99649 18.98665 2.894653
348 100.0000 26.47220 35.87880 49.48113 27.51379 11.14879
349 100.0000 100.0000 100.0000 96.64957 101.0296 113.1384
350 55.05520 44.48420 47.77170 20.92832 19.11125 21.81549
351 59.69200 54.87590 48.13160 26.36786 27.38816 22.38561
352 70.69920 59.80830 58.08500 36.20080 34.83618 32.98781
353 72.96650 68.06430 77.77110 46.51477 44.72058 62.99293
354 32.36380 10.47350 26.11480 5.594410 3.316940 6.587993
355 32.23460 8.270700 70.02850 13.39344 5.214391 51.52258
356 32.29060 0.000000 78.96540 16.10356 5.645824 67.34382
357 45.73230 13.55090 87.64670 23.72424 9.451945 85.54642
358 66.82060 14.64280 88.70280 34.14327 14.70701 87.01807
359 86.26210 16.61220 86.99840 46.81831 21.46953 82.30977
360 91.17740 55.22650 85.58760 57.43243 40.17363 76.71948
361 6.424500 10.11320 17.58400 1.438761 1.379607 3.353416
362 10.85460 9.919200 49.44710 5.449162 2.457253 24.25642
363 18.81870 12.48560 60.15410 8.618066 3.754226 37.17249
364 18.40650 15.42980 73.54850 12.55703 5.196727 58.13436
365 40.84820 39.80140 88.76990 25.69522 16.45003 87.17656
366 46.82240 53.02340 87.69970 30.96498 25.71872 84.93766
367 78.73030 89.45470 90.47480 66.92984 74.24524 90.51672
368 66.13160 23.84780 4.979700 20.01453 12.70248 1.064909
369 75.14500 41.00240 11.10000 28.63920 22.42086 2.291583
370 76.84960 56.70060 11.93770 34.79467 33.79885 3.271760
371 89.70090 67.42190 10.30340 49.66521 48.86738 3.972724
372 94.40600 71.09330 36.87710 56.78295 54.48439 13.54792
373 93.50830 90.01260 83.65140 76.17194 80.22178 73.42049
374 57.52530 73.92450 65.26450 37.64580 46.60167 43.70513
375 65.23710 76.65120 74.60370 45.00312 51.53215 58.07390
376 74.32660 78.67210 88.47590 56.67216 57.99057 85.42958
377 35.88700 46.04450 60.59660 17.23799 17.31281 37.26863
378 42.87230 49.10110 72.50890 23.13172 21.02126 54.55323
379 43.57540 70.82050 84.06410 36.13628 41.65986 76.55592
380 63.82510 80.65620 84.77030 50.04697 57.20548 77.37573
381 69.14430 91.18310 86.03150 60.63327 74.50276 79.98992
382 17.77230 38.34300 12.15010 6.187423 10.58074 2.573811
383 52.67630 40.67130 12.53130 15.89945 16.01620 2.570746
384 58.01750 27.04800 23.16970 16.10345 11.30688 4.970748
385 63.83000 31.60340 41.34310 21.75549 14.96103 15.51355
386 82.11280 32.29270 45.13210 34.20709 21.08747 18.30312
387 89.44060 38.79910 59.00890 44.14688 27.60138 32.91612
388 36.60570 35.85210 26.74580 9.697671 10.76435 6.994701
389 49.60320 42.57710 34.45740 16.40463 16.65817 11.46011
390 73.58980 58.21890 40.83260 34.83129 33.74917 15.68644
391 69.14470 66.07070 34.00060 34.57466 39.55941 11.98166
