KOIOS/K2418U/K2418U #2 2021-02-09 09-11 0.3127x 0.329y sRGB F-S XYZLUT+MTX/K2418U #2 2021-02-09 09-11 0.3127x 0.329y sRGB F-S XYZLUT+MTX.ti3
CTI3   

DESCRIPTOR "Argyll Calibration Target chart information 3"
ORIGINATOR "Argyll dispread"
CREATED "Tue Feb 09 09:17:15 2021"
DEVICE_CLASS "DISPLAY"
SINGLE_DIM_STEPS "21"
COMP_GREY_STEPS "61"
DARK_REGION_EMPHASIS "1.6"
COLOR_REP "RGB_XYZ"
TARGET_INSTRUMENT "X-Rite i1 DisplayPro, ColorMunki Display"
DISPLAY_TYPE_REFRESH "NO"
DISPLAY_TYPE_BASE_ID "1"
INSTRUMENT_TYPE_SPECTRAL "NO"
LUMINANCE_XYZ_CDM2 "211.597419 221.739138 245.743979"
NORMALIZED_TO_Y_100 "YES"
VIDEO_LUT_CALIBRATION_POSSIBLE "YES"

BEGIN_ARGYLL_COLPROF_ARGS
-v -qh -aX -bn -C "No copyright. Created with DisplayCAL 3.8.9.3 and ArgyllCMS 2.1.2" -M "KOIOS K2418U"
END_ARGYLL_COLPROF_ARGS

OBSERVER "1931_2"
USE_BLACK_POINT_COMPENSATION "NO"
BLACK_POINT_CORRECTION "0.0"
HIRES_B2A "YES"
HIRES_B2A_SIZE "-1"
SMOOTH_B2A "YES"
PATCH_SEQUENCE "OPTIMIZE_DISPLAY_RESPONSE_DELAY"

NUMBER_OF_FIELDS 7
BEGIN_DATA_FORMAT
SAMPLE_ID RGB_R RGB_G RGB_B XYZ_X XYZ_Y XYZ_Z
END_DATA_FORMAT

NUMBER_OF_SETS 588
BEGIN_DATA
1 100.0000 100.0000 100.0000 95.42628 100.0000 110.8257
2 1.960800 1.960800 1.960800 0.520082 0.535746 0.668519
3 3.921600 3.921600 3.921600 0.674962 0.699603 0.844275
4 5.882400 5.882400 5.882400 0.805224 0.834343 0.998133
5 9.803900 9.803900 9.803900 1.275246 1.328203 1.541182
6 13.72600 13.72600 13.72600 1.930378 2.012876 2.292449
7 17.64700 17.64700 17.64700 2.748319 2.868081 3.250920
8 21.56900 21.56900 21.56900 3.784985 3.960089 4.469218
9 25.49000 25.49000 25.49000 5.240686 5.477790 6.201063
10 29.41200 29.41200 29.41200 6.958456 7.275245 8.193203
11 33.33300 33.33300 33.33300 8.955774 9.406883 10.35365
12 37.25500 37.25500 37.25500 11.10668 11.65770 12.84657
13 41.17600 41.17600 41.17600 13.56336 14.22726 15.67089
14 45.09800 45.09800 45.09800 16.49217 17.34906 18.82619
15 49.02000 49.02000 49.02000 19.57239 20.59513 22.61680
16 52.94100 52.94100 52.94100 23.10863 24.28226 26.23588
17 56.86300 56.86300 56.86300 26.98430 28.29984 30.97308
18 60.78400 60.78400 60.78400 31.09963 32.60066 35.79736
19 64.70600 64.70600 64.70600 35.77074 37.38974 41.48115
20 68.62700 68.62700 68.62700 40.95383 42.82709 47.16801
21 72.54900 72.54900 72.54900 46.14078 48.23122 52.94023
22 76.47100 76.47100 76.47100 51.81586 54.24610 59.48908
23 80.39200 80.39200 80.39200 57.70040 60.50119 66.55465
24 84.31400 84.31400 84.31400 64.17891 67.31587 73.70651
25 88.23500 88.23500 88.23500 71.11798 74.78437 82.06606
26 92.15700 92.15700 92.15700 78.96979 82.82618 91.19511
27 96.07800 96.07800 96.07800 87.06868 91.54485 101.2776
28 27.35070 44.61710 77.89350 19.70113 16.82906 63.44749
29 63.07900 56.56300 77.16970 34.87845 30.44582 60.44443
30 0.000000 76.99180 43.40470 23.71450 43.94369 20.38828
31 0.000000 76.29270 70.91880 29.32976 44.61261 53.31082
32 0.000000 100.0000 88.82860 52.54264 82.34457 89.15821
33 0.000000 100.0000 100.0000 57.48427 83.40270 116.7838
34 0.000000 84.59920 100.0000 45.52607 58.08316 115.6841
35 27.49970 90.33590 100.0000 50.71998 66.70401 114.5497
36 62.86980 92.11740 100.0000 62.67730 74.40685 112.6107
37 78.02620 100.0000 100.0000 77.56682 91.65674 112.2443
38 0.000000 19.18110 72.95880 11.38972 5.278236 55.32406
39 0.000000 33.40250 73.88680 13.73646 9.915291 56.65169
40 0.000000 38.30780 100.0000 25.68353 15.06743 116.2933
41 0.000000 53.67640 100.0000 30.05808 24.73167 115.6174
42 0.000000 69.10910 100.0000 36.48178 38.62086 115.4097
43 33.99250 70.92890 100.0000 40.09901 41.70341 113.6921
44 0.000000 55.83160 57.93670 16.04287 22.67517 34.03276
45 40.97610 66.15720 62.67420 26.25598 34.51685 39.21796
46 40.54050 0.000000 0.000000 6.601997 3.530840 0.493827
47 45.77470 0.000000 0.000000 8.407495 4.444201 0.493874
48 51.47060 0.000000 0.000000 10.71552 5.614551 0.493579
49 57.69230 0.000000 0.000000 13.63991 7.094987 0.503042
50 61.15440 0.000000 0.000000 15.62348 8.100629 0.502485
51 64.51610 0.000000 0.000000 17.57299 9.087891 0.510383
52 70.60140 32.70290 34.86110 24.82685 16.86548 10.81175
53 32.75730 13.63820 0.000000 4.863031 3.535953 0.579735
54 53.32510 19.87340 0.000000 12.37692 8.098760 0.664793
55 54.24700 0.000000 14.50880 12.10842 6.247000 2.150956
56 76.33260 0.000000 30.95150 26.29151 13.16944 8.607304
57 100.0000 0.000000 55.23880 50.94592 24.87981 28.30788
58 100.0000 0.000000 69.03180 54.04860 25.71566 46.78718
59 100.0000 33.28970 82.66860 59.43637 31.71719 69.17514
60 74.77030 64.45850 0.000000 36.03943 39.52633 3.022483
61 78.09330 80.59840 0.000000 46.81485 59.30971 4.768769
62 78.64950 100.0000 0.000000 61.73086 90.43199 7.660686
63 84.31110 100.0000 26.19140 65.92643 91.62255 11.54603
64 0.000000 31.25000 0.000000 3.404245 6.793617 1.055498
65 0.000000 35.71430 0.000000 4.332526 8.701494 1.224726
66 0.000000 40.54050 0.000000 5.468893 11.12640 1.444393
67 0.000000 45.77470 0.000000 7.072269 14.45865 1.743347
68 0.000000 51.47060 0.000000 9.058166 18.58183 2.114413
69 0.000000 57.69230 0.000000 11.50252 23.66459 2.580559
70 0.000000 64.51610 0.000000 14.67054 30.31388 3.185964
71 0.000000 72.03390 0.000000 18.53055 38.37643 3.926243
72 0.000000 80.35710 0.000000 23.53850 48.81174 4.884627
73 0.000000 89.62260 0.000000 30.71859 63.86092 6.277173
74 36.83750 100.0000 87.94570 54.91163 82.81991 85.27316
75 43.86390 100.0000 100.0000 61.86483 84.58783 114.7654
76 0.000000 0.000000 4.807700 0.468907 0.431935 0.892972
77 0.000000 0.000000 7.425700 0.521979 0.444633 1.194928
78 0.000000 0.000000 10.20410 0.597368 0.463676 1.626531
79 0.000000 0.000000 13.15790 0.708536 0.495068 2.229462
80 0.000000 0.000000 16.30430 0.844769 0.529441 2.995925
81 0.000000 0.000000 19.66290 1.011490 0.576601 3.927016
82 0.000000 0.000000 23.25580 1.268596 0.645390 5.342749
83 0.000000 0.000000 27.10840 1.628487 0.746463 7.308241
84 0.000000 0.000000 31.25000 2.118096 0.883785 9.979835
85 0.000000 0.000000 35.71430 2.629116 1.027938 12.77222
86 0.000000 0.000000 40.54050 3.233791 1.202717 16.07149
87 0.000000 0.000000 45.77470 4.113405 1.450554 20.83111
88 0.000000 0.000000 51.47060 5.081753 1.729130 26.13482
89 0.000000 0.000000 57.69230 6.549829 2.152904 34.09023
90 0.000000 0.000000 64.51610 8.344173 2.666164 43.84201
91 0.000000 0.000000 72.03390 10.40749 3.263482 55.04811
92 0.000000 0.000000 80.35710 13.32797 4.095287 70.87321
93 0.000000 0.000000 89.62260 17.36927 5.245542 92.77172
94 31.99180 0.000000 100.0000 25.22991 8.182785 117.4702
95 80.61940 0.000000 100.0000 47.70798 19.74670 114.1495
96 0.000000 2.336400 0.000000 0.449591 0.509137 0.540278
97 2.336400 2.336400 2.336400 0.522412 0.537532 0.673538
98 3.144700 3.144700 3.144700 0.598563 0.618360 0.759377
99 3.968300 3.968300 3.968300 0.678051 0.702085 0.851125
100 4.807700 4.807700 4.807700 0.720900 0.748082 0.900377
101 5.663400 5.663400 5.663400 0.810027 0.838041 1.005783
102 6.535900 6.535900 6.535900 0.914611 0.948360 1.133009
103 7.425700 7.425700 7.425700 0.986635 1.049319 1.184008
104 8.333300 8.333300 8.333300 1.085574 1.126968 1.326635
105 9.259300 9.259300 9.259300 1.233398 1.312051 1.472182
106 10.20410 10.20410 10.20410 1.352809 1.407880 1.628339
107 11.16840 11.16840 11.16840 1.483641 1.539310 1.782154
108 12.15280 12.15280 12.15280 1.617538 1.683657 1.936245
109 13.15790 13.15790 13.15790 1.848948 1.926996 2.210698
110 14.18440 14.18440 14.18440 1.978314 2.076880 2.288324
111 15.23300 15.23300 15.23300 2.210051 2.342207 2.588145
112 16.30430 16.30430 16.30430 2.460798 2.569742 2.927727
113 17.39930 17.39930 17.39930 2.652351 2.765397 3.158794
114 18.51850 18.51850 18.51850 2.942150 3.093171 3.386599
115 19.66290 19.66290 19.66290 3.219775 3.403000 3.774193
116 20.83330 20.83330 20.83330 3.555123 3.710821 4.212386
117 22.03070 22.03070 22.03070 3.934190 4.107312 4.665302
118 23.25580 23.25580 23.25580 4.357292 4.547669 5.179265
119 24.50980 24.50980 24.50980 4.793740 5.004982 5.680918
120 25.79360 25.79360 25.79360 5.427580 5.666914 6.424630
121 27.10840 27.10840 27.10840 5.913852 6.171448 6.992534
122 28.45530 28.45530 28.45530 6.626487 6.941834 7.862274
123 29.83540 29.83540 29.83540 7.169985 7.487846 8.491918
124 31.25000 31.25000 31.25000 8.014490 8.357289 9.471338
125 32.70040 32.70040 32.70040 8.540442 8.976048 9.927985
126 34.18800 34.18800 34.18800 9.360046 9.745953 10.99733
127 35.71430 35.71430 35.71430 10.23820 10.70323 12.13077
128 37.28070 37.28070 37.28070 11.17945 11.70447 12.99145
129 38.88890 38.88890 38.88890 12.25393 12.84299 14.21204
130 40.54050 40.54050 40.54050 13.17592 13.74389 15.18287
131 42.23740 42.23740 42.23740 14.53878 15.23813 16.90257
132 43.98150 43.98150 43.98150 15.75545 16.52819 18.33520
133 45.77470 45.77470 45.77470 17.01817 17.83372 19.79484
134 47.61910 47.61910 47.61910 18.36785 19.22252 21.34026
135 49.51690 49.51690 49.51690 20.03568 21.04317 22.88807
136 51.47060 51.47060 51.47060 21.82275 22.93416 24.86378
137 53.48260 53.48260 53.48260 23.61367 24.79203 26.92457
138 55.55560 55.55560 55.55560 25.96506 27.18932 29.92864
139 57.69230 57.69230 57.69230 27.94802 29.21432 32.24642
140 59.89580 59.89580 59.89580 30.42538 31.82911 35.25222
141 62.16930 62.16930 62.16930 33.08064 34.62455 38.25832
142 64.51610 64.51610 64.51610 35.96023 37.57418 41.86354
143 66.93990 66.93990 66.93990 39.14136 40.93057 44.95673
144 69.44440 69.44440 69.44440 42.07548 43.92919 48.56194
145 72.03390 72.03390 72.03390 45.91434 47.92786 52.85577
146 74.71260 74.71260 74.71260 49.59865 51.91815 57.23752
147 77.48540 77.48540 77.48540 53.78642 56.36026 62.30483
148 80.35710 80.35710 80.35710 57.97557 60.73064 67.19949
149 83.33330 83.33330 83.33330 62.27793 65.26031 71.66657
150 86.41970 86.41970 86.41970 67.70507 71.11221 78.19563
151 89.62260 89.62260 89.62260 74.41706 78.00780 86.00817
152 92.94870 92.94870 92.94870 80.81611 84.64321 93.82114
153 96.40520 96.40520 96.40520 88.22483 92.59185 102.8406
154 80.35710 0.000000 0.000000 28.07405 14.40914 0.538403
155 100.0000 27.35150 0.000000 48.16930 27.62500 0.934667
156 100.0000 46.42150 0.000000 51.78841 36.12969 1.737704
157 100.0000 55.72190 39.57200 56.02226 42.61480 13.91624
158 100.0000 62.00860 55.96240 60.58496 48.07474 29.40727
159 50.43060 24.01730 28.66600 12.61803 8.652304 7.520486
160 60.55620 54.18350 31.28950 24.34113 26.49637 9.808449
161 0.000000 100.0000 0.000000 39.13722 81.39949 7.923776
162 34.64410 100.0000 0.000000 42.10300 81.91000 7.789942
163 58.72750 100.0000 0.000000 50.36987 85.47093 7.734302
164 100.0000 100.0000 0.000000 80.64895 99.43728 7.699430
165 0.000000 34.27100 35.80580 5.918676 8.202037 12.72158
166 0.000000 60.16710 45.79910 15.65266 26.20851 21.32776
167 65.83800 73.69850 57.95300 39.60142 47.39788 33.31651
168 9.484600 18.97610 11.32450 1.956420 2.776034 1.856508
169 30.53720 23.58190 18.48110 5.570660 5.313260 3.359216
170 36.46340 69.50070 56.45650 25.50181 37.07860 32.07315
171 50.77620 87.87780 72.90040 44.62693 63.30213 55.87641
172 85.43450 93.13220 100.0000 77.74332 82.42196 112.4292
173 10.20410 0.000000 0.000000 0.834612 0.627271 0.523384
174 13.15790 0.000000 0.000000 1.073611 0.748657 0.522733
175 16.30430 0.000000 0.000000 1.372919 0.896994 0.512340
176 37.13000 79.52700 0.000000 26.98802 48.97181 4.692218
177 50.86530 100.0000 35.27810 47.93589 83.36312 16.53995
178 100.0000 100.0000 33.84510 80.87251 98.54927 14.76481
179 36.08670 37.35160 0.000000 9.079990 11.43334 1.242336
180 50.36480 49.58020 13.28260 17.28311 20.85702 3.153721
181 54.75980 55.06450 100.0000 40.04671 29.89925 113.7516
182 58.38570 67.82770 100.0000 46.70399 42.19274 113.3422
183 19.66290 0.000000 0.000000 1.728927 1.075526 0.517807
184 35.58920 0.000000 14.34720 5.363482 2.828178 2.260155
185 60.23650 0.000000 35.55240 16.98609 8.316012 11.92700
186 72.56530 26.85920 48.78680 27.25311 15.90431 21.74857
187 100.0000 31.51120 51.82980 51.89144 29.38413 23.91234
188 0.000000 0.000000 0.000000 0.414793 0.423384 0.546096
189 0.000000 73.49460 80.68820 30.95092 42.05176 71.07005
190 48.16900 82.62430 100.0000 50.62144 57.78598 114.4013
191 100.0000 100.0000 100.0000 96.11383 100.5907 112.1107
192 80.87160 48.87000 0.000000 34.57268 29.14373 1.878379
193 100.0000 79.56640 0.000000 66.02628 67.38799 4.677112
194 100.0000 88.90100 76.52900 79.55939 81.00597 60.18211
195 23.21360 11.88300 28.31580 3.848788 2.526387 7.659364
196 39.60560 22.00910 32.75140 8.908284 6.288083 10.05778
197 57.41960 35.35320 61.96550 22.47986 15.36661 37.58262
198 0.000000 13.75850 28.62200 2.330910 1.977237 8.183384
199 0.000000 16.35140 48.93070 5.385143 3.164547 23.92591
200 28.75020 24.52930 49.30380 8.718157 6.256328 23.24124
201 35.57640 35.86180 67.47930 16.20894 12.08364 46.45118
202 55.76820 40.88110 100.0000 36.31906 20.93624 114.0009
203 78.81100 66.79620 100.0000 57.82820 46.63163 112.2181
204 83.10670 81.24470 100.0000 68.10194 64.26029 112.1858
205 0.000000 0.000000 2.336400 0.435922 0.429224 0.679521
206 0.764500 0.764500 0.764500 0.437361 0.449568 0.573060
207 1.543200 1.543200 1.543200 0.495238 0.509861 0.641908
208 23.25580 0.000000 0.000000 2.276902 1.350980 0.510088
209 28.70920 22.17970 0.000000 4.626133 4.755921 0.734566
210 29.37880 32.42120 10.32060 6.570244 8.504760 1.951301
211 29.42010 70.57160 38.37370 21.78349 37.13180 15.66027
212 48.81570 100.0000 76.02780 54.50404 83.74902 62.83977
213 73.25180 100.0000 82.21040 68.26228 89.39992 72.66632
214 0.000000 27.10840 0.000000 2.608862 5.066799 0.914231
215 30.54230 59.58800 0.000000 15.15734 26.57008 2.694089
216 100.0000 63.54750 0.000000 58.04582 49.84580 3.026685
217 100.0000 71.33480 25.17100 61.74394 57.48196 7.575515
218 100.0000 71.00520 47.59310 63.44037 57.15079 21.20253
219 58.74520 48.76670 0.000000 20.89202 22.34855 1.849750
220 77.77850 50.39180 100.0000 51.06806 32.53931 112.6847
221 58.08860 0.000000 100.0000 34.24305 12.81345 116.7245
222 58.65690 24.53910 100.0000 35.25451 15.57013 114.8698
223 0.000000 0.000000 0.000000 0.415441 0.423908 0.547506
224 27.10840 0.000000 0.000000 3.030172 1.727957 0.505706
225 31.25000 0.000000 0.000000 4.040520 2.236561 0.498774
226 35.71430 0.000000 0.000000 5.130295 2.788215 0.499751
227 79.52490 0.000000 46.25740 30.52511 14.86445 19.79550
228 81.02790 0.000000 61.17770 34.50837 16.19229 36.72687
229 0.000000 4.807700 0.000000 0.527703 0.674731 0.549908
230 0.000000 0.000000 100.0000 22.56764 6.722581 120.9146
231 0.000000 22.16000 100.0000 23.37313 9.181127 118.9724
232 21.56640 0.000000 25.81400 3.030885 1.477802 6.529043
233 40.09480 0.000000 31.54290 7.954539 3.841456 9.510083
234 44.01930 0.000000 50.92660 11.93689 5.232498 25.06036
235 52.37890 0.000000 73.99870 21.10016 8.563827 57.45914
236 74.19270 0.000000 82.65480 35.91904 15.46305 72.77568
237 100.0000 0.000000 100.0000 66.00454 29.05075 113.8546
238 100.0000 28.00430 100.0000 66.41099 31.97376 112.0120
239 0.000000 19.66290 0.000000 1.549904 2.841822 0.723225
240 0.000000 23.25580 0.000000 1.966517 3.715499 0.796083
241 0.000000 61.30310 78.90780 24.23876 28.99638 66.92511
242 66.04370 80.81510 100.0000 57.22023 58.87009 113.6330
243 100.0000 100.0000 100.0000 96.30189 100.7438 112.5390
244 0.000000 13.15790 0.000000 0.962583 1.601988 0.624137
245 0.000000 16.30430 0.000000 1.205912 2.114574 0.660560
246 27.39670 36.33800 42.53010 9.528284 10.51340 17.21518
247 27.97820 43.21220 43.97300 11.53649 14.21044 18.87502
248 40.53860 51.54720 49.90590 17.86180 21.22989 23.78153
249 44.79060 55.31640 61.57380 23.00300 25.28167 37.91263
250 0.000000 7.425700 0.000000 0.646211 0.925524 0.577807
251 0.000000 10.20410 0.000000 0.770283 1.192567 0.593554
252 0.000000 14.31250 17.09310 1.476208 1.819826 3.264506
253 0.000000 25.13520 17.87300 2.717161 4.416557 3.510683
254 100.0000 84.04200 41.54570 69.85444 72.90654 17.51236
255 100.0000 84.93360 59.28930 73.04628 74.59031 34.54753
256 100.0000 85.80630 87.11940 80.86361 77.07383 80.32293
257 100.0000 70.28470 85.35460 71.60726 57.58499 75.85168
258 100.0000 76.55110 100.0000 80.77583 66.08823 111.4227
259 100.0000 88.49740 100.0000 87.91754 82.13535 111.7546
260 0.000000 76.06910 25.76400 21.71682 43.33813 9.475362
261 0.000000 100.0000 25.63950 39.67993 81.02003 12.41381
262 0.000000 100.0000 45.27830 41.60239 81.06333 24.42382
263 0.000000 100.0000 61.40220 44.66882 81.34496 42.55154
264 0.000000 100.0000 75.53440 48.41507 82.01614 64.27509
265 0.000000 39.97070 20.47250 5.968875 10.98693 4.761244
266 32.92170 42.91740 20.37880 10.17774 14.06745 4.578981
267 47.22130 59.38050 37.39970 21.10262 28.09182 13.78505
268 63.80320 90.94480 37.16100 47.07118 71.24790 16.25886
269 100.0000 100.0000 55.56280 83.54147 98.85849 32.39500
270 100.0000 100.0000 71.82340 86.83589 99.22308 54.03460
271 100.0000 100.0000 88.90500 91.85866 100.0130 85.33981
272 28.19880 47.76940 100.0000 30.19884 21.26230 116.1569
273 100.0000 47.06050 100.0000 69.67515 40.12926 111.4991
274 35.62510 9.645500 41.13430 7.950118 4.016711 16.11264
275 48.48740 27.75720 48.07580 14.83596 10.06977 22.09756
276 100.0000 32.30310 66.44620 55.19660 30.45394 42.56389
277 100.0000 52.02620 79.95270 63.25842 41.69070 64.91322
278 100.0000 62.71180 100.0000 74.55341 51.72238 111.4479
279 55.95410 100.0000 54.33010 52.60230 84.56145 32.37082
280 72.98910 100.0000 65.00080 63.66340 88.82696 45.21508
281 49.85530 57.94740 0.000000 20.34622 27.78283 2.539040
282 51.94640 60.27520 28.20460 22.76659 30.05847 8.707544
283 28.45330 0.000000 57.51470 9.281795 3.531932 33.98592
284 32.27410 24.44100 70.61500 14.54753 7.854271 51.89077
285 60.19410 66.30620 74.58280 37.11175 38.98658 57.46833
286 75.70470 27.54030 0.000000 26.17494 16.63387 0.884183
287 87.43230 39.65220 12.69270 37.71282 26.13345 2.386320
288 72.03390 0.000000 0.000000 22.54990 11.61477 0.532007
289 77.21100 0.000000 17.72820 26.11781 13.32202 2.934399
290 100.0000 27.21160 21.19420 48.45032 27.45580 3.912907
291 100.0000 43.65130 23.43100 51.58898 34.58202 5.197805
292 100.0000 45.45790 44.08740 53.66285 35.70116 17.22054
293 0.000000 26.01510 36.23740 4.491810 5.063968 12.77043
294 0.000000 42.97740 55.33000 11.48729 13.91999 31.04128
295 67.41950 57.82050 64.72540 35.08046 32.30658 41.95990
296 89.62260 0.000000 0.000000 36.72683 18.80554 0.575354
297 100.0000 0.000000 0.000000 47.23489 24.12319 0.611929
298 100.0000 0.000000 14.93310 47.27124 24.07905 2.169387
299 100.0000 0.000000 28.75720 47.93930 24.21815 7.184757
300 100.0000 0.000000 42.18340 49.29289 24.52826 16.10166
301 4.807700 0.000000 0.000000 0.549731 0.487888 0.534331
302 7.425700 0.000000 0.000000 0.667023 0.547434 0.532188
303 44.07130 29.70390 0.000000 10.07191 9.375302 0.945826
304 61.87070 37.19950 0.000000 19.64960 16.57059 1.241849
305 84.13880 56.55890 45.34160 42.28834 36.15115 19.11620
306 38.83280 30.43430 19.05990 8.928662 8.870270 3.740464
307 61.36380 30.10100 70.99940 26.01839 15.00462 51.49265
308 85.14980 73.47100 72.80050 55.91183 54.02544 54.17663
309 74.81570 16.77630 39.54880 26.60653 14.17636 13.94380
310 88.81800 15.03890 39.91520 37.67238 19.54294 14.01322
311 90.90060 17.94500 52.39930 41.64819 21.43630 25.30676
312 100.0000 52.46770 63.41380 59.20518 41.15803 39.33987
313 13.07650 24.31580 25.17370 3.587741 4.441511 6.227877
314 12.83070 31.11230 36.36110 5.906520 7.191884 12.91798
315 15.36450 34.18160 51.08480 8.847367 9.000103 25.42804
316 21.60760 42.70040 53.61680 12.17008 13.91859 28.80244
317 31.77850 54.67030 58.25000 18.63683 23.00596 34.42718
318 59.50720 58.28380 43.31340 26.98435 30.11991 18.04902
319 62.60200 68.71070 44.69760 33.29244 40.77853 19.58866
320 84.37710 75.76950 46.99470 51.33013 55.58394 21.70424
321 14.88610 13.17020 24.20200 2.595175 2.138909 5.827450
322 18.24650 13.78070 41.68910 4.981668 2.901266 16.88550
323 88.39810 36.52160 40.93450 39.43943 25.17653 14.66640
324 73.01420 45.80480 26.76160 28.98992 24.33674 6.906969
325 87.69100 46.60630 35.35550 40.90446 30.27675 11.39035
326 16.82970 50.22370 24.09970 10.07668 17.93742 6.497558
327 15.67590 63.02740 53.63920 19.05050 29.57422 29.64593
328 37.88280 83.58800 54.06740 33.78194 54.78040 30.78694
329 57.39030 91.37820 63.52770 48.40769 70.86332 43.00389
330 63.07550 100.0000 91.90590 66.28611 87.75469 94.86700
331 0.000000 43.29910 34.91160 8.234382 13.22813 12.52546
332 11.52340 46.39750 65.39580 15.12370 16.38570 44.74022
333 10.04200 56.12190 65.39110 18.48088 23.70595 44.89758
334 22.52640 64.16340 85.58010 29.09080 32.82538 80.28553
335 68.85780 70.68660 10.60510 35.75892 44.47733 4.334008
336 69.86840 78.49040 27.40030 41.04315 53.99269 9.598518
337 69.51550 78.62970 41.98410 42.22385 54.32177 18.13690
338 17.32730 23.60080 0.000000 2.990161 4.263279 0.784250
339 18.96440 33.59840 31.31700 6.337522 8.321675 9.787297
340 52.87480 44.08610 55.15100 21.21847 18.66298 29.77226
341 65.45730 50.76340 66.40660 31.81580 26.49813 44.05490
342 0.000000 0.000000 0.000000 0.417408 0.425844 0.551483
343 3.895500 20.32420 41.53230 4.585675 3.644330 17.02880
344 0.000000 18.69510 85.75180 16.45133 6.618298 83.12393
345 4.658800 35.22330 86.47240 19.12894 12.04646 83.94555
346 2.417700 43.82630 86.49760 21.26930 16.73975 83.90597
347 88.45470 13.04340 17.79990 35.99515 18.98483 2.892210
348 100.0000 26.47220 35.87880 49.48008 27.51216 11.14653
349 100.0000 100.0000 100.0000 96.64957 101.0296 113.1384
350 55.05520 44.48420 47.77170 20.92664 19.10943 21.81347
351 59.69200 54.87590 48.13160 26.36630 27.38653 22.38360
352 70.69920 59.80830 58.08500 36.19946 34.83471 32.98603
353 72.96650 68.06430 77.77110 46.51366 44.71933 62.99182
354 32.36380 10.47350 26.11480 5.592407 3.314775 6.585735
355 32.23460 8.270700 70.02850 13.39160 5.212268 51.52123
356 32.29060 0.000000 78.96540 16.10178 5.643710 67.34282
357 45.73230 13.55090 87.64670 23.72262 9.449916 85.54581
358 66.82060 14.64280 88.70280 34.14188 14.70510 87.01749
359 86.26210 16.61220 86.99840 46.81721 21.46777 82.30909
360 91.17740 55.22650 85.58760 57.43156 40.17228 76.71867
361 6.424500 10.11320 17.58400 1.437180 1.377399 3.356991
362 10.85460 9.919200 49.44710 5.447222 2.455069 24.25587
363 18.81870 12.48560 60.15410 8.616124 3.752070 37.17095
364 18.40650 15.42980 73.54850 12.55517 5.194603 58.13316
365 40.84820 39.80140 88.76990 25.69365 16.44816 87.17598
366 46.82240 53.02340 87.69970 30.96352 25.71705 84.93704
367 78.73030 89.45470 90.47480 66.92918 74.24465 90.51622
368 66.13160 23.84780 4.979700 20.01283 12.70052 1.062425
369 75.14500 41.00240 11.10000 28.63769 22.41912 2.289127
370 76.84960 56.70060 11.93770 34.79330 33.79736 3.269325
371 89.70090 67.42190 10.30340 49.66417 48.86622 3.970305
372 94.40600 71.09330 36.87710 56.78207 54.48336 13.54571
373 93.50830 90.01260 83.65140 76.17149 80.22132 73.41961
374 57.52530 73.92450 65.26450 37.64449 46.60046 43.70359
375 65.23710 76.65120 74.60370 45.00198 51.53105 58.07268
376 74.32660 78.67210 88.47590 56.67127 57.98962 85.42897
377 35.88700 46.04450 60.59660 17.23623 17.31095 37.26695
378 42.87230 49.10110 72.50890 23.13009 21.01949 54.55193
379 43.57540 70.82050 84.06410 36.13494 41.65854 76.55511
380 63.82510 80.65620 84.77030 50.04594 57.20451 77.37494
381 69.14430 91.18310 86.03150 60.63247 74.50217 79.98919
382 17.77230 38.34300 12.15010 6.185418 10.57874 2.571361
383 52.67630 40.67130 12.53130 15.89766 16.01432 2.568296
384 58.01750 27.04800 23.16970 16.10167 11.30489 4.968351
385 63.83000 31.60340 41.34310 21.75383 14.95912 15.51139
386 82.11280 32.29270 45.13210 34.20571 21.08570 18.30102
387 89.44060 38.79910 59.00890 44.14572 27.59975 32.91434
388 36.60570 35.85210 26.74580 9.695744 10.76235 6.992349
389 49.60320 42.57710 34.45740 16.40285 16.65630 11.45786
390 73.58980 58.21890 40.83260 34.82992 33.74768 15.68428
391 69.14470 66.07070 34.00060 34.57328 39.55805 11.97942
