KOIOS/K2418U/K2418U #2 2021-02-09 09-11 0.3127x 0.329y sRGB F-S XYZLUT+MTX/K2418U #2 2021-02-09 09-11 0.3127x 0.329y sRGB F-S XYZLUT+MTX.cal
CAL    

DESCRIPTOR "Argyll Device Calibration Curves"
ORIGINATOR "Argyll dispcal"
CREATED "Tue Feb 09 09:16:28 2021"
DEVICE_CLASS "DISPLAY"
COLOR_REP "RGB"
VIDEO_LUT_CALIBRATION_POSSIBLE "YES"
TV_OUTPUT_ENCODING "NO"
DEVICE_TYPE "n"
TARGET_WHITE_XYZ "206.922598 217.708777 237.097431"
TARGET_GAMMA "sRGB"
DEGREE_OF_BLACK_OUTPUT_OFFSET "1.0"
BLACK_POINT_CORRECTION "0.0"
BLACK_NEUTRAL_BLEND_RATE "4.0"
BLACK_POINT_HACK "YES"
QUALITY "low"

BEGIN_ARGYLL_DISPCAL_ARGS
-v2 -d2 -c1 -yn -P0.499239543726,0.498947368421,1.62416107383 -ql -m -w0.3127,0.329 -gs -f1.0 -k0 -A4.0 -b
END_ARGYLL_DISPCAL_ARGS


NUMBER_OF_FIELDS 4
BEGIN_DATA_FORMAT
RGB_I RGB_R RGB_G RGB_B
END_DATA_FORMAT

NUMBER_OF_SETS 256
BEGIN_DATA
0.00000000 0.00000000 0.00000000 0.00000000
0.00392157 0.00326808 0.00323060 0.00328020
0.00784314 0.00650953 0.00644414 0.00652896
0.01176470 0.00972467 0.00964076 0.00974674
0.01568630 0.01291380 0.01282060 0.01293400
0.01960780 0.01607730 0.01598380 0.01609110
0.02352940 0.01921540 0.01913040 0.01921850
0.02745100 0.02232840 0.02226070 0.02231670
0.03137250 0.02541670 0.02537460 0.02538600
0.03529410 0.02848050 0.02847250 0.02842690
0.03921570 0.03152010 0.03155430 0.03143970
0.04313730 0.03453640 0.03462030 0.03442500
0.04705880 0.03753390 0.03767190 0.03738610
0.05098040 0.04051640 0.04071340 0.04032950
0.05490200 0.04348980 0.04375290 0.04326450
0.05882350 0.04645950 0.04679070 0.04619580
0.06274510 0.04942940 0.04982680 0.04912690
0.06666670 0.05240350 0.05286530 0.05206230
0.07058820 0.05538530 0.05591030 0.05500610
0.07450980 0.05837990 0.05896590 0.05796410
0.07843140 0.06139460 0.06204120 0.06094530
0.08235290 0.06443730 0.06514300 0.06395990
0.08627450 0.06751390 0.06827530 0.06701580
0.09019610 0.07062470 0.07144160 0.07011540
0.09411760 0.07377070 0.07463980 0.07325750
0.09803920 0.07695210 0.07786670 0.07643960
0.10196100 0.08016800 0.08111270 0.07965460
0.10588200 0.08341500 0.08437220 0.08289520
0.10980400 0.08669350 0.08765130 0.08615990
0.11372500 0.09000080 0.09095170 0.08944830
0.11764700 0.09333190 0.09427580 0.09275900
0.12156900 0.09668380 0.09762460 0.09609100
0.12549000 0.10005400 0.10099600 0.09944080
0.12941200 0.10344700 0.10438400 0.10280700
0.13333300 0.10686500 0.10778400 0.10618900
0.13725500 0.11030500 0.11119900 0.10958700
0.14117600 0.11377000 0.11463000 0.11300100
0.14509800 0.11725700 0.11807900 0.11643500
0.14902000 0.12076400 0.12154600 0.11988900
0.15294100 0.12429200 0.12502900 0.12336000
0.15686300 0.12783500 0.12852800 0.12684800
0.16078400 0.13139300 0.13204300 0.13035400
0.16470600 0.13496400 0.13557200 0.13387700
0.16862700 0.13854300 0.13911000 0.13741500
0.17254900 0.14213000 0.14265300 0.14096600
0.17647100 0.14572800 0.14620300 0.14452900
0.18039200 0.14933800 0.14976300 0.14810300
0.18431400 0.15296300 0.15333400 0.15168700
0.18823500 0.15660000 0.15692000 0.15528100
0.19215700 0.16025100 0.16052000 0.15888200
0.19607800 0.16391200 0.16413200 0.16249200
0.20000000 0.16757900 0.16775200 0.16610700
0.20392200 0.17124700 0.17137300 0.16972600
0.20784300 0.17491600 0.17499400 0.17335100
0.21176500 0.17859000 0.17861700 0.17698200
0.21568600 0.18227700 0.18225800 0.18063200
0.21960800 0.18597900 0.18591500 0.18430400
0.22352900 0.18970600 0.18959200 0.18800100
0.22745100 0.19346100 0.19329400 0.19173400
0.23137300 0.19724500 0.19702600 0.19550700
0.23529400 0.20105500 0.20079200 0.19932600
0.23921600 0.20488800 0.20459800 0.20318600
0.24313700 0.20874200 0.20844600 0.20708300
0.24705900 0.21261700 0.21233600 0.21101800
0.25098000 0.21651400 0.21626400 0.21498700
0.25490200 0.22043900 0.22022600 0.21898700
0.25882400 0.22438100 0.22421900 0.22301800
0.26274500 0.22833500 0.22822700 0.22705800
0.26666700 0.23230500 0.23224500 0.23110400
0.27058800 0.23628700 0.23625900 0.23514700
0.27451000 0.24027700 0.24025500 0.23917200
0.27843100 0.24427300 0.24422400 0.24317400
0.28235300 0.24827500 0.24816400 0.24715100
0.28627500 0.25227400 0.25207500 0.25110400
0.29019600 0.25625400 0.25596200 0.25502000
0.29411800 0.26021600 0.25981500 0.25888800
0.29803900 0.26415900 0.26363700 0.26271100
0.30196100 0.26807800 0.26742900 0.26649100
0.30588200 0.27196700 0.27118900 0.27022800
0.30980400 0.27582100 0.27492000 0.27392600
0.31372500 0.27964600 0.27862700 0.27758400
0.31764700 0.28345100 0.28231800 0.28121100
0.32156900 0.28722200 0.28600100 0.28481600
0.32549000 0.29095400 0.28967500 0.28839700
0.32941200 0.29465800 0.29334100 0.29195400
0.33333300 0.29833700 0.29700300 0.29549300
0.33725500 0.30199800 0.30067000 0.29902400
0.34117600 0.30564500 0.30433300 0.30254500
0.34509800 0.30927800 0.30798700 0.30605600
0.34902000 0.31290600 0.31163200 0.30955800
0.35294100 0.31653200 0.31526800 0.31305100
0.35686300 0.32015200 0.31890000 0.31654600
0.36078400 0.32376600 0.32252400 0.32004100
0.36470600 0.32737200 0.32613700 0.32353300
0.36862700 0.33097200 0.32973900 0.32702100
0.37254900 0.33457000 0.33332900 0.33050700
0.37647100 0.33817000 0.33691500 0.33399100
0.38039200 0.34177200 0.34050300 0.33748100
0.38431400 0.34537600 0.34409800 0.34098000
0.38823500 0.34898000 0.34769900 0.34448900
0.39215700 0.35258100 0.35131400 0.34801000
0.39607800 0.35617300 0.35494800 0.35154600
0.40000000 0.35976100 0.35859400 0.35509400
0.40392200 0.36335000 0.36224400 0.35864200
0.40784300 0.36694600 0.36590400 0.36219200
0.41176500 0.37055300 0.36957300 0.36574600
0.41568600 0.37416700 0.37325200 0.36930500
0.41960800 0.37778300 0.37693900 0.37286900
0.42352900 0.38139800 0.38063400 0.37643900
0.42745100 0.38501000 0.38433500 0.38001200
0.43137300 0.38862500 0.38803500 0.38358500
0.43529400 0.39225000 0.39172600 0.38715100
0.43921600 0.39588700 0.39541500 0.39070800
0.44313700 0.39952500 0.39910200 0.39426500
0.44705900 0.40315200 0.40278300 0.39782400
0.45098000 0.40677000 0.40644300 0.40139000
0.45490200 0.41038500 0.41008100 0.40495000
0.45882400 0.41400500 0.41370200 0.40850600
0.46274500 0.41763100 0.41731500 0.41206400
0.46666700 0.42125900 0.42093000 0.41564000
0.47058800 0.42489100 0.42455200 0.41923300
0.47451000 0.42853200 0.42818700 0.42284600
0.47843100 0.43218400 0.43183900 0.42648000
0.48235300 0.43585300 0.43551100 0.43013700
0.48627500 0.43955200 0.43920500 0.43381700
0.49019600 0.44327500 0.44292800 0.43752400
0.49411800 0.44701600 0.44668300 0.44126900
0.49803900 0.45077900 0.45045600 0.44505800
0.50196100 0.45455900 0.45425200 0.44887000
0.50588200 0.45835700 0.45807800 0.45270900
0.50980400 0.46217200 0.46193500 0.45657800
0.51372500 0.46600400 0.46582200 0.46047800
0.51764700 0.46984600 0.46973900 0.46440600
0.52156900 0.47369500 0.47368900 0.46836600
0.52549000 0.47754900 0.47765900 0.47235100
0.52941200 0.48140600 0.48164600 0.47635200
0.53333300 0.48526300 0.48564500 0.48036500
0.53725500 0.48912200 0.48965400 0.48438900
0.54117600 0.49298200 0.49367400 0.48842100
0.54509800 0.49684600 0.49770400 0.49246200
0.54902000 0.50071300 0.50174300 0.49651200
0.55294100 0.50458200 0.50577600 0.50057200
0.55686300 0.50845300 0.50979700 0.50463200
0.56078400 0.51232600 0.51380600 0.50868900
0.56470600 0.51620300 0.51780500 0.51274200
0.56862700 0.52008700 0.52179300 0.51679100
0.57254900 0.52397900 0.52577400 0.52083700
0.57647100 0.52788400 0.52975400 0.52488500
0.58039200 0.53180000 0.53374200 0.52893600
0.58431400 0.53572300 0.53774000 0.53300300
0.58823500 0.53965300 0.54174100 0.53708500
0.59215700 0.54359400 0.54573000 0.54117100
0.59607800 0.54754900 0.54970500 0.54525600
0.60000000 0.55151800 0.55366800 0.54933700
0.60392200 0.55550000 0.55762700 0.55341600
0.60784300 0.55949400 0.56158100 0.55749300
0.61176500 0.56351400 0.56552800 0.56156800
0.61568600 0.56756500 0.56947200 0.56564700
0.61960800 0.57163000 0.57341400 0.56974200
0.62352900 0.57571100 0.57735300 0.57385100
0.62745100 0.57981400 0.58129700 0.57797600
0.63137300 0.58394200 0.58525200 0.58212900
0.63529400 0.58808400 0.58922900 0.58631700
0.63921600 0.59223900 0.59321800 0.59053300
0.64313700 0.59640600 0.59721100 0.59476400
0.64705900 0.60057900 0.60120700 0.59900900
0.65098000 0.60475600 0.60521100 0.60326000
0.65490200 0.60893800 0.60922700 0.60751400
0.65882400 0.61312900 0.61325700 0.61177400
0.66274500 0.61732700 0.61730800 0.61604700
0.66666700 0.62153200 0.62138200 0.62033300
0.67058800 0.62573400 0.62548000 0.62463600
0.67451000 0.62993400 0.62960100 0.62895200
0.67843100 0.63412700 0.63374600 0.63328200
0.68235300 0.63830600 0.63791600 0.63762800
0.68627500 0.64247300 0.64211500 0.64198300
0.69019600 0.64664400 0.64633500 0.64633800
0.69411800 0.65082900 0.65057600 0.65071400
0.69803900 0.65503600 0.65486100 0.65512900
0.70196100 0.65926300 0.65920400 0.65959800
0.70588200 0.66349000 0.66361200 0.66412200
0.70980400 0.66769700 0.66808100 0.66867200
0.71372500 0.67188300 0.67258200 0.67320800
0.71764700 0.67605500 0.67710400 0.67773200
0.72156900 0.68022300 0.68164800 0.68225300
0.72549000 0.68440200 0.68622400 0.68678800
0.72941200 0.68859700 0.69083700 0.69135500
0.73333300 0.69280200 0.69549000 0.69594100
0.73725500 0.69702000 0.70016400 0.70053600
0.74117600 0.70125300 0.70484900 0.70513800
0.74509800 0.70549200 0.70953100 0.70973300
0.74902000 0.70974100 0.71419100 0.71431800
0.75294100 0.71400500 0.71882700 0.71889200
0.75686300 0.71828200 0.72344400 0.72345100
0.76078400 0.72258000 0.72804000 0.72800500
0.76470600 0.72690400 0.73262200 0.73255500
0.76862700 0.73125600 0.73719900 0.73711000
0.77254900 0.73563500 0.74178100 0.74166500
0.77647100 0.74004000 0.74636500 0.74621500
0.78039200 0.74446300 0.75094800 0.75075600
0.78431400 0.74888200 0.75552500 0.75526200
0.78823500 0.75329700 0.76009300 0.75972800
0.79215700 0.75771000 0.76465700 0.76415900
0.79607800 0.76213400 0.76923100 0.76857500
0.80000000 0.76657600 0.77383000 0.77297800
0.80392200 0.77103800 0.77845000 0.77737100
0.80784300 0.77551900 0.78309300 0.78175700
0.81176500 0.78001400 0.78776100 0.78613100
0.81568600 0.78452700 0.79244800 0.79049300
0.81960800 0.78906900 0.79715100 0.79485200
0.82352900 0.79364200 0.80187000 0.79920900
0.82745100 0.79821700 0.80657900 0.80355400
0.83137300 0.80279100 0.81127500 0.80788900
0.83529400 0.80737900 0.81597200 0.81223100
0.83921600 0.81199300 0.82067900 0.81659500
0.84313700 0.81662400 0.82539900 0.82097900
0.84705900 0.82126000 0.83011500 0.82537300
0.85098000 0.82589900 0.83481900 0.82976500
0.85490200 0.83053000 0.83950100 0.83415700
0.85882400 0.83515800 0.84416100 0.83854800
0.86274500 0.83978200 0.84880100 0.84294400
0.86666700 0.84440200 0.85340600 0.84733500
0.87058800 0.84902400 0.85798600 0.85171500
0.87451000 0.85362700 0.86254500 0.85609300
0.87843100 0.85820700 0.86708100 0.86046400
0.88235300 0.86276800 0.87160200 0.86483400
0.88627500 0.86730200 0.87611000 0.86920600
0.89019600 0.87179800 0.88060500 0.87357700
0.89411800 0.87625200 0.88508500 0.87794500
0.89803900 0.88067600 0.88956800 0.88230700
0.90196100 0.88505600 0.89405000 0.88668400
0.90588200 0.88939100 0.89851900 0.89106100
0.90980400 0.89368600 0.90297400 0.89543000
0.91372500 0.89795000 0.90740100 0.89979300
0.91764700 0.90218900 0.91180200 0.90415000
0.92156900 0.90640700 0.91617400 0.90850500
0.92549000 0.91061200 0.92052300 0.91285600
0.92941200 0.91480900 0.92486500 0.91720500
0.93333300 0.91900000 0.92920300 0.92156200
0.93725500 0.92319000 0.93353500 0.92592900
0.94117600 0.92737300 0.93785200 0.93030700
0.94509800 0.93155100 0.94215200 0.93469200
0.94902000 0.93572400 0.94642600 0.93908800
0.95294100 0.93989300 0.95067400 0.94348800
0.95686300 0.94405700 0.95490500 0.94789600
0.96078400 0.94821400 0.95912100 0.95231000
0.96470600 0.95236100 0.96331900 0.95673000
0.96862700 0.95649400 0.96750000 0.96115100
0.97254900 0.96061500 0.97166500 0.96557500
0.97647100 0.96472800 0.97581600 0.97000300
0.98039200 0.96883300 0.97995200 0.97443600
0.98431400 0.97292900 0.98407500 0.97887500
0.98823500 0.97701600 0.98818300 0.98331800
0.99215700 0.98109600 0.99227800 0.98776700
0.99607800 0.98516600 0.99635900 0.99222000
1.00000000 0.98922900 1.00000000 0.99667900
END_DATA
CAL    

DESCRIPTOR "Argyll Calibration options and model"
ORIGINATOR "Argyll dispcal"
CREATED "Tue Feb 09 09:16:28 202"

NUMBER_OF_FIELDS 3
BEGIN_DATA_FORMAT
R_P G_P B_P
END_DATA_FORMAT

NUMBER_OF_SETS 32
BEGIN_DATA
0.00350018 0.00364201 0.00413132
0.99650000 0.99635800 0.99586900
1.31549400 1.24731800 1.38625300
0.45453800 0.41102300 0.25243600
0.07220240 0.09352620 0.16464000
0.09919970 0.12533500 0.11604900
0.11228300 0.12003800 0.10672700
0.11741300 0.11724700 0.08512530
0.06129960 0.05568610 0.08306140
0.04344330 0.05303040 0.06553580
0.05228700 0.05979150 0.04945590
0.04442260 0.03555820 0.05735420
0.04037020 0.04687720 0.04684450
0.04136310 0.03684790 0.03542980
0.03522770 0.03066000 0.04662750
0.03215480 0.03638010 0.02844640
0.03428050 0.03098400 0.03378000
0.03059660 0.03085500 0.03654490
0.02606020 0.02217880 0.01737110
0.02254530 0.02301330 0.02796260
0.02191830 0.02696060 0.02568720
0.02301090 0.02118720 0.01941410
0.02352390 0.02190000 0.02549000
0.02130460 0.01987110 0.02233060
0.01860190 0.01795220 0.01921050
0.01776460 0.02161410 0.01979800
0.01695380 0.02016560 0.01453440
0.01546950 0.01934580 0.01503530
0.01391180 0.01561790 0.01212900
0.01255220 0.01238990 0.01162000
0.01202300 0.01645710 0.01445450
0.01166610 0.01374140 0.01168940
END_DATA
