Dell/P2417H/P2417H #1 2020-05-26 14-41 0.3127x 0.329y sRGB M-S XYZLUT+MTX/P2417H #1 2020-05-26 14-41 0.3127x 0.329y sRGB M-S XYZLUT+MTX.ti1
CTI1   

DESCRIPTOR "Argyll Calibration Target chart information 1"
ORIGINATOR "Argyll targen"
CREATED "Tue May 26 14:52:38 2020"
APPROX_WHITE_POINT "93.894152 97.552645 109.592646"
COLOR_REP "RGB"
ACCURATE_EXPECTED_VALUES "true"
DARK_REGION_EMPHASIS "1.6"
WHITE_COLOR_PATCHES "4"
BLACK_COLOR_PATCHES "4"
SINGLE_DIM_STEPS "25"
COMP_GREY_STEPS "73"
OFPS_PATCHES "648"

NUMBER_OF_FIELDS 7
BEGIN_DATA_FORMAT
SAMPLE_ID RGB_R RGB_G RGB_B XYZ_X XYZ_Y XYZ_Z
END_DATA_FORMAT

NUMBER_OF_SETS 825
BEGIN_DATA
1 100.0000 100.0000 100.0000 93.89415 97.55264 109.5926
2 1.960800 1.960800 1.960800 1.142800 1.150200 1.163700
3 3.921600 3.921600 3.921600 1.285600 1.300500 1.327300
4 5.882400 5.882400 5.882400 1.449500 1.472900 1.515200
5 9.803900 9.803900 9.803900 1.914800 1.962400 2.048400
6 13.72600 13.72600 13.72600 2.581700 2.663900 2.812600
7 17.64700 17.64700 17.64700 3.469500 3.597900 3.830000
8 21.56900 21.56900 21.56900 4.595300 4.782200 5.120100
9 25.49000 25.49000 25.49000 5.974500 6.233200 6.700700
10 29.41200 29.41200 29.41200 7.621300 7.965600 8.587900
11 33.33300 33.33300 33.33300 9.548800 9.993300 10.79700
12 37.25500 37.25500 37.25500 11.76900 12.32900 13.34100
13 41.17600 41.17600 41.17600 14.29400 14.98500 16.23400
14 45.09800 45.09800 45.09800 17.13400 17.97300 19.48900
15 49.02000 49.02000 49.02000 20.29900 21.30300 23.11700
16 52.94100 52.94100 52.94100 23.80000 24.98600 27.12900
17 56.86300 56.86300 56.86300 27.64600 29.03200 31.53600
18 60.78400 60.78400 60.78400 31.84600 33.45000 36.34900
19 64.70600 64.70600 64.70600 36.40900 38.25000 41.57800
20 68.62700 68.62700 68.62700 41.34300 43.44000 47.23200
21 72.54900 72.54900 72.54900 46.65600 49.03000 53.32100
22 76.47100 76.47100 76.47100 52.35600 55.02700 59.85300
23 80.39200 80.39200 80.39200 58.45200 61.43900 66.83800
24 84.31400 84.31400 84.31400 64.94900 68.27500 74.28500
25 88.23500 88.23500 88.23500 71.85700 75.54100 82.20000
26 92.15700 92.15700 92.15700 79.18100 83.24600 90.59400
27 96.07800 96.07800 96.07800 86.92900 91.39700 99.47200
28 0.000000 100.0000 56.65490 36.79199 66.95886 34.33377
29 46.02260 100.0000 60.25940 45.05993 71.53063 38.59998
30 64.92250 100.0000 82.23970 60.19072 79.35494 71.72390
31 6.720100 25.86900 28.23190 3.371450 4.354455 7.140697
32 26.17130 57.25610 33.11030 13.37759 21.27465 10.95086
33 50.41020 80.93360 33.92200 30.89839 47.26091 13.17088
34 79.71010 0.000000 60.59150 32.18828 17.46816 34.18543
35 86.00330 17.15870 88.44720 46.50673 25.77551 78.75069
36 100.0000 27.14850 100.0000 64.97938 37.28672 104.9573
37 0.000000 9.193300 16.86960 0.911960 0.939027 2.787186
38 0.000000 24.57100 41.57920 4.609902 4.622937 15.22304
39 0.000000 28.22860 56.04490 7.896844 6.967360 29.01425
40 0.000000 61.03800 100.0000 31.71068 31.72633 106.0502
41 50.83730 77.30890 100.0000 48.28131 52.20085 107.2897
42 18.51850 0.000000 0.000000 1.318713 0.783670 0.289106
43 21.42860 0.000000 0.000000 1.678209 0.986372 0.291667
44 24.50980 0.000000 0.000000 2.117706 1.234182 0.294797
45 27.77780 0.000000 0.000000 2.665959 1.543315 0.298701
46 31.25000 0.000000 0.000000 3.366773 1.938470 0.303692
47 34.94620 0.000000 0.000000 4.252522 2.437900 0.310000
48 38.88890 0.000000 0.000000 5.327133 3.043820 0.317653
49 43.10350 0.000000 0.000000 6.568629 3.743838 0.326495
50 47.61910 0.000000 0.000000 8.136286 4.627763 0.337659
51 52.46910 0.000000 0.000000 10.03220 5.696772 0.351161
52 57.69230 0.000000 0.000000 12.35323 7.005489 0.367691
53 63.33330 0.000000 0.000000 15.11752 8.564136 0.387377
54 69.44440 0.000000 0.000000 18.58714 10.52048 0.412087
55 76.08700 0.000000 0.000000 22.85438 12.92657 0.442476
56 83.33330 0.000000 0.000000 27.97285 15.81262 0.478929
57 82.83610 0.000000 33.43940 29.50741 16.47726 9.856390
58 81.58400 0.000000 48.19400 30.79555 16.97196 20.67901
59 87.08190 13.43140 57.77760 37.41568 21.26869 31.01342
60 55.78250 0.000000 12.57400 11.78071 6.651302 1.828140
61 77.89700 0.000000 16.99150 24.60009 13.85755 2.944920
62 94.00920 17.83960 37.32890 39.98664 23.60241 12.44998
63 0.000000 10.68380 0.000000 0.486018 0.860084 0.338181
64 0.000000 13.15790 0.000000 0.624565 1.148851 0.360392
65 0.000000 15.76580 0.000000 0.799441 1.513338 0.388426
66 0.000000 18.51850 0.000000 1.017774 1.968402 0.423427
67 0.000000 21.42860 0.000000 1.288191 2.532021 0.466778
68 0.000000 24.50980 0.000000 1.630581 3.245652 0.521666
69 0.000000 27.77780 0.000000 2.085347 4.193502 0.594570
70 0.000000 31.25000 0.000000 2.634343 5.337754 0.682580
71 0.000000 34.94620 0.000000 3.281786 6.687194 0.786371
72 0.000000 38.88890 0.000000 4.080264 8.351429 0.914375
73 0.000000 43.10350 0.000000 5.027427 10.32556 1.066215
74 0.000000 47.61910 0.000000 6.211400 12.79327 1.256018
75 0.000000 52.46910 0.000000 7.649232 15.79009 1.486517
76 0.000000 57.69230 0.000000 9.417920 19.47650 1.770056
77 0.000000 63.33330 0.000000 11.59256 24.00901 2.118672
78 0.000000 69.44440 0.000000 14.24925 29.54625 2.544567
79 0.000000 76.08700 0.000000 17.38460 36.08114 3.047195
80 0.000000 83.33330 0.000000 21.19705 44.02728 3.658370
81 0.000000 91.26980 0.000000 26.07519 54.19459 4.440385
82 0.000000 100.0000 40.94180 33.78631 65.58214 19.46484
83 36.18930 100.0000 41.13270 38.26466 68.10441 19.62986
84 68.66040 100.0000 68.70510 57.90095 78.53092 49.90209
85 0.000000 0.000000 6.097600 0.229106 0.158485 0.785976
86 0.000000 0.000000 8.333300 0.284433 0.183827 1.059676
87 0.000000 0.000000 10.68380 0.354685 0.216005 1.407206
88 0.000000 0.000000 13.15790 0.446964 0.258273 1.863707
89 0.000000 0.000000 15.76580 0.567085 0.313293 2.457941
90 0.000000 0.000000 18.51850 0.717288 0.382092 3.200987
91 0.000000 0.000000 21.42860 0.901314 0.466384 4.111356
92 0.000000 0.000000 24.50980 1.127208 0.569853 5.228844
93 0.000000 0.000000 27.77780 1.414759 0.701563 6.651343
94 0.000000 0.000000 31.25000 1.774398 0.866292 8.430461
95 0.000000 0.000000 34.94620 2.203768 1.062961 10.55453
96 0.000000 0.000000 38.88890 2.718768 1.298852 13.10221
97 0.000000 0.000000 43.10350 3.323900 1.576028 16.09578
98 0.000000 0.000000 47.61910 4.101861 1.932366 19.94431
99 0.000000 0.000000 52.46910 5.063198 2.372698 24.70000
100 0.000000 0.000000 57.69230 6.258783 2.920325 30.61450
101 0.000000 0.000000 63.33330 7.627190 3.547111 37.38395
102 0.000000 0.000000 69.44440 9.341790 4.332469 45.86599
103 0.000000 0.000000 76.08700 11.35425 5.254259 55.82155
104 0.000000 0.000000 83.33330 13.96188 6.448661 68.72138
105 0.000000 0.000000 91.26980 17.08608 7.879673 84.17664
106 0.000000 0.000000 100.0000 21.16599 9.748437 104.3597
107 59.48400 0.000000 100.0000 34.21259 17.10477 104.4527
108 85.61510 61.71560 100.0000 61.49563 48.92605 106.3031
109 100.0000 64.33550 100.0000 74.99940 58.17105 106.5636
110 2.604200 2.604200 2.604200 0.284977 0.285677 0.453554
111 3.280800 3.280800 3.280800 0.339313 0.343943 0.516643
112 3.968300 3.968300 3.968300 0.397133 0.405465 0.583393
113 4.666700 4.666700 4.666700 0.459578 0.471602 0.655064
114 5.376300 5.376300 5.376300 0.523983 0.539207 0.730609
115 6.097600 6.097600 6.097600 0.596589 0.615685 0.813782
116 6.830600 6.830600 6.830600 0.674625 0.698126 0.901612
117 7.575800 7.575800 7.575800 0.757722 0.784889 0.996220
118 8.333300 8.333300 8.333300 0.851552 0.883878 1.102030
119 9.103600 9.103600 9.103600 0.950598 0.988243 1.213192
120 9.887000 9.887000 9.887000 1.059948 1.103294 1.336553
121 10.68380 10.68380 10.68380 1.176352 1.225233 1.468063
122 11.49420 11.49420 11.49420 1.303611 1.358532 1.612952
123 12.31880 12.31880 12.31880 1.443890 1.505091 1.774436
124 13.15790 13.15790 13.15790 1.594752 1.662032 1.948110
125 14.01180 14.01180 14.01180 1.760417 1.833586 2.140798
126 14.88100 14.88100 14.88100 1.937496 2.017456 2.344254
127 15.76580 15.76580 15.76580 2.131838 2.218041 2.572103
128 16.66670 16.66670 16.66670 2.339105 2.432427 2.813082
129 17.58410 17.58410 17.58410 2.562185 2.663856 3.074827
130 18.51850 18.51850 18.51850 2.799873 2.910776 3.352283
131 19.47040 19.47040 19.47040 3.053874 3.175113 3.651075
132 20.44020 20.44020 20.44020 3.323238 3.456844 3.967399
133 21.42860 21.42860 21.42860 3.613812 3.761389 4.308562
134 22.43590 22.43590 22.43590 3.923516 4.086823 4.671255
135 23.46280 23.46280 23.46280 4.258843 4.440914 5.061767
136 24.50980 24.50980 24.50980 4.621593 4.826299 5.484069
137 25.57760 25.57760 25.57760 5.017189 5.249711 5.944399
138 26.66670 26.66670 26.66670 5.448167 5.713619 6.444671
139 27.77780 27.77780 27.77780 5.912162 6.214992 6.983375
140 28.91160 28.91160 28.91160 6.416158 6.753787 7.569190
141 30.06870 30.06870 30.06870 6.952159 7.322392 8.192618
142 31.25000 31.25000 31.25000 7.521612 7.919128 8.855495
143 32.45610 32.45610 32.45610 8.130961 8.552862 9.557044
144 33.68790 33.68790 33.68790 8.783138 9.231281 10.30049
145 34.94620 34.94620 34.94620 9.484174 9.964667 11.08967
146 36.23190 36.23190 36.23190 10.23350 10.75200 11.92850
147 37.54580 37.54580 37.54580 11.02985 11.58851 12.82114
148 38.88890 38.88890 38.88890 11.87226 12.47071 13.77300
149 40.26220 40.26220 40.26220 12.75360 13.39638 14.77272
150 41.66670 41.66670 41.66670 13.68016 14.37572 15.81757
151 43.10350 43.10350 43.10350 14.66605 15.42204 16.92725
152 44.57360 44.57360 44.57360 15.73239 16.55283 18.13219
153 46.07840 46.07840 46.07840 16.91012 17.78943 19.48360
154 47.61910 47.61910 47.61910 18.19565 19.13001 20.97675
155 49.19680 49.19680 49.19680 19.55306 20.54920 22.55602
156 50.81300 50.81300 50.81300 20.97760 22.04547 24.21224
157 52.46910 52.46910 52.46910 22.49072 23.63617 25.97644
158 54.16670 54.16670 54.16670 24.13336 25.35495 27.90438
159 55.90720 55.90720 55.90720 25.91027 27.21134 29.99993
160 57.69230 57.69230 57.69230 27.77603 29.17892 32.19101
161 59.52380 59.52380 59.52380 29.72089 31.25433 34.44185
162 61.40350 61.40350 61.40350 31.80652 33.48206 36.79259
163 63.33330 63.33330 63.33330 34.08337 35.89687 39.32876
164 65.31530 65.31530 65.31530 36.54545 38.49952 42.12665
165 67.35160 67.35160 67.35160 39.16186 41.26570 45.15123
166 69.44440 69.44440 69.44440 41.92427 44.17581 48.26141
167 71.59620 71.59620 71.59620 44.85243 47.24899 51.45620
168 73.80950 73.80950 73.80950 47.98199 50.53123 54.91454
169 76.08700 76.08700 76.08700 51.33933 54.03857 58.74998
170 78.43140 78.43140 78.43140 54.92990 57.76531 62.91665
171 80.84580 80.84580 80.84580 58.76910 61.74623 67.44666
172 83.33330 83.33330 83.33330 62.87788 66.06518 72.29744
173 85.89740 85.89740 85.89740 67.27901 70.80620 77.33824
174 88.54170 88.54170 88.54170 71.98058 75.84447 82.71684
175 91.26980 91.26980 91.26980 77.09437 81.16735 88.57897
176 94.08600 94.08600 94.08600 82.79271 87.03703 94.86730
177 96.99450 96.99450 96.99450 88.80743 93.34085 101.9119
178 15.34040 27.34700 0.000000 2.870351 4.537702 0.590244
179 37.50020 31.71630 0.000000 7.519456 8.208700 0.729105
180 55.91360 43.67310 0.000000 16.58285 17.05277 1.169836
181 56.39720 64.43050 53.73510 28.89554 33.91142 28.04524
182 60.59960 68.11150 72.79140 37.41323 40.62679 52.90163
183 28.11410 81.90620 75.73200 34.10301 48.90331 58.50767
184 42.64530 89.87530 79.84860 44.04389 61.68283 66.35659
185 59.69790 52.90370 59.67690 27.53393 26.51248 34.25124
186 75.42050 58.31710 72.05620 41.88522 37.07440 51.23616
187 46.43330 38.25010 48.26780 15.60900 14.21326 21.22588
188 52.94830 43.20340 48.13450 19.23089 17.94011 21.29458
189 53.33110 74.26650 48.97820 30.99481 41.94989 23.93280
190 62.02620 77.91460 72.10710 42.57199 50.61722 52.63963
191 63.70500 85.05060 72.19180 47.41832 59.31869 53.39835
192 44.37280 61.73020 67.24130 26.37564 30.45002 44.54083
193 42.71350 90.78660 72.51250 42.18886 61.75281 54.37646
194 0.000000 100.0000 72.87890 41.11129 68.93728 55.70114
195 32.83440 100.0000 80.99240 47.46501 72.22880 69.33373
196 0.000000 72.17780 55.50170 21.11268 34.71853 30.52675
197 27.62310 80.68280 57.44450 28.31359 45.16471 33.48734
198 0.000000 85.00970 58.26020 28.46591 48.98990 34.80993
199 7.526300 89.28380 83.58890 39.05120 58.17097 73.16093
200 0.000000 100.0000 100.0000 51.94478 73.89946 109.2939
201 14.50940 75.59090 46.88610 21.74559 37.76158 21.98967
202 25.64360 100.0000 51.76730 37.86553 67.68029 28.92072
203 0.000000 100.0000 0.000000 30.90574 64.26272 5.214771
204 29.04400 100.0000 0.000000 33.68686 65.83086 5.234577
205 50.62500 100.0000 0.000000 40.07232 69.43130 5.280053
206 68.56330 100.0000 0.000000 48.83594 74.37268 5.342464
207 10.32050 42.04780 48.57940 9.374995 11.95694 21.60455
208 26.28470 48.92160 56.20150 14.63965 17.49850 29.92201
209 55.03130 67.60650 90.95410 41.27570 41.75996 85.73658
210 69.92780 77.61540 100.0000 57.94191 57.88349 107.3822
211 14.74750 4.231900 9.578400 1.217028 0.865455 1.257134
212 16.87480 10.07110 11.56660 1.722293 1.484442 1.618069
213 50.93440 47.20210 10.30810 15.59765 17.88521 2.370524
214 62.78170 60.36630 26.93800 26.31619 30.38823 8.016205
215 78.99190 64.75520 32.76740 38.74189 40.03128 11.38392
216 46.63910 7.553200 35.74750 10.16114 5.869820 11.13718
217 64.45390 0.000000 34.73170 17.78212 9.849593 10.53623
218 73.25770 11.94380 36.57790 23.69711 13.80880 11.78725
219 78.79380 29.34340 36.47970 29.19416 19.60958 12.03596
220 90.11200 46.61320 34.22420 40.96434 31.75288 11.28710
221 55.29280 26.85210 15.64690 13.51760 10.38401 2.799650
222 63.03840 37.38870 25.90250 19.71536 16.57389 6.491435
223 70.97790 37.07820 51.68040 27.88237 20.69577 24.59551
224 49.15180 28.66070 69.63180 20.08339 13.56731 46.52532
225 50.00260 39.50560 76.88700 24.63326 18.92332 57.87234
226 46.40510 68.12330 0.000000 21.21412 32.57802 2.503955
227 60.81900 83.05330 0.000000 34.72070 51.40707 3.729943
228 74.00170 86.27340 12.23820 44.61411 59.91906 5.499428
229 85.21890 100.0000 23.23570 61.03276 81.15440 9.886015
230 0.000000 23.08560 83.81590 15.47944 9.317791 69.82958
231 10.87060 66.17980 93.30700 31.10591 34.96761 90.50357
232 26.88930 69.89960 100.0000 37.87541 40.95404 106.6736
233 28.21790 23.89120 100.0000 25.21570 14.20289 104.6073
234 28.66500 51.96790 100.0000 31.23875 26.62642 105.5598
235 0.000000 13.19210 38.53290 3.169421 2.317957 12.93950
236 11.96850 20.95190 41.91950 4.816599 4.129739 15.40648
237 55.78380 21.41240 49.53240 16.98899 10.92279 22.03956
238 68.67680 22.18400 54.84420 24.82606 15.34336 27.63204
239 78.33150 33.48350 60.68020 34.12185 22.94257 34.74618
240 31.95360 47.09450 10.87460 9.696152 14.51015 2.413486
241 32.32560 58.68870 11.07180 13.50521 22.30775 3.042603
242 49.30990 100.0000 24.68140 40.57540 69.60765 10.29361
243 83.85860 100.0000 78.23760 71.09314 85.65680 64.58742
244 0.000000 0.000000 0.000000 0.126951 0.111694 0.280619
245 0.000000 0.000000 1.938000 0.149071 0.121826 0.390047
246 0.000000 0.000000 3.968300 0.184844 0.138211 0.567014
247 0.000000 11.16480 11.27600 0.758315 1.024870 1.567301
248 23.50200 23.85630 30.88050 4.997251 4.852747 8.471607
249 52.66450 49.21040 64.26160 24.40025 22.92134 39.72422
250 68.08440 61.95060 71.88720 38.59183 37.33148 51.18333
251 0.000000 29.64560 27.69570 3.657489 5.388605 6.973768
252 40.37800 57.88350 27.03390 16.33309 23.35204 7.846603
253 78.69740 71.28620 28.46970 40.96819 45.73864 9.560048
254 85.51650 77.52850 50.40470 52.06535 56.25147 25.71464
255 85.14070 87.78180 58.77730 59.47501 69.07646 35.89805
256 84.56200 90.79960 78.13440 66.44619 75.24897 63.59075
257 72.23000 72.46870 37.14520 38.19129 44.90076 14.56505
258 92.52590 85.70300 63.57080 65.41006 70.33426 41.55275
259 13.97410 20.94360 12.94630 2.272442 2.980656 2.003450
260 12.68060 41.47350 23.20970 6.157205 10.28750 5.462926
261 24.82680 46.31140 24.80870 8.914090 13.65775 6.281257
262 31.90070 78.84820 41.38200 25.10103 42.23045 17.85373
263 34.07360 88.34100 55.87380 33.87478 55.24046 32.38974
264 28.52910 5.476200 10.13490 3.161465 2.017953 1.362568
265 30.87670 13.76600 12.57150 4.118361 3.145826 1.855207
266 38.17090 19.19930 20.96100 6.816087 5.249470 4.144450
267 61.00750 33.25530 36.05920 18.96490 14.82373 11.79565
268 63.29010 33.76480 54.11950 23.32636 17.09603 27.05883
269 71.37880 89.16880 100.0000 65.47751 72.21342 108.4516
270 0.000000 69.53030 83.38030 28.14051 35.97190 71.07887
271 8.088800 82.65170 90.54570 37.76884 51.01808 85.99995
272 24.46830 91.53670 100.0000 49.26647 65.30030 108.5606
273 68.44340 100.0000 100.0000 69.80428 83.96955 109.4211
274 7.426100 13.90900 7.490500 1.074168 1.460231 1.037457
275 16.96720 15.54510 8.253900 1.956599 2.124997 1.161523
276 91.26980 0.000000 0.000000 34.18701 19.31648 0.523184
277 100.0000 0.000000 0.000000 42.07633 23.76488 0.579369
278 100.0000 41.30100 15.57280 46.98685 33.29965 3.427090
279 34.97720 34.59490 44.16980 10.71152 10.42004 17.43874
280 35.12750 45.72870 63.71570 17.46705 17.54765 38.80666
281 23.02980 54.58550 86.00560 24.94934 25.01880 75.03220
282 25.99170 63.49880 85.61370 28.58333 32.13880 74.83553
283 51.70350 77.72790 86.89120 42.97700 50.15152 78.34870
284 57.11210 55.62310 0.000000 20.65034 24.70059 1.738280
285 76.44980 56.33940 0.000000 31.91039 31.42757 1.856555
286 86.51330 61.26870 28.01810 42.26315 39.90087 8.686267
287 41.94640 0.000000 38.63560 8.772923 4.716188 12.97276
288 62.63640 0.000000 58.30680 21.02078 11.22868 31.42946
289 76.52120 35.01570 70.78360 35.91239 24.09097 48.41943
290 81.77730 49.40630 90.30320 50.00035 36.51067 83.42697
291 0.000000 31.92100 37.87920 5.198716 6.692237 12.83890
292 17.46660 35.07190 41.13720 7.286418 8.674105 15.18437
293 31.19770 41.95440 42.34800 11.06767 12.99237 16.29839
294 50.18410 51.07080 41.67900 19.19979 21.33142 16.25296
295 62.43260 60.59140 51.82930 29.81189 32.11070 25.80111
296 76.99240 75.34700 58.20340 46.61457 51.34518 34.07940
297 34.39710 76.72100 21.69480 22.47703 39.34640 7.045844
298 49.24240 86.82370 51.95420 36.78721 55.54981 27.94500
299 86.41050 87.44530 100.0000 74.86566 75.88903 108.3554
300 31.89230 10.65470 53.33990 8.991141 5.111447 25.70496
301 46.40780 12.73120 63.69900 15.75058 8.834653 37.99221
302 51.55190 17.64830 78.44940 22.51150 12.70353 60.01881
303 70.44630 27.67280 88.03240 36.77329 22.07460 78.04302
304 60.41780 18.78520 10.03440 14.73918 9.718136 1.547595
305 66.03550 37.59260 0.000000 20.28887 17.07865 0.988296
306 100.0000 63.03000 0.000000 53.41688 47.40156 2.397376
307 100.0000 78.02750 60.88620 67.19303 64.91287 37.57727
308 100.0000 79.83980 76.44320 72.58111 68.89273 59.78173
309 32.04270 11.85770 0.000000 3.966848 2.917856 0.372553
310 35.69980 25.48710 18.91720 6.692103 6.226184 3.610334
311 48.91530 35.91650 21.66780 12.76434 12.23667 4.787929
312 66.80750 55.69420 43.34770 28.86245 29.02593 17.77793
313 85.50600 59.48490 60.51680 46.31393 40.56319 35.72181
314 100.0000 26.54910 0.000000 43.85287 27.46767 0.864168
315 100.0000 25.89660 18.42130 44.34470 27.54205 3.741326
316 82.98130 46.35210 0.000000 33.45004 27.61772 1.396192
317 100.0000 46.15940 0.000000 47.75748 35.60588 1.490115
318 100.0000 53.08640 59.37900 56.32396 42.84179 34.11919
319 47.97100 13.39830 8.980800 8.958826 5.852442 1.288053
320 57.10290 15.02940 39.10810 15.32667 9.347132 13.43627
321 70.12120 90.41880 38.17310 46.91160 64.87239 16.82511
322 84.29260 100.0000 43.61630 62.72361 81.85663 21.62350
323 0.000000 79.75580 22.56570 20.09470 40.34192 7.566471
324 12.41630 90.56060 56.22210 32.00662 56.25389 32.98776
325 17.50820 91.19660 76.94330 38.62206 59.98085 61.40871
326 74.87880 18.17070 9.642700 23.10394 14.35616 1.538772
327 88.56260 20.21330 7.302300 33.07285 20.26000 1.318380
328 100.0000 0.000000 25.59700 43.16656 24.26425 5.972722
329 100.0000 0.000000 36.74800 44.38040 24.82023 11.97750
330 100.0000 0.000000 83.37200 55.92579 30.10850 69.09200
331 100.0000 61.83850 82.68720 66.52696 52.62550 69.55114
332 0.000000 0.000000 0.000000 0.126951 0.111694 0.280619
333 6.097600 0.000000 0.000000 0.330008 0.226188 0.282065
334 8.333300 0.000000 0.000000 0.443953 0.290436 0.282877
335 11.02480 0.000000 9.862900 0.814347 0.477937 1.282030
336 21.28880 0.000000 11.95670 1.932511 1.100895 1.641087
337 15.54430 0.000000 19.15460 1.625483 0.890144 3.395826
338 15.26170 29.70400 46.69340 7.028404 7.036845 19.44591
339 23.16250 40.91570 66.91190 14.80281 14.16739 43.01077
340 44.32380 46.71620 73.04790 23.04528 20.81749 52.00444
341 0.000000 54.19470 39.99470 10.95127 18.20748 15.15799
342 0.000000 53.81670 67.85130 16.84226 20.70261 44.89847
343 26.13190 89.06830 89.32550 43.11945 60.03153 84.13356
344 51.12280 88.65170 100.0000 54.86106 65.74453 108.3273
345 47.87750 56.56090 74.49750 27.83058 28.11249 54.73376
346 85.47630 62.03050 85.94430 55.29795 46.28060 75.55085
347 89.24530 73.35280 95.40510 67.14165 60.12506 95.89602
348 10.68380 0.000000 0.000000 0.589551 0.372531 0.283914
349 13.15790 0.000000 0.000000 0.777126 0.478295 0.285249
350 15.76580 0.000000 0.000000 1.019214 0.614797 0.286974
351 55.97730 0.000000 68.50290 20.52175 10.66432 44.63720
352 68.35670 14.38410 72.73410 28.67297 16.00776 50.76968
353 69.06760 34.87070 78.05820 33.39802 22.38747 59.77459
354 70.58940 79.92470 80.35810 51.21469 56.76701 66.42855
355 75.25670 95.14160 79.27330 63.12431 77.65762 65.99098
356 26.97610 65.48530 45.30550 18.45145 28.88299 19.85726
357 41.07050 73.37320 56.32860 27.70168 39.27265 31.61454
358 1.938000 0.000000 0.000000 0.171623 0.136883 0.280937
359 3.968300 0.000000 0.000000 0.242191 0.176672 0.281440
360 86.32300 18.24850 40.77620 33.89856 20.17102 14.76809
361 86.23310 59.41920 68.05090 48.85091 41.74237 45.71494
362 100.0000 77.98780 87.37520 75.65448 68.75603 79.53148
363 100.0000 100.0000 100.0000 93.89415 97.55264 109.5926
364 47.96440 84.60330 15.41110 30.51899 50.39154 5.927366
365 61.38160 85.00750 23.51180 37.08904 54.41525 8.483756
366 45.35740 39.61870 12.59880 11.71493 12.86096 2.461897
367 75.79300 40.85650 22.19400 27.86316 22.32232 5.234150
368 76.01140 45.56020 35.10470 30.42157 25.36664 11.69838
369 75.74300 64.61250 62.83040 41.99364 41.18529 38.82171
370 87.92740 81.44320 92.31470 68.81240 67.42041 89.79568
371 100.0000 88.92930 100.0000 87.62040 84.47651 108.5869
372 100.0000 37.30470 73.13090 55.98201 36.02694 52.02546
373 98.44790 54.58730 72.96680 59.18876 44.81342 52.50404
374 52.99720 51.53310 26.85440 18.68617 21.44407 7.456499
375 56.98050 74.41470 38.44220 30.99538 42.23984 15.51726
376 66.81770 76.29040 48.67190 38.58319 47.74480 23.84716
377 88.57030 86.83650 71.49990 64.91618 70.89650 52.70479
378 21.92410 24.23000 38.52370 5.754458 5.248780 13.10005
379 50.12260 40.36990 39.07730 15.98880 15.27399 13.97952
380 57.12990 46.58490 91.48220 34.94221 26.75214 85.63141
381 59.02790 66.47860 100.0000 46.80807 43.68101 106.5045
382 83.65820 75.07750 100.0000 66.00713 60.51377 107.2465
383 91.24980 68.57340 3.977700 47.96108 47.95888 3.012139
384 100.0000 87.56020 16.65000 66.21980 73.29641 6.774403
385 100.0000 100.0000 25.86550 73.96805 88.42567 11.01919
386 83.72990 84.53430 0.000000 50.04688 61.38374 3.973598
387 100.0000 85.06230 38.48090 66.71811 71.00141 16.66653
388 91.28990 89.27820 31.22380 60.56752 71.59781 12.62139
389 31.09730 69.71360 28.75640 18.96172 32.24123 9.436244
390 28.41290 100.0000 26.43970 34.72881 66.29520 10.99220
391 26.51160 100.0000 92.58420 50.73945 73.59249 91.88779
392 67.32290 44.89570 87.55190 38.12291 28.03287 77.63666
393 90.93880 54.73310 87.74920 57.65832 43.46580 78.60584
394 26.61320 17.13180 26.59210 4.415153 3.585454 6.248230
395 47.80100 32.83940 28.99440 12.38720 11.09129 7.750943
396 57.70810 39.07470 42.76930 19.49911 16.77261 16.57060
397 69.54980 45.47150 50.84930 28.75379 24.12522 24.07109
398 0.000000 6.097600 0.000000 0.291377 0.454400 0.306978
399 0.000000 8.333300 0.000000 0.377068 0.633003 0.320715
