Dell/P2417H/P2417H #1 2020-05-26 14-41 0.3127x 0.329y sRGB M-S XYZLUT+MTX/P2417H #1 2020-05-26 14-41 0.3127x 0.329y sRGB M-S XYZLUT+MTX.ti3
CTI3   

DESCRIPTOR "Argyll Calibration Target chart information 3"
ORIGINATOR "Argyll dispread"
CREATED "Tue May 26 14:52:48 2020"
DEVICE_CLASS "DISPLAY"
SINGLE_DIM_STEPS "25"
COMP_GREY_STEPS "73"
DARK_REGION_EMPHASIS "1.6"
COLOR_REP "RGB_XYZ"
TARGET_INSTRUMENT "X-Rite i1 DisplayPro, ColorMunki Display"
DISPLAY_TYPE_REFRESH "NO"
DISPLAY_TYPE_BASE_ID "1"
INSTRUMENT_TYPE_SPECTRAL "NO"
LUMINANCE_XYZ_CDM2 "203.497609 214.053489 235.096144"
NORMALIZED_TO_Y_100 "YES"
VIDEO_LUT_CALIBRATION_POSSIBLE "YES"

BEGIN_ARGYLL_COLPROF_ARGS
-v -qh -aX -bn -C "No copyright. Created with DisplayCAL 3.8.9.3 and ArgyllCMS 2.1.2" -M "DELL P2417H" -A "Dell, Inc."
END_ARGYLL_COLPROF_ARGS

OBSERVER "1931_2"
USE_BLACK_POINT_COMPENSATION "NO"
BLACK_POINT_CORRECTION "0.0"
HIRES_B2A "YES"
HIRES_B2A_SIZE "-1"
SMOOTH_B2A "YES"
PATCH_SEQUENCE "OPTIMIZE_DISPLAY_RESPONSE_DELAY"

NUMBER_OF_FIELDS 7
BEGIN_DATA_FORMAT
SAMPLE_ID RGB_R RGB_G RGB_B XYZ_X XYZ_Y XYZ_Z
END_DATA_FORMAT

NUMBER_OF_SETS 825
BEGIN_DATA
1 100.0000 100.0000 100.0000 95.06858 100.0000 109.8306
2 1.960800 1.960800 1.960800 0.237978 0.235038 0.401343
3 3.921600 3.921600 3.921600 0.383452 0.390512 0.571712
4 5.882400 5.882400 5.882400 0.562428 0.578143 0.777828
5 9.803900 9.803900 9.803900 1.031329 1.074598 1.294511
6 13.72600 13.72600 13.72600 1.687454 1.759782 2.050384
7 17.64700 17.64700 17.64700 2.577562 2.676717 3.087656
8 21.56900 21.56900 21.56900 3.645969 3.793657 4.347987
9 25.49000 25.49000 25.49000 4.956988 5.176664 5.873409
10 29.41200 29.41200 29.41200 6.651144 7.025556 7.838566
11 33.33300 33.33300 33.33300 8.579680 9.008308 10.08980
12 37.25500 37.25500 37.25500 10.86207 11.41867 12.61461
13 41.17600 41.17600 41.17600 13.37632 14.03773 15.49111
14 45.09800 45.09800 45.09800 16.05676 16.91779 18.46799
15 49.02000 49.02000 49.02000 19.46858 20.43958 22.47170
16 52.94100 52.94100 52.94100 22.86431 24.04973 26.38832
17 56.86300 56.86300 56.86300 26.98078 28.30127 31.28168
18 60.78400 60.78400 60.78400 31.05027 32.69457 36.00050
19 64.70600 64.70600 64.70600 35.78158 37.68743 41.16336
20 68.62700 68.62700 68.62700 40.86364 43.07056 47.21556
21 72.54900 72.54900 72.54900 46.17333 48.63132 52.82319
22 76.47100 76.47100 76.47100 51.92390 54.66865 59.40906
23 80.39200 80.39200 80.39200 58.04288 60.98250 66.52684
24 84.31400 84.31400 84.31400 64.54635 67.77110 74.35724
25 88.23500 88.23500 88.23500 71.46308 75.37436 82.01738
26 92.15700 92.15700 92.15700 78.70623 82.85390 90.64742
27 96.07800 96.07800 96.07800 86.97193 91.37604 99.54579
28 0.000000 100.0000 56.65490 37.84145 69.30886 34.10193
29 46.02260 100.0000 60.25940 46.18521 73.79987 38.75535
30 64.92250 100.0000 82.23970 61.58493 81.88318 72.39369
31 6.720100 25.86900 28.23190 3.351146 4.310189 7.117035
32 26.17130 57.25610 33.11030 13.28914 21.06180 10.82452
33 50.41020 80.93360 33.92200 30.60273 46.68714 13.23598
34 79.71010 0.000000 60.59150 31.68904 17.25547 34.12043
35 86.00330 17.15870 88.44720 46.42273 25.85939 78.78696
36 100.0000 27.14850 100.0000 65.06273 37.49441 105.1551
37 0.000000 9.193300 16.86960 0.881543 0.902761 2.709396
38 0.000000 24.57100 41.57920 4.520478 4.557735 14.92502
39 0.000000 28.22860 56.04490 7.769120 6.914901 28.36396
40 0.000000 61.03800 100.0000 31.78145 31.76771 106.1006
41 50.83730 77.30890 100.0000 48.35920 52.11572 107.0768
42 18.51850 0.000000 0.000000 1.218812 0.728790 0.284165
43 21.42860 0.000000 0.000000 1.628555 0.958334 0.285038
44 24.50980 0.000000 0.000000 2.031309 1.184999 0.286282
45 27.77780 0.000000 0.000000 2.640571 1.529157 0.288172
46 31.25000 0.000000 0.000000 3.264990 1.880596 0.289137
47 34.94620 0.000000 0.000000 4.057409 2.327905 0.291531
48 38.88890 0.000000 0.000000 5.073573 2.900710 0.294338
49 43.10350 0.000000 0.000000 6.410919 3.653986 0.298257
50 47.61910 0.000000 0.000000 7.693347 4.381768 0.302143
51 52.46910 0.000000 0.000000 9.588722 5.446431 0.308266
52 57.69230 0.000000 0.000000 11.91243 6.752558 0.314740
53 63.33330 0.000000 0.000000 14.58610 8.265087 0.323147
54 69.44440 0.000000 0.000000 18.01314 10.19771 0.333465
55 76.08700 0.000000 0.000000 22.22965 12.57018 0.345173
56 83.33330 0.000000 0.000000 27.29572 15.43121 0.361606
57 82.83610 0.000000 33.43940 29.06419 16.23716 9.715606
58 81.58400 0.000000 48.19400 30.39279 16.80102 20.45983
59 87.08190 13.43140 57.77760 37.06988 21.12754 30.72939
60 55.78250 0.000000 12.57400 11.46234 6.476780 1.733020
61 77.89700 0.000000 16.99150 24.13946 13.59718 2.779513
62 94.00920 17.83960 37.32890 39.59820 23.40429 12.39832
63 0.000000 10.68380 0.000000 0.467460 0.822469 0.332981
64 0.000000 13.15790 0.000000 0.610892 1.120703 0.354882
65 0.000000 15.76580 0.000000 0.781476 1.477043 0.382153
66 0.000000 18.51850 0.000000 0.967602 1.864887 0.410769
67 0.000000 21.42860 0.000000 1.252773 2.460580 0.455029
68 0.000000 24.50980 0.000000 1.539099 3.056143 0.498159
69 0.000000 27.77780 0.000000 2.017194 4.051790 0.572603
70 0.000000 31.25000 0.000000 2.492175 5.040154 0.646162
71 0.000000 34.94620 0.000000 3.135178 6.383085 0.744814
72 0.000000 38.88890 0.000000 3.845566 7.862244 0.854818
73 0.000000 43.10350 0.000000 4.826933 9.865820 1.003525
74 0.000000 47.61910 0.000000 5.904033 12.16794 1.175797
75 0.000000 52.46910 0.000000 7.385200 15.23523 1.401489
76 0.000000 57.69230 0.000000 9.050245 18.72170 1.661120
77 0.000000 63.33330 0.000000 11.15069 23.04323 1.983066
78 0.000000 69.44440 0.000000 13.81605 28.65716 2.400035
79 0.000000 76.08700 0.000000 16.93204 35.14108 2.881665
80 0.000000 83.33330 0.000000 20.66662 42.87921 3.456334
81 0.000000 91.26980 0.000000 25.72326 53.47835 4.247546
82 0.000000 100.0000 40.94180 34.73121 67.65826 19.38357
83 36.18930 100.0000 41.13270 39.43335 70.39985 19.89042
84 68.66040 100.0000 68.70510 59.26403 81.17760 50.48761
85 0.000000 0.000000 6.097600 0.228667 0.159184 0.780164
86 0.000000 0.000000 8.333300 0.271659 0.179808 0.993474
87 0.000000 0.000000 10.68380 0.339755 0.211656 1.331540
88 0.000000 0.000000 13.15790 0.435470 0.254366 1.808690
89 0.000000 0.000000 15.76580 0.554216 0.310612 2.393667
90 0.000000 0.000000 18.51850 0.697417 0.376802 3.096610
91 0.000000 0.000000 21.42860 0.893822 0.469470 4.064046
92 0.000000 0.000000 24.50980 1.086640 0.559098 5.026889
93 0.000000 0.000000 27.77780 1.356144 0.684558 6.350495
94 0.000000 0.000000 31.25000 1.738010 0.862804 8.250928
95 0.000000 0.000000 34.94620 2.116481 1.039036 10.12088
96 0.000000 0.000000 38.88890 2.620996 1.275886 12.60868
97 0.000000 0.000000 43.10350 3.279372 1.583774 15.84775
98 0.000000 0.000000 47.61910 3.938398 1.892319 19.10458
99 0.000000 0.000000 52.46910 4.940219 2.360994 24.06906
100 0.000000 0.000000 57.69230 6.071088 2.889577 29.65406
101 0.000000 0.000000 63.33330 7.493965 3.549864 36.65735
102 0.000000 0.000000 69.44440 9.229911 4.357673 45.25645
103 0.000000 0.000000 76.08700 11.18994 5.261914 54.91916
104 0.000000 0.000000 83.33330 13.75382 6.443642 67.59596
105 0.000000 0.000000 91.26980 17.06127 7.934509 83.90674
106 0.000000 0.000000 100.0000 21.19056 9.753044 104.3833
107 59.48400 0.000000 100.0000 34.14749 17.04366 104.3077
108 85.61510 61.71560 100.0000 61.70230 49.16845 107.0008
109 100.0000 64.33550 100.0000 75.41408 58.76379 107.3962
110 2.604200 2.604200 2.604200 0.292421 0.283709 0.457114
111 3.280800 3.280800 3.280800 0.323457 0.328924 0.497430
112 3.968300 3.968300 3.968300 0.382121 0.389345 0.570319
113 4.666700 4.666700 4.666700 0.431508 0.444214 0.621930
114 5.376300 5.376300 5.376300 0.508646 0.525636 0.711259
115 6.097600 6.097600 6.097600 0.602523 0.619951 0.819387
116 6.830600 6.830600 6.830600 0.644070 0.654369 0.843682
117 7.575800 7.575800 7.575800 0.720569 0.744935 0.938719
118 8.333300 8.333300 8.333300 0.838393 0.860726 1.054935
119 9.103600 9.103600 9.103600 0.939696 0.975663 1.184883
120 9.887000 9.887000 9.887000 1.027517 1.070778 1.291818
121 10.68380 10.68380 10.68380 1.158462 1.202614 1.428161
122 11.49420 11.49420 11.49420 1.251127 1.278286 1.587314
123 12.31880 12.31880 12.31880 1.392946 1.440309 1.724170
124 13.15790 13.15790 13.15790 1.583831 1.650777 1.936252
125 14.01180 14.01180 14.01180 1.768448 1.846183 2.133807
126 14.88100 14.88100 14.88100 1.942558 2.034595 2.328495
127 15.76580 15.76580 15.76580 2.103422 2.202243 2.551243
128 16.66670 16.66670 16.66670 2.344559 2.443377 2.816933
129 17.58410 17.58410 17.58410 2.567749 2.667415 3.083901
130 18.51850 18.51850 18.51850 2.708049 2.838210 3.320014
131 19.47040 19.47040 19.47040 3.071354 3.250611 3.656529
132 20.44020 20.44020 20.44020 3.322709 3.498331 3.949721
133 21.42860 21.42860 21.42860 3.634426 3.781028 4.341978
134 22.43590 22.43590 22.43590 3.845514 4.025279 4.562395
135 23.46280 23.46280 23.46280 4.302558 4.492728 5.104688
136 24.50980 24.50980 24.50980 4.552169 4.760218 5.381804
137 25.57760 25.57760 25.57760 4.944673 5.161529 5.870274
138 26.66670 26.66670 26.66670 5.421354 5.665680 6.420584
139 27.77780 27.77780 27.77780 5.999021 6.304680 6.974258
140 28.91160 28.91160 28.91160 6.488681 6.827120 7.598879
141 30.06870 30.06870 30.06870 6.998677 7.309004 8.345401
142 31.25000 31.25000 31.25000 7.600344 7.931053 8.953620
143 32.45610 32.45610 32.45610 8.163948 8.535103 9.564691
144 33.68790 33.68790 33.68790 8.853361 9.264102 10.38338
145 34.94620 34.94620 34.94620 9.467439 9.941752 11.11331
146 36.23190 36.23190 36.23190 10.14065 10.65027 11.72817
147 37.54580 37.54580 37.54580 11.05004 11.64191 12.90092
148 38.88890 38.88890 38.88890 11.73038 12.30174 13.81560
149 40.26220 40.26220 40.26220 12.75917 13.35515 14.76359
150 41.66670 41.66670 41.66670 13.70312 14.36238 15.90232
151 43.10350 43.10350 43.10350 14.79511 15.47223 17.20618
152 44.57360 44.57360 44.57360 15.88300 16.68525 18.28262
153 46.07840 46.07840 46.07840 16.74066 17.60634 19.35040
154 47.61910 47.61910 47.61910 18.06352 18.99366 20.86281
155 49.19680 49.19680 49.19680 19.43875 20.41711 22.55260
156 50.81300 50.81300 50.81300 21.01975 22.11721 24.33267
157 52.46910 52.46910 52.46910 22.39099 23.57496 25.93431
158 54.16670 54.16670 54.16670 24.08085 25.36193 27.89175
159 55.90720 55.90720 55.90720 26.07183 27.35429 30.20317
160 57.69230 57.69230 57.69230 27.58822 29.02335 32.07249
161 59.52380 59.52380 59.52380 29.63313 31.31290 34.21051
162 61.40350 61.40350 61.40350 32.07706 33.77657 37.23320
163 63.33330 63.33330 63.33330 33.95107 35.70176 39.45649
164 65.31530 65.31530 65.31530 36.57004 38.54440 42.21652
165 67.35160 67.35160 67.35160 39.17263 41.37751 45.42055
166 69.44440 69.44440 69.44440 41.87072 44.18827 48.62275
167 71.59620 71.59620 71.59620 45.03159 47.47417 51.73708
168 73.80950 73.80950 73.80950 47.86145 50.38702 55.02776
169 76.08700 76.08700 76.08700 51.26821 53.99079 58.67637
170 78.43140 78.43140 78.43140 54.95574 57.82473 63.03482
171 80.84580 80.84580 80.84580 58.63245 61.58945 67.48107
172 83.33330 83.33330 83.33330 62.70178 65.85797 72.28491
173 85.89740 85.89740 85.89740 67.30505 70.63835 77.26675
174 88.54170 88.54170 88.54170 72.19446 76.11320 83.05495
175 91.26980 91.26980 91.26980 77.22762 81.30076 89.10247
176 94.08600 94.08600 94.08600 82.64571 87.15856 94.80023
177 96.99450 96.99450 96.99450 88.72623 93.34573 101.8252
178 15.34040 27.34700 0.000000 2.802869 4.451083 0.570652
179 37.50020 31.71630 0.000000 7.228824 7.893750 0.676941
180 55.91360 43.67310 0.000000 16.22938 16.64498 1.070888
181 56.39720 64.43050 53.73510 28.93725 33.84261 28.13754
182 60.59960 68.11150 72.79140 37.71983 40.90651 53.51423
183 28.11410 81.90620 75.73200 34.25500 48.90108 58.58469
184 42.64530 89.87530 79.84860 44.24702 61.56302 66.72400
185 59.69790 52.90370 59.67690 27.32200 26.44806 33.80898
186 75.42050 58.31710 72.05620 41.78476 37.21168 51.70308
187 46.43330 38.25010 48.26780 15.65503 14.36518 21.53215
188 52.94830 43.20340 48.13450 19.10412 17.88458 21.36096
189 53.33110 74.26650 48.97820 30.79924 41.57151 23.97729
190 62.02620 77.91460 72.10710 42.74100 50.75197 52.80381
191 63.70500 85.05060 72.19180 47.33896 59.10848 53.40661
192 44.37280 61.73020 67.24130 26.39446 30.37221 44.27686
193 42.71350 90.78660 72.51250 42.53162 61.92586 54.94802
194 0.000000 100.0000 72.87890 42.21899 71.23446 55.99706
195 32.83440 100.0000 80.99240 48.99480 74.98270 70.25069
196 0.000000 72.17780 55.50170 20.73729 34.05069 30.13092
197 27.62310 80.68280 57.44450 28.27045 45.01507 33.12982
198 0.000000 85.00970 58.26020 28.20829 48.46146 34.60923
199 7.526300 89.28380 83.58890 39.00588 58.02029 73.13710
200 0.000000 100.0000 100.0000 53.13987 76.29052 109.7183
201 14.50940 75.59090 46.88610 21.75867 37.62626 22.27357
202 25.64360 100.0000 51.76730 39.07888 70.17954 29.03693
203 0.000000 100.0000 0.000000 31.81407 66.27492 5.216859
204 29.04400 100.0000 0.000000 34.64424 67.90379 5.226937
205 50.62500 100.0000 0.000000 40.85119 71.45625 5.252389
206 68.56330 100.0000 0.000000 49.59271 76.43785 5.284221
207 10.32050 42.04780 48.57940 9.378923 11.85300 21.76349
208 26.28470 48.92160 56.20150 14.60758 17.45308 29.59064
209 55.03130 67.60650 90.95410 41.27413 41.76315 85.70297
210 69.92780 77.61540 100.0000 58.03558 57.93011 107.3816
211 14.74750 4.231900 9.578400 1.208212 0.856748 1.203784
212 16.87480 10.07110 11.56660 1.682489 1.464390 1.568268
213 50.93440 47.20210 10.30810 15.21612 17.49590 2.229424
214 62.78170 60.36630 26.93800 26.20211 30.21260 7.964217
215 78.99190 64.75520 32.76740 38.17897 39.60287 11.38408
216 46.63910 7.553200 35.74750 9.956628 5.763513 10.93407
217 64.45390 0.000000 34.73170 17.41313 9.661717 10.40779
218 73.25770 11.94380 36.57790 23.43910 13.63994 11.46917
219 78.79380 29.34340 36.47970 28.98502 19.59065 11.97163
220 90.11200 46.61320 34.22420 40.86112 31.79989 11.24336
221 55.29280 26.85210 15.64690 13.22847 10.15360 2.795853
222 63.03840 37.38870 25.90250 19.57903 16.48901 6.487439
223 70.97790 37.07820 51.68040 27.71605 20.73595 24.56219
224 49.15180 28.66070 69.63180 20.16893 13.70854 46.93318
225 50.00260 39.50560 76.88700 24.74761 19.09085 57.96284
226 46.40510 68.12330 0.000000 20.73117 31.92567 2.356191
227 60.81900 83.05330 0.000000 34.27831 50.81795 3.525080
228 74.00170 86.27340 12.23820 44.00760 58.98555 5.210772
229 85.21890 100.0000 23.23570 61.94451 83.44532 9.929775
230 0.000000 23.08560 83.81590 15.49611 9.402856 69.83865
231 10.87060 66.17980 93.30700 31.22371 35.12905 90.62835
232 26.88930 69.89960 100.0000 38.09024 40.93627 106.8684
233 28.21790 23.89120 100.0000 25.46505 14.41898 104.8403
234 28.66500 51.96790 100.0000 31.67185 27.09055 106.1125
235 0.000000 13.19210 38.53290 3.090226 2.282521 12.58235
236 11.96850 20.95190 41.91950 4.823309 4.134443 15.38725
237 55.78380 21.41240 49.53240 16.80172 10.91351 21.72296
238 68.67680 22.18400 54.84420 24.63642 15.32509 27.62582
239 78.33150 33.48350 60.68020 34.02704 22.96058 34.80203
240 31.95360 47.09450 10.87460 9.596260 14.32829 2.388793
241 32.32560 58.68870 11.07180 13.39312 22.06295 2.932606
242 49.30990 100.0000 24.68140 41.83515 72.03201 10.46969
243 83.85860 100.0000 78.23760 72.51601 88.29837 65.40913
244 0.000000 0.000000 0.000000 0.126882 0.111666 0.280430
245 0.000000 0.000000 1.938000 0.151107 0.123103 0.395044
246 0.000000 0.000000 3.968300 0.180903 0.137221 0.539749
247 0.000000 11.16480 11.27600 0.730862 0.973139 1.558262
248 23.50200 23.85630 30.88050 5.052521 4.921736 8.566150
249 52.66450 49.21040 64.26160 24.25053 22.79456 39.74311
250 68.08440 61.95060 71.88720 38.68624 37.51043 51.22278
251 0.000000 29.64560 27.69570 3.560438 5.242944 6.814612
252 40.37800 57.88350 27.03390 16.31442 23.30741 7.841307
253 78.69740 71.28620 28.46970 40.73522 45.48679 9.562179
254 85.51650 77.52850 50.40470 52.05885 56.33926 26.03111
255 85.14070 87.78180 58.77730 59.27666 68.76845 35.80706
256 84.56200 90.79960 78.13440 66.67923 75.35385 63.77156
257 72.23000 72.46870 37.14520 37.83073 44.57053 14.63628
258 92.52590 85.70300 63.57080 65.12962 70.14590 42.04438
259 13.97410 20.94360 12.94630 2.243201 2.944123 1.933628
260 12.68060 41.47350 23.20970 6.053308 10.09564 5.392916
261 24.82680 46.31140 24.80870 8.888105 13.57213 6.230272
262 31.90070 78.84820 41.38200 25.10234 41.95578 18.12232
263 34.07360 88.34100 55.87380 33.78273 54.95582 32.05836
264 28.52910 5.476200 10.13490 3.153238 2.002447 1.311356
265 30.87670 13.76600 12.57150 4.104255 3.125008 1.772244
266 38.17090 19.19930 20.96100 6.663299 5.198915 4.062338
267 61.00750 33.25530 36.05920 18.80619 14.76106 11.64224
268 63.29010 33.76480 54.11950 23.20317 17.07619 27.14446
269 71.37880 89.16880 100.0000 65.69234 72.15783 108.9242
270 0.000000 69.53030 83.38030 27.99779 35.56083 71.32996
271 8.088800 82.65170 90.54570 37.78785 51.08162 85.82408
272 24.46830 91.53670 100.0000 49.36596 65.04678 109.1432
273 68.44340 100.0000 100.0000 71.51612 86.85859 110.1475
274 7.426100 13.90900 7.490500 1.049728 1.408587 0.962521
275 16.96720 15.54510 8.253900 1.917709 2.142622 1.122601
276 91.26980 0.000000 0.000000 33.83405 19.11191 0.384715
277 100.0000 0.000000 0.000000 41.81944 23.63082 0.419455
278 100.0000 41.30100 15.57280 46.88864 33.25169 3.409132
279 34.97720 34.59490 44.16980 10.74608 10.43273 17.40610
280 35.12750 45.72870 63.71570 17.59824 17.78294 38.51766
281 23.02980 54.58550 86.00560 24.93892 25.07630 74.48559
282 25.99170 63.49880 85.61370 28.54858 32.23748 74.28436
283 51.70350 77.72790 86.89120 43.07182 50.12233 78.62441
284 57.11210 55.62310 0.000000 20.39841 24.34430 1.619301
285 76.44980 56.33940 0.000000 31.36965 30.93031 1.692630
286 86.51330 61.26870 28.01810 42.21235 39.84455 8.534376
287 41.94640 0.000000 38.63560 8.679526 4.682199 12.95241
288 62.63640 0.000000 58.30680 20.83092 11.18036 31.16575
289 76.52120 35.01570 70.78360 35.74835 24.12648 48.55686
290 81.77730 49.40630 90.30320 50.09100 36.74678 83.26423
291 0.000000 31.92100 37.87920 4.999087 6.377466 12.59035
292 17.46660 35.07190 41.13720 7.242634 8.600911 15.09162
293 31.19770 41.95440 42.34800 11.12255 12.97715 16.25844
294 50.18410 51.07080 41.67900 18.93689 21.08018 16.13655
295 62.43260 60.59140 51.82930 29.85566 32.24157 25.52185
296 76.99240 75.34700 58.20340 46.17378 50.94709 33.93232
297 34.39710 76.72100 21.69480 22.37439 39.04692 6.926606
298 49.24240 86.82370 51.95420 36.47901 54.75243 27.57449
299 86.41050 87.44530 100.0000 75.13453 76.02133 109.0222
300 31.89230 10.65470 53.33990 8.986779 5.155469 25.47467
301 46.40780 12.73120 63.69900 15.63700 8.809247 38.04173
302 51.55190 17.64830 78.44940 22.30059 12.68647 59.84591
303 70.44630 27.67280 88.03240 36.69209 22.21862 77.36527
304 60.41780 18.78520 10.03440 14.39645 9.532568 1.488199
305 66.03550 37.59260 0.000000 19.63721 16.65870 0.890131
306 100.0000 63.03000 0.000000 53.30511 47.33095 2.176366
307 100.0000 78.02750 60.88620 67.32338 65.23663 37.93304
308 100.0000 79.83980 76.44320 72.83749 69.37743 60.29193
309 32.04270 11.85770 0.000000 3.897609 2.815904 0.349549
310 35.69980 25.48710 18.91720 6.658410 6.132968 3.641070
311 48.91530 35.91650 21.66780 12.77080 12.27731 4.750061
312 66.80750 55.69420 43.34770 28.54503 28.77624 18.02578
313 85.50600 59.48490 60.51680 46.42022 40.78289 35.79980
314 100.0000 26.54910 0.000000 43.49274 27.29522 0.695419
315 100.0000 25.89660 18.42130 44.22110 27.52539 3.711159
316 82.98130 46.35210 0.000000 33.13446 27.34948 1.239864
317 100.0000 46.15940 0.000000 47.43736 35.43341 1.299847
318 100.0000 53.08640 59.37900 56.32186 43.05989 33.91094
319 47.97100 13.39830 8.980800 8.724565 5.700108 1.217266
320 57.10290 15.02940 39.10810 15.30880 9.376153 13.56806
321 70.12120 90.41880 38.17310 46.80096 64.62134 16.75884
322 84.29260 100.0000 43.61630 63.90180 84.30850 22.23587
323 0.000000 79.75580 22.56570 19.72094 39.59014 7.409197
324 12.41630 90.56060 56.22210 31.81611 55.82723 32.81335
325 17.50820 91.19660 76.94330 38.70144 60.01237 61.63327
326 74.87880 18.17070 9.642700 22.75975 14.14331 1.497683
327 88.56260 20.21330 7.302300 32.84504 20.20467 1.171922
328 100.0000 0.000000 25.59700 42.98466 24.18152 5.714722
329 100.0000 0.000000 36.74800 44.37584 24.82836 12.06347
330 100.0000 0.000000 83.37200 56.03239 30.24005 69.92395
331 100.0000 61.83850 82.68720 66.84765 53.23526 70.23372
332 0.000000 0.000000 0.000000 0.126978 0.111810 0.280887
333 6.097600 0.000000 0.000000 0.339273 0.231966 0.281838
334 8.333300 0.000000 0.000000 0.440444 0.290067 0.282238
335 11.02480 0.000000 9.862900 0.817159 0.481241 1.274597
336 21.28880 0.000000 11.95670 1.861229 1.062548 1.593063
337 15.54430 0.000000 19.15460 1.595574 0.876663 3.383975
338 15.26170 29.70400 46.69340 7.004499 7.024946 19.32150
339 23.16250 40.91570 66.91190 14.74808 14.11270 43.02758
340 44.32380 46.71620 73.04790 23.28085 21.07404 52.15883
341 0.000000 54.19470 39.99470 10.68702 17.81632 14.82519
342 0.000000 53.81670 67.85130 16.66467 20.40647 44.70214
343 26.13190 89.06830 89.32550 43.21151 60.00244 84.20413
344 51.12280 88.65170 100.0000 55.16694 65.89419 109.1575
345 47.87750 56.56090 74.49750 28.03463 28.23932 55.40276
346 85.47630 62.03050 85.94430 55.29343 46.51544 75.35822
347 89.24530 73.35280 95.40510 67.49177 60.57964 95.73958
348 10.68380 0.000000 0.000000 0.571129 0.362929 0.282565
349 13.15790 0.000000 0.000000 0.764227 0.471832 0.282378
350 15.76580 0.000000 0.000000 0.952143 0.577104 0.282972
351 55.97730 0.000000 68.50290 20.37681 10.66913 44.65932
352 68.35670 14.38410 72.73410 28.51148 16.03115 50.75112
353 69.06760 34.87070 78.05820 33.36297 22.56218 59.93145
354 70.58940 79.92470 80.35810 51.22946 56.81697 66.71504
355 75.25670 95.14160 79.27330 63.46503 78.09861 66.53036
356 26.97610 65.48530 45.30550 18.45264 28.64696 20.04243
357 41.07050 73.37320 56.32860 27.79018 39.21104 31.79666
358 1.938000 0.000000 0.000000 0.175999 0.140573 0.280662
359 3.968300 0.000000 0.000000 0.233501 0.173371 0.281086
360 86.32300 18.24850 40.77620 33.61248 20.05858 14.68996
361 86.23310 59.41920 68.05090 49.10757 42.16935 46.34733
362 100.0000 77.98780 87.37520 75.96378 69.23985 79.86314
363 100.0000 100.0000 100.0000 95.27008 100.2131 110.3638
364 47.96440 84.60330 15.41110 30.26604 49.92421 5.777099
365 61.38160 85.00750 23.51180 37.00765 54.04689 8.381650
366 45.35740 39.61870 12.59880 11.50424 12.56316 2.315734
367 75.79300 40.85650 22.19400 27.38743 22.00829 5.170469
368 76.01140 45.56020 35.10470 30.11245 25.17567 11.63953
369 75.74300 64.61250 62.83040 41.90750 41.23131 39.16137
370 87.92740 81.44320 92.31470 69.16494 67.95062 89.88930
371 100.0000 88.92930 100.0000 88.02035 84.94510 109.5078
372 100.0000 37.30470 73.13090 56.23326 36.43519 52.53447
373 98.44790 54.58730 72.96680 59.46617 45.24697 53.07701
374 52.99720 51.53310 26.85440 18.45748 21.16714 7.299465
375 56.98050 74.41470 38.44220 30.82984 42.03183 15.48299
376 66.81770 76.29040 48.67190 38.37895 47.60586 24.05154
377 88.57030 86.83650 71.49990 64.73668 70.49023 52.88786
378 21.92410 24.23000 38.52370 5.746201 5.303030 12.99250
379 50.12260 40.36990 39.07730 15.89769 15.20763 14.11940
380 57.12990 46.58490 91.48220 35.36494 27.19583 85.81492
381 59.02790 66.47860 100.0000 47.27416 44.15161 106.8708
382 83.65820 75.07750 100.0000 66.35411 60.68668 108.3662
383 91.24980 68.57340 3.977700 47.73927 47.72930 2.787795
384 100.0000 87.56020 16.65000 65.93147 72.88955 6.476777
385 100.0000 100.0000 25.86550 75.07576 90.82149 11.18423
386 83.72990 84.53430 0.000000 49.80988 61.00031 3.718012
387 100.0000 85.06230 38.48090 66.70127 70.98096 16.84957
388 91.28990 89.27820 31.22380 60.49600 71.48893 12.67652
389 31.09730 69.71360 28.75640 18.86518 31.97079 9.280756
390 28.41290 100.0000 26.43970 35.99981 68.77605 11.11908
391 26.51160 100.0000 92.58420 52.16443 76.32615 92.24329
