Dell/P2417H/P2417H #1 2020-05-26 14-41 0.3127x 0.329y sRGB M-S XYZLUT+MTX/P2417H #1 2020-05-26 14-41 0.3127x 0.329y sRGB M-S XYZLUT+MTX.cal
CAL    

DESCRIPTOR "Argyll Device Calibration Curves"
ORIGINATOR "Argyll dispcal"
CREATED "Tue May 26 14:51:58 2020"
DEVICE_CLASS "DISPLAY"
COLOR_REP "RGB"
VIDEO_LUT_CALIBRATION_POSSIBLE "YES"
TV_OUTPUT_ENCODING "NO"
DEVICE_TYPE "n"
TARGET_WHITE_XYZ "201.714436 212.229132 231.129781"
TARGET_GAMMA "sRGB"
DEGREE_OF_BLACK_OUTPUT_OFFSET "1.0"
BLACK_POINT_CORRECTION "0.0"
BLACK_NEUTRAL_BLEND_RATE "4.0"
BLACK_POINT_HACK "YES"
QUALITY "medium"

BEGIN_ARGYLL_DISPCAL_ARGS
-v2 -d1 -c1 -yn -P0.460483870968,0.465,1.86301369863 -F -qm -m -w0.3127,0.329 -gs -f1.0 -k0 -A4.0 -b
END_ARGYLL_DISPCAL_ARGS


NUMBER_OF_FIELDS 4
BEGIN_DATA_FORMAT
RGB_I RGB_R RGB_G RGB_B
END_DATA_FORMAT

NUMBER_OF_SETS 256
BEGIN_DATA
0.00000000 0.00000000 0.00000000 0.00000000
0.00392157 0.00748776 0.00634185 0.00650800
0.00784314 0.01451510 0.01239530 0.01266570
0.01176470 0.02112330 0.01817960 0.01850070
0.01568630 0.02734860 0.02371230 0.02403770
0.01960780 0.03322330 0.02900950 0.02929900
0.02352940 0.03876480 0.03408590 0.03430390
0.02745100 0.04398370 0.03895260 0.03905950
0.03137250 0.04890580 0.04362270 0.04357540
0.03529410 0.05356360 0.04811900 0.04788040
0.03921570 0.05798400 0.05246340 0.05200260
0.04313730 0.06219690 0.05667800 0.05597370
0.04705880 0.06623660 0.06078360 0.05982290
0.05098040 0.07013830 0.06479580 0.06357470
0.05490200 0.07393320 0.06873270 0.06725370
0.05882350 0.07764380 0.07260970 0.07088090
0.06274510 0.08128280 0.07644170 0.07447660
0.06666670 0.08486440 0.08024160 0.07805840
0.07058820 0.08839570 0.08401670 0.08163990
0.07450980 0.09189710 0.08777290 0.08522560
0.07843140 0.09537020 0.09151150 0.08882450
0.08235290 0.09882760 0.09524410 0.09243770
0.08627450 0.10227200 0.09896940 0.09606990
0.09019610 0.10570100 0.10269300 0.09972170
0.09411760 0.10913000 0.10641400 0.10338400
0.09803920 0.11255600 0.11012500 0.10705500
0.10196100 0.11597600 0.11382600 0.11072200
0.10588200 0.11938800 0.11751500 0.11438000
0.10980400 0.12280700 0.12118900 0.11802200
0.11372500 0.12622400 0.12484900 0.12165300
0.11764700 0.12963700 0.12850400 0.12526800
0.12156900 0.13304100 0.13215200 0.12886600
0.12549000 0.13643700 0.13579200 0.13243800
0.12941200 0.13984100 0.13941900 0.13599400
0.13333300 0.14324500 0.14304100 0.13953800
0.13725500 0.14664900 0.14666400 0.14306900
0.14117600 0.15005500 0.15028500 0.14659400
0.14509800 0.15345800 0.15390400 0.15010500
0.14902000 0.15685300 0.15751900 0.15360000
0.15294100 0.16024900 0.16112300 0.15708400
0.15686300 0.16365600 0.16472100 0.16056800
0.16078400 0.16706600 0.16832100 0.16404700
0.16470600 0.17047400 0.17192100 0.16751600
0.16862700 0.17388200 0.17551600 0.17097900
0.17254900 0.17729300 0.17910600 0.17443600
0.17647100 0.18069500 0.18269500 0.17786900
0.18039200 0.18407900 0.18627000 0.18128200
0.18431400 0.18745100 0.18982500 0.18467600
0.18823500 0.19081300 0.19336900 0.18805200
0.19215700 0.19417800 0.19689900 0.19142200
0.19607800 0.19755300 0.20042000 0.19478700
0.20000000 0.20092600 0.20394000 0.19814500
0.20392200 0.20430000 0.20745500 0.20149500
0.20784300 0.20767400 0.21096700 0.20483600
0.21176500 0.21106300 0.21447300 0.20817800
0.21568600 0.21447000 0.21797700 0.21152700
0.21960800 0.21789600 0.22148600 0.21487000
0.22352900 0.22132600 0.22499800 0.21820600
0.22745100 0.22475800 0.22850300 0.22154800
0.23137300 0.22820200 0.23200400 0.22489900
0.23529400 0.23165300 0.23551300 0.22825100
0.23921600 0.23511200 0.23902900 0.23160500
0.24313700 0.23858100 0.24255000 0.23496400
0.24705900 0.24207500 0.24607600 0.23834200
0.25098000 0.24559300 0.24961300 0.24173400
0.25490200 0.24912000 0.25316800 0.24513500
0.25882400 0.25265100 0.25672800 0.24854200
0.26274500 0.25618300 0.26029300 0.25195100
0.26666700 0.25971400 0.26386100 0.25536400
0.27058800 0.26323700 0.26743800 0.25877000
0.27451000 0.26675800 0.27102000 0.26217900
0.27843100 0.27029400 0.27461000 0.26560000
0.28235300 0.27385000 0.27821600 0.26904000
0.28627500 0.27742500 0.28184500 0.27249500
0.29019600 0.28100100 0.28550400 0.27594400
0.29411800 0.28455000 0.28918000 0.27938400
0.29803900 0.28807400 0.29285300 0.28282600
0.30196100 0.29158300 0.29652800 0.28627900
0.30588200 0.29508900 0.30020900 0.28974600
0.30980400 0.29859500 0.30390400 0.29323000
0.31372500 0.30209400 0.30761500 0.29671500
0.31764700 0.30558600 0.31133600 0.30021100
0.32156900 0.30907800 0.31506100 0.30371100
0.32549000 0.31257000 0.31879600 0.30721700
0.32941200 0.31606300 0.32253500 0.31072700
0.33333300 0.31956000 0.32627800 0.31424700
0.33725500 0.32306900 0.33002500 0.31778200
0.34117600 0.32660600 0.33378300 0.32132100
0.34509800 0.33015700 0.33755000 0.32486000
0.34902000 0.33372000 0.34131500 0.32839800
0.35294100 0.33729700 0.34507600 0.33193500
0.35686300 0.34088600 0.34883500 0.33547100
0.36078400 0.34448800 0.35259100 0.33899900
0.36470600 0.34810700 0.35634400 0.34252900
0.36862700 0.35175600 0.36009600 0.34606200
0.37254900 0.35542400 0.36385800 0.34958200
0.37647100 0.35909600 0.36761800 0.35309500
0.38039200 0.36277400 0.37136900 0.35660700
0.38431400 0.36646900 0.37511600 0.36011900
0.38823500 0.37017500 0.37886600 0.36362800
0.39215700 0.37388900 0.38261800 0.36714100
0.39607800 0.37762300 0.38637100 0.37067400
0.40000000 0.38138300 0.39013700 0.37423700
0.40392200 0.38517200 0.39392300 0.37783200
0.40784300 0.38898700 0.39773500 0.38144400
0.41176500 0.39278900 0.40156900 0.38504000
0.41568600 0.39655500 0.40539700 0.38861600
0.41960800 0.40028200 0.40920400 0.39217500
0.42352900 0.40397700 0.41299600 0.39573200
0.42745100 0.40765300 0.41677800 0.39929800
0.43137300 0.41131500 0.42055900 0.40286900
0.43529400 0.41496300 0.42433800 0.40644200
0.43921600 0.41860600 0.42810800 0.41002600
0.44313700 0.42224100 0.43187500 0.41361400
0.44705900 0.42586800 0.43563900 0.41721100
0.45098000 0.42949800 0.43940000 0.42082300
0.45490200 0.43312700 0.44316800 0.42444000
0.45882400 0.43673900 0.44694300 0.42805400
0.46274500 0.44033200 0.45071400 0.43167100
0.46666700 0.44392500 0.45448000 0.43530200
0.47058800 0.44752300 0.45825300 0.43894600
0.47451000 0.45111900 0.46204100 0.44258600
0.47843100 0.45471800 0.46583500 0.44623500
0.48235300 0.45832800 0.46963400 0.44988800
0.48627500 0.46194600 0.47344400 0.45355000
0.49019600 0.46556800 0.47726500 0.45722400
0.49411800 0.46919100 0.48110100 0.46090900
0.49803900 0.47281500 0.48495000 0.46460400
0.50196100 0.47644000 0.48881400 0.46831000
0.50588200 0.48006600 0.49269400 0.47202900
0.50980400 0.48369800 0.49658800 0.47577300
0.51372500 0.48736200 0.50050500 0.47952400
0.51764700 0.49103200 0.50444200 0.48327800
0.52156900 0.49470500 0.50838400 0.48703500
0.52549000 0.49838100 0.51233200 0.49079500
0.52941200 0.50206000 0.51628600 0.49456000
0.53333300 0.50574300 0.52024400 0.49832700
0.53725500 0.50943300 0.52420600 0.50209200
0.54117600 0.51313300 0.52817300 0.50585800
0.54509800 0.51684800 0.53213900 0.50961400
0.54902000 0.52057300 0.53610600 0.51336900
0.55294100 0.52431000 0.54006600 0.51712900
0.55686300 0.52806800 0.54403600 0.52087800
0.56078400 0.53183100 0.54801600 0.52461400
0.56470600 0.53558900 0.55198700 0.52833900
0.56862700 0.53935000 0.55595300 0.53204700
0.57254900 0.54312000 0.55991600 0.53574700
0.57647100 0.54690600 0.56387500 0.53945100
0.58039200 0.55071700 0.56784100 0.54315400
0.58431400 0.55454800 0.57181800 0.54683100
0.58823500 0.55836200 0.57578600 0.55048300
0.59215700 0.56214300 0.57972700 0.55412400
0.59607800 0.56589300 0.58365000 0.55776300
0.60000000 0.56962300 0.58756500 0.56139100
0.60392200 0.57333100 0.59146900 0.56501400
0.60784300 0.57701800 0.59536200 0.56863300
0.61176500 0.58068400 0.59924400 0.57226100
0.61568600 0.58434800 0.60312100 0.57589800
0.61960800 0.58800800 0.60699700 0.57953900
0.62352900 0.59166400 0.61087200 0.58319100
0.62745100 0.59531900 0.61474800 0.58684000
0.63137300 0.59896900 0.61862200 0.59048600
0.63529400 0.60261100 0.62248500 0.59413200
0.63921600 0.60624800 0.62634200 0.59777600
0.64313700 0.60988700 0.63019900 0.60140600
0.64705900 0.61352500 0.63405600 0.60502400
0.65098000 0.61715900 0.63790600 0.60863800
0.65490200 0.62080800 0.64175900 0.61226100
0.65882400 0.62448300 0.64561900 0.61590700
0.66274500 0.62820000 0.64949900 0.61958800
0.66666700 0.63196700 0.65340500 0.62331000
0.67058800 0.63578600 0.65734400 0.62707300
0.67451000 0.63965800 0.66131300 0.63087600
0.67843100 0.64358100 0.66531400 0.63467700
0.68235300 0.64754400 0.66933200 0.63843700
0.68627500 0.65147600 0.67331100 0.64215400
0.69019600 0.65536700 0.67724500 0.64582700
0.69411800 0.65921700 0.68113300 0.64946100
0.69803900 0.66302600 0.68498200 0.65307100
0.70196100 0.66679600 0.68880300 0.65667200
0.70588200 0.67054100 0.69261300 0.66028100
0.70980400 0.67427700 0.69642700 0.66389500
0.71372500 0.67800900 0.70024800 0.66751800
0.71764700 0.68175100 0.70408200 0.67113900
0.72156900 0.68550100 0.70793100 0.67475100
0.72549000 0.68925100 0.71179300 0.67835900
0.72941200 0.69300600 0.71567100 0.68196500
0.73333300 0.69677200 0.71957200 0.68557200
0.73725500 0.70054600 0.72349300 0.68918700
0.74117600 0.70433200 0.72743800 0.69279300
0.74509800 0.70811300 0.73139100 0.69639200
0.74902000 0.71188400 0.73534500 0.69999300
0.75294100 0.71565900 0.73930600 0.70359700
0.75686300 0.71944200 0.74327000 0.70720900
0.76078400 0.72323800 0.74723500 0.71083500
0.76470600 0.72705300 0.75120600 0.71448100
0.76862700 0.73088600 0.75518200 0.71814400
0.77254900 0.73473100 0.75916100 0.72182600
0.77647100 0.73858900 0.76314500 0.72552700
0.78039200 0.74245900 0.76713400 0.72925400
0.78431400 0.74634000 0.77113000 0.73299000
0.78823500 0.75022000 0.77512100 0.73673800
0.79215700 0.75409600 0.77910600 0.74048900
0.79607800 0.75797900 0.78308600 0.74424000
0.80000000 0.76187200 0.78706100 0.74800300
0.80392200 0.76579200 0.79104300 0.75178900
0.80784300 0.76974400 0.79504400 0.75560100
0.81176500 0.77372400 0.79906900 0.75942400
0.81568600 0.77771000 0.80310400 0.76321900
0.81960800 0.78165400 0.80711400 0.76698400
0.82352900 0.78555600 0.81109800 0.77072500
0.82745100 0.78942500 0.81506400 0.77445800
0.83137300 0.79328200 0.81902400 0.77819800
0.83529400 0.79715000 0.82299100 0.78194300
0.83921600 0.80103100 0.82696600 0.78568900
0.84313700 0.80492300 0.83094900 0.78944100
0.84705900 0.80883300 0.83494300 0.79320400
0.85098000 0.81276700 0.83895100 0.79697800
0.85490200 0.81672500 0.84297500 0.80075400
0.85882400 0.82071100 0.84700900 0.80454500
0.86274500 0.82473900 0.85106500 0.80836100
0.86666700 0.82881100 0.85515000 0.81219700
0.87058800 0.83290100 0.85926100 0.81602600
0.87451000 0.83697000 0.86336600 0.81984200
0.87843100 0.84101900 0.86746300 0.82365900
0.88235300 0.84506900 0.87156400 0.82748200
0.88627500 0.84912000 0.87566800 0.83131200
0.89019600 0.85318000 0.87978400 0.83514700
0.89411800 0.85725000 0.88391200 0.83899800
0.89803900 0.86133300 0.88805400 0.84286700
0.90196100 0.86540800 0.89220700 0.84673600
0.90588200 0.86946900 0.89635800 0.85061000
0.90980400 0.87352100 0.90052000 0.85450000
0.91372500 0.87758100 0.90470200 0.85840900
0.91764700 0.88165300 0.90891200 0.86233400
0.92156900 0.88571300 0.91313700 0.86625900
0.92549000 0.88976300 0.91736600 0.87019600
0.92941200 0.89381600 0.92160700 0.87415500
0.93333300 0.89786400 0.92586100 0.87811900
0.93725500 0.90190500 0.93011700 0.88208600
0.94117600 0.90595100 0.93438400 0.88605700
0.94509800 0.90999500 0.93865700 0.89002500
0.94902000 0.91404800 0.94294500 0.89399500
0.95294100 0.91811100 0.94724700 0.89796600
0.95686300 0.92218700 0.95156300 0.90193700
0.96078400 0.92627400 0.95588800 0.90591000
0.96470600 0.93037000 0.96022300 0.90988000
0.96862700 0.93447200 0.96456900 0.91385000
0.97254900 0.93858300 0.96892400 0.91782100
0.97647100 0.94270100 0.97329000 0.92179400
0.98039200 0.94682700 0.97766600 0.92576900
0.98431400 0.95095900 0.98205200 0.92974600
0.98823500 0.95509800 0.98645000 0.93372500
0.99215700 0.95924400 0.99085700 0.93770500
0.99607800 0.96339700 0.99527500 0.94168700
1.00000000 0.96755700 0.99970400 0.94567100
END_DATA
CAL    

DESCRIPTOR "Argyll Calibration options and model"
ORIGINATOR "Argyll dispcal"
CREATED "Tue May 26 14:51:58 202"

NUMBER_OF_FIELDS 3
BEGIN_DATA_FORMAT
R_P G_P B_P
END_DATA_FORMAT

NUMBER_OF_SETS 32
BEGIN_DATA
0.000389134 0.000660582 0.002063660
0.999611000 0.999339000 0.997936000
1.528648000 1.463390000 1.537388000
0.534138000 0.505730000 0.534743000
0.122642000 0.126391000 0.144601000
0.122395000 0.151886000 0.093768500
0.101835000 0.126653000 0.081450500
0.104078000 0.077282200 0.095474100
0.076370200 0.056164900 0.073621000
0.071964800 0.059228600 0.067458900
0.049588100 0.061787600 0.063762600
0.061678000 0.052118400 0.061335800
0.061139400 0.050742600 0.054925400
0.043251500 0.040941800 0.047907200
0.045442500 0.043536800 0.048693400
0.043540500 0.042314900 0.046076900
0.041238400 0.040103100 0.044473700
0.038690200 0.039468600 0.042040800
0.034173100 0.038018600 0.039567800
0.031733900 0.033289200 0.036272800
0.029906100 0.035141800 0.032890800
0.028229800 0.028276700 0.032825200
0.027960000 0.028222400 0.032279600
0.023200300 0.027601500 0.032612000
0.020959900 0.026560700 0.030299300
0.020291200 0.027495800 0.022594900
0.019052300 0.023114100 0.024481200
0.017734200 0.021838600 0.021485700
0.017679700 0.020566000 0.019907000
0.017606400 0.020295800 0.019931600
0.016054000 0.021944900 0.023229800
0.014560300 0.019290900 0.022987500
END_DATA
