Dell/P2417H/P2417H #1 2020-05-26 14-41 0.3127x 0.329y sRGB M-S XYZLUT+MTX/P2417H #1 2020-05-26 14-41 0.3127x 0.329y sRGB M-S XYZLUT+MTX.bpc.ti3
CTI3   

DESCRIPTOR "Argyll Calibration Target chart information 3"
ORIGINATOR "Argyll dispread"
CREATED "Tue May 26 14:52:48 2020"
DEVICE_CLASS "DISPLAY"
SINGLE_DIM_STEPS "25"
COMP_GREY_STEPS "73"
DARK_REGION_EMPHASIS "1.6"
COLOR_REP "RGB_XYZ"
TARGET_INSTRUMENT "X-Rite i1 DisplayPro, ColorMunki Display"
DISPLAY_TYPE_REFRESH "NO"
DISPLAY_TYPE_BASE_ID "1"
INSTRUMENT_TYPE_SPECTRAL "NO"
LUMINANCE_XYZ_CDM2 "203.497609 214.053489 235.096144"
NORMALIZED_TO_Y_100 "YES"
VIDEO_LUT_CALIBRATION_POSSIBLE "YES"

BEGIN_ARGYLL_COLPROF_ARGS
-v -qh -aX -bn -C "No copyright. Created with DisplayCAL 3.8.9.3 and ArgyllCMS 2.1.2" -M "DELL P2417H" -A "Dell, Inc."
END_ARGYLL_COLPROF_ARGS

OBSERVER "1931_2"
USE_BLACK_POINT_COMPENSATION "NO"
BLACK_POINT_CORRECTION "0.0"
HIRES_B2A "YES"
HIRES_B2A_SIZE "-1"
SMOOTH_B2A "YES"
PATCH_SEQUENCE "OPTIMIZE_DISPLAY_RESPONSE_DELAY"

NUMBER_OF_FIELDS 7
BEGIN_DATA_FORMAT
SAMPLE_ID RGB_R RGB_G RGB_B XYZ_X XYZ_Y XYZ_Z
END_DATA_FORMAT

NUMBER_OF_SETS 825
BEGIN_DATA
1 100.0000 100.0000 100.0000 95.06858 100.0000 109.8306
2 1.960800 1.960800 1.960800 0.224953 0.235199 0.300632
3 3.921600 3.921600 3.921600 0.376198 0.390673 0.515187
4 5.882400 5.882400 5.882400 0.558927 0.578303 0.750033
5 9.803900 9.803900 9.803900 1.030848 1.074758 1.289589
6 13.72600 13.72600 13.72600 1.687494 1.759940 2.049687
7 17.64700 17.64700 17.64700 2.577694 2.676874 3.087698
8 21.56900 21.56900 21.56900 3.646114 3.793812 4.348139
9 25.49000 25.49000 25.49000 4.957133 5.176817 5.873575
10 29.41200 29.41200 29.41200 6.651287 7.025706 7.838731
11 33.33300 33.33300 33.33300 8.579820 9.008455 10.08996
12 37.25500 37.25500 37.25500 10.86221 11.41881 12.61477
13 41.17600 41.17600 41.17600 13.37645 14.03787 15.49126
14 45.09800 45.09800 45.09800 16.05689 16.91792 18.46814
15 49.02000 49.02000 49.02000 19.46870 20.43971 22.47184
16 52.94100 52.94100 52.94100 22.86443 24.04985 26.38846
17 56.86300 56.86300 56.86300 26.98089 28.30139 31.28181
18 60.78400 60.78400 60.78400 31.05037 32.69468 36.00062
19 64.70600 64.70600 64.70600 35.78168 37.68753 41.16347
20 68.62700 68.62700 68.62700 40.86373 43.07065 47.21566
21 72.54900 72.54900 72.54900 46.17341 48.63140 52.82328
22 76.47100 76.47100 76.47100 51.92397 54.66872 59.40914
23 80.39200 80.39200 80.39200 58.04294 60.98256 66.52691
24 84.31400 84.31400 84.31400 64.54640 67.77115 74.35730
25 88.23500 88.23500 88.23500 71.46312 75.37440 82.01743
26 92.15700 92.15700 92.15700 78.70626 82.85393 90.64745
27 96.07800 96.07800 96.07800 86.97194 91.37605 99.54581
28 0.000000 100.0000 56.65490 37.84154 69.30891 34.10205
29 46.02260 100.0000 60.25940 46.18529 73.79991 38.75547
30 64.92250 100.0000 82.23970 61.58498 81.88321 72.39375
31 6.720100 25.86900 28.23190 3.351293 4.310343 7.117191
32 26.17130 57.25610 33.11030 13.28927 21.06193 10.82468
33 50.41020 80.93360 33.92200 30.60283 46.68723 13.23614
34 79.71010 0.000000 60.59150 31.68914 17.25560 34.12055
35 86.00330 17.15870 88.44720 46.42281 25.85951 78.78701
36 100.0000 27.14850 100.0000 65.06278 37.49451 105.1551
37 0.000000 9.193300 16.86960 0.880621 0.902921 2.693867
38 0.000000 24.57100 41.57920 4.520623 4.557889 14.92516
39 0.000000 28.22860 56.04490 7.769261 6.915051 28.36409
40 0.000000 61.03800 100.0000 31.78155 31.76782 106.1006
41 50.83730 77.30890 100.0000 48.35928 52.11580 107.0768
42 18.51850 0.000000 0.000000 1.216345 0.728950 0.268626
43 21.42860 0.000000 0.000000 1.627398 0.958494 0.278748
44 24.50980 0.000000 0.000000 2.030777 1.185158 0.283547
45 27.77780 0.000000 0.000000 2.640439 1.529316 0.287341
46 31.25000 0.000000 0.000000 3.265013 1.880754 0.288926
47 34.94620 0.000000 0.000000 4.057507 2.328063 0.291577
48 38.88890 0.000000 0.000000 5.073702 2.900867 0.294477
49 43.10350 0.000000 0.000000 6.411057 3.654141 0.298426
50 47.61910 0.000000 0.000000 7.693487 4.381922 0.302318
51 52.46910 0.000000 0.000000 9.588860 5.446584 0.308443
52 57.69230 0.000000 0.000000 11.91256 6.752708 0.314918
53 63.33330 0.000000 0.000000 14.58623 8.265235 0.323325
54 69.44440 0.000000 0.000000 18.01326 10.19785 0.333643
55 76.08700 0.000000 0.000000 22.22977 12.57032 0.345351
56 83.33330 0.000000 0.000000 27.29583 15.43135 0.361784
57 82.83610 0.000000 33.43940 29.06430 16.23730 9.715769
58 81.58400 0.000000 48.19400 30.39289 16.80115 20.45998
59 87.08190 13.43140 57.77760 37.06997 21.12767 30.72952
60 55.78250 0.000000 12.57400 11.46247 6.476931 1.733195
61 77.89700 0.000000 16.99150 24.13957 13.59732 2.779687
62 94.00920 17.83960 37.32890 39.59829 23.40441 12.39848
63 0.000000 10.68380 0.000000 0.466184 0.822629 0.322224
64 0.000000 13.15790 0.000000 0.610572 1.120862 0.351442
65 0.000000 15.76580 0.000000 0.781475 1.477202 0.381157
66 0.000000 18.51850 0.000000 0.967696 1.865045 0.410541
67 0.000000 21.42860 0.000000 1.252908 2.460737 0.455109
68 0.000000 24.50980 0.000000 1.539244 3.056299 0.498308
69 0.000000 27.77780 0.000000 2.017343 4.051945 0.572776
70 0.000000 31.25000 0.000000 2.492324 5.040307 0.646338
71 0.000000 34.94620 0.000000 3.135326 6.383236 0.744991
72 0.000000 38.88890 0.000000 3.845713 7.862393 0.854995
73 0.000000 43.10350 0.000000 4.827079 9.865965 1.003702
74 0.000000 47.61910 0.000000 5.904177 12.16808 1.175973
75 0.000000 52.46910 0.000000 7.385342 15.23537 1.401665
76 0.000000 57.69230 0.000000 9.050384 18.72183 1.661295
77 0.000000 63.33330 0.000000 11.15083 23.04335 1.983241
78 0.000000 69.44440 0.000000 13.81618 28.65728 2.400209
79 0.000000 76.08700 0.000000 16.93217 35.14118 2.881839
80 0.000000 83.33330 0.000000 20.66674 42.87930 3.456507
81 0.000000 91.26980 0.000000 25.72337 53.47843 4.247717
82 0.000000 100.0000 40.94180 34.73131 67.65831 19.38372
83 36.18930 100.0000 41.13270 39.43344 70.39990 19.89057
84 68.66040 100.0000 68.70510 59.26409 81.17763 50.48771
85 0.000000 0.000000 6.097600 0.211416 0.159345 0.647102
86 0.000000 0.000000 8.333300 0.255673 0.179969 0.870042
87 0.000000 0.000000 10.68380 0.325547 0.211817 1.201465
88 0.000000 0.000000 13.15790 0.423350 0.254527 1.671272
89 0.000000 0.000000 15.76580 0.544399 0.310773 2.258192
90 0.000000 0.000000 18.51850 0.689774 0.376963 2.970163
91 0.000000 0.000000 21.42860 0.888266 0.469631 3.956407
92 0.000000 0.000000 24.50980 1.082154 0.559258 4.938236
93 0.000000 0.000000 27.77780 1.352962 0.684718 6.286184
94 0.000000 0.000000 31.25000 1.736187 0.862964 8.212517
95 0.000000 0.000000 34.94620 2.115471 1.039196 10.09825
96 0.000000 0.000000 38.88890 2.620543 1.276045 12.59695
97 0.000000 0.000000 43.10350 3.279242 1.583933 15.84239
98 0.000000 0.000000 47.61910 3.938407 1.892477 19.10200
99 0.000000 0.000000 52.46910 4.940313 2.361151 24.06817
100 0.000000 0.000000 57.69230 6.071212 2.889734 29.65381
101 0.000000 0.000000 63.33330 7.494100 3.550020 36.65735
102 0.000000 0.000000 69.44440 9.230048 4.357827 45.25652
103 0.000000 0.000000 76.08700 11.19007 5.262067 54.91924
104 0.000000 0.000000 83.33330 13.75395 6.443793 67.59603
105 0.000000 0.000000 91.26980 17.06140 7.934658 83.90678
106 0.000000 0.000000 100.0000 21.19068 9.753190 104.3833
107 59.48400 0.000000 100.0000 34.14759 17.04379 104.3077
108 85.61510 61.71560 100.0000 61.70235 49.16853 107.0008
109 100.0000 64.33550 100.0000 75.41411 58.76386 107.3962
110 2.604200 2.604200 2.604200 0.281561 0.283870 0.372979
111 3.280800 3.280800 3.280800 0.314295 0.329085 0.426296
112 3.968300 3.968300 3.968300 0.374835 0.389506 0.513546
113 4.666700 4.666700 4.666700 0.425603 0.444375 0.575728
114 5.376300 5.376300 5.376300 0.504340 0.525796 0.677305
115 6.097600 6.097600 6.097600 0.599559 0.620111 0.795708
116 6.830600 6.830600 6.830600 0.641490 0.654529 0.822942
117 7.575800 7.575800 7.575800 0.718792 0.745095 0.924128
118 8.333300 8.333300 8.333300 0.837315 0.860886 1.045257
119 9.103600 9.103600 9.103600 0.938998 0.975823 1.178197
120 9.887000 9.887000 9.887000 1.027029 1.070938 1.286834
121 10.68380 10.68380 10.68380 1.158171 1.202773 1.424811
122 11.49420 11.49420 11.49420 1.250913 1.278445 1.584527
123 12.31880 12.31880 12.31880 1.392859 1.440468 1.722442
124 13.15790 13.15790 13.15790 1.583840 1.650936 1.935300
125 14.01180 14.01180 14.01180 1.768508 1.846341 2.133268
126 14.88100 14.88100 14.88100 1.942648 2.034753 2.328199
127 15.76580 15.76580 15.76580 2.103530 2.202401 2.551083
128 16.66670 16.66670 16.66670 2.344682 2.443534 2.816901
129 17.58410 17.58410 17.58410 2.567881 2.667572 3.083940
130 18.51850 18.51850 18.51850 2.708186 2.838367 3.320088
131 19.47040 19.47040 19.47040 3.071497 3.250767 3.656655
132 20.44020 20.44020 20.44020 3.322853 3.498487 3.949862
133 21.42860 21.42860 21.42860 3.634571 3.781183 4.342130
134 22.43590 22.43590 22.43590 3.845660 4.025434 4.562553
135 23.46280 23.46280 23.46280 4.302704 4.492882 5.104851
136 24.50980 24.50980 24.50980 4.552315 4.760372 5.381969
137 25.57760 25.57760 25.57760 4.944818 5.161682 5.870440
138 26.66670 26.66670 26.66670 5.421499 5.665832 6.420751
139 27.77780 27.77780 27.77780 5.999165 6.304831 6.974424
140 28.91160 28.91160 28.91160 6.488824 6.827270 7.599045
141 30.06870 30.06870 30.06870 6.998819 7.309154 8.345566
142 31.25000 31.25000 31.25000 7.600485 7.931202 8.953784
143 32.45610 32.45610 32.45610 8.164088 8.535251 9.564854
144 33.68790 33.68790 33.68790 8.853500 9.264248 10.38354
145 34.94620 34.94620 34.94620 9.467577 9.941897 11.11347
146 36.23190 36.23190 36.23190 10.14079 10.65041 11.72833
147 37.54580 37.54580 37.54580 11.05018 11.64205 12.90108
148 38.88890 38.88890 38.88890 11.73051 12.30188 13.81576
149 40.26220 40.26220 40.26220 12.75930 13.35529 14.76374
150 41.66670 41.66670 41.66670 13.70325 14.36252 15.90247
151 43.10350 43.10350 43.10350 14.79524 15.47237 17.20633
152 44.57360 44.57360 44.57360 15.88313 16.68538 18.28277
153 46.07840 46.07840 46.07840 16.74079 17.60647 19.35055
154 47.61910 47.61910 47.61910 18.06364 18.99379 20.86295
155 49.19680 49.19680 49.19680 19.43887 20.41724 22.55274
156 50.81300 50.81300 50.81300 21.01987 22.11734 24.33281
157 52.46910 52.46910 52.46910 22.39111 23.57508 25.93445
158 54.16670 54.16670 54.16670 24.08096 25.36205 27.89188
159 55.90720 55.90720 55.90720 26.07194 27.35441 30.20330
160 57.69230 57.69230 57.69230 27.58833 29.02346 32.07262
161 59.52380 59.52380 59.52380 29.63324 31.31301 34.21063
162 61.40350 61.40350 61.40350 32.07716 33.77668 37.23332
163 63.33330 63.33330 63.33330 33.95117 35.70186 39.45660
164 65.31530 65.31530 65.31530 36.57013 38.54450 42.21663
165 67.35160 67.35160 67.35160 39.17272 41.37760 45.42066
166 69.44440 69.44440 69.44440 41.87081 44.18836 48.62285
167 71.59620 71.59620 71.59620 45.03167 47.47425 51.73717
168 73.80950 73.80950 73.80950 47.86153 50.38710 55.02785
169 76.08700 76.08700 76.08700 51.26828 53.99086 58.67645
170 78.43140 78.43140 78.43140 54.95581 57.82480 63.03490
171 80.84580 80.84580 80.84580 58.63251 61.58951 67.48114
172 83.33330 83.33330 83.33330 62.70183 65.85803 72.28497
173 85.89740 85.89740 85.89740 67.30510 70.63840 77.26680
174 88.54170 88.54170 88.54170 72.19450 76.11324 83.05499
175 91.26980 91.26980 91.26980 77.22765 81.30079 89.10250
176 94.08600 94.08600 94.08600 82.64573 87.15858 94.80026
177 96.99450 96.99450 96.99450 88.72624 93.34574 101.8252
178 15.34040 27.34700 0.000000 2.803017 4.451237 0.570827
179 37.50020 31.71630 0.000000 7.228966 7.893899 0.677118
180 55.91360 43.67310 0.000000 16.22951 16.64511 1.071064
181 56.39720 64.43050 53.73510 28.93736 33.84272 28.13767
182 60.59960 68.11150 72.79140 37.71992 40.90661 53.51432
183 28.11410 81.90620 75.73200 34.25510 48.90116 58.58477
184 42.64530 89.87530 79.84860 44.24710 61.56308 66.72407
185 59.69790 52.90370 59.67690 27.32211 26.44818 33.80910
186 75.42050 58.31710 72.05620 41.78485 37.21178 51.70318
187 46.43330 38.25010 48.26780 15.65516 14.36532 21.53229
188 52.94830 43.20340 48.13450 19.10424 17.88471 21.36110
189 53.33110 74.26650 48.97820 30.79934 41.57160 23.97743
190 62.02620 77.91460 72.10710 42.74108 50.75205 52.80390
191 63.70500 85.05060 72.19180 47.33904 59.10855 53.40670
192 44.37280 61.73020 67.24130 26.39457 30.37232 44.27697
193 42.71350 90.78660 72.51250 42.53171 61.92592 54.94811
194 0.000000 100.0000 72.87890 42.21908 71.23451 55.99715
195 32.83440 100.0000 80.99240 48.99487 74.98274 70.25076
196 0.000000 72.17780 55.50170 20.73741 34.05080 30.13105
197 27.62310 80.68280 57.44450 28.27056 45.01516 33.12994
198 0.000000 85.00970 58.26020 28.20840 48.46154 34.60935
199 7.526300 89.28380 83.58890 39.00597 58.02036 73.13716
200 0.000000 100.0000 100.0000 53.13994 76.29056 109.7183
201 14.50940 75.59090 46.88610 21.75879 37.62636 22.27371
202 25.64360 100.0000 51.76730 39.07897 70.17959 29.03706
203 0.000000 100.0000 0.000000 31.81417 66.27497 5.217029
204 29.04400 100.0000 0.000000 34.64434 67.90384 5.227107
205 50.62500 100.0000 0.000000 40.85128 71.45630 5.252559
206 68.56330 100.0000 0.000000 49.59278 76.43789 5.284391
207 10.32050 42.04780 48.57940 9.379061 11.85314 21.76363
208 26.28470 48.92160 56.20150 14.60771 17.45321 29.59077
209 55.03130 67.60650 90.95410 41.27422 41.76324 85.70301
210 69.92780 77.61540 100.0000 58.03564 57.93018 107.3816
211 14.74750 4.231900 9.578400 1.206778 0.856908 1.193030
212 16.87480 10.07110 11.56660 1.682388 1.464549 1.566780
213 50.93440 47.20210 10.30810 15.21625 17.49603 2.229599
214 62.78170 60.36630 26.93800 26.20222 30.21271 7.964382
215 78.99190 64.75520 32.76740 38.17906 39.60297 11.38424
216 46.63910 7.553200 35.74750 9.956765 5.763665 10.93423
217 64.45390 0.000000 34.73170 17.41326 9.661863 10.40795
218 73.25770 11.94380 36.57790 23.43922 13.64008 11.46933
219 78.79380 29.34340 36.47970 28.98513 19.59078 11.97179
220 90.11200 46.61320 34.22420 40.86121 31.80000 11.24352
221 55.29280 26.85210 15.64690 13.22860 10.15374 2.796027
222 63.03840 37.38870 25.90250 19.57915 16.48914 6.487607
223 70.97790 37.07820 51.68040 27.71616 20.73608 24.56233
224 49.15180 28.66070 69.63180 20.16905 13.70868 46.93328
225 50.00260 39.50560 76.88700 24.74772 19.09098 57.96292
226 46.40510 68.12330 0.000000 20.73129 31.92578 2.356365
227 60.81900 83.05330 0.000000 34.27841 50.81803 3.525252
228 74.00170 86.27340 12.23820 44.00768 58.98562 5.210942
229 85.21890 100.0000 23.23570 61.94456 83.44535 9.929937
230 0.000000 23.08560 83.81590 15.49624 9.403002 69.83872
231 10.87060 66.17980 93.30700 31.22381 35.12915 90.62838
232 26.88930 69.89960 100.0000 38.09033 40.93637 106.8684
233 28.21790 23.89120 100.0000 25.46516 14.41912 104.8403
234 28.66500 51.96790 100.0000 31.67195 27.09067 106.1125
235 0.000000 13.19210 38.53290 3.090329 2.282679 12.58171
236 11.96850 20.95190 41.91950 4.823453 4.134598 15.38738
237 55.78380 21.41240 49.53240 16.80185 10.91365 21.72310
238 68.67680 22.18400 54.84420 24.63653 15.32523 27.62595
239 78.33150 33.48350 60.68020 34.02714 22.96070 34.80215
240 31.95360 47.09450 10.87460 9.596398 14.32843 2.388967
241 32.32560 58.68870 11.07180 13.39325 22.06308 2.932779
242 49.30990 100.0000 24.68140 41.83524 72.03206 10.46985
243 83.85860 100.0000 78.23760 72.51605 88.29839 65.40920
244 0.000000 0.000000 0.000000 0.106372 0.111827 0.122415
245 0.000000 0.000000 1.938000 0.131408 0.123264 0.243238
246 0.000000 0.000000 3.968300 0.162199 0.137382 0.395565
247 0.000000 11.16480 11.27600 0.730215 0.973299 1.550122
248 23.50200 23.85630 30.88050 5.052666 4.921889 8.566310
249 52.66450 49.21040 64.26160 24.25064 22.79468 39.74322
250 68.08440 61.95060 71.88720 38.68633 37.51053 51.22288
251 0.000000 29.64560 27.69570 3.560585 5.243097 6.814777
252 40.37800 57.88350 27.03390 16.31455 23.30753 7.841473
253 78.69740 71.28620 28.46970 40.73531 45.48688 9.562342
254 85.51650 77.52850 50.40470 52.05892 56.33933 26.03125
255 85.14070 87.78180 58.77730 59.27672 68.76850 35.80718
256 84.56200 90.79960 78.13440 66.67928 75.35389 63.77164
257 72.23000 72.46870 37.14520 37.83082 44.57062 14.63643
258 92.52590 85.70300 63.57080 65.12967 70.14595 42.04449
259 13.97410 20.94360 12.94630 2.243342 2.944280 1.933748
260 12.68060 41.47350 23.20970 6.053452 10.09579 5.393085
261 24.82680 46.31140 24.80870 8.888244 13.57227 6.230440
262 31.90070 78.84820 41.38200 25.10245 41.95587 18.12247
263 34.07360 88.34100 55.87380 33.78283 54.95589 32.05849
264 28.52910 5.476200 10.13490 3.153296 2.002605 1.311185
265 30.87670 13.76600 12.57150 4.104393 3.125164 1.772383
266 38.17090 19.19930 20.96100 6.663441 5.199068 4.062508
267 61.00750 33.25530 36.05920 18.80631 14.76120 11.64240
268 63.29010 33.76480 54.11950 23.20329 17.07632 27.14459
269 71.37880 89.16880 100.0000 65.69239 72.15788 108.9242
270 0.000000 69.53030 83.38030 27.99790 35.56093 71.33002
271 8.088800 82.65170 90.54570 37.78794 51.08170 85.82412
272 24.46830 91.53670 100.0000 49.36603 65.04684 109.1432
273 68.44340 100.0000 100.0000 71.51616 86.85861 110.1475
274 7.426100 13.90900 7.490500 1.049663 1.408746 0.961260
275 16.96720 15.54510 8.253900 1.917813 2.142780 1.122555
276 91.26980 0.000000 0.000000 33.83415 19.11204 0.384893
277 100.0000 0.000000 0.000000 41.81953 23.63094 0.419632
278 100.0000 41.30100 15.57280 46.88872 33.25180 3.409305
279 34.97720 34.59490 44.16980 10.74622 10.43287 17.40625
280 35.12750 45.72870 63.71570 17.59837 17.78307 38.51778
281 23.02980 54.58550 86.00560 24.93903 25.07642 74.48565
282 25.99170 63.49880 85.61370 28.54869 32.23759 74.28442
283 51.70350 77.72790 86.89120 43.07190 50.12241 78.62446
284 57.11210 55.62310 0.000000 20.39853 24.34442 1.619477
285 76.44980 56.33940 0.000000 31.36975 30.93042 1.692805
286 86.51330 61.26870 28.01810 42.21244 39.84465 8.534540
287 41.94640 0.000000 38.63560 8.679664 4.682353 12.95256
288 62.63640 0.000000 58.30680 20.83104 11.18050 31.16588
289 76.52120 35.01570 70.78360 35.74845 24.12660 48.55696
290 81.77730 49.40630 90.30320 50.09107 36.74688 83.26427
291 0.000000 31.92100 37.87920 4.999232 6.377617 12.59051
292 17.46660 35.07190 41.13720 7.242776 8.601058 15.09177
293 31.19770 41.95440 42.34800 11.12269 12.97729 16.25859
294 50.18410 51.07080 41.67900 18.93701 21.08031 16.13670
295 62.43260 60.59140 51.82930 29.85577 32.24168 25.52199
296 76.99240 75.34700 58.20340 46.17386 50.94717 33.93244
297 34.39710 76.72100 21.69480 22.37451 39.04702 6.926773
298 49.24240 86.82370 51.95420 36.47910 54.75250 27.57462
299 86.41050 87.44530 100.0000 75.13456 76.02137 109.0222
300 31.89230 10.65470 53.33990 8.986917 5.155622 25.47480
301 46.40780 12.73120 63.69900 15.63713 8.809394 38.04185
302 51.55190 17.64830 78.44940 22.30071 12.68661 59.84599
303 70.44630 27.67280 88.03240 36.69218 22.21875 77.36532
304 60.41780 18.78520 10.03440 14.39658 9.532714 1.488375
305 66.03550 37.59260 0.000000 19.63733 16.65883 0.890308
306 100.0000 63.03000 0.000000 53.30518 47.33104 2.176541
307 100.0000 78.02750 60.88620 67.32343 65.23669 37.93316
308 100.0000 79.83980 76.44320 72.83753 69.37748 60.29201
309 32.04270 11.85770 0.000000 3.897740 2.816061 0.349681
310 35.69980 25.48710 18.91720 6.658553 6.133119 3.641242
311 48.91530 35.91650 21.66780 12.77093 12.27745 4.750232
312 66.80750 55.69420 43.34770 28.54514 28.77636 18.02593
313 85.50600 59.48490 60.51680 46.42030 40.78299 35.79992
314 100.0000 26.54910 0.000000 43.49282 27.29534 0.695596
315 100.0000 25.89660 18.42130 44.22118 27.52551 3.711331
316 82.98130 46.35210 0.000000 33.13456 27.34960 1.240040
317 100.0000 46.15940 0.000000 47.43744 35.43351 1.300023
318 100.0000 53.08640 59.37900 56.32192 43.05998 33.91106
319 47.97100 13.39830 8.980800 8.724704 5.700260 1.217442
320 57.10290 15.02940 39.10810 15.30893 9.376299 13.56822
321 70.12120 90.41880 38.17310 46.80104 64.62140 16.75899
322 84.29260 100.0000 43.61630 63.90185 84.30853 22.23601
323 0.000000 79.75580 22.56570 19.72106 39.59024 7.409363
324 12.41630 90.56060 56.22210 31.81621 55.82730 32.81348
325 17.50820 91.19660 76.94330 38.70153 60.01243 61.63335
326 74.87880 18.17070 9.642700 22.75987 14.14345 1.497859
327 88.56260 20.21330 7.302300 32.84514 20.20480 1.172098
328 100.0000 0.000000 25.59700 42.98474 24.18164 5.714891
329 100.0000 0.000000 36.74800 44.37592 24.82848 12.06363
330 100.0000 0.000000 83.37200 56.03245 30.24016 69.92402
331 100.0000 61.83850 82.68720 66.84770 53.23534 70.23379
332 0.000000 0.000000 0.000000 0.106468 0.111971 0.122872
333 6.097600 0.000000 0.000000 0.326098 0.232127 0.179981
334 8.333300 0.000000 0.000000 0.429840 0.290228 0.200062
335 11.02480 0.000000 9.862900 0.812040 0.481402 1.227336
336 21.28880 0.000000 11.95670 1.860400 1.062708 1.587130
337 15.54430 0.000000 19.15460 1.593959 0.876823 3.363984
338 15.26170 29.70400 46.69340 7.004641 7.025096 19.32165
339 23.16250 40.91570 66.91190 14.74821 14.11284 43.02769
340 44.32380 46.71620 73.04790 23.28097 21.07417 52.15892
341 0.000000 54.19470 39.99470 10.68716 17.81645 14.82534
342 0.000000 53.81670 67.85130 16.66480 20.40660 44.70225
343 26.13190 89.06830 89.32550 43.21159 60.00250 84.20417
344 51.12280 88.65170 100.0000 55.16700 65.89425 109.1575
345 47.87750 56.56090 74.49750 28.03474 28.23944 55.40285
346 85.47630 62.03050 85.94430 55.29349 46.51553 75.35828
347 89.24530 73.35280 95.40510 67.49181 60.57970 95.73960
348 10.68380 0.000000 0.000000 0.563073 0.363090 0.219899
349 13.15790 0.000000 0.000000 0.758918 0.471993 0.240747
350 15.76580 0.000000 0.000000 0.948328 0.577264 0.255067
351 55.97730 0.000000 68.50290 20.37693 10.66927 44.65943
352 68.35670 14.38410 72.73410 28.51159 16.03129 50.75122
353 69.06760 34.87070 78.05820 33.36307 22.56231 59.93153
354 70.58940 79.92470 80.35810 51.22953 56.81704 66.71511
355 75.25670 95.14160 79.27330 63.46508 78.09865 66.53043
356 26.97610 65.48530 45.30550 18.45276 28.64708 20.04258
357 41.07050 73.37320 56.32860 27.79029 39.21114 31.79679
358 1.938000 0.000000 0.000000 0.157525 0.140734 0.138233
359 3.968300 0.000000 0.000000 0.217130 0.173532 0.154760
360 86.32300 18.24850 40.77620 33.61258 20.05871 14.69011
361 86.23310 59.41920 68.05090 49.10764 42.16944 46.34743
362 100.0000 77.98780 87.37520 75.96381 69.23990 79.86319
363 100.0000 100.0000 100.0000 95.27008 100.2131 110.3638
364 47.96440 84.60330 15.41110 30.26614 49.92429 5.777268
365 61.38160 85.00750 23.51180 37.00774 54.04696 8.381815
366 45.35740 39.61870 12.59880 11.50437 12.56330 2.315908
367 75.79300 40.85650 22.19400 27.38754 22.00842 5.170639
368 76.01140 45.56020 35.10470 30.11255 25.17579 11.63969
369 75.74300 64.61250 62.83040 41.90759 41.23140 39.16149
370 87.92740 81.44320 92.31470 69.16498 67.95067 89.88933
371 100.0000 88.92930 100.0000 88.02036 84.94512 109.5078
372 100.0000 37.30470 73.13090 56.23332 36.43529 52.53456
373 98.44790 54.58730 72.96680 59.46623 45.24706 53.07710
374 52.99720 51.53310 26.85440 18.45760 21.16727 7.299631
375 56.98050 74.41470 38.44220 30.82994 42.03192 15.48314
376 66.81770 76.29040 48.67190 38.37904 47.60594 24.05168
377 88.57030 86.83650 71.49990 64.73673 70.49028 52.88795
378 21.92410 24.23000 38.52370 5.746345 5.303183 12.99265
379 50.12260 40.36990 39.07730 15.89782 15.20777 14.11956
380 57.12990 46.58490 91.48220 35.36504 27.19595 85.81496
381 59.02790 66.47860 100.0000 47.27424 44.15170 106.8708
382 83.65820 75.07750 100.0000 66.35416 60.68674 108.3662
383 91.24980 68.57340 3.977700 47.73935 47.72938 2.787969
384 100.0000 87.56020 16.65000 65.93152 72.88959 6.476945
385 100.0000 100.0000 25.86550 75.07579 90.82151 11.18439
386 83.72990 84.53430 0.000000 49.80995 61.00037 3.718184
387 100.0000 85.06230 38.48090 66.70132 70.98101 16.84972
388 91.28990 89.27820 31.22380 60.49606 71.48898 12.67668
389 31.09730 69.71360 28.75640 18.86530 31.97090 9.280919
390 28.41290 100.0000 26.43970 35.99991 68.77610 11.11924
391 26.51160 100.0000 92.58420 52.16450 76.32619 92.24332
