Lenovo/ThinkPad X61/N121X5-L06 #1 2020-05-26 15-02 0.3127x 0.329y sRGB M-S XYZLUT+MTX/N121X5-L06 #1 2020-05-26 15-02 0.3127x 0.329y sRGB M-S XYZLUT+MTX.ti1
CTI1   

DESCRIPTOR "Argyll Calibration Target chart information 1"
ORIGINATOR "Argyll targen"
CREATED "Tue May 26 16:06:23 2020"
APPROX_WHITE_POINT "95.064378 99.997761 109.124849"
COLOR_REP "RGB"
ACCURATE_EXPECTED_VALUES "true"
DARK_REGION_EMPHASIS "1.6"
WHITE_COLOR_PATCHES "4"
BLACK_COLOR_PATCHES "4"
SINGLE_DIM_STEPS "25"
COMP_GREY_STEPS "73"
OFPS_PATCHES "648"

NUMBER_OF_FIELDS 7
BEGIN_DATA_FORMAT
SAMPLE_ID RGB_R RGB_G RGB_B XYZ_X XYZ_Y XYZ_Z
END_DATA_FORMAT

NUMBER_OF_SETS 825
BEGIN_DATA
1 100.0000 100.0000 100.0000 95.06438 99.99776 109.1248
2 1.960800 1.960800 1.960800 1.142800 1.150200 1.163700
3 3.921600 3.921600 3.921600 1.285600 1.300500 1.327300
4 5.882400 5.882400 5.882400 1.449500 1.472900 1.515200
5 9.803900 9.803900 9.803900 1.914800 1.962400 2.048400
6 13.72600 13.72600 13.72600 2.581700 2.663900 2.812600
7 17.64700 17.64700 17.64700 3.469500 3.597900 3.830000
8 21.56900 21.56900 21.56900 4.595300 4.782200 5.120100
9 25.49000 25.49000 25.49000 5.974500 6.233200 6.700700
10 29.41200 29.41200 29.41200 7.621300 7.965600 8.587900
11 33.33300 33.33300 33.33300 9.548800 9.993300 10.79700
12 37.25500 37.25500 37.25500 11.76900 12.32900 13.34100
13 41.17600 41.17600 41.17600 14.29400 14.98500 16.23400
14 45.09800 45.09800 45.09800 17.13400 17.97300 19.48900
15 49.02000 49.02000 49.02000 20.29900 21.30300 23.11700
16 52.94100 52.94100 52.94100 23.80000 24.98600 27.12900
17 56.86300 56.86300 56.86300 27.64600 29.03200 31.53600
18 60.78400 60.78400 60.78400 31.84600 33.45000 36.34900
19 64.70600 64.70600 64.70600 36.40900 38.25000 41.57800
20 68.62700 68.62700 68.62700 41.34300 43.44000 47.23200
21 72.54900 72.54900 72.54900 46.65600 49.03000 53.32100
22 76.47100 76.47100 76.47100 52.35600 55.02700 59.85300
23 80.39200 80.39200 80.39200 58.45200 61.43900 66.83800
24 84.31400 84.31400 84.31400 64.94900 68.27500 74.28500
25 88.23500 88.23500 88.23500 71.85700 75.54100 82.20000
26 92.15700 92.15700 92.15700 79.18100 83.24600 90.59400
27 96.07800 96.07800 96.07800 86.92900 91.39700 99.47200
28 0.000000 30.49090 60.37150 9.216402 10.96317 30.62597
29 0.000000 41.79040 61.36620 11.70981 15.05451 32.62043
30 0.000000 40.95750 81.11830 17.30358 20.58512 58.93575
31 27.45100 48.23640 100.0000 29.21090 32.84884 94.23165
32 44.35390 63.66090 100.0000 38.78326 44.18513 96.82838
33 0.000000 80.39050 80.34080 32.01870 45.85643 63.96547
34 0.000000 89.36350 100.0000 44.72910 62.15203 101.4360
35 56.83520 0.000000 33.94740 14.52793 9.578007 10.20849
36 64.50400 13.55060 37.75090 19.29572 13.15448 13.07165
37 78.62520 68.37310 36.76080 40.82130 40.17099 18.74095
38 100.0000 69.60230 52.92450 62.20497 54.46348 32.64856
39 100.0000 78.75450 71.25200 71.25483 66.77713 55.07021
40 69.25320 0.000000 34.60240 21.17081 13.51872 11.26810
41 85.58480 0.000000 47.82640 34.21443 22.00396 21.16353
42 91.08320 6.738200 57.49570 41.06871 27.03934 30.50254
43 21.42860 0.000000 0.000000 2.187594 1.557235 0.919335
44 24.50980 0.000000 0.000000 2.643852 1.825647 0.968572
45 27.77780 0.000000 0.000000 3.161980 2.130457 1.024487
46 31.25000 0.000000 0.000000 3.863572 2.543195 1.100199
47 34.94620 0.000000 0.000000 4.754004 3.067027 1.196291
48 38.88890 0.000000 0.000000 5.788879 3.675833 1.307970
49 43.10350 0.000000 0.000000 7.139686 4.470499 1.453744
50 47.61910 0.000000 0.000000 8.758794 5.423004 1.628471
51 52.46910 0.000000 0.000000 10.76022 6.600423 1.844456
52 57.69230 0.000000 0.000000 13.12064 7.989032 2.099182
53 63.33330 0.000000 0.000000 15.85184 9.595771 2.393922
54 69.44440 0.000000 0.000000 19.42419 11.69735 2.779435
55 76.08700 0.000000 0.000000 23.63177 14.17262 3.233498
56 83.33330 0.000000 0.000000 28.64981 17.12468 3.775024
57 91.26980 0.000000 0.000000 35.35923 21.07176 4.499075
58 100.0000 100.0000 0.000000 75.16509 79.82707 18.48080
59 100.0000 100.0000 24.89000 76.16429 80.83989 23.03228
60 100.0000 100.0000 43.69190 78.28283 82.98732 32.68251
61 100.0000 0.000000 22.72100 44.36997 26.73045 9.212037
62 100.0000 24.98640 52.69920 49.76122 33.27416 27.31029
63 0.000000 10.68380 0.000000 0.891283 1.159005 0.879317
64 0.000000 13.15790 0.000000 1.040465 1.413405 0.941092
65 0.000000 15.76580 0.000000 1.235307 1.745668 1.021773
66 0.000000 18.51850 0.000000 1.461679 2.131700 1.115510
67 0.000000 21.42860 0.000000 1.724130 2.579257 1.224187
68 0.000000 24.50980 0.000000 2.065862 3.162013 1.365693
69 0.000000 27.77780 0.000000 2.488993 3.883577 1.540906
70 0.000000 31.25000 0.000000 2.976538 4.714987 1.742791
71 0.000000 34.94620 0.000000 3.589442 5.760169 1.996585
72 0.000000 38.88890 0.000000 4.427398 7.189135 2.343571
73 0.000000 43.10350 0.000000 5.448491 8.930403 2.766390
74 0.000000 47.61910 0.000000 6.601730 10.89702 3.243929
75 0.000000 52.46910 0.000000 7.964621 13.22115 3.808282
76 0.000000 57.69230 0.000000 9.637278 16.07353 4.500905
77 0.000000 63.33330 0.000000 11.74874 19.67421 5.375231
78 0.000000 69.44440 0.000000 14.45280 24.28542 6.494940
79 0.000000 76.08700 0.000000 17.70235 29.82687 7.840530
80 0.000000 84.77160 24.53490 23.19029 38.51274 14.14062
81 0.000000 100.0000 23.80960 33.12035 55.48350 18.03075
82 26.09970 100.0000 35.96750 36.56750 57.98802 23.38581
83 27.67880 100.0000 88.54630 49.86738 71.36135 82.83999
84 0.000000 63.59510 58.47270 17.76743 25.84551 32.36895
85 60.94320 65.23370 100.0000 46.45197 49.41413 97.85264
86 76.55250 69.39140 100.0000 57.68817 58.15786 99.65001
87 0.000000 0.000000 10.68380 0.776145 0.816672 1.705688
88 0.000000 0.000000 13.15790 0.871160 0.912984 2.138497
89 0.000000 0.000000 15.76580 0.992936 1.036421 2.693205
90 0.000000 0.000000 18.51850 1.140649 1.186148 3.366059
91 0.000000 0.000000 21.42860 1.318860 1.366789 4.177832
92 0.000000 0.000000 24.50980 1.535821 1.586710 5.166121
93 0.000000 0.000000 27.77780 1.789427 1.843775 6.321331
94 0.000000 0.000000 31.25000 2.077938 2.136221 7.635539
95 0.000000 0.000000 34.94620 2.472880 2.536549 9.434555
96 0.000000 0.000000 38.88890 3.007560 3.078522 11.87010
97 0.000000 0.000000 43.10350 3.597737 3.676749 14.55844
98 0.000000 0.000000 47.61910 4.304596 4.393249 17.77828
99 0.000000 0.000000 52.46910 5.191829 5.292583 21.81975
100 0.000000 0.000000 57.69230 6.306101 6.422053 26.89542
101 0.000000 0.000000 63.33330 7.619454 7.753319 32.87793
102 0.000000 0.000000 69.44440 9.251302 9.407424 40.31122
103 0.000000 0.000000 76.08700 11.29785 11.48188 49.63352
104 0.000000 0.000000 83.33330 13.69147 13.90815 60.53680
105 0.000000 0.000000 91.26980 16.74526 17.00360 74.44728
106 100.0000 30.69420 100.0000 65.75807 50.02177 96.98954
107 100.0000 73.17560 100.0000 79.05520 72.69735 102.4957
108 0.000000 1.938000 0.000000 0.595590 0.654761 0.756875
109 1.938000 1.938000 1.938000 0.659385 0.699316 0.837212
110 2.604200 2.604200 2.604200 0.707320 0.749242 0.887433
111 3.280800 3.280800 3.280800 0.758303 0.803091 0.944223
112 3.968300 3.968300 3.968300 0.812976 0.860581 1.005447
113 4.666700 4.666700 4.666700 0.873268 0.923722 1.074950
114 5.376300 5.376300 5.376300 0.935401 0.989057 1.148254
115 6.097600 6.097600 6.097600 1.004801 1.061381 1.229708
116 6.830600 6.830600 6.830600 1.079388 1.138657 1.316223
117 7.575800 7.575800 7.575800 1.159230 1.221231 1.408487
118 8.333300 8.333300 8.333300 1.248191 1.313463 1.513777
119 9.103600 9.103600 9.103600 1.342605 1.411257 1.625882
120 9.887000 9.887000 9.887000 1.448856 1.522790 1.752439
121 10.68380 10.68380 10.68380 1.564939 1.645088 1.890687
122 11.49420 11.49420 11.49420 1.694851 1.782509 2.044552
123 12.31880 12.31880 12.31880 1.841807 1.939105 2.218499
124 13.15790 13.15790 13.15790 2.001323 2.108860 2.406009
125 14.01180 14.01180 14.01180 2.178658 2.297109 2.611564
126 14.88100 14.88100 14.88100 2.369493 2.499615 2.832282
127 15.76580 15.76580 15.76580 2.575745 2.716224 3.069219
128 16.66670 16.66670 16.66670 2.796528 2.947604 3.321261
129 17.58410 17.58410 17.58410 3.027924 3.187809 3.587205
130 18.51850 18.51850 18.51850 3.274857 3.443194 3.870886
131 19.47040 19.47040 19.47040 3.531993 3.708684 4.169826
132 20.44020 20.44020 20.44020 3.805386 3.990694 4.488885
133 21.42860 21.42860 21.42860 4.100432 4.297832 4.832874
134 22.43590 22.43590 22.43590 4.414179 4.625606 5.198421
135 23.46280 23.46280 23.46280 4.754274 4.984885 5.593334
136 24.50980 24.50980 24.50980 5.115384 5.368921 6.011908
137 25.57760 25.57760 25.57760 5.495496 5.776600 6.453725
138 26.66670 26.66670 26.66670 5.892153 6.202805 6.913498
139 27.77780 27.77780 27.77780 6.310249 6.652359 7.398244
140 28.91160 28.91160 28.91160 6.762864 7.129182 7.900118
141 30.06870 30.06870 30.06870 7.252042 7.639355 8.430461
142 31.25000 31.25000 31.25000 7.787896 8.188954 8.990050
143 32.45610 32.45610 32.45610 8.376830 8.793759 9.629148
144 33.68790 33.68790 33.68790 9.010020 9.448211 10.33689
145 34.94620 34.94620 34.94620 9.686174 10.15830 11.13895
146 36.23190 36.23190 36.23190 10.42359 10.94619 12.03978
147 37.54580 37.54580 37.54580 11.22392 11.80482 13.00960
148 38.88890 38.88890 38.88890 12.09369 12.73804 14.03316
149 40.26220 40.26220 40.26220 13.03141 13.73740 15.08078
150 41.66670 41.66670 41.66670 14.01866 14.78206 16.16289
151 43.10350 43.10350 43.10350 15.05576 15.87220 17.29009
152 44.57360 44.57360 44.57360 16.14464 17.01009 18.47789
153 46.07840 46.07840 46.07840 17.30010 18.21756 19.76219
154 47.61910 47.61910 47.61910 18.53497 19.50782 21.16220
155 49.19680 49.19680 49.19680 19.85687 20.88442 22.66168
156 50.81300 50.81300 50.81300 21.27209 22.35005 24.26391
157 52.46910 52.46910 52.46910 22.78652 23.90871 25.98401
158 54.16670 54.16670 54.16670 24.40152 25.56646 27.84555
159 55.90720 55.90720 55.90720 26.11884 27.34687 29.85872
160 57.69230 57.69230 57.69230 27.93387 29.27917 32.00703
161 59.52380 59.52380 59.52380 29.85406 31.36027 34.27412
162 61.40350 61.40350 61.40350 31.89388 33.53585 36.64749
163 63.33330 63.33330 63.33330 34.08989 35.81785 39.15860
164 65.31530 65.31530 65.31530 36.51123 38.35450 41.87518
165 67.35160 67.35160 67.35160 39.16214 41.18429 44.84906
166 69.44440 69.44440 69.44440 41.99814 44.18475 48.09712
167 71.59620 71.59620 71.59620 44.98548 47.30698 51.59017
168 73.80950 73.80950 73.80950 48.16253 50.67676 55.30278
169 76.08700 76.08700 76.08700 51.50181 54.27592 59.21907
170 78.43140 78.43140 78.43140 54.97250 57.98153 63.34852
171 80.84580 80.84580 80.84580 58.65437 61.85903 67.65229
172 83.33330 83.33330 83.33330 62.65416 66.03324 72.21284
173 85.89740 85.89740 85.89740 67.02719 70.55762 77.26181
174 88.54170 88.54170 88.54170 71.83066 75.50535 82.79651
175 91.26980 91.26980 91.26980 76.94408 80.79516 88.72181
176 94.08600 94.08600 94.08600 82.17598 86.29592 95.09654
177 96.99450 96.99450 96.99450 88.16021 92.65385 101.8910
178 0.000000 54.44540 80.30680 20.66239 26.49820 59.21707
179 0.000000 69.26020 84.90120 28.05769 38.01881 68.80878
180 0.000000 76.27670 100.0000 37.69866 50.16304 98.52476
181 26.80640 87.84050 100.0000 46.27220 62.05990 101.3284
182 82.45790 0.000000 19.86110 28.63831 17.39631 6.684556
183 100.0000 27.51350 20.83130 46.13204 29.82258 9.419206
184 100.0000 67.66430 21.62630 57.36458 48.94154 14.28517
185 100.0000 76.90080 39.84440 63.65777 58.42320 24.37556
186 26.32900 80.38140 0.000000 22.25491 34.95131 9.002324
187 54.99780 81.08150 55.19660 36.79039 46.11474 33.76627
188 16.79760 0.000000 43.99740 4.756268 4.413479 15.26038
189 22.89340 0.000000 61.91900 9.112327 8.486610 31.52350
190 40.67880 0.000000 66.03720 14.07715 11.84305 36.61460
191 56.68330 0.000000 67.24990 20.73362 15.89735 38.77960
192 72.15110 0.000000 68.96480 29.69412 21.37409 41.89387
193 100.0000 0.000000 83.12270 56.58194 39.10898 64.83927
194 100.0000 47.41320 89.35840 64.91763 51.69544 78.04031
195 26.74020 64.51820 0.000000 14.64185 21.89605 5.829936
196 63.89050 67.63690 0.000000 29.21933 32.04340 7.833837
197 78.84990 83.53060 0.000000 46.40278 51.00732 12.11536
198 78.08490 85.36080 20.21240 47.56415 53.08582 15.55085
199 0.000000 0.000000 8.333300 0.706200 0.745774 1.387081
200 14.47520 0.000000 11.52210 1.583472 1.304160 1.923978
201 16.92690 10.21550 21.05940 2.642054 2.473950 4.306405
202 24.74260 38.45890 74.57180 16.69566 18.65670 49.23526
203 33.68610 59.63410 78.59510 25.80440 31.31744 57.82829
204 88.80520 100.0000 90.88620 80.85851 89.99129 90.34757
205 100.0000 0.000000 0.000000 43.52887 25.87788 5.380708
206 100.0000 27.08430 0.000000 45.35964 28.99988 6.138803
207 100.0000 42.64490 34.01570 50.09830 35.83764 15.54349
208 26.75410 15.13210 0.000000 3.615801 3.090875 1.263531
209 31.48830 22.20420 23.79990 6.073703 5.615672 5.801522
210 54.51710 29.27090 27.12440 14.98797 11.96265 8.163704
211 48.52270 52.35430 0.000000 16.47319 18.18964 4.716345
212 49.15560 68.40420 0.000000 22.77639 28.65835 7.249626
213 49.76340 76.77060 24.01790 28.02404 36.68780 13.21674
214 52.19350 100.0000 71.49000 51.57310 69.90365 57.29152
215 53.81130 100.0000 82.14530 55.72474 73.80151 72.95740
216 27.69090 24.75880 43.64240 7.789482 7.886463 15.82590
217 72.07810 39.23750 53.76020 29.93132 24.36253 26.85231
218 18.94660 91.30960 14.10730 27.63234 45.07732 12.99870
219 0.000000 100.0000 86.42370 46.46166 69.00678 78.80230
220 0.000000 100.0000 100.0000 52.10059 74.72261 104.4884
221 33.07420 100.0000 100.0000 55.83662 76.92048 104.8916
222 63.77370 100.0000 100.0000 67.63328 83.86033 106.1646
223 39.93720 38.08310 0.000000 9.784094 10.13381 2.865010
224 64.14900 43.93330 22.97440 22.25467 19.40987 8.462670
225 78.07590 50.06900 38.75200 34.04270 28.82580 17.18936
226 63.62300 0.000000 17.34400 16.52344 10.20791 4.735685
227 76.15160 0.000000 51.10960 28.03736 18.62101 23.12078
228 0.000000 0.000000 1.938000 0.581592 0.619466 0.819475
229 0.000000 0.000000 3.968300 0.612124 0.650415 0.958553
230 0.000000 0.000000 6.097600 0.653562 0.692418 1.147308
231 0.000000 0.000000 0.000000 0.565076 0.602724 0.744240
232 31.46110 57.28090 15.22750 13.23528 18.19303 6.627811
233 31.61440 57.10030 37.81990 15.09893 20.02310 15.21966
234 36.18180 74.87890 61.52040 28.17878 38.09504 38.21367
235 60.35120 77.76430 69.77430 41.10199 48.29409 49.69121
236 39.70980 28.82340 54.11910 13.06384 12.37322 24.79041
237 50.28030 31.51750 65.73660 19.92689 17.98980 37.64895
238 75.56860 38.01380 87.54430 41.65798 35.11692 71.64225
239 76.12370 43.62820 100.0000 48.56572 42.90315 95.95526
240 0.000000 85.13900 57.87660 28.20143 43.73158 36.13277
241 40.51450 90.48400 75.41520 41.74633 57.16172 59.60427
242 18.52260 45.19880 47.65990 10.95344 14.34369 20.18128
243 25.17370 46.07080 58.38620 14.27051 17.46004 30.17220
244 44.72010 50.84960 74.54440 24.87878 27.00786 51.05067
245 57.15080 54.79310 74.16340 31.10049 31.91376 51.54985
246 24.46140 0.000000 79.76210 14.56967 13.91728 55.32530
247 43.28460 0.000000 100.0000 27.10094 24.67765 92.10448
248 71.11220 24.43180 100.0000 41.87081 35.03232 94.15495
249 0.000000 52.17380 42.72680 10.85859 16.09565 17.34361
250 0.000000 81.25860 43.18210 23.39053 37.42156 22.80100
251 0.000000 0.000000 100.0000 20.46436 20.77342 91.38829
252 23.27760 26.13510 100.0000 24.06213 24.79628 92.29906
253 88.66410 46.63130 100.0000 58.74872 49.74522 97.28757
254 100.0000 55.61710 100.0000 71.78037 60.29160 99.48329
255 65.99300 21.13520 0.000000 18.48708 12.40873 3.024403
256 72.94820 100.0000 0.000000 53.28687 66.95633 16.11980
257 86.02500 100.0000 0.000000 62.43951 72.34073 17.10751
258 85.39090 100.0000 26.64720 63.05088 73.18284 22.21762
259 29.90050 40.56570 0.000000 7.828563 9.639751 2.833884
260 81.18370 40.88440 0.000000 31.38282 23.58306 5.399491
261 100.0000 44.05320 0.000000 48.64551 34.60327 7.499433
262 100.0000 49.33530 21.76520 50.81126 37.75980 11.60965
263 100.0000 62.17410 35.27530 56.22838 46.18674 18.70761
264 53.53830 24.49210 0.000000 12.74146 9.439923 2.517092
265 61.57390 32.08630 60.73740 23.89229 19.90047 32.66094
266 71.55750 45.23400 75.98760 36.87866 32.56332 53.91024
267 100.0000 0.000000 39.35210 46.03492 28.41811 16.79613
268 100.0000 0.000000 53.26890 48.31534 30.72964 27.18378
269 100.0000 0.000000 66.50550 51.38966 33.84589 41.18774
270 100.0000 38.75630 78.68220 58.93727 44.14655 59.70158
271 100.0000 53.73360 77.98810 62.65021 50.63510 60.29979
272 100.0000 66.39390 88.31150 70.99955 62.35341 78.84349
273 48.41650 27.30690 36.35620 13.01754 10.89637 11.96043
274 68.00650 28.44790 44.74570 23.82779 17.93054 18.43353
275 69.89110 30.78170 58.16440 27.89574 21.78490 30.41370
276 100.0000 49.65080 58.63170 56.07648 43.15799 35.22736
277 43.24510 100.0000 0.000000 38.82433 58.44817 14.55906
278 58.91760 100.0000 0.000000 45.29333 62.25382 15.25717
279 69.29830 100.0000 25.89260 52.04486 66.68333 20.77083
280 83.37060 100.0000 45.50100 63.70622 74.52847 32.32667
281 88.14580 100.0000 62.17100 71.02797 80.27434 48.15764
282 100.0000 100.0000 74.34560 85.34773 90.14858 64.86413
283 63.07580 53.11750 21.62360 24.06509 23.23022 9.012917
284 88.72070 63.28270 34.51150 46.14510 40.67647 17.33277
285 100.0000 63.02870 73.18640 64.41672 54.70492 54.70053
286 3.968300 0.000000 0.000000 0.683558 0.672427 0.757026
287 6.097600 0.000000 0.000000 0.770986 0.723859 0.766461
288 8.333300 0.000000 0.000000 0.884292 0.790516 0.778688
289 10.68380 0.000000 0.000000 1.027663 0.874860 0.794160
290 41.32740 15.77420 0.000000 7.218618 5.266343 1.667673
291 41.38760 35.04890 16.58740 10.08078 9.800168 4.793113
292 72.05860 74.90230 35.74280 39.61121 42.87357 18.95088
293 72.94470 83.65180 66.63730 50.59211 56.90243 47.70043
294 65.96770 39.18120 0.000000 21.27280 17.17552 4.182397
295 82.11440 56.18250 0.000000 36.26831 31.14865 7.212644
296 100.0000 59.44130 0.000000 53.26383 42.47888 9.411811
297 0.000000 3.968300 0.000000 0.647445 0.743189 0.778348
298 0.000000 6.097600 0.000000 0.710404 0.850553 0.804418
299 49.15280 11.76890 14.59360 10.11363 6.809314 3.542310
300 68.62470 26.71020 25.97260 21.77610 15.53082 8.391099
301 100.0000 39.66430 45.73060 51.00216 36.25134 22.66920
302 100.0000 42.44980 66.47630 56.10608 41.89411 43.10888
303 40.80180 0.000000 25.55910 7.428444 5.087085 6.155485
304 55.08740 0.000000 53.49160 16.78368 12.19911 23.98198
305 68.55080 0.000000 56.34560 24.30898 16.88536 27.50411
306 24.69670 76.80030 35.38140 22.13742 33.67895 17.15699
307 42.59600 100.0000 59.72450 44.80662 64.60558 42.78709
308 72.43090 100.0000 77.87600 64.27433 78.23239 67.61970
309 15.51440 26.17690 9.019200 3.321911 4.204706 2.275736
310 26.58400 31.04140 10.24050 5.545240 6.275393 2.884690
311 28.46690 35.03590 22.74420 7.170608 8.243980 6.135865
312 54.54800 55.68120 23.02480 20.93803 22.30729 9.342552
313 55.86680 56.43220 46.42250 24.47332 25.81015 21.70173
314 26.73850 0.000000 100.0000 22.89178 22.20145 91.65024
315 41.73230 31.20830 100.0000 28.98491 28.47274 93.04423
316 52.60440 42.40090 89.01920 30.80551 30.15255 73.37179
317 69.28490 55.61070 100.0000 47.57367 46.04872 96.87037
318 0.000000 18.29900 47.89380 5.229610 5.938164 18.35595
319 16.80660 28.01460 62.15250 10.31969 11.40501 32.49946
320 17.73820 0.000000 31.30500 3.223085 2.811924 7.780287
321 40.77520 0.000000 36.84200 8.527931 6.205179 11.20155
322 43.07200 0.000000 52.24730 11.71188 9.109575 22.32797
323 83.96060 48.23470 84.65740 48.94153 41.77581 68.34182
324 86.61180 63.12010 100.0000 62.29154 57.77980 99.30088
325 59.49180 24.50280 48.07810 19.23526 14.88574 20.19903
326 77.53590 25.57920 68.53960 34.61298 26.04189 42.37955
327 100.0000 100.0000 100.0000 95.06438 99.99776 109.1248
328 44.61320 42.92490 31.03500 13.99824 14.54755 10.32110
329 60.39410 43.68750 41.43290 22.15949 20.11009 17.04794
330 60.74230 44.21740 58.06170 25.48360 23.50015 30.91194
331 75.42740 56.23610 53.80820 36.67166 33.48913 29.03783
332 84.34640 64.84180 70.35360 50.18106 46.76145 49.53206
333 39.77480 32.68550 45.11800 12.02351 11.70411 17.60430
334 45.40490 39.86270 56.07670 17.41953 17.37978 27.75106
335 46.75800 68.10410 67.52870 29.85437 36.12667 44.17109
336 64.61040 89.56420 91.23480 57.12060 67.98721 86.20568
337 72.18530 91.81660 100.0000 66.79752 76.76972 104.2657
338 0.000000 63.25240 100.0000 31.61656 39.79124 96.00625
339 26.56730 65.36700 100.0000 34.87798 42.67184 96.62187
340 36.52790 77.50690 100.0000 42.91401 53.94070 99.28205
341 58.25300 79.14630 100.0000 51.96156 60.18845 100.5120
342 58.67510 0.000000 100.0000 33.44909 28.41220 92.78954
343 73.71980 0.000000 100.0000 42.04213 33.46740 93.71687
344 87.71490 26.46590 100.0000 53.88847 42.39046 95.53086
345 0.000000 11.00890 17.50280 1.426380 1.712660 3.249348
346 0.000000 14.88700 32.74990 2.826019 3.310872 8.550313
347 0.000000 31.20010 44.30140 6.176378 7.953388 16.34894
348 0.000000 44.27610 47.05620 9.381230 13.11647 19.48500
349 100.0000 73.18270 0.000000 59.15952 52.53279 11.85313
350 100.0000 84.89340 26.53270 66.37369 64.05673 19.50066
351 100.0000 89.84410 51.68380 72.55382 72.28003 35.92395
352 100.0000 89.75610 71.46350 77.31900 77.07369 57.84859
353 100.0000 89.66850 100.0000 87.87469 87.73719 106.1477
354 40.44990 0.000000 80.67840 18.49988 16.35687 57.08238
355 56.99110 0.000000 82.85950 25.77221 20.94571 61.11472
356 71.85030 0.000000 82.91380 33.93511 25.75574 62.07801
357 87.75070 0.000000 100.0000 52.17057 39.42585 94.80988
358 100.0000 0.000000 100.0000 63.42815 46.04857 96.02475
359 13.15790 0.000000 0.000000 1.219849 0.987921 0.814900
360 15.76580 0.000000 0.000000 1.477653 1.139584 0.842721
361 18.51850 0.000000 0.000000 1.802681 1.330795 0.877797
362 21.73230 52.53290 45.87860 13.09910 17.73010 19.71500
363 65.74310 68.05030 78.95030 42.13040 44.81930 61.16435
364 88.96250 80.04490 100.0000 72.39422 72.71966 102.8571
365 0.000000 14.56270 11.67980 1.388755 1.836786 2.106463
366 0.000000 25.33790 19.60200 2.808011 3.985791 4.318160
367 0.000000 24.70440 84.57420 15.65870 16.95675 63.18420
368 0.000000 29.72890 100.0000 22.65650 24.51168 92.29602
369 0.000000 49.29970 100.0000 26.96088 31.85193 94.07840
370 0.000000 34.46570 32.98740 5.185947 7.318656 9.626890
371 20.74150 34.29990 35.90310 7.032044 8.519917 11.36474
372 24.44500 43.10290 37.77730 9.803684 12.46492 13.40476
373 0.000000 42.04950 29.38960 6.545149 9.863347 8.831549
374 0.000000 59.73500 33.60380 12.15974 19.16497 12.79047
375 0.000000 68.75780 48.96180 18.11944 27.79012 24.46601
376 20.41300 70.99600 50.11660 20.81840 30.59262 25.99066
377 26.71620 100.0000 50.10140 38.80340 60.21307 33.13834
378 20.52140 48.18910 0.000000 8.253696 12.04140 3.469499
379 36.12610 55.40680 0.000000 13.32915 17.36585 4.658226
380 42.49500 65.96070 28.85070 20.52552 26.62043 12.48725
381 40.85450 67.52730 41.73930 22.23822 29.08621 19.68942
382 48.36290 100.0000 45.63090 44.09234 62.99854 30.30105
383 60.94760 100.0000 61.67960 52.89409 69.55676 45.68196
384 76.05470 100.0000 62.77390 62.16582 75.12240 47.84498
385 0.000000 28.23820 12.88060 2.844828 4.286919 2.906412
386 0.000000 43.46800 18.44440 6.108688 9.661054 5.405769
387 30.39890 48.48110 19.07130 10.55081 13.73998 6.443116
388 42.37920 48.28410 51.64760 17.57847 19.45580 24.34718
389 75.43410 74.25990 58.64140 45.35139 47.55384 37.01379
390 0.000000 57.82000 18.56000 10.26311 16.74103 7.153318
391 0.000000 71.42570 27.07090 16.51818 26.99996 12.18517
392 34.97840 79.07900 72.41860 33.01019 44.61409 52.58482
393 45.75740 79.57950 89.80470 42.57475 53.07794 80.38072
394 72.69770 100.0000 90.38850 68.94834 82.89859 88.16239
395 84.88300 100.0000 100.0000 81.40555 91.96242 107.6508
396 47.55220 68.94720 60.24460 28.72044 35.11956 36.08004
397 80.17930 70.54250 75.49010 51.25579 50.97552 57.50440
398 86.87500 100.0000 77.94120 74.48282 84.24696 68.81570
399 0.000000 100.0000 41.40400 34.99328 57.38198 26.56221
400 0.000000 100.0000 72.85680 41.92069 64.40387 58.11753
401 29.41540 100.0000 77.12360 46.16846 67.47640 64.57328
402 0.000000 100.0000 57.26220 37.84637 60.27398 39.55842
403 26.28620 100.0000 64.62510 41.93220 63.41348 47.69300
404 0.000000 8.333300 0.000000 0.787851 0.982622 0.836488
405 14.47250 11.62790 0.000000 1.720578 1.704643 0.984647
406 14.50620 19.93940 0.000000 2.364714 2.799475 1.250384
407 27.10590 25.79920 0.000000 4.714904 4.902261 1.701410
