Lenovo/ThinkPad X61/N121X5-L06 #1 2020-05-26 15-02 0.3127x 0.329y sRGB M-S XYZLUT+MTX/N121X5-L06 #1 2020-05-26 15-02 0.3127x 0.329y sRGB M-S XYZLUT+MTX.bpc.ti3
CTI3   

DESCRIPTOR "Argyll Calibration Target chart information 3"
ORIGINATOR "Argyll dispread"
CREATED "Tue May 26 16:06:53 2020"
DEVICE_CLASS "DISPLAY"
SINGLE_DIM_STEPS "25"
COMP_GREY_STEPS "73"
DARK_REGION_EMPHASIS "1.6"
COLOR_REP "RGB_XYZ"
TARGET_INSTRUMENT "X-Rite i1 DisplayPro, ColorMunki Display"
DISPLAY_TYPE_REFRESH "NO"
DISPLAY_TYPE_BASE_ID "1"
INSTRUMENT_TYPE_SPECTRAL "NO"
LUMINANCE_XYZ_CDM2 "61.799292 65.006877 70.939260"
NORMALIZED_TO_Y_100 "YES"
VIDEO_LUT_CALIBRATION_POSSIBLE "YES"

BEGIN_ARGYLL_COLPROF_ARGS
-v -qh -aX -bn -C "No copyright. Created with DisplayCAL 3.8.9.3 and ArgyllCMS 2.1.1" -M "N121X5-L06" -A "Lenovo Group Limited"
END_ARGYLL_COLPROF_ARGS

OBSERVER "1931_2"
USE_BLACK_POINT_COMPENSATION "NO"
BLACK_POINT_CORRECTION "0.0"
HIRES_B2A "YES"
HIRES_B2A_SIZE "-1"
SMOOTH_B2A "YES"
PATCH_SEQUENCE "OPTIMIZE_DISPLAY_RESPONSE_DELAY"

NUMBER_OF_FIELDS 7
BEGIN_DATA_FORMAT
SAMPLE_ID RGB_R RGB_G RGB_B XYZ_X XYZ_Y XYZ_Z
END_DATA_FORMAT

NUMBER_OF_SETS 825
BEGIN_DATA
1 100.0000 100.0000 100.0000 95.06578 100.0000 109.1258
2 1.960800 1.960800 1.960800 0.668589 0.703172 0.783415
3 3.921600 3.921600 3.921600 0.800815 0.846041 0.961243
4 5.882400 5.882400 5.882400 0.982575 1.037683 1.180312
5 9.803900 9.803900 9.803900 1.409094 1.475514 1.696892
6 13.72600 13.72600 13.72600 2.107172 2.226054 2.535505
7 17.64700 17.64700 17.64700 3.062730 3.228112 3.613424
8 21.56900 21.56900 21.56900 4.120774 4.308387 4.861642
9 25.49000 25.49000 25.49000 5.488340 5.765550 6.437972
10 29.41200 29.41200 29.41200 6.928520 7.326065 8.131096
11 33.33300 33.33300 33.33300 8.822506 9.228990 10.02465
12 37.25500 37.25500 37.25500 11.00358 11.56994 12.81800
13 41.17600 41.17600 41.17600 13.70750 14.47101 15.85327
14 45.09800 45.09800 45.09800 16.53996 17.41782 18.86228
15 49.02000 49.02000 49.02000 19.69565 20.72862 22.50579
16 52.94100 52.94100 52.94100 23.22879 24.37153 26.44337
17 56.86300 56.86300 56.86300 27.10500 28.32003 31.02045
18 60.78400 60.78400 60.78400 31.21274 32.89819 35.89913
19 64.70600 64.70600 64.70600 35.67600 37.40408 40.96532
20 68.62700 68.62700 68.62700 40.91958 43.11677 46.77591
21 72.54900 72.54900 72.54900 46.33398 48.65587 53.19998
22 76.47100 76.47100 76.47100 52.14874 55.00165 59.91158
23 80.39200 80.39200 80.39200 57.93426 61.11971 66.94224
24 84.31400 84.31400 84.31400 64.27787 67.73898 73.97281
25 88.23500 88.23500 88.23500 71.20111 74.87824 82.17262
26 92.15700 92.15700 92.15700 78.84175 82.75063 90.66614
27 96.07800 96.07800 96.07800 86.05689 90.41861 99.74743
28 0.000000 30.49090 60.37150 8.724241 9.998369 29.10410
29 0.000000 41.79040 61.36620 11.20143 14.18482 31.02270
30 0.000000 40.95750 81.11830 16.64479 19.21011 57.15383
31 27.45100 48.23640 100.0000 29.74935 34.08347 94.98442
32 44.35390 63.66090 100.0000 39.45273 45.75148 97.95556
33 0.000000 80.39050 80.34080 31.92894 45.68736 62.69544
34 0.000000 89.36350 100.0000 45.74640 64.16458 101.9692
35 56.83520 0.000000 33.94740 13.99990 9.003921 10.27812
36 64.50400 13.55060 37.75090 18.70972 12.53248 13.02563
37 78.62520 68.37310 36.76080 40.56730 40.55890 19.32683
38 100.0000 69.60230 52.92450 62.28945 54.58516 32.44747
39 100.0000 78.75450 71.25200 71.46415 66.84195 54.89630
40 69.25320 0.000000 34.60240 20.53117 12.83877 11.04784
41 85.58480 0.000000 47.82640 32.59224 20.47476 20.88062
42 91.08320 6.738200 57.49570 39.45385 25.27652 30.06867
43 21.42860 0.000000 0.000000 2.222247 1.595135 0.992424
44 24.50980 0.000000 0.000000 2.616303 1.830834 1.052765
45 27.77780 0.000000 0.000000 3.199159 2.176299 1.135899
46 31.25000 0.000000 0.000000 3.899237 2.591538 1.233280
47 34.94620 0.000000 0.000000 4.755704 3.100787 1.351252
48 38.88890 0.000000 0.000000 5.683136 3.649301 1.478439
49 43.10350 0.000000 0.000000 7.066282 4.466943 1.661561
50 47.61910 0.000000 0.000000 8.607588 5.378509 1.864540
51 52.46910 0.000000 0.000000 10.51886 6.505389 2.103194
52 57.69230 0.000000 0.000000 12.57180 7.716877 2.355514
53 63.33330 0.000000 0.000000 15.09891 9.205139 2.657614
54 69.44440 0.000000 0.000000 18.88060 11.43152 3.083235
55 76.08700 0.000000 0.000000 22.86597 13.77026 3.506561
56 83.33330 0.000000 0.000000 27.61681 16.56571 3.982156
57 91.26980 0.000000 0.000000 34.16969 20.38573 4.556715
58 100.0000 100.0000 0.000000 74.12300 78.10818 17.84720
59 100.0000 100.0000 24.89000 75.46730 79.64378 22.27970
60 100.0000 100.0000 43.69190 77.62850 81.51633 31.59217
61 100.0000 0.000000 22.72100 43.43133 26.00764 8.838583
62 100.0000 24.98640 52.69920 49.29624 32.44416 26.83422
63 0.000000 10.68380 0.000000 0.862490 1.150270 0.891249
64 0.000000 13.15790 0.000000 1.026727 1.443792 0.979873
65 0.000000 15.76580 0.000000 1.223538 1.800713 1.080325
66 0.000000 18.51850 0.000000 1.441275 2.188940 1.189722
67 0.000000 21.42860 0.000000 1.717211 2.679008 1.324283
68 0.000000 24.50980 0.000000 2.068014 3.306109 1.492691
69 0.000000 27.77780 0.000000 2.510999 4.083263 1.702149
70 0.000000 31.25000 0.000000 2.996636 4.935983 1.933223
71 0.000000 34.94620 0.000000 3.593686 5.988837 2.211615
72 0.000000 38.88890 0.000000 4.417380 7.424597 2.590167
73 0.000000 43.10350 0.000000 5.422343 9.168352 3.046176
74 0.000000 47.61910 0.000000 6.578916 11.18336 3.572817
75 0.000000 52.46910 0.000000 8.028019 13.69456 4.214100
76 0.000000 57.69230 0.000000 9.815951 16.77784 4.997472
77 0.000000 63.33330 0.000000 11.76168 20.12270 5.834512
78 0.000000 69.44440 0.000000 14.61310 24.87040 7.006210
79 0.000000 76.08700 0.000000 17.86581 30.54327 8.355665
80 0.000000 84.77160 24.53490 23.66105 39.63433 14.41269
81 0.000000 100.0000 23.80960 32.37935 54.22006 17.29056
82 26.09970 100.0000 35.96750 35.91294 56.78631 22.92751
83 27.67880 100.0000 88.54630 49.22541 69.39996 81.53962
84 0.000000 63.59510 58.47270 17.56609 25.66567 31.10535
85 60.94320 65.23370 100.0000 47.09682 50.97851 99.09587
86 76.55250 69.39140 100.0000 58.34150 59.91940 101.1206
87 0.000000 0.000000 10.68380 0.737681 0.743812 1.506575
88 0.000000 0.000000 13.15790 0.826957 0.818456 1.949332
89 0.000000 0.000000 15.76580 0.905746 0.886278 2.341427
90 0.000000 0.000000 18.51850 1.055120 1.012387 3.058399
91 0.000000 0.000000 21.42860 1.228398 1.161308 3.918399
92 0.000000 0.000000 24.50980 1.384068 1.297132 4.678310
93 0.000000 0.000000 27.77780 1.650029 1.525342 5.952782
94 0.000000 0.000000 31.25000 1.900989 1.743945 7.162644
95 0.000000 0.000000 34.94620 2.233808 2.032001 8.726709
96 0.000000 0.000000 38.88890 2.708246 2.447140 11.00438
97 0.000000 0.000000 43.10350 3.228732 2.903650 13.44348
98 0.000000 0.000000 47.61910 3.889614 3.489588 16.56847
99 0.000000 0.000000 52.46910 4.779111 4.288033 20.79406
100 0.000000 0.000000 57.69230 5.745966 5.170277 25.35457
101 0.000000 0.000000 63.33330 6.863858 6.195236 30.59251
102 0.000000 0.000000 69.44440 8.487045 7.706319 38.13730
103 0.000000 0.000000 76.08700 10.50741 9.639899 47.44044
104 0.000000 0.000000 83.33330 12.78830 11.90681 57.92740
105 0.000000 0.000000 91.26980 16.01869 15.33509 72.36859
106 100.0000 30.69420 100.0000 65.81782 50.47329 97.33932
107 100.0000 73.17560 100.0000 80.25553 74.98904 103.6698
108 0.000000 1.938000 0.000000 0.600129 0.657898 0.691787
109 1.938000 1.938000 1.938000 0.668859 0.702986 0.782416
110 2.604200 2.604200 2.604200 0.721878 0.769050 0.847041
111 3.280800 3.280800 3.280800 0.742786 0.783111 0.880430
112 3.968300 3.968300 3.968300 0.800124 0.845769 0.960137
113 4.666700 4.666700 4.666700 0.883967 0.937402 1.062666
114 5.376300 5.376300 5.376300 0.930917 0.986230 1.119572
115 6.097600 6.097600 6.097600 1.015284 1.059512 1.227495
116 6.830600 6.830600 6.830600 1.034982 1.103077 1.240817
117 7.575800 7.575800 7.575800 1.157628 1.212230 1.399134
118 8.333300 8.333300 8.333300 1.231527 1.287698 1.484541
119 9.103600 9.103600 9.103600 1.305279 1.364548 1.571850
120 9.887000 9.887000 9.887000 1.408546 1.475828 1.695360
121 10.68380 10.68380 10.68380 1.513891 1.586743 1.817252
122 11.49420 11.49420 11.49420 1.653987 1.761099 1.960764
123 12.31880 12.31880 12.31880 1.824995 1.926110 2.099106
124 13.15790 13.15790 13.15790 2.036371 2.120611 2.387387
125 14.01180 14.01180 14.01180 2.164475 2.260386 2.541798
126 14.88100 14.88100 14.88100 2.295156 2.401271 2.703572
127 15.76580 15.76580 15.76580 2.545488 2.690713 2.922171
128 16.66670 16.66670 16.66670 2.778701 2.909667 3.251240
129 17.58410 17.58410 17.58410 3.064571 3.230565 3.611547
130 18.51850 18.51850 18.51850 3.206592 3.386247 3.785185
131 19.47040 19.47040 19.47040 3.564596 3.748430 4.155832
132 20.44020 20.44020 20.44020 3.715009 3.913905 4.340948
133 21.42860 21.42860 21.42860 4.117074 4.309691 4.858609
134 22.43590 22.43590 22.43590 4.389217 4.622483 5.095505
135 23.46280 23.46280 23.46280 4.714762 4.975034 5.470060
136 24.50980 24.50980 24.50980 5.048382 5.333763 5.865721
137 25.57760 25.57760 25.57760 5.486810 5.767570 6.431703
138 26.66670 26.66670 26.66670 5.906576 6.265061 6.874060
139 27.77780 27.77780 27.77780 6.369039 6.723903 7.475644
140 28.91160 28.91160 28.91160 6.742078 7.128448 7.895643
141 30.06870 30.06870 30.06870 7.268819 7.715403 8.563432
142 31.25000 31.25000 31.25000 7.853745 8.249748 9.042075
143 32.45610 32.45610 32.45610 8.451794 8.909878 9.752825
144 33.68790 33.68790 33.68790 8.963895 9.424060 10.34337
145 34.94620 34.94620 34.94620 9.696739 10.15791 11.06154
146 36.23190 36.23190 36.23190 10.36947 10.88162 12.07619
147 37.54580 37.54580 37.54580 11.31399 11.91274 13.16715
148 38.88890 38.88890 38.88890 11.99369 12.63589 13.91783
149 40.26220 40.26220 40.26220 13.00640 13.72418 15.06243
150 41.66670 41.66670 41.66670 13.99722 14.78622 15.90423
151 43.10350 43.10350 43.10350 14.96485 15.72813 17.07394
152 44.57360 44.57360 44.57360 16.18946 17.02982 18.72926
153 46.07840 46.07840 46.07840 16.99923 17.90866 19.64827
154 47.61910 47.61910 47.61910 18.43201 19.35307 21.04052
155 49.19680 49.19680 49.19680 19.69634 20.72315 22.47401
156 50.81300 50.81300 50.81300 21.44606 22.63249 24.45183
157 52.46910 52.46910 52.46910 22.78053 23.91799 26.29025
158 54.16670 54.16670 54.16670 24.29288 25.48332 27.85943
159 55.90720 55.90720 55.90720 26.23229 27.58185 29.99500
160 57.69230 57.69230 57.69230 27.71102 29.24674 32.04854
161 59.52380 59.52380 59.52380 29.82651 31.52879 34.24430
162 61.40350 61.40350 61.40350 31.79121 33.53152 36.83448
163 63.33330 63.33330 63.33330 33.47986 35.29853 38.58088
164 65.31530 65.31530 65.31530 36.59023 38.43610 42.14930
165 67.35160 67.35160 67.35160 39.36761 41.28845 45.25380
166 69.44440 69.44440 69.44440 41.92000 44.08586 47.94624
167 71.59620 71.59620 71.59620 45.01550 47.58117 51.82725
168 73.80950 73.80950 73.80950 47.69364 50.13780 54.50123
169 76.08700 76.08700 76.08700 51.45806 54.20364 59.32403
170 78.43140 78.43140 78.43140 54.68936 57.63762 63.42518
171 80.84580 80.84580 80.84580 58.62495 61.91772 67.52978
172 83.33330 83.33330 83.33330 62.50291 65.79007 71.62841
173 85.89740 85.89740 85.89740 66.85411 70.60289 77.19735
174 88.54170 88.54170 88.54170 71.94052 75.79121 82.76135
175 91.26980 91.26980 91.26980 76.85403 80.69950 88.61564
176 94.08600 94.08600 94.08600 82.36966 86.46865 95.05988
177 96.99450 96.99450 96.99450 87.89418 92.53060 101.5089
178 0.000000 54.44540 80.30680 20.30267 25.80970 57.69108
179 0.000000 69.26020 84.90120 27.70516 37.51304 66.71556
180 0.000000 76.27670 100.0000 38.67795 52.31747 99.24713
181 26.80640 87.84050 100.0000 47.25201 64.03923 102.2365
182 82.45790 0.000000 19.86110 27.49489 16.64123 6.772988
183 100.0000 27.51350 20.83130 45.75970 29.64138 9.194860
184 100.0000 67.66430 21.62630 57.74882 49.92587 14.62178
185 100.0000 76.90080 39.84440 63.82838 58.94884 24.38267
186 26.32900 80.38140 0.000000 22.48730 35.68046 9.593194
187 54.99780 81.08150 55.19660 36.97541 46.54188 33.73330
188 16.79760 0.000000 43.99740 4.469731 3.707733 14.47299
189 22.89340 0.000000 61.91900 8.573824 7.189834 30.47058
190 40.67880 0.000000 66.03720 13.46211 10.41473 35.53472
191 56.68330 0.000000 67.24990 19.90380 14.33633 37.95602
192 72.15110 0.000000 68.96480 28.34436 19.47528 41.08375
193 100.0000 0.000000 83.12270 55.27097 36.97760 63.65383
194 100.0000 47.41320 89.35840 64.58801 50.96298 77.77904
195 26.74020 64.51820 0.000000 14.75810 22.59402 6.457747
196 63.89050 67.63690 0.000000 29.14272 32.47673 8.639439
197 78.84990 83.53060 0.000000 46.49963 51.77780 12.91806
198 78.08490 85.36080 20.21240 47.99358 54.22535 16.22825
199 0.000000 0.000000 8.333300 0.689990 0.700194 1.249274
200 14.47520 0.000000 11.52210 1.589960 1.263403 1.801333
201 16.92690 10.21550 21.05940 2.583786 2.346573 4.172793
202 24.74260 38.45890 74.57180 16.20574 17.54530 47.55026
203 33.68610 59.63410 78.59510 25.70293 30.99520 57.03025
204 88.80520 100.0000 90.88620 79.47189 87.80278 89.57200
205 100.0000 0.000000 0.000000 42.68047 25.37011 5.194418
206 100.0000 27.08430 0.000000 45.02985 28.93114 6.133575
207 100.0000 42.64490 34.01570 50.03167 35.97498 15.54585
208 26.75410 15.13210 0.000000 3.623258 3.170549 1.421842
209 31.48830 22.20420 23.79990 6.070753 5.640101 5.774425
210 54.51710 29.27090 27.12440 14.80701 11.93055 8.333828
211 48.52270 52.35430 0.000000 16.67414 18.80630 5.403351
212 49.15560 68.40420 0.000000 22.93646 29.30111 8.026518
213 49.76340 76.77060 24.01790 28.31572 37.58500 13.72245
214 52.19350 100.0000 71.49000 50.54712 67.73113 55.87923
215 53.81130 100.0000 82.14530 54.60734 71.49738 71.55272
216 27.69090 24.75880 43.64240 7.650985 7.504251 15.24027
217 72.07810 39.23750 53.76020 29.31047 23.70578 26.72981
218 18.94660 91.30960 14.10730 27.83546 45.74797 13.20375
219 0.000000 100.0000 86.42370 45.25091 66.56307 75.99813
220 0.000000 100.0000 100.0000 51.92035 74.46104 104.0943
221 33.07420 100.0000 100.0000 55.88837 76.86729 104.9510
222 63.77370 100.0000 100.0000 67.59795 83.78728 106.6423
223 39.93720 38.08310 0.000000 9.981280 10.57987 3.345066
224 64.14900 43.93330 22.97440 22.15678 19.71170 9.000325
225 78.07590 50.06900 38.75200 33.92873 28.99803 17.51184
226 63.62300 0.000000 17.34400 15.73953 9.696751 4.801882
227 76.15160 0.000000 51.10960 26.78436 17.22264 22.52660
228 0.000000 0.000000 1.938000 0.586001 0.614063 0.730692
229 0.000000 0.000000 3.968300 0.607322 0.632444 0.852231
230 0.000000 0.000000 6.097600 0.646183 0.665819 1.050988
231 0.000000 0.000000 0.000000 0.572511 0.602226 0.657184
232 31.46110 57.28090 15.22750 13.53690 19.01402 7.156057
233 31.61440 57.10030 37.81990 15.34968 20.64341 15.40670
234 36.18180 74.87890 61.52040 28.50801 38.57335 38.04776
235 60.35120 77.76430 69.77430 41.08026 48.19633 49.45729
236 39.70980 28.82340 54.11910 12.79009 11.70878 24.32524
237 50.28030 31.51750 65.73660 19.45264 16.92766 37.23471
238 75.56860 38.01380 87.54430 40.86905 33.79397 70.83696
239 76.12370 43.62820 100.0000 48.47426 43.54801 96.90351
240 0.000000 85.13900 57.87660 28.29861 43.81358 35.32486
241 40.51450 90.48400 75.41520 41.76994 56.98863 58.22876
242 18.52260 45.19880 47.65990 10.83175 14.14621 20.01832
243 25.17370 46.07080 58.38620 13.87856 16.73722 29.27496
244 44.72010 50.84960 74.54440 24.56533 26.35567 49.89987
245 57.15080 54.79310 74.16340 30.80030 31.46633 50.61662
246 24.46140 0.000000 79.76210 13.84792 12.13523 53.69847
247 43.28460 0.000000 100.0000 27.07046 24.74908 92.52976
248 71.11220 24.43180 100.0000 41.63626 35.21837 94.82170
249 0.000000 52.17380 42.72680 10.87389 16.30758 16.95208
250 0.000000 81.25860 43.18210 23.34603 37.78677 22.15107
251 0.000000 0.000000 100.0000 20.49426 20.79559 91.39452
252 23.27760 26.13510 100.0000 24.26323 25.30220 92.87434
253 88.66410 46.63130 100.0000 58.49221 50.42627 98.32762
254 100.0000 55.61710 100.0000 72.29257 61.59125 100.3506
255 65.99300 21.13520 0.000000 18.08708 12.35049 3.442073
256 72.94820 100.0000 0.000000 52.08685 65.16591 15.95028
257 86.02500 100.0000 0.000000 60.75116 70.22226 16.78675
258 85.39090 100.0000 26.64720 61.80682 71.60551 21.80371
259 29.90050 40.56570 0.000000 7.817097 9.844639 3.198362
260 81.18370 40.88440 0.000000 31.07713 23.68099 5.952970
261 100.0000 44.05320 0.000000 48.37891 34.71236 7.656558
262 100.0000 49.33530 21.76520 50.76920 38.12930 11.67008
263 100.0000 62.17410 35.27530 56.43844 46.89417 18.88658
264 53.53830 24.49210 0.000000 12.60697 9.543931 2.923188
265 61.57390 32.08630 60.73740 23.17856 18.89357 32.19386
266 71.55750 45.23400 75.98760 36.15990 31.43963 53.63618
267 100.0000 0.000000 39.35210 44.90581 27.30045 16.11749
268 100.0000 0.000000 53.26890 47.15260 29.25323 26.32790
269 100.0000 0.000000 66.50550 50.16308 32.03214 40.49216
270 100.0000 38.75630 78.68220 58.30786 42.91145 59.02952
271 100.0000 53.73360 77.98810 62.46693 50.11731 59.96405
272 100.0000 66.39390 88.31150 70.93112 62.10630 78.45396
273 48.41650 27.30690 36.35620 12.75486 10.63191 11.89099
274 68.00650 28.44790 44.74570 23.16530 17.35349 18.48803
275 69.89110 30.78170 58.16440 27.05781 20.72432 29.92788
276 100.0000 49.65080 58.63170 55.73123 42.56387 34.72215
277 43.24510 100.0000 0.000000 37.74913 56.67023 14.26482
278 58.91760 100.0000 0.000000 44.00841 60.43256 15.05331
279 69.29830 100.0000 25.89260 51.26747 65.39722 20.40412
280 83.37060 100.0000 45.50100 62.94191 72.95014 31.69494
281 88.14580 100.0000 62.17100 69.63567 77.99975 47.42520
282 100.0000 100.0000 74.34560 84.36161 87.82888 63.18633
283 63.07580 53.11750 21.62360 23.82236 23.54791 9.568619
284 88.72070 63.28270 34.51150 45.54145 40.64469 17.51786
285 100.0000 63.02870 73.18640 64.04604 54.16017 53.84173
286 3.968300 0.000000 0.000000 0.687469 0.672918 0.698416
287 6.097600 0.000000 0.000000 0.796300 0.739237 0.730874
288 8.333300 0.000000 0.000000 0.901078 0.803394 0.759184
289 10.68380 0.000000 0.000000 1.025890 0.879344 0.788561
290 41.32740 15.77420 0.000000 7.162450 5.325974 1.927653
291 41.38760 35.04890 16.58740 10.18444 10.04490 5.068372
292 72.05860 74.90230 35.74280 39.75861 43.70910 19.60791
293 72.94470 83.65180 66.63730 50.73757 57.09241 47.85417
294 65.96770 39.18120 0.000000 20.86498 17.27517 4.766101
295 82.11440 56.18250 0.000000 35.78431 31.40945 7.931604
296 100.0000 59.44130 0.000000 53.32572 43.19466 9.813462
297 0.000000 3.968300 0.000000 0.640338 0.738723 0.732887
298 0.000000 6.097600 0.000000 0.701038 0.848391 0.782679
299 49.15280 11.76890 14.59360 9.930153 6.695426 3.673334
300 68.62470 26.71020 25.97260 21.38030 15.35868 8.498593
301 100.0000 39.66430 45.73060 50.66543 35.86897 22.48719
302 100.0000 42.44980 66.47630 55.58381 40.94849 42.79343
303 40.80180 0.000000 25.55910 7.174136 4.769365 6.056524
304 55.08740 0.000000 53.49160 15.86966 10.91758 23.17253
305 68.55080 0.000000 56.34560 23.25452 15.47404 26.97664
306 24.69670 76.80030 35.38140 22.36344 34.29264 17.31858
307 42.59600 100.0000 59.72450 43.83046 62.58544 41.33740
308 72.43090 100.0000 77.87600 63.20654 75.87637 66.81722
309 15.51440 26.17690 9.019200 3.417852 4.443673 2.411484
310 26.58400 31.04140 10.24050 5.565831 6.444760 3.111734
311 28.46690 35.03590 22.74420 7.134775 8.335223 6.201237
312 54.54800 55.68120 23.02480 21.00590 22.91062 9.955931
313 55.86680 56.43220 46.42250 24.29341 26.04730 21.93773
314 26.73850 0.000000 100.0000 22.96475 22.26908 91.96619
315 41.73230 31.20830 100.0000 29.21343 29.04593 93.73858
316 52.60440 42.40090 89.01920 30.26525 28.98687 72.38009
317 69.28490 55.61070 100.0000 48.15971 47.39453 98.14235
318 0.000000 18.29900 47.89380 4.831548 5.148115 17.30472
319 16.80660 28.01460 62.15250 9.812220 10.28100 31.19278
320 17.73820 0.000000 31.30500 3.075267 2.453328 7.431737
321 40.77520 0.000000 36.84200 8.182409 5.646649 10.85812
322 43.07200 0.000000 52.24730 11.23939 8.126319 21.72675
323 83.96060 48.23470 84.65740 47.90446 40.55916 67.62720
324 86.61180 63.12010 100.0000 62.39398 58.89565 100.4567
325 59.49180 24.50280 48.07810 18.71964 14.19545 20.18561
326 77.53590 25.57920 68.53960 33.72359 24.57878 41.70969
327 100.0000 100.0000 100.0000 94.83102 99.71796 109.1246
328 44.61320 42.92490 31.03500 13.96483 14.67636 10.46467
329 60.39410 43.68750 41.43290 21.71430 19.78146 16.97829
330 60.74230 44.21740 58.06170 25.21313 23.05355 30.77681
331 75.42740 56.23610 53.80820 36.11228 33.13615 29.01021
332 84.34640 64.84180 70.35360 49.35662 45.86186 48.97432
333 39.77480 32.68550 45.11800 11.77445 11.29119 17.19444
334 45.40490 39.86270 56.07670 17.29704 17.00238 27.27505
335 46.75800 68.10410 67.52870 29.89570 36.14675 44.04407
336 64.61040 89.56420 91.23480 57.31855 67.97966 86.06955
337 72.18530 91.81660 100.0000 67.31883 78.26837 105.3845
338 0.000000 63.25240 100.0000 32.03029 40.91947 96.52614
339 26.56730 65.36700 100.0000 35.68384 44.34256 97.69718
340 36.52790 77.50690 100.0000 43.92145 55.95811 100.3975
341 58.25300 79.14630 100.0000 52.88086 62.24168 101.8278
342 58.67510 0.000000 100.0000 33.11078 28.32772 93.37456
343 73.71980 0.000000 100.0000 41.17569 33.06063 94.20779
344 87.71490 26.46590 100.0000 53.24416 42.31418 96.22513
345 0.000000 11.00890 17.50280 1.352183 1.594056 3.102799
346 0.000000 14.88700 32.74990 2.568181 2.850503 7.960940
347 0.000000 31.20010 44.30140 5.895172 7.485545 15.59199
348 0.000000 44.27610 47.05620 9.159976 12.86834 18.65972
349 100.0000 73.18270 0.000000 59.25184 53.27436 12.29550
350 100.0000 84.89340 26.53270 66.70675 64.82991 19.65958
351 100.0000 89.84410 51.68380 72.83217 72.72693 35.77268
352 100.0000 89.75610 71.46350 77.37454 77.03454 57.07582
353 100.0000 89.66850 100.0000 88.94056 89.81852 107.0019
354 40.44990 0.000000 80.67840 17.71984 14.58518 56.05173
355 56.99110 0.000000 82.85950 24.61356 18.92061 60.01878
356 71.85030 0.000000 82.91380 32.20502 23.42739 60.85544
357 87.75070 0.000000 100.0000 50.87035 38.77648 95.32495
358 100.0000 0.000000 100.0000 62.62025 45.67971 96.13829
359 13.15790 0.000000 0.000000 1.281615 1.032285 0.840191
360 15.76580 0.000000 0.000000 1.498460 1.162234 0.879277
361 18.51850 0.000000 0.000000 1.781624 1.331013 0.926054
362 21.73230 52.53290 45.87860 13.00203 17.68426 19.52047
363 65.74310 68.05030 78.95030 42.01839 44.53244 60.76764
364 88.96250 80.04490 100.0000 72.69097 74.12250 104.0633
365 0.000000 14.56270 11.67980 1.323998 1.781080 2.039263
366 0.000000 25.33790 19.60200 2.748550 4.005357 4.164593
367 0.000000 24.70440 84.57420 14.89549 15.26995 60.98310
368 0.000000 29.72890 100.0000 22.71459 24.85387 92.30579
369 0.000000 49.29970 100.0000 27.37126 32.83799 94.41517
370 0.000000 34.46570 32.98740 4.968736 7.103855 9.107827
371 20.74150 34.29990 35.90310 6.949179 8.414762 11.37562
372 24.44500 43.10290 37.77730 9.665611 12.33824 13.24180
373 0.000000 42.04950 29.38960 6.405029 9.835390 8.641711
374 0.000000 59.73500 33.60380 12.30799 19.71271 12.79193
375 0.000000 68.75780 48.96180 18.08778 28.03921 23.84675
376 20.41300 70.99600 50.11660 20.88985 30.87430 25.99967
377 26.71620 100.0000 50.10140 37.97891 58.42900 32.24807
378 20.52140 48.18910 0.000000 8.331169 12.52285 3.920766
379 36.12610 55.40680 0.000000 13.39116 17.79837 5.237890
380 42.49500 65.96070 28.85070 20.71590 27.32114 13.00224
381 40.85450 67.52730 41.73930 22.24658 29.35242 19.53503
382 48.36290 100.0000 45.63090 43.08108 61.24679 29.41179
383 60.94760 100.0000 61.67960 51.71873 67.36679 44.54199
384 76.05470 100.0000 62.77390 61.05362 72.94606 46.97632
385 0.000000 28.23820 12.88060 2.824208 4.416888 2.877046
386 0.000000 43.46800 18.44440 6.100849 9.908094 5.467503
387 30.39890 48.48110 19.07130 10.66038 14.17001 6.734455
388 42.37920 48.28410 51.64760 17.48195 19.30581 24.31910
389 75.43410 74.25990 58.64140 44.76023 47.22486 36.97035
390 0.000000 57.82000 18.56000 10.40807 17.37867 7.379722
391 0.000000 71.42570 27.07090 16.73555 27.79184 12.36416
392 34.97840 79.07900 72.41860 33.26026 44.74318 52.18499
393 45.75740 79.57950 89.80470 42.48791 52.86546 79.90310
394 72.69770 100.0000 90.38850 67.59457 80.51916 86.70778
395 84.88300 100.0000 100.0000 80.71614 91.45627 108.0323
396 47.55220 68.94720 60.24460 28.78571 35.06581 35.95003
397 80.17930 70.54250 75.49010 50.37284 50.04390 56.44649
398 86.87500 100.0000 77.94120 73.22453 81.81141 67.93312
