Lenovo/ThinkPad X61/N121X5-L06 #1 2020-05-26 15-02 0.3127x 0.329y sRGB M-S XYZLUT+MTX/N121X5-L06 #1 2020-05-26 15-02 0.3127x 0.329y sRGB M-S XYZLUT+MTX.ti3
CTI3   

DESCRIPTOR "Argyll Calibration Target chart information 3"
ORIGINATOR "Argyll dispread"
CREATED "Tue May 26 16:06:53 2020"
DEVICE_CLASS "DISPLAY"
SINGLE_DIM_STEPS "25"
COMP_GREY_STEPS "73"
DARK_REGION_EMPHASIS "1.6"
COLOR_REP "RGB_XYZ"
TARGET_INSTRUMENT "X-Rite i1 DisplayPro, ColorMunki Display"
DISPLAY_TYPE_REFRESH "NO"
DISPLAY_TYPE_BASE_ID "1"
INSTRUMENT_TYPE_SPECTRAL "NO"
LUMINANCE_XYZ_CDM2 "61.799292 65.006877 70.939260"
NORMALIZED_TO_Y_100 "YES"
VIDEO_LUT_CALIBRATION_POSSIBLE "YES"

BEGIN_ARGYLL_COLPROF_ARGS
-v -qh -aX -bn -C "No copyright. Created with DisplayCAL 3.8.9.3 and ArgyllCMS 2.1.1" -M "N121X5-L06" -A "Lenovo Group Limited"
END_ARGYLL_COLPROF_ARGS

OBSERVER "1931_2"
USE_BLACK_POINT_COMPENSATION "NO"
BLACK_POINT_CORRECTION "0.0"
HIRES_B2A "YES"
HIRES_B2A_SIZE "-1"
SMOOTH_B2A "YES"
PATCH_SEQUENCE "OPTIMIZE_DISPLAY_RESPONSE_DELAY"

NUMBER_OF_FIELDS 7
BEGIN_DATA_FORMAT
SAMPLE_ID RGB_R RGB_G RGB_B XYZ_X XYZ_Y XYZ_Z
END_DATA_FORMAT

NUMBER_OF_SETS 825
BEGIN_DATA
1 100.0000 100.0000 100.0000 95.06578 100.0000 109.1258
2 1.960800 1.960800 1.960800 0.663233 0.703384 0.841030
3 3.921600 3.921600 3.921600 0.797826 0.846252 0.994684
4 5.882400 5.882400 5.882400 0.981064 1.037894 1.198865
5 9.803900 9.803900 9.803900 1.408764 1.475724 1.702774
6 13.72600 13.72600 13.72600 2.107272 2.226262 2.536775
7 17.64700 17.64700 17.64700 3.062911 3.228318 3.613807
8 21.56900 21.56900 21.56900 4.120965 4.308591 4.861892
9 25.49000 25.49000 25.49000 5.488530 5.765751 6.438194
10 29.41200 29.41200 29.41200 6.928708 7.326262 8.131312
11 33.33300 33.33300 33.33300 8.822690 9.229183 10.02486
12 37.25500 37.25500 37.25500 11.00376 11.57013 12.81821
13 41.17600 41.17600 41.17600 13.70767 14.47119 15.85347
14 45.09800 45.09800 45.09800 16.54013 17.41800 18.86247
15 49.02000 49.02000 49.02000 19.69581 20.72879 22.50597
16 52.94100 52.94100 52.94100 23.22894 24.37169 26.44355
17 56.86300 56.86300 56.86300 27.10514 28.32018 31.02062
18 60.78400 60.78400 60.78400 31.21288 32.89833 35.89929
19 64.70600 64.70600 64.70600 35.67613 37.40421 40.96547
20 68.62700 68.62700 68.62700 40.91970 43.11689 46.77604
21 72.54900 72.54900 72.54900 46.33408 48.65598 53.20010
22 76.47100 76.47100 76.47100 52.14883 55.00175 59.91168
23 80.39200 80.39200 80.39200 57.93434 61.11979 66.94233
24 84.31400 84.31400 84.31400 64.27794 67.73905 73.97288
25 88.23500 88.23500 88.23500 71.20116 74.87829 82.17268
26 92.15700 92.15700 92.15700 78.84178 82.75067 90.66618
27 96.07800 96.07800 96.07800 86.05691 90.41863 99.74745
28 0.000000 30.49090 60.37150 8.724425 9.998561 29.10427
29 0.000000 41.79040 61.36620 11.20161 14.18500 31.02287
30 0.000000 40.95750 81.11830 16.64496 19.21028 57.15394
31 27.45100 48.23640 100.0000 29.74949 34.08361 94.98445
32 44.35390 63.66090 100.0000 39.45285 45.75160 97.95558
33 0.000000 80.39050 80.34080 31.92907 45.68748 62.69554
34 0.000000 89.36350 100.0000 45.74651 64.16466 101.9692
35 56.83520 0.000000 33.94740 14.00007 9.004115 10.27833
36 64.50400 13.55060 37.75090 18.70988 12.53267 13.02583
37 78.62520 68.37310 36.76080 40.56742 40.55903 19.32702
38 100.0000 69.60230 52.92450 62.28952 54.58526 32.44763
39 100.0000 78.75450 71.25200 71.46420 66.84202 54.89642
40 69.25320 0.000000 34.60240 20.53133 12.83896 11.04805
41 85.58480 0.000000 47.82640 32.59237 20.47493 20.88081
42 91.08320 6.738200 57.49570 39.45397 25.27668 30.06884
43 21.42860 0.000000 0.000000 2.221936 1.595345 0.995458
44 24.50980 0.000000 0.000000 2.616200 1.831043 1.054536
45 27.77780 0.000000 0.000000 3.199209 2.176507 1.136816
46 31.25000 0.000000 0.000000 3.899366 2.591746 1.233793
47 34.94620 0.000000 0.000000 4.755870 3.100993 1.351587
48 38.88890 0.000000 0.000000 5.683316 3.649506 1.478708
49 43.10350 0.000000 0.000000 7.066467 4.467147 1.661800
50 47.61910 0.000000 0.000000 8.607771 5.378711 1.864771
51 52.46910 0.000000 0.000000 10.51904 6.505588 2.103423
52 57.69230 0.000000 0.000000 12.57198 7.717074 2.355742
53 63.33330 0.000000 0.000000 15.09908 9.205332 2.657841
54 69.44440 0.000000 0.000000 18.88076 11.43171 3.083461
55 76.08700 0.000000 0.000000 22.86612 13.77044 3.506786
56 83.33330 0.000000 0.000000 27.61695 16.56589 3.982380
57 91.26980 0.000000 0.000000 34.16982 20.38590 4.556938
58 100.0000 100.0000 0.000000 74.12304 78.10823 17.84739
59 100.0000 100.0000 24.89000 75.46734 79.64382 22.27989
60 100.0000 100.0000 43.69190 77.62854 81.51637 31.59234
61 100.0000 0.000000 22.72100 43.43144 26.00780 8.838797
62 100.0000 24.98640 52.69920 49.29634 32.44430 26.83440
63 0.000000 10.68380 0.000000 0.861630 1.150481 0.902263
64 0.000000 13.15790 0.000000 1.026456 1.444002 0.984411
65 0.000000 15.76580 0.000000 1.223542 1.800922 1.082251
66 0.000000 18.51850 0.000000 1.441392 2.189148 1.190639
67 0.000000 21.42860 0.000000 1.717379 2.679215 1.324759
68 0.000000 24.50980 0.000000 2.068202 3.306315 1.492996
69 0.000000 27.77780 0.000000 2.511193 4.083467 1.702398
70 0.000000 31.25000 0.000000 2.996831 4.936186 1.933457
71 0.000000 34.94620 0.000000 3.593881 5.989037 2.211844
72 0.000000 38.88890 0.000000 4.417573 7.424794 2.590394
73 0.000000 43.10350 0.000000 5.422534 9.168546 3.046402
74 0.000000 47.61910 0.000000 6.579105 11.18355 3.573042
75 0.000000 52.46910 0.000000 8.028204 13.69474 4.214323
76 0.000000 57.69230 0.000000 9.816133 16.77802 4.997694
77 0.000000 63.33330 0.000000 11.76186 20.12287 5.834732
78 0.000000 69.44440 0.000000 14.61327 24.87056 7.006428
79 0.000000 76.08700 0.000000 17.86597 30.54342 8.355880
80 0.000000 84.77160 24.53490 23.66120 39.63446 14.41289
81 0.000000 100.0000 23.80960 32.37948 54.22016 17.29076
82 26.09970 100.0000 35.96750 35.91307 56.78640 22.92769
83 27.67880 100.0000 88.54630 49.22551 69.40003 81.53968
84 0.000000 63.59510 58.47270 17.56626 25.66583 31.10552
85 60.94320 65.23370 100.0000 47.09692 50.97861 99.09589
86 76.55250 69.39140 100.0000 58.34158 59.91949 101.1206
87 0.000000 0.000000 10.68380 0.733133 0.744023 1.573709
88 0.000000 0.000000 13.15790 0.823605 0.818667 2.008722
89 0.000000 0.000000 15.76580 0.903089 0.886489 2.392774
90 0.000000 0.000000 18.51850 1.053354 1.012598 3.096454
91 0.000000 0.000000 21.42860 1.227304 1.161519 3.945099
92 0.000000 0.000000 24.50980 1.383367 1.297342 4.697664
93 0.000000 0.000000 27.77780 1.649719 1.525552 5.964287
94 0.000000 0.000000 31.25000 1.900883 1.744154 7.169818
95 0.000000 0.000000 34.94620 2.233844 2.032210 8.730713
96 0.000000 0.000000 38.88890 2.708373 2.447348 11.00626
97 0.000000 0.000000 43.10350 3.228898 2.903857 13.44441
98 0.000000 0.000000 47.61910 3.889797 3.489794 16.56893
99 0.000000 0.000000 52.46910 4.779300 4.288237 20.79432
100 0.000000 0.000000 57.69230 5.746155 5.170479 25.35477
101 0.000000 0.000000 63.33330 6.864046 6.195436 30.59268
102 0.000000 0.000000 69.44440 8.487229 7.706516 38.13745
103 0.000000 0.000000 76.08700 10.50759 9.640091 47.44057
104 0.000000 0.000000 83.33330 12.78848 11.90700 57.92751
105 0.000000 0.000000 91.26980 16.01886 15.33527 72.36867
106 100.0000 30.69420 100.0000 65.81788 50.47340 97.33935
107 100.0000 73.17560 100.0000 80.25556 74.98909 103.6698
108 0.000000 1.938000 0.000000 0.593715 0.658110 0.760329
109 1.938000 1.938000 1.938000 0.663499 0.703198 0.840072
110 2.604200 2.604200 2.604200 0.717772 0.769261 0.891740
111 3.280800 3.280800 3.280800 0.738909 0.783322 0.922765
112 3.968300 3.968300 3.968300 0.797131 0.845980 0.993593
113 4.666700 4.666700 4.666700 0.881859 0.937613 1.087692
114 5.376300 5.376300 5.376300 0.929127 0.986441 1.141155
115 6.097600 6.097600 6.097600 1.013866 1.059723 1.245118
116 6.830600 6.830600 6.830600 1.033775 1.103288 1.256077
117 7.575800 7.575800 7.575800 1.156778 1.212440 1.410622
118 8.333300 8.333300 8.333300 1.230869 1.287908 1.493947
119 9.103600 9.103600 9.103600 1.304777 1.364758 1.579578
120 9.887000 9.887000 9.887000 1.408216 1.476038 1.701234
121 10.68380 10.68380 10.68380 1.513687 1.586953 1.821776
122 11.49420 11.49420 11.49420 1.653921 1.761308 1.963795
123 12.31880 12.31880 12.31880 1.825009 1.926319 2.101244
124 13.15790 13.15790 13.15790 2.036446 2.120820 2.388902
125 14.01180 14.01180 14.01180 2.164581 2.260594 2.542989
126 14.88100 14.88100 14.88100 2.295284 2.401479 2.704527
127 15.76580 15.76580 15.76580 2.545646 2.690920 2.922805
128 16.66670 16.66670 16.66670 2.778871 2.909874 3.251743
129 17.58410 17.58410 17.58410 3.064752 3.230771 3.611930
130 18.51850 18.51850 18.51850 3.206776 3.386453 3.785530
131 19.47040 19.47040 19.47040 3.564785 3.748635 4.156122
132 20.44020 20.44020 20.44020 3.715199 3.914110 4.341222
133 21.42860 21.42860 21.42860 4.117265 4.309895 4.858859
134 22.43590 22.43590 22.43590 4.389409 4.622686 5.095744
135 23.46280 23.46280 23.46280 4.714953 4.975236 5.470291
136 24.50980 24.50980 24.50980 5.048573 5.333965 5.865947
137 25.57760 25.57760 25.57760 5.487000 5.767771 6.431925
138 26.66670 26.66670 26.66670 5.906766 6.265261 6.874280
139 27.77780 27.77780 27.77780 6.369228 6.724102 7.475862
140 28.91160 28.91160 28.91160 6.742266 7.128646 7.895859
141 30.06870 30.06870 30.06870 7.269006 7.715600 8.563647
142 31.25000 31.25000 31.25000 7.853931 8.249943 9.042288
143 32.45610 32.45610 32.45610 8.451979 8.910072 9.753037
144 33.68790 33.68790 33.68790 8.964078 9.424253 10.34358
145 34.94620 34.94620 34.94620 9.696921 10.15810 11.06175
146 36.23190 36.23190 36.23190 10.36965 10.88181 12.07640
147 37.54580 37.54580 37.54580 11.31417 11.91293 13.16735
148 38.88890 38.88890 38.88890 11.99387 12.63608 13.91803
149 40.26220 40.26220 40.26220 13.00657 13.72436 15.06263
150 41.66670 41.66670 41.66670 13.99739 14.78640 15.90443
151 43.10350 43.10350 43.10350 14.96502 15.72831 17.07414
152 44.57360 44.57360 44.57360 16.18963 17.03000 18.72945
153 46.07840 46.07840 46.07840 16.99940 17.90883 19.64846
154 47.61910 47.61910 47.61910 18.43217 19.35324 21.04071
155 49.19680 49.19680 49.19680 19.69650 20.72332 22.47419
156 50.81300 50.81300 50.81300 21.44622 22.63265 24.45201
157 52.46910 52.46910 52.46910 22.78068 23.91815 26.29043
158 54.16670 54.16670 54.16670 24.29303 25.48348 27.85960
159 55.90720 55.90720 55.90720 26.23244 27.58200 29.99517
160 57.69230 57.69230 57.69230 27.71116 29.24689 32.04870
161 59.52380 59.52380 59.52380 29.82665 31.52894 34.24446
162 61.40350 61.40350 61.40350 31.79134 33.53166 36.83463
163 63.33330 63.33330 63.33330 33.47999 35.29867 38.58103
164 65.31530 65.31530 65.31530 36.59035 38.43623 42.14944
165 67.35160 67.35160 67.35160 39.36773 41.28858 45.25394
166 69.44440 69.44440 69.44440 41.92011 44.08598 47.94637
167 71.59620 71.59620 71.59620 45.01561 47.58128 51.82737
168 73.80950 73.80950 73.80950 47.69374 50.13791 54.50135
169 76.08700 76.08700 76.08700 51.45815 54.20374 59.32414
170 78.43140 78.43140 78.43140 54.68945 57.63771 63.42528
171 80.84580 80.84580 80.84580 58.62503 61.91780 67.52987
172 83.33330 83.33330 83.33330 62.50298 65.79014 71.62849
173 85.89740 85.89740 85.89740 66.85417 70.60295 77.19742
174 88.54170 88.54170 88.54170 71.94057 75.79126 82.76141
175 91.26980 91.26980 91.26980 76.85407 80.69954 88.61568
176 94.08600 94.08600 94.08600 82.36969 86.46868 95.05991
177 96.99450 96.99450 96.99450 87.89420 92.53062 101.5089
178 0.000000 54.44540 80.30680 20.30283 25.80986 57.69119
179 0.000000 69.26020 84.90120 27.70530 37.51317 66.71565
180 0.000000 76.27670 100.0000 38.67807 52.31757 99.24715
181 26.80640 87.84050 100.0000 47.25211 64.03931 102.2365
182 82.45790 0.000000 19.86110 27.49503 16.64141 6.773206
183 100.0000 27.51350 20.83130 45.75981 29.64153 9.195073
184 100.0000 67.66430 21.62630 57.74890 49.92598 14.62198
185 100.0000 76.90080 39.84440 63.82845 58.94893 24.38285
186 26.32900 80.38140 0.000000 22.48745 35.68060 9.593406
187 54.99780 81.08150 55.19660 36.97553 46.54199 33.73346
188 16.79760 0.000000 43.99740 4.469916 3.707938 14.47336
189 22.89340 0.000000 61.91900 8.574008 7.190032 30.47075
190 40.67880 0.000000 66.03720 13.46228 10.41492 35.53488
191 56.68330 0.000000 67.24990 19.90396 14.33651 37.95617
192 72.15110 0.000000 68.96480 28.34450 19.47545 41.08389
193 100.0000 0.000000 83.12270 55.27105 36.97773 63.65393
194 100.0000 47.41320 89.35840 64.58807 50.96308 77.77911
195 26.74020 64.51820 0.000000 14.75827 22.59418 6.457966
196 63.89050 67.63690 0.000000 29.14286 32.47687 8.639653
197 78.84990 83.53060 0.000000 46.49973 51.77790 12.91826
198 78.08490 85.36080 20.21240 47.99368 54.22545 16.22845
199 0.000000 0.000000 8.333300 0.684570 0.700406 1.319666
200 14.47520 0.000000 11.52210 1.589060 1.263613 1.812842
201 16.92690 10.21550 21.05940 2.583898 2.346781 4.174117
202 24.74260 38.45890 74.57180 16.20591 17.54548 47.55039
203 33.68610 59.63410 78.59510 25.70308 30.99535 57.03036
204 88.80520 100.0000 90.88620 79.47192 87.80281 89.57204
205 100.0000 0.000000 0.000000 42.68058 25.37027 5.194639
206 100.0000 27.08430 0.000000 45.02996 28.93129 6.133794
207 100.0000 42.64490 34.01570 50.03177 35.97512 15.54605
208 26.75410 15.13210 0.000000 3.623434 3.170755 1.422167
209 31.48830 22.20420 23.79990 6.070942 5.640302 5.774649
210 54.51710 29.27090 27.12440 14.80718 11.93074 8.334043
211 48.52270 52.35430 0.000000 16.67431 18.80647 5.403572
212 49.15560 68.40420 0.000000 22.93661 29.30126 8.026733
213 49.76340 76.77060 24.01790 28.31586 37.58513 13.72265
214 52.19350 100.0000 71.49000 50.54721 67.73120 55.87934
215 53.81130 100.0000 82.14530 54.60743 71.49744 71.55280
216 27.69090 24.75880 43.64240 7.651171 7.504448 15.24047
217 72.07810 39.23750 53.76020 29.31061 23.70594 26.72999
218 18.94660 91.30960 14.10730 27.83560 45.74809 13.20395
219 0.000000 100.0000 86.42370 45.25102 66.56314 75.99820
220 0.000000 100.0000 100.0000 51.92044 74.46109 104.0943
221 33.07420 100.0000 100.0000 55.88845 76.86734 104.9510
222 63.77370 100.0000 100.0000 67.59801 83.78731 106.6423
223 39.93720 38.08310 0.000000 9.981461 10.58006 3.345291
224 64.14900 43.93330 22.97440 22.15694 19.71187 9.000538
225 78.07590 50.06900 38.75200 33.92886 28.99818 17.51204
226 63.62300 0.000000 17.34400 15.73970 9.696943 4.802104
227 76.15160 0.000000 51.10960 26.78451 17.22282 22.52678
228 0.000000 0.000000 1.938000 0.578376 0.614275 0.811733
229 0.000000 0.000000 3.968300 0.600229 0.632656 0.927780
230 0.000000 0.000000 6.097600 0.639967 0.666031 1.122869
231 0.000000 0.000000 0.000000 0.564524 0.602438 0.741967
232 31.46110 57.28090 15.22750 13.53707 19.01419 7.156274
233 31.61440 57.10030 37.81990 15.34985 20.64358 15.40690
234 36.18180 74.87890 61.52040 28.50815 38.57348 38.04791
235 60.35120 77.76430 69.77430 41.08038 48.19644 49.45742
236 39.70980 28.82340 54.11910 12.79027 11.70897 24.32542
237 50.28030 31.51750 65.73660 19.45280 16.92784 37.23486
238 75.56860 38.01380 87.54430 40.86917 33.79411 70.83704
239 76.12370 43.62820 100.0000 48.47436 43.54813 96.90354
240 0.000000 85.13900 57.87660 28.29875 43.81370 35.32502
241 40.51450 90.48400 75.41520 41.77005 56.98872 58.22887
242 18.52260 45.19880 47.65990 10.83193 14.14639 20.01851
243 25.17370 46.07080 58.38620 13.87873 16.73740 29.27513
244 44.72010 50.84960 74.54440 24.56548 26.35583 49.90000
245 57.15080 54.79310 74.16340 30.80044 31.46648 50.61674
246 24.46140 0.000000 79.76210 13.84809 12.13542 53.69859
247 43.28460 0.000000 100.0000 27.07060 24.74924 92.52980
248 71.11220 24.43180 100.0000 41.63637 35.21851 94.82173
249 0.000000 52.17380 42.72680 10.87407 16.30776 16.95228
250 0.000000 81.25860 43.18210 23.34618 37.78690 22.15126
251 0.000000 0.000000 100.0000 20.49442 20.79576 91.39456
252 23.27760 26.13510 100.0000 24.26338 25.30236 92.87437
253 88.66410 46.63130 100.0000 58.49229 50.42638 98.32764
254 100.0000 55.61710 100.0000 72.29262 61.59133 100.3506
255 65.99300 21.13520 0.000000 18.08724 12.35068 3.442298
256 72.94820 100.0000 0.000000 52.08694 65.16598 15.95048
257 86.02500 100.0000 0.000000 60.75123 70.22232 16.78695
258 85.39090 100.0000 26.64720 61.80689 71.60557 21.80390
259 29.90050 40.56570 0.000000 7.817283 9.844831 3.198588
260 81.18370 40.88440 0.000000 31.07727 23.68115 5.953190
261 100.0000 44.05320 0.000000 48.37901 34.71250 7.656774
262 100.0000 49.33530 21.76520 50.76929 38.12943 11.67029
263 100.0000 62.17410 35.27530 56.43852 46.89428 18.88677
264 53.53830 24.49210 0.000000 12.60715 9.544124 2.923414
265 61.57390 32.08630 60.73740 23.17871 18.89374 32.19402
266 71.55750 45.23400 75.98760 36.16003 31.43978 53.63630
267 100.0000 0.000000 39.35210 44.90592 27.30060 16.11769
268 100.0000 0.000000 53.26890 47.15270 29.25338 26.32808
269 100.0000 0.000000 66.50550 50.16318 32.03228 40.49231
270 100.0000 38.75630 78.68220 58.30794 42.91157 59.02963
271 100.0000 53.73360 77.98810 62.46700 50.11742 59.96415
272 100.0000 66.39390 88.31150 70.93117 62.10638 78.45403
273 48.41650 27.30690 36.35620 12.75504 10.63210 11.89120
274 68.00650 28.44790 44.74570 23.16545 17.35367 18.48822
275 69.89110 30.78170 58.16440 27.05795 20.72449 29.92805
276 100.0000 49.65080 58.63170 55.73131 42.56399 34.72231
277 43.24510 100.0000 0.000000 37.74925 56.67032 14.26502
278 58.91760 100.0000 0.000000 44.00852 60.43264 15.05351
279 69.29830 100.0000 25.89260 51.26756 65.39729 20.40431
280 83.37060 100.0000 45.50100 62.94198 72.95020 31.69510
281 88.14580 100.0000 62.17100 69.63572 77.99980 47.42533
282 100.0000 100.0000 74.34560 84.36163 87.82891 63.18643
283 63.07580 53.11750 21.62360 23.82251 23.54807 9.568831
284 88.72070 63.28270 34.51150 45.54156 40.64482 17.51806
285 100.0000 63.02870 73.18640 64.04611 54.16027 53.84185
286 3.968300 0.000000 0.000000 0.681426 0.673130 0.763125
287 6.097600 0.000000 0.000000 0.791667 0.739448 0.781023
288 8.333300 0.000000 0.000000 0.897341 0.803605 0.798323
289 10.68380 0.000000 0.000000 1.022899 0.879555 0.817702
290 41.32740 15.77420 0.000000 7.162636 5.326176 1.927884
291 41.38760 35.04890 16.58740 10.18462 10.04509 5.068594
292 72.05860 74.90230 35.74280 39.75873 43.70922 19.60810
293 72.94470 83.65180 66.63730 50.73766 57.09250 47.85430
294 65.96770 39.18120 0.000000 20.86514 17.27535 4.766323
295 82.11440 56.18250 0.000000 35.78444 31.40960 7.931820
296 100.0000 59.44130 0.000000 53.32581 43.19478 9.813674
297 0.000000 3.968300 0.000000 0.635695 0.738934 0.783135
298 0.000000 6.097600 0.000000 0.698078 0.848602 0.815549
299 49.15280 11.76890 14.59360 9.930334 6.695625 3.673559
300 68.62470 26.71020 25.97260 21.38046 15.35886 8.498807
301 100.0000 39.66430 45.73060 50.66552 35.86911 22.48737
302 100.0000 42.44980 66.47630 55.58389 40.94862 42.79357
303 40.80180 0.000000 25.55910 7.174321 4.769568 6.056759
304 55.08740 0.000000 53.49160 15.86983 10.91777 23.17271
305 68.55080 0.000000 56.34560 23.25467 15.47422 26.97682
306 24.69670 76.80030 35.38140 22.36359 34.29278 17.31878
307 42.59600 100.0000 59.72450 43.83057 62.58552 41.33754
308 72.43090 100.0000 77.87600 63.20661 75.87642 66.81731
309 15.51440 26.17690 9.019200 3.418045 4.443877 2.411725
310 26.58400 31.04140 10.24050 5.566022 6.444959 3.111961
311 28.46690 35.03590 22.74420 7.134962 8.335418 6.201456
312 54.54800 55.68120 23.02480 21.00606 22.91078 9.956142
313 55.86680 56.43220 46.42250 24.29356 26.04746 21.93792
314 26.73850 0.000000 100.0000 22.96490 22.26925 91.96623
315 41.73230 31.20830 100.0000 29.21357 29.04608 93.73861
316 52.60440 42.40090 89.01920 30.26539 28.98702 72.38017
317 69.28490 55.61070 100.0000 48.15981 47.39464 98.14237
318 0.000000 18.29900 47.89380 4.831739 5.148317 17.30493
319 16.80660 28.01460 62.15250 9.812402 10.28119 31.19295
320 17.73820 0.000000 31.30500 3.075388 2.453536 7.433225
321 40.77520 0.000000 36.84200 8.182594 5.646850 10.85834
322 43.07200 0.000000 52.24730 11.23957 8.126515 21.72694
323 83.96060 48.23470 84.65740 47.90456 40.55929 67.62729
324 86.61180 63.12010 100.0000 62.39405 58.89574 100.4567
325 59.49180 24.50280 48.07810 18.71980 14.19563 20.18580
326 77.53590 25.57920 68.53960 33.72372 24.57894 41.70983
327 100.0000 100.0000 100.0000 94.83102 99.71796 109.1246
328 44.61320 42.92490 31.03500 13.96500 14.67654 10.46488
329 60.39410 43.68750 41.43290 21.71446 19.78163 16.97849
330 60.74230 44.21740 58.06170 25.21328 23.05371 30.77698
331 75.42740 56.23610 53.80820 36.11241 33.13629 29.01038
332 84.34640 64.84180 70.35360 49.35672 45.86198 48.97445
333 39.77480 32.68550 45.11800 11.77463 11.29138 17.19464
334 45.40490 39.86270 56.07670 17.29721 17.00256 27.27522
335 46.75800 68.10410 67.52870 29.89584 36.14689 44.04421
336 64.61040 89.56420 91.23480 57.31863 67.97973 86.06960
337 72.18530 91.81660 100.0000 67.31889 78.26842 105.3845
338 0.000000 63.25240 100.0000 32.03042 40.91960 96.52617
339 26.56730 65.36700 100.0000 35.68397 44.34268 97.69720
340 36.52790 77.50690 100.0000 43.92156 55.95820 100.3975
341 58.25300 79.14630 100.0000 52.88095 62.24176 101.8278
342 58.67510 0.000000 100.0000 33.11091 28.32787 93.37459
343 73.71980 0.000000 100.0000 41.17580 33.06077 94.20782
344 87.71490 26.46590 100.0000 53.24425 42.31430 96.22516
345 0.000000 11.00890 17.50280 1.352016 1.594266 3.109035
346 0.000000 14.88700 32.74990 2.568350 2.850710 7.961725
347 0.000000 31.20010 44.30140 5.895362 7.485742 15.59219
348 0.000000 44.27610 47.05620 9.160159 12.86853 18.65991
349 100.0000 73.18270 0.000000 59.25192 53.27446 12.29571
350 100.0000 84.89340 26.53270 66.70681 64.82998 19.65977
351 100.0000 89.84410 51.68380 72.83222 72.72699 35.77284
352 100.0000 89.75610 71.46350 77.37458 77.03459 57.07593
353 100.0000 89.66850 100.0000 88.94057 89.81854 107.0019
354 40.44990 0.000000 80.67840 17.72000 14.58536 56.05184
355 56.99110 0.000000 82.85950 24.61371 18.92078 60.01888
356 71.85030 0.000000 82.91380 32.20515 23.42755 60.85554
357 87.75070 0.000000 100.0000 50.87044 38.77661 95.32498
358 100.0000 0.000000 100.0000 62.62032 45.67983 96.13832
359 13.15790 0.000000 0.000000 1.279731 1.032496 0.856686
360 15.76580 0.000000 0.000000 1.497187 1.162445 0.889865
361 18.51850 0.000000 0.000000 1.780864 1.331223 0.932288
362 21.73230 52.53290 45.87860 13.00220 17.68444 19.52066
363 65.74310 68.05030 78.95030 42.01850 44.53256 60.76774
364 88.96250 80.04490 100.0000 72.69102 74.12256 104.0633
365 0.000000 14.56270 11.67980 1.323981 1.781289 2.042219
366 0.000000 25.33790 19.60200 2.748743 4.005562 4.164859
367 0.000000 24.70440 84.57420 14.89566 15.27013 60.98320
368 0.000000 29.72890 100.0000 22.71474 24.85403 92.30583
369 0.000000 49.29970 100.0000 27.37140 32.83813 94.41520
370 0.000000 34.46570 32.98740 4.968928 7.104053 9.108041
371 20.74150 34.29990 35.90310 6.949367 8.414957 11.37583
372 24.44500 43.10290 37.77730 9.665793 12.33843 13.24200
373 0.000000 42.04950 29.38960 6.405218 9.835582 8.641925
374 0.000000 59.73500 33.60380 12.30817 19.71288 12.79214
375 0.000000 68.75780 48.96180 18.08794 28.03936 23.84693
376 20.41300 70.99600 50.11660 20.89001 30.87445 25.99985
377 26.71620 100.0000 50.10140 37.97903 58.42909 32.24823
378 20.52140 48.18910 0.000000 8.331354 12.52304 3.920990
379 36.12610 55.40680 0.000000 13.39133 17.79855 5.238111
380 42.49500 65.96070 28.85070 20.71606 27.32129 13.00244
381 40.85450 67.52730 41.73930 22.24674 29.35257 19.53522
382 48.36290 100.0000 45.63090 43.08119 61.24687 29.41196
383 60.94760 100.0000 61.67960 51.71882 67.36686 44.54213
384 76.05470 100.0000 62.77390 61.05369 72.94612 46.97645
385 0.000000 28.23820 12.88060 2.824403 4.417092 2.877289
386 0.000000 43.46800 18.44440 6.101039 9.908286 5.467724
387 30.39890 48.48110 19.07130 10.66056 14.17019 6.734673
388 42.37920 48.28410 51.64760 17.48212 19.30598 24.31928
389 75.43410 74.25990 58.64140 44.76034 47.22497 36.97050
390 0.000000 57.82000 18.56000 10.40825 17.37885 7.379939
391 0.000000 71.42570 27.07090 16.73572 27.79199 12.36437
392 34.97840 79.07900 72.41860 33.26039 44.74330 52.18511
393 45.75740 79.57950 89.80470 42.48802 52.86556 79.90316
394 72.69770 100.0000 90.38850 67.59463 80.51920 86.70783
395 84.88300 100.0000 100.0000 80.71617 91.45629 108.0323
396 47.55220 68.94720 60.24460 28.78585 35.06595 35.95019
397 80.17930 70.54250 75.49010 50.37294 50.04401 56.44660
398 86.87500 100.0000 77.94120 73.22458 81.81145 67.93321
