Lenovo/ThinkPad X61/N121X5-L06 #1 2020-05-26 15-02 0.3127x 0.329y sRGB M-S XYZLUT+MTX/N121X5-L06 #1 2020-05-26 15-02 0.3127x 0.329y sRGB M-S XYZLUT+MTX.cal
CAL    

DESCRIPTOR "Argyll Device Calibration Curves"
ORIGINATOR "Argyll dispcal"
CREATED "Tue May 26 16:05:35 2020"
DEVICE_CLASS "DISPLAY"
COLOR_REP "RGB"
VIDEO_LUT_CALIBRATION_POSSIBLE "YES"
TV_OUTPUT_ENCODING "NO"
DEVICE_TYPE "n"
TARGET_WHITE_XYZ "62.058123 65.293005 71.107853"
TARGET_GAMMA "sRGB"
DEGREE_OF_BLACK_OUTPUT_OFFSET "1.0"
BLACK_POINT_CORRECTION "0.0"
BLACK_NEUTRAL_BLEND_RATE "4.0"
BLACK_POINT_HACK "YES"
QUALITY "medium"

BEGIN_ARGYLL_DISPCAL_ARGS
-v2 -d1 -c1 -yn -P0.497237569061,1,1.74670184697 -F -qm -m -w0.3127,0.329 -gs -f1.0 -k0 -A4.0 -b
END_ARGYLL_DISPCAL_ARGS


NUMBER_OF_FIELDS 4
BEGIN_DATA_FORMAT
RGB_I RGB_R RGB_G RGB_B
END_DATA_FORMAT

NUMBER_OF_SETS 256
BEGIN_DATA
0.00000000 0.00000000 0.00000000 0.00000000
0.00392157 0.01619250 0.01214360 0.00914817
0.00784314 0.02772790 0.02147930 0.01694370
0.01176470 0.03643460 0.02889000 0.02366600
0.01568630 0.04348150 0.03500340 0.02952240
0.01960780 0.04947650 0.04021800 0.03467360
0.02352940 0.05472900 0.04479270 0.03927990
0.02745100 0.05942980 0.04889890 0.04348520
0.03137250 0.06369590 0.05264280 0.04737740
0.03529410 0.06760870 0.05609980 0.05101560
0.03921570 0.07122380 0.05933010 0.05444620
0.04313730 0.07458310 0.06236950 0.05770770
0.04705880 0.07773500 0.06524630 0.06083320
0.05098040 0.08069500 0.06798720 0.06384620
0.05490200 0.08350360 0.07061370 0.06676040
0.05882350 0.08618020 0.07313860 0.06958490
0.06274510 0.08873560 0.07558400 0.07232360
0.06666670 0.09121180 0.07795050 0.07498420
0.07058820 0.09362580 0.08025020 0.07756730
0.07450980 0.09597830 0.08250670 0.08008450
0.07843140 0.09827840 0.08472080 0.08253460
0.08235290 0.10056100 0.08689430 0.08492710
0.08627450 0.10283700 0.08903660 0.08727420
0.09019610 0.10510600 0.09116560 0.08957390
0.09411760 0.10736400 0.09328310 0.09182960
0.09803920 0.10961600 0.09538680 0.09405680
0.10196100 0.11189100 0.09747550 0.09625690
0.10588200 0.11419400 0.09955210 0.09842910
0.10980400 0.11652600 0.10163700 0.10057700
0.11372500 0.11888800 0.10373500 0.10271600
0.11764700 0.12127500 0.10584400 0.10485300
0.12156900 0.12368100 0.10796100 0.10698500
0.12549000 0.12611500 0.11007400 0.10911200
0.12941200 0.12861100 0.11218600 0.11123900
0.13333300 0.13115600 0.11430300 0.11338300
0.13725500 0.13374900 0.11644100 0.11555100
0.14117600 0.13638600 0.11860300 0.11774700
0.14509800 0.13907000 0.12079100 0.11996900
0.14902000 0.14179500 0.12300700 0.12221300
0.15294100 0.14455300 0.12524900 0.12448300
0.15686300 0.14734800 0.12750600 0.12679000
0.16078400 0.15019200 0.12977800 0.12913900
0.16470600 0.15310500 0.13206900 0.13153300
0.16862700 0.15606300 0.13439100 0.13397100
0.17254900 0.15907300 0.13675200 0.13645400
0.17647100 0.16213400 0.13915800 0.13897700
0.18039200 0.16525000 0.14161500 0.14153900
0.18431400 0.16842800 0.14412400 0.14414100
0.18823500 0.17163900 0.14668900 0.14678900
0.19215700 0.17486500 0.14931300 0.14947800
0.19607800 0.17810400 0.15198200 0.15221200
0.20000000 0.18137300 0.15467800 0.15498800
0.20392200 0.18468000 0.15740200 0.15780700
0.20784300 0.18801500 0.16015900 0.16066000
0.21176500 0.19133300 0.16296400 0.16353800
0.21568600 0.19464500 0.16582000 0.16644400
0.21960800 0.19797500 0.16870600 0.16938700
0.22352900 0.20132500 0.17160300 0.17237300
0.22745100 0.20469800 0.17453600 0.17537600
0.23137300 0.20810500 0.17749800 0.17840600
0.23529400 0.21156500 0.18049100 0.18147200
0.23921600 0.21503200 0.18351800 0.18458000
0.24313700 0.21847400 0.18659300 0.18773100
0.24705900 0.22189100 0.18971100 0.19093600
0.25098000 0.22527600 0.19282800 0.19416800
0.25490200 0.22865800 0.19594500 0.19742300
0.25882400 0.23203400 0.19906700 0.20070100
0.26274500 0.23541700 0.20219800 0.20400500
0.26666700 0.23880200 0.20536500 0.20734100
0.27058800 0.24215200 0.20857000 0.21070500
0.27451000 0.24545000 0.21181500 0.21406600
0.27843100 0.24867900 0.21506500 0.21740300
0.28235300 0.25187400 0.21827400 0.22072700
0.28627500 0.25503800 0.22143900 0.22403000
0.29019600 0.25816000 0.22459300 0.22730800
0.29411800 0.26123400 0.22774100 0.23055900
0.29803900 0.26426800 0.23086300 0.23380100
0.30196100 0.26726700 0.23395600 0.23705300
0.30588200 0.27023800 0.23702000 0.24030700
0.30980400 0.27318900 0.24005400 0.24352400
0.31372500 0.27615000 0.24306500 0.24670100
0.31764700 0.27915400 0.24607100 0.24984300
0.32156900 0.28218800 0.24910700 0.25295000
0.32549000 0.28521200 0.25215800 0.25602300
0.32941200 0.28821700 0.25517800 0.25908700
0.33333300 0.29120200 0.25815700 0.26214300
0.33725500 0.29417200 0.26110200 0.26520500
0.34117600 0.29712100 0.26400900 0.26827800
0.34509800 0.30006400 0.26689000 0.27134300
0.34902000 0.30300200 0.26975300 0.27438700
0.35294100 0.30590200 0.27258100 0.27739700
0.35686300 0.30878800 0.27537700 0.28038900
0.36078400 0.31169800 0.27818500 0.28338400
0.36470600 0.31462700 0.28100900 0.28638300
0.36862700 0.31757500 0.28384900 0.28939100
0.37254900 0.32054400 0.28671400 0.29238800
0.37647100 0.32354300 0.28961000 0.29538200
0.38039200 0.32658400 0.29254500 0.29837600
0.38431400 0.32967700 0.29552200 0.30136900
0.38823500 0.33281700 0.29851300 0.30435800
0.39215700 0.33593800 0.30146900 0.30734500
0.39607800 0.33899800 0.30436400 0.31033400
0.40000000 0.34201100 0.30721100 0.31335900
0.40392200 0.34499300 0.31002400 0.31641200
0.40784300 0.34795800 0.31280900 0.31946700
0.41176500 0.35091300 0.31558300 0.32252200
0.41568600 0.35390100 0.31837700 0.32557400
0.41960800 0.35692800 0.32117100 0.32862700
0.42352900 0.35998200 0.32396500 0.33168300
0.42745100 0.36306100 0.32677300 0.33473200
0.43137300 0.36617500 0.32959700 0.33777700
0.43529400 0.36933200 0.33240900 0.34082700
0.43921600 0.37249500 0.33520000 0.34387000
0.44313700 0.37564000 0.33799300 0.34688300
0.44705900 0.37879100 0.34080300 0.34988300
0.45098000 0.38195800 0.34362300 0.35290000
0.45490200 0.38512700 0.34643800 0.35593000
0.45882400 0.38828800 0.34925100 0.35897100
0.46274500 0.39144700 0.35205100 0.36202100
0.46666700 0.39459400 0.35484000 0.36508900
0.47058800 0.39772800 0.35761500 0.36818500
0.47451000 0.40084500 0.36037200 0.37132200
0.47843100 0.40394000 0.36311100 0.37450400
0.48235300 0.40701400 0.36583300 0.37770700
0.48627500 0.41006900 0.36856400 0.38087200
0.49019600 0.41313500 0.37134400 0.38399600
0.49411800 0.41627300 0.37414300 0.38709500
0.49803900 0.41943800 0.37693000 0.39018300
0.50196100 0.42258700 0.37970500 0.39327100
0.50588200 0.42572100 0.38246900 0.39635900
0.50980400 0.42883900 0.38522500 0.39945400
0.51372500 0.43194600 0.38797400 0.40258200
0.51764700 0.43504400 0.39072000 0.40573600
0.52156900 0.43813900 0.39346300 0.40891400
0.52549000 0.44123400 0.39621100 0.41212000
0.52941200 0.44433000 0.39896000 0.41537500
0.53333300 0.44742800 0.40172500 0.41867500
0.53725500 0.45054000 0.40450800 0.42197100
0.54117600 0.45365900 0.40728800 0.42526100
0.54509800 0.45675100 0.41007300 0.42857400
0.54902000 0.45982800 0.41289600 0.43192000
0.55294100 0.46293600 0.41576000 0.43529200
0.55686300 0.46607400 0.41868000 0.43867700
0.56078400 0.46924900 0.42166300 0.44208900
0.56470600 0.47247500 0.42468700 0.44551600
0.56862700 0.47573500 0.42768000 0.44896100
0.57254900 0.47896000 0.43065100 0.45242300
0.57647100 0.48214200 0.43361700 0.45589800
0.58039200 0.48529800 0.43658200 0.45938600
0.58431400 0.48844100 0.43953200 0.46288600
0.58823500 0.49156800 0.44247800 0.46640100
0.59215700 0.49468200 0.44543800 0.46996400
0.59607800 0.49780500 0.44838200 0.47355600
0.60000000 0.50091800 0.45131000 0.47714100
0.60392200 0.50400800 0.45422500 0.48071900
0.60784300 0.50707300 0.45711900 0.48429000
0.61176500 0.51011800 0.45997300 0.48785600
0.61568600 0.51312400 0.46280000 0.49141900
0.61960800 0.51608600 0.46563100 0.49498200
0.62352900 0.51903800 0.46846700 0.49854300
0.62745100 0.52200600 0.47130400 0.50210900
0.63137300 0.52498900 0.47416500 0.50567000
0.63529400 0.52798800 0.47706300 0.50924200
0.63921600 0.53102100 0.48002400 0.51282900
0.64313700 0.53408900 0.48307600 0.51638900
0.64705900 0.53720900 0.48623900 0.51992300
0.65098000 0.54039900 0.48952900 0.52346600
0.65490200 0.54368500 0.49294800 0.52702600
0.65882400 0.54708600 0.49636300 0.53061100
0.66274500 0.55061000 0.49967500 0.53424000
0.66666700 0.55422500 0.50288800 0.53790400
0.67058800 0.55775100 0.50601200 0.54154500
0.67451000 0.56115600 0.50906600 0.54516600
0.67843100 0.56444800 0.51207100 0.54879200
0.68235300 0.56765300 0.51503900 0.55243400
0.68627500 0.57079100 0.51798200 0.55608300
0.69019600 0.57387400 0.52091900 0.55973400
0.69411800 0.57691300 0.52384500 0.56339000
0.69803900 0.57991100 0.52675500 0.56703700
0.70196100 0.58289700 0.52968700 0.57066700
0.70588200 0.58587400 0.53263500 0.57428200
0.70980400 0.58883500 0.53559900 0.57788900
0.71372500 0.59180800 0.53858300 0.58146000
0.71764700 0.59481000 0.54156500 0.58499900
0.72156900 0.59783100 0.54454900 0.58855000
0.72549000 0.60087200 0.54753100 0.59212200
0.72941200 0.60393300 0.55050800 0.59571300
0.73333300 0.60698100 0.55348000 0.59934700
0.73725500 0.61002400 0.55645800 0.60302900
0.74117600 0.61306500 0.55941800 0.60676100
0.74509800 0.61610500 0.56234900 0.61056700
0.74902000 0.61914200 0.56524900 0.61447600
0.75294100 0.62218700 0.56812600 0.61851600
0.75686300 0.62524000 0.57097700 0.62269800
0.76078400 0.62827800 0.57378400 0.62697900
0.76470600 0.63129800 0.57656400 0.63115700
0.76862700 0.63429800 0.57934200 0.63521100
0.77254900 0.63728600 0.58212500 0.63915700
0.77647100 0.64024600 0.58493300 0.64303100
0.78039200 0.64317600 0.58778300 0.64686600
0.78431400 0.64610900 0.59068500 0.65068200
0.78823500 0.64906900 0.59359700 0.65448600
0.79215700 0.65205500 0.59645800 0.65829700
0.79607800 0.65508300 0.59927200 0.66214400
0.80000000 0.65816100 0.60205500 0.66602200
0.80392200 0.66130100 0.60482000 0.66995800
0.80784300 0.66448200 0.60759000 0.67396900
0.81176500 0.66762000 0.61036400 0.67804900
0.81568600 0.67070500 0.61313000 0.68220600
0.81960800 0.67375300 0.61589900 0.68639600
0.82352900 0.67677900 0.61868800 0.69062300
0.82745100 0.67979400 0.62149200 0.69489000
0.83137300 0.68280800 0.62430900 0.69918900
0.83529400 0.68581700 0.62713800 0.70352200
0.83921600 0.68881600 0.62999300 0.70788000
0.84313700 0.69182600 0.63288400 0.71223800
0.84705900 0.69485700 0.63577700 0.71659700
0.85098000 0.69791100 0.63861300 0.72097400
0.85490200 0.70099100 0.64139400 0.72534600
0.85882400 0.70410700 0.64412900 0.72971600
0.86274500 0.70727400 0.64681900 0.73414300
0.86666700 0.71049900 0.64949700 0.73863400
0.87058800 0.71371200 0.65217000 0.74321100
0.87451000 0.71688600 0.65485000 0.74791800
0.87843100 0.72004200 0.65754600 0.75271600
0.88235300 0.72318400 0.66022800 0.75746300
0.88627500 0.72633900 0.66289000 0.76218100
0.89019600 0.72954200 0.66553800 0.76691900
0.89411800 0.73279200 0.66819100 0.77172300
0.89803900 0.73610800 0.67085600 0.77660200
0.90196100 0.73944400 0.67352900 0.78155000
0.90588200 0.74276800 0.67619100 0.78657100
0.90980400 0.74608800 0.67884600 0.79167200
0.91372500 0.74943600 0.68150500 0.79686100
0.91764700 0.75282800 0.68415700 0.80217800
0.92156900 0.75623200 0.68678800 0.80757600
0.92549000 0.75963100 0.68941800 0.81296300
0.92941200 0.76304700 0.69204400 0.81838000
0.93333300 0.76648300 0.69466800 0.82389000
0.93725500 0.76991600 0.69729100 0.82955100
0.94117600 0.77336800 0.69990400 0.83538500
0.94509800 0.77683500 0.70250500 0.84125400
0.94902000 0.78032400 0.70509400 0.84721200
0.95294100 0.78382600 0.70767100 0.85335000
0.95686300 0.78734400 0.71023700 0.85957400
0.96078400 0.79088300 0.71280000 0.86592300
0.96470600 0.79444600 0.71536100 0.87238200
0.96862700 0.79803200 0.71792300 0.87895500
0.97254900 0.80164300 0.72048500 0.88564900
0.97647100 0.80527700 0.72304800 0.89246700
0.98039200 0.80893500 0.72561100 0.89940300
0.98431400 0.81261700 0.72817600 0.90646800
0.98823500 0.81632200 0.73074000 0.91367000
0.99215700 0.82005100 0.73330600 0.92101500
0.99607800 0.82380500 0.73587200 0.92850800
1.00000000 0.82758400 0.73843800 0.93615300
END_DATA
CAL    

DESCRIPTOR "Argyll Calibration options and model"
ORIGINATOR "Argyll dispcal"
CREATED "Tue May 26 16:05:35 202"

NUMBER_OF_FIELDS 3
BEGIN_DATA_FORMAT
R_P G_P B_P
END_DATA_FORMAT

NUMBER_OF_SETS 32
BEGIN_DATA
0.00228409 0.00171960 0.00664492
0.99771600 0.99828000 0.99335500
1.79681600 1.49973200 0.72620600
0.49042900 0.56182900 0.83716700
0.16808500 0.13521500 0.07164520
0.11392300 0.11260200 0.07153860
0.07996580 0.11203700 0.06991390
0.09057520 0.12686600 0.05250350
0.08006160 0.06955720 0.05767970
0.05125760 0.04055450 0.06161530
0.04946700 0.05666080 0.04633930
0.05644610 0.05591570 0.04220100
0.04959690 0.04389970 0.04102590
0.04102430 0.03174130 0.04043550
0.03779470 0.03876270 0.03563730
0.03289400 0.03488380 0.03231090
0.03599920 0.03253720 0.03288180
0.03052550 0.03107550 0.03312840
0.02785430 0.02954290 0.03248360
0.02647570 0.02936210 0.02890380
0.02619050 0.02193820 0.02410450
0.02462020 0.02368540 0.02550550
0.02419350 0.02092900 0.02590620
0.01960970 0.02207130 0.02611740
0.01944600 0.02103670 0.02489990
0.02006720 0.02031100 0.02325190
0.01647610 0.01964570 0.01990020
0.01742100 0.01797320 0.01799970
0.01612390 0.01631240 0.01788630
0.01532750 0.01662510 0.01760710
0.01277030 0.01402810 0.02331060
0.01126830 0.01461200 0.02306510
END_DATA
