Dell/U2718Q/U2718Q #1 2020-05-26 13-17 0.3127x 0.329y sRGB F-S XYZLUT+MTX/U2718Q #1 2020-05-26 13-17 0.3127x 0.329y sRGB F-S XYZLUT+MTX.ti1
CTI1   

DESCRIPTOR "Argyll Calibration Target chart information 1"
ORIGINATOR "Argyll targen"
CREATED "Tue May 26 13:21:40 2020"
APPROX_WHITE_POINT "94.955231 99.999929 108.194013"
COLOR_REP "RGB"
ACCURATE_EXPECTED_VALUES "true"
DARK_REGION_EMPHASIS "1.6"
WHITE_COLOR_PATCHES "4"
BLACK_COLOR_PATCHES "4"
SINGLE_DIM_STEPS "21"
COMP_GREY_STEPS "61"
OFPS_PATCHES "435"

NUMBER_OF_FIELDS 7
BEGIN_DATA_FORMAT
SAMPLE_ID RGB_R RGB_G RGB_B XYZ_X XYZ_Y XYZ_Z
END_DATA_FORMAT

NUMBER_OF_SETS 588
BEGIN_DATA
1 100.0000 100.0000 100.0000 94.95523 99.99993 108.1940
2 1.960800 1.960800 1.960800 1.142800 1.150200 1.163700
3 3.921600 3.921600 3.921600 1.285600 1.300500 1.327300
4 5.882400 5.882400 5.882400 1.449500 1.472900 1.515200
5 9.803900 9.803900 9.803900 1.914800 1.962400 2.048400
6 13.72600 13.72600 13.72600 2.581700 2.663900 2.812600
7 17.64700 17.64700 17.64700 3.469500 3.597900 3.830000
8 21.56900 21.56900 21.56900 4.595300 4.782200 5.120100
9 25.49000 25.49000 25.49000 5.974500 6.233200 6.700700
10 29.41200 29.41200 29.41200 7.621300 7.965600 8.587900
11 33.33300 33.33300 33.33300 9.548800 9.993300 10.79700
12 37.25500 37.25500 37.25500 11.76900 12.32900 13.34100
13 41.17600 41.17600 41.17600 14.29400 14.98500 16.23400
14 45.09800 45.09800 45.09800 17.13400 17.97300 19.48900
15 49.02000 49.02000 49.02000 20.29900 21.30300 23.11700
16 52.94100 52.94100 52.94100 23.80000 24.98600 27.12900
17 56.86300 56.86300 56.86300 27.64600 29.03200 31.53600
18 60.78400 60.78400 60.78400 31.84600 33.45000 36.34900
19 64.70600 64.70600 64.70600 36.40900 38.25000 41.57800
20 68.62700 68.62700 68.62700 41.34300 43.44000 47.23200
21 72.54900 72.54900 72.54900 46.65600 49.03000 53.32100
22 76.47100 76.47100 76.47100 52.35600 55.02700 59.85300
23 80.39200 80.39200 80.39200 58.45200 61.43900 66.83800
24 84.31400 84.31400 84.31400 64.94900 68.27500 74.28500
25 88.23500 88.23500 88.23500 71.85700 75.54100 82.20000
26 92.15700 92.15700 92.15700 79.18100 83.24600 90.59400
27 96.07800 96.07800 96.07800 86.92900 91.39700 99.47200
28 0.000000 35.66440 19.16970 4.256750 7.627144 4.184279
29 0.000000 35.41510 33.12130 5.290172 7.969234 9.820101
30 0.000000 60.21590 72.48900 20.21503 26.36453 50.46254
31 0.000000 74.01180 80.27330 28.87300 40.37003 63.94050
32 77.72720 77.44710 0.000000 43.30967 52.15654 7.098989
33 100.0000 88.07020 21.53500 68.57938 75.08009 13.38346
34 76.64540 0.000000 19.68840 23.68777 12.46365 4.174335
35 86.32490 0.000000 39.35890 32.39414 16.84550 13.44338
36 86.99100 39.31470 64.76230 41.93459 27.88848 39.14188
37 100.0000 61.23170 79.72490 64.53526 50.08870 62.96660
38 10.20410 0.000000 0.000000 0.539841 0.334933 0.224807
39 13.15790 0.000000 0.000000 0.737927 0.439318 0.232884
40 16.30430 0.000000 0.000000 1.013578 0.584577 0.244124
41 19.66290 0.000000 0.000000 1.400266 0.788349 0.259891
42 23.25580 0.000000 0.000000 1.944361 1.075070 0.282076
43 27.10840 0.000000 0.000000 2.624707 1.433591 0.309817
44 31.25000 0.000000 0.000000 3.463308 1.875507 0.344011
45 35.71430 0.000000 0.000000 4.573278 2.460426 0.389269
46 40.54050 0.000000 0.000000 5.848388 3.132368 0.441262
47 45.77470 0.000000 0.000000 7.550576 4.029367 0.510668
48 51.47060 0.000000 0.000000 9.576788 5.097116 0.593286
49 60.95320 0.000000 0.000000 13.93562 7.394080 0.771017
50 64.51610 0.000000 0.000000 15.73979 8.344824 0.844581
51 72.03390 0.000000 0.000000 20.19151 10.69074 1.026099
52 80.35710 0.000000 0.000000 25.68606 13.58619 1.250138
53 89.62260 0.000000 0.000000 32.42020 17.13487 1.524721
54 100.0000 29.24320 40.11290 46.80523 28.06344 15.20787
55 100.0000 29.04640 82.46560 56.20071 31.83385 64.44687
56 0.000000 4.807700 0.000000 0.242482 0.370418 0.246352
57 0.000000 7.425700 0.000000 0.330222 0.548631 0.273051
58 0.000000 10.20410 0.000000 0.458031 0.808231 0.311943
59 0.000000 13.15790 0.000000 0.635504 1.168706 0.365948
60 0.000000 16.30430 0.000000 0.876023 1.657238 0.439138
61 0.000000 19.66290 0.000000 1.204524 2.324473 0.539100
62 23.43430 27.10250 0.000000 4.040534 5.286311 0.911809
63 2.336400 0.000000 0.000000 0.182578 0.146666 0.210240
64 37.41950 28.17970 0.000000 7.245659 7.235319 1.088049
65 71.76240 58.40950 0.000000 30.43549 31.74751 4.187075
66 75.63180 73.43040 44.20940 42.70796 48.17511 22.04499
67 100.0000 100.0000 100.0000 94.95523 99.99993 108.1940
68 0.000000 100.0000 29.06220 36.01002 70.98407 17.29602
69 0.000000 100.0000 49.42020 38.58167 72.03107 30.72789
70 31.11570 100.0000 60.63860 44.05466 74.65690 42.11918
71 88.92360 100.0000 92.61510 81.94027 93.49906 92.19909
72 52.02090 16.07570 26.01800 11.52162 7.118400 6.055846
73 51.97330 27.22840 55.68850 16.78030 11.43830 27.00883
74 66.25240 32.48880 68.56750 27.65223 18.17982 43.27770
75 0.000000 0.000000 2.336400 0.141398 0.121768 0.346833
76 0.000000 0.000000 4.807700 0.177415 0.136432 0.534955
77 0.000000 0.000000 7.425700 0.227964 0.157012 0.798973
78 0.000000 0.000000 10.20410 0.302456 0.187340 1.188049
79 0.000000 0.000000 13.15790 0.400516 0.227263 1.700224
80 0.000000 0.000000 16.30430 0.528594 0.279408 2.369180
81 0.000000 0.000000 19.66290 0.693341 0.346481 3.229660
82 0.000000 0.000000 23.25580 0.912648 0.435768 4.375115
83 0.000000 0.000000 27.10840 1.202313 0.553699 5.888050
84 0.000000 0.000000 31.25000 1.571221 0.703893 7.814876
85 0.000000 0.000000 35.71430 1.993939 0.875995 10.02276
86 0.000000 0.000000 40.54050 2.579098 1.114231 13.07907
87 0.000000 0.000000 45.77470 3.352572 1.429136 17.11897
88 0.000000 0.000000 51.47060 4.295558 1.813054 22.04423
89 0.000000 0.000000 57.69230 5.444634 2.280878 28.04592
90 0.000000 0.000000 64.51610 7.015517 2.920432 36.25072
91 0.000000 0.000000 72.03390 8.968040 3.715364 46.44885
92 0.000000 0.000000 80.35710 11.31741 4.671864 58.71972
93 0.000000 100.0000 85.02720 47.39366 75.61870 76.75339
94 32.42370 100.0000 90.01860 52.75658 78.23718 85.94998
95 0.764500 0.764500 0.764500 0.140749 0.138674 0.234904
96 1.543200 1.543200 1.543200 0.198870 0.201595 0.295787
97 2.336400 2.336400 2.336400 0.266448 0.273688 0.367003
98 3.144700 3.144700 3.144700 0.327108 0.337976 0.433674
99 3.968300 3.968300 3.968300 0.389991 0.404240 0.502240
100 4.807700 4.807700 4.807700 0.459922 0.477488 0.580144
101 5.663400 5.663400 5.663400 0.533215 0.553067 0.664295
102 6.535900 6.535900 6.535900 0.620503 0.642569 0.766484
103 7.425700 7.425700 7.425700 0.713384 0.736973 0.875557
104 8.333300 8.333300 8.333300 0.822794 0.849806 1.007708
105 9.259300 9.259300 9.259300 0.940620 0.971340 1.151015
106 10.20410 10.20410 10.20410 1.070896 1.108693 1.309854
107 11.16840 11.16840 11.16840 1.212015 1.257365 1.482792
108 12.15280 12.15280 12.15280 1.371181 1.427978 1.675011
109 13.15790 13.15790 13.15790 1.544516 1.613477 1.884111
110 14.18440 14.18440 14.18440 1.738522 1.820869 2.114062
111 15.23300 15.23300 15.23300 1.951900 2.048099 2.363946
112 16.30430 16.30430 16.30430 2.188763 2.299412 2.637496
113 17.39930 17.39930 17.39930 2.452954 2.580689 2.935039
114 18.51850 18.51850 18.51850 2.743668 2.890619 3.257966
115 19.66290 19.66290 19.66290 3.068699 3.237493 3.613706
116 20.83330 20.83330 20.83330 3.426680 3.617556 4.002852
117 22.03070 22.03070 22.03070 3.825073 4.035549 4.433952
118 23.25580 23.25580 23.25580 4.262414 4.487532 4.912290
119 24.50980 24.50980 24.50980 4.735511 4.975962 5.434996
120 25.79360 25.79360 25.79360 5.243287 5.503576 6.005938
121 27.10840 27.10840 27.10840 5.778558 6.073263 6.619154
122 28.45530 28.45530 28.45530 6.358257 6.692512 7.285125
123 29.83540 29.83540 29.83540 6.990120 7.366143 8.007905
124 31.25000 31.25000 31.25000 7.693920 8.103131 8.795573
125 32.70040 32.70040 32.70040 8.444198 8.877186 9.605510
126 34.18800 34.18800 34.18800 9.229497 9.685567 10.43231
127 35.71430 35.71430 35.71430 10.05198 10.53661 11.29987
128 37.28070 37.28070 37.28070 10.92845 11.45189 12.26502
129 41.70490 53.41040 48.88100 18.45623 22.15763 22.55605
130 63.01980 54.43080 70.87300 32.40713 29.48420 48.16504
131 0.000000 0.000000 0.000000 0.114716 0.110905 0.207473
132 0.000000 2.336400 0.000000 0.171904 0.227064 0.224875
133 0.000000 45.77470 0.000000 6.219338 12.51033 2.065103
134 0.000000 53.91680 22.98320 9.603702 18.11865 6.928887
135 26.85180 76.23990 48.73350 25.07878 41.08499 25.40279
136 61.37830 78.33540 73.78640 43.43819 51.86500 55.53136
137 42.23740 42.23740 42.23740 14.18241 14.89745 16.16794
138 43.98150 43.98150 43.98150 15.48647 16.27379 17.68045
139 57.69230 57.69230 57.69230 27.74356 29.26727 31.62433
140 59.89580 59.89580 59.89580 30.21054 31.81973 34.44337
141 62.16930 62.16930 62.16930 32.78280 34.48158 37.51090
142 64.51610 64.51610 64.51610 35.52882 37.33231 40.80970
143 66.93990 66.93990 66.93990 38.61513 40.53367 44.41795
144 69.44440 69.44440 69.44440 42.00595 44.08753 48.27097
145 72.03390 72.03390 72.03390 45.58346 47.88768 52.30016
146 74.71260 74.71260 74.71260 49.37390 51.93050 56.54552
147 77.48540 77.48540 77.48540 53.52124 56.32951 61.18379
148 80.35710 80.35710 80.35710 58.01711 61.06209 66.19172
149 83.33330 83.33330 83.33330 62.79388 66.07957 71.48791
150 86.41970 86.41970 86.41970 68.06658 71.64986 77.41266
151 89.62260 89.62260 89.62260 73.63375 77.74270 84.03975
152 92.94870 92.94870 92.94870 79.70994 84.30247 91.37909
153 96.40520 96.40520 96.40520 86.84496 91.65838 99.46074
154 17.06250 0.000000 26.68250 2.145668 1.054916 5.749271
155 18.48030 14.73750 25.90510 2.878955 2.403423 5.629526
156 42.08510 28.69030 28.80360 9.862728 8.594693 7.595126
157 70.19830 35.73920 44.02410 25.65994 18.63775 17.60364
158 100.0000 51.99880 52.87840 54.44984 40.30362 27.49021
159 42.68810 19.00850 0.000000 7.516194 5.544452 0.777874
160 60.16180 25.71290 0.000000 15.38943 10.95060 1.319158
161 62.56660 58.55190 35.44540 27.05422 29.82884 13.66413
162 34.31870 100.0000 0.000000 38.86113 72.63673 10.91631
163 58.07780 100.0000 0.000000 47.12105 76.98945 11.25310
164 0.000000 0.000000 89.62260 14.34064 5.902712 74.51020
165 0.000000 0.000000 100.0000 18.44459 7.573557 95.94535
166 82.85680 80.65730 100.0000 67.11271 65.26032 103.5430
167 0.000000 0.000000 0.000000 0.114716 0.110905 0.207473
168 0.000000 24.14090 100.0000 20.08071 10.89677 96.44322
169 0.000000 38.49620 100.0000 22.62463 16.06386 97.21733
170 26.32130 49.12500 100.0000 27.91754 23.24881 98.20326
171 33.08180 62.01710 100.0000 34.08818 33.63944 99.70556
172 0.000000 24.83120 65.31010 8.944336 6.515749 37.81416
173 0.000000 35.39010 82.15780 15.39196 12.07409 62.60615
174 34.92230 35.47640 100.0000 26.25701 17.03520 97.20027
175 60.14610 68.56030 100.0000 46.62651 44.64163 100.9868
176 100.0000 87.50860 100.0000 85.83811 81.48166 105.4197
177 15.92040 9.022000 0.000000 1.260534 1.142308 0.329105
178 27.01230 15.25180 0.000000 3.282546 2.795594 0.514522
179 31.74690 75.25220 0.000000 21.82787 39.00061 5.901471
180 55.71570 78.36890 0.000000 31.31052 46.61945 6.747444
181 13.75000 0.000000 11.65910 1.017913 0.558872 1.454673
182 34.26700 0.000000 33.63250 5.888130 2.951761 9.158741
183 36.10270 56.02690 44.02230 17.13060 22.99321 18.80496
184 50.57790 71.31680 45.81780 28.67122 39.08650 22.44592
185 100.0000 76.41780 86.89890 74.13818 65.94179 76.94950
186 57.69230 0.000000 0.000000 12.28486 6.524183 0.703707
187 69.19380 23.08030 12.05080 20.21627 12.92703 2.700344
188 81.81390 41.61160 12.78300 31.95035 24.30193 4.220936
189 100.0000 79.15700 0.000000 62.42549 63.69517 8.135127
190 100.0000 100.0000 0.000000 76.62536 92.53728 12.45613
191 31.95540 56.55150 0.000000 13.31859 21.64087 3.298775
192 53.44880 59.70990 0.000000 21.25646 27.68691 3.948833
193 100.0000 60.80780 41.81680 55.99485 46.33449 19.19905
194 100.0000 71.46910 60.10680 64.08626 57.55454 37.45564
195 100.0000 100.0000 63.18580 83.20236 95.21498 46.80815
196 78.93930 27.24920 0.000000 26.77446 17.30120 1.844882
197 100.0000 47.84730 0.000000 48.69557 35.80759 3.957124
198 100.0000 64.16110 0.000000 54.72006 48.04425 5.790371
199 33.86590 33.06940 21.06520 7.868383 8.788737 4.751425
200 39.19420 34.61830 29.13270 10.12489 10.33444 8.037351
201 38.88890 38.88890 38.88890 11.89807 12.47350 13.40499
202 52.12320 86.09430 41.90650 37.06243 56.24339 21.97902
203 57.86850 100.0000 65.00440 54.03773 79.79278 47.92645
204 100.0000 100.0000 85.78340 89.51315 97.78429 79.76973
205 27.29840 49.75180 26.90400 11.02858 16.71236 8.126738
206 100.0000 75.00440 29.37660 61.37794 59.48647 14.11903
207 100.0000 75.57700 48.57140 64.09097 61.09678 26.75753
208 0.000000 0.000000 0.000000 0.114716 0.110905 0.207473
209 0.000000 13.58970 36.16900 2.590678 2.013541 10.43005
210 37.02480 28.35410 37.99610 9.300790 8.106765 12.20577
211 0.000000 89.62260 0.000000 27.10235 54.92693 8.419784
212 0.000000 100.0000 0.000000 34.75652 70.47373 10.74894
213 0.000000 100.0000 100.0000 53.08639 77.93638 106.4868
214 0.000000 24.83210 38.98490 4.094840 4.541575 12.48437
215 0.000000 28.07850 53.91230 6.948934 6.501120 24.97585
216 31.27450 34.18790 53.77760 11.36790 10.47017 25.31923
217 36.15970 58.54240 58.06670 20.55675 25.97293 31.83003
218 39.10960 83.27980 100.0000 46.61177 56.75708 103.1101
219 62.80500 91.76970 100.0000 61.67757 73.21439 105.2167
220 79.31710 100.0000 100.0000 77.92436 91.02520 107.4996
221 31.81460 0.000000 12.63880 3.863938 2.054610 1.744829
222 47.70350 0.000000 27.26770 9.345562 4.843364 6.287919
223 46.79880 0.000000 49.35400 11.73175 5.775656 20.44622
224 51.47060 51.47060 51.47060 21.61720 22.76326 24.82171
225 53.48260 53.48260 53.48260 23.43405 24.72328 26.91953
226 55.55560 55.55560 55.55560 25.46703 26.88767 29.13903
227 28.26180 21.87020 57.52540 9.479027 6.436700 28.38596
228 41.37790 32.29750 56.82920 14.21306 11.37929 28.28141
229 41.41660 0.000000 100.0000 24.43587 10.73077 96.18965
230 72.44870 0.000000 100.0000 38.77361 18.28631 96.77426
231 0.000000 27.10840 0.000000 2.180969 4.307784 0.836232
232 0.000000 31.25000 0.000000 2.888822 5.745542 1.051631
233 0.000000 35.71430 0.000000 3.714194 7.421999 1.302791
234 0.000000 40.54050 0.000000 4.788103 9.603273 1.629580
235 47.61910 47.61910 47.61910 18.38554 19.31004 20.98423
236 49.51690 49.51690 49.51690 19.95365 20.97251 22.82853
237 68.74580 70.58820 52.67970 38.38681 43.50534 28.69661
238 89.15430 70.61370 54.38710 52.60963 50.98354 30.85514
239 61.59040 100.0000 28.03170 50.05752 78.39735 17.40655
240 83.45150 100.0000 27.58620 63.68946 85.58542 17.76891
241 23.60400 39.22440 0.000000 6.353397 9.939615 1.607819
242 57.11870 39.13990 0.000000 16.32863 15.16597 2.009253
243 60.02880 39.43460 31.16910 19.31571 16.67353 9.657393
244 62.09410 39.80780 100.0000 37.32091 24.27627 97.89855
245 81.57160 49.60730 100.0000 52.13633 36.23827 99.23053
246 100.0000 72.67020 100.0000 77.18398 63.90378 102.7862
247 32.42810 43.49860 55.94260 14.19113 15.14652 28.04605
248 42.76970 57.63050 70.79150 25.15414 27.48343 48.07815
249 54.35800 100.0000 81.43510 56.88046 80.75126 71.37497
250 0.000000 23.25580 0.000000 1.634837 3.198504 0.670044
251 15.74180 27.91230 7.520600 3.268784 5.059588 1.513010
252 16.69510 29.23430 39.22260 5.750649 6.441378 12.89727
253 40.54050 40.54050 40.54050 12.98616 13.62806 14.73497
254 45.77470 45.77470 45.77470 16.89305 17.74702 19.27979
255 68.91380 48.50290 51.16540 29.34084 25.41265 24.60666
256 100.0000 70.49100 72.05660 66.58451 57.75501 52.97757
257 100.0000 0.000000 0.000000 41.98356 22.17445 1.914664
258 100.0000 0.000000 21.50800 42.66821 22.45320 5.490656
259 100.0000 0.000000 37.26040 44.02373 23.00507 12.57058
260 100.0000 0.000000 52.37300 46.32297 23.94116 24.57965
261 100.0000 28.92290 53.47340 48.88059 28.81944 26.31694
262 100.0000 32.50540 67.66790 52.69034 31.40694 43.07642
263 100.0000 29.20260 0.000000 44.39401 27.07045 2.648163
264 100.0000 44.19800 19.41910 48.20651 33.89574 6.590129
265 100.0000 43.98350 36.16260 49.50492 34.32613 13.66935
266 100.0000 100.0000 35.31040 78.46442 93.28602 22.06166
267 77.26620 100.0000 63.26640 64.76573 85.49713 46.15701
268 88.94980 100.0000 76.00880 76.54261 91.30369 63.91241
269 0.000000 51.47060 0.000000 7.974287 16.07490 2.599133
270 0.000000 57.69230 0.000000 10.24350 20.68402 3.289651
271 0.000000 64.51610 0.000000 13.00294 26.28886 4.129346
272 0.000000 77.25550 43.16660 22.31888 40.59038 20.95876
273 34.86680 82.99720 42.69120 29.79677 49.50678 21.77401
274 37.18250 100.0000 45.73160 42.81968 74.33554 27.82273
275 62.13030 100.0000 47.62940 52.68892 79.50060 29.76970
276 0.000000 72.03390 0.000000 16.65334 33.70339 5.240161
277 0.000000 80.35710 0.000000 21.24307 43.02585 6.636813
278 0.000000 83.74570 77.94750 33.71577 51.32382 62.02992
279 29.82310 90.99150 100.0000 49.42466 65.94164 104.5742
280 0.000000 39.75900 48.26310 8.225654 10.68724 20.53984
281 0.000000 41.92570 60.86420 11.18104 12.79186 33.24594
282 0.000000 52.49940 100.0000 26.65477 24.24970 98.44370
283 0.000000 65.11390 100.0000 31.59384 34.28172 99.94666
284 100.0000 0.000000 65.80480 49.20850 25.11595 39.65092
285 100.0000 0.000000 82.46290 53.81620 26.99188 63.71721
286 100.0000 0.000000 100.0000 60.31343 29.63710 97.65254
287 100.0000 32.21010 100.0000 63.26048 35.62302 98.54933
288 100.0000 54.74340 100.0000 69.32341 47.93777 100.3943
289 0.000000 100.0000 67.72110 42.47636 73.61671 51.07007
290 31.81150 100.0000 75.11790 47.91971 76.25006 61.45993
291 47.76460 100.0000 100.0000 61.23885 82.23247 106.8192
292 4.807700 0.000000 0.000000 0.269457 0.192449 0.213782
293 7.425700 0.000000 0.000000 0.384630 0.253141 0.218478
294 0.000000 11.74650 13.00910 0.825123 1.098684 1.802235
295 0.000000 22.94710 16.40900 2.014037 3.289038 2.844012
296 0.000000 24.31020 28.82340 3.006143 3.982279 7.149548
297 0.000000 56.75570 80.63490 21.16575 24.54139 62.12231
298 0.000000 76.60450 100.0000 37.43802 46.15214 101.7250
299 0.000000 87.07460 100.0000 43.67386 58.81809 103.6226
300 24.05950 0.000000 48.71200 5.790892 2.657911 19.64618
301 40.37640 0.000000 62.94810 12.32206 5.762427 34.49450
302 57.71430 0.000000 43.23270 15.15086 7.692347 15.61558
303 76.28510 0.000000 61.15330 28.96552 14.58345 32.99148
304 78.82320 0.000000 83.42800 36.73249 17.95388 64.55276
305 37.61170 17.26680 66.22020 13.23528 7.420871 38.95885
306 47.04870 41.35750 85.18420 25.57962 19.35620 68.28803
307 50.43330 52.49200 100.0000 35.74815 29.03778 98.81381
308 0.000000 61.83350 41.33740 14.46708 25.07640 17.25431
309 0.000000 64.25320 57.54070 18.18884 28.21740 31.76923
310 17.47840 71.80910 57.94670 22.94273 36.19597 33.36565
311 19.36230 87.59100 74.63900 36.49303 56.61531 57.92531
312 9.212100 17.67800 9.704500 1.541198 2.174758 1.396552
313 8.824900 21.59760 20.92380 2.422878 3.224730 4.013701
314 26.29440 35.44810 23.77800 6.862417 8.903266 5.740155
315 74.01080 50.54220 30.73200 30.36491 27.24437 10.72217
316 91.11210 52.97230 43.91380 44.80282 35.90310 19.55524
317 52.83610 15.64320 34.89810 12.59678 7.535822 10.22828
318 64.94560 19.58060 44.80200 20.14232 11.92026 17.32011
319 64.40990 30.86430 53.22100 22.87676 15.63434 25.11264
320 20.45230 23.67320 12.72470 3.349495 4.150766 2.154240
321 28.34290 24.11780 18.33960 4.995262 5.078046 3.478570
322 36.16760 56.42920 22.89720 15.10133 22.41728 7.368529
323 50.61210 60.78090 29.63480 21.93110 28.52856 10.85031
324 27.28180 37.41180 13.57250 6.899403 9.579939 3.084815
325 39.49140 43.55770 24.86710 11.94715 14.47642 6.865148
326 67.92310 66.47140 89.88700 45.79004 43.16807 79.91607
327 84.37350 68.61440 100.0000 61.74219 52.64710 101.6101
328 28.18190 0.000000 74.91140 12.44693 5.456145 50.59013
329 43.78670 14.88350 80.78600 18.83443 9.589175 59.85660
330 43.84800 29.60320 87.16700 22.71646 14.15036 71.00607
331 23.74190 26.36320 72.26280 12.89478 8.713286 47.43712
332 32.01080 59.58790 81.70670 26.12835 28.79098 64.27970
333 87.02440 68.88960 81.97720 57.24808 51.28092 67.03532
334 74.61830 0.000000 45.37040 24.96356 12.82488 17.67809
335 76.40610 22.46650 57.14060 29.58452 17.15163 28.81969
336 82.95980 36.35120 72.71270 40.31455 25.81460 49.63763
337 100.0000 48.81780 83.86080 61.25521 41.40080 68.10357
338 36.18210 68.60600 51.61680 23.69003 34.28111 26.86814
339 36.34390 68.96510 61.69530 25.92759 35.48710 37.46319
340 50.04000 84.31990 79.42070 43.46067 56.93362 64.78143
341 55.57670 90.38440 91.90440 53.85437 68.02586 87.76814
342 35.60830 23.42020 12.97110 6.367009 5.690492 2.313670
343 45.05510 23.91070 19.01170 9.443798 7.376207 3.830061
344 46.25450 37.08250 50.83380 15.66483 13.64240 22.94658
345 46.58160 46.91630 59.82950 20.07193 19.61478 32.74959
346 50.93920 72.57070 61.09670 32.29229 41.63619 37.49125
347 63.69000 82.27130 86.48380 50.66789 58.62414 76.14058
348 77.85610 88.62780 88.94640 64.20706 71.76017 82.21286
349 15.72600 5.973800 20.53200 1.748106 1.143373 3.563856
350 24.64950 7.272300 26.36290 3.425048 2.047900 5.725302
351 29.49200 17.55100 29.70410 5.261198 3.980622 7.441671
352 40.21530 51.39050 35.35790 15.43349 19.74437 12.45121
353 52.70250 56.83790 38.58560 22.03540 26.13589 15.07927
354 72.52950 58.99920 39.63290 33.47539 33.42297 16.48684
355 85.02970 77.65950 55.95470 53.69101 57.21114 33.39151
356 16.86790 37.51490 43.61850 7.947870 9.853067 16.66274
357 16.42800 37.14250 51.99970 9.184676 10.22181 23.75091
358 15.48590 50.32490 65.31040 15.51658 18.63131 39.59839
359 11.87650 71.97740 69.06460 25.22765 37.21009 47.41215
360 40.01460 84.69110 72.62060 38.39953 54.84077 54.69490
361 85.70530 87.66580 66.51370 62.66512 70.74090 47.89865
362 100.0000 89.23450 66.28920 76.04816 79.42980 48.42888
363 51.52820 0.000000 15.03940 9.956841 5.254323 2.471271
364 55.58320 15.11570 18.70930 12.45150 7.547714 3.623819
365 100.0000 26.35800 22.23690 44.66459 26.43450 6.321209
366 84.26000 17.01410 12.48470 29.61515 16.86481 2.984008
367 89.72450 23.23160 27.41800 35.11901 20.70555 7.802605
368 86.83260 14.23550 32.78540 32.68071 17.97902 9.993130
369 87.52050 13.59890 74.37390 40.99908 21.34937 51.13857
370 89.58030 15.76720 92.34600 48.35068 24.78131 81.35296
371 0.000000 11.86030 22.53700 1.301532 1.304108 4.255827
372 0.000000 14.11290 51.43660 4.878120 3.006143 22.19177
373 0.000000 52.81100 55.11890 13.26259 18.97330 27.96268
374 33.38710 63.29160 73.94970 25.72006 31.08899 53.03428
375 80.40920 69.71280 89.18690 55.13849 50.50491 79.40464
376 85.86430 80.16650 89.31930 64.88160 64.16702 81.54317
377 31.37470 41.74040 43.56440 11.38095 13.19839 17.03000
378 51.42680 47.38880 71.23390 24.77869 21.96307 47.73200
379 71.62600 65.58660 74.97400 42.94698 41.62543 55.44420
380 72.53790 79.97480 91.07000 56.16632 59.33339 84.48223
381 8.339300 42.57360 43.76010 8.574553 12.05164 17.12512
382 17.92970 50.95110 57.22010 14.10851 18.42150 29.92154
383 16.14090 55.72610 89.63620 24.60314 25.41147 77.42456
384 19.16270 75.79860 90.33380 34.36643 44.32102 81.55467
385 14.03630 89.19710 90.18890 41.92858 60.56179 83.73388
386 55.98250 85.77730 58.63640 41.35847 57.85358 36.97884
387 59.89830 87.18180 70.90400 47.25991 61.98883 53.13606
388 79.01260 90.78960 74.73720 62.12460 73.47115 59.69698
389 71.52360 67.58830 11.54140 34.40628 39.65790 6.562944
390 88.25750 72.30710 14.53790 48.50278 50.66074 8.332480
391 89.92710 88.94530 12.30110 59.39685 71.20169 10.93490
392 100.0000 100.0000 100.0000 94.95523 99.99993 108.1940
393 56.63800 27.17160 17.45570 14.30805 10.65741 3.752795
394 66.50660 38.41810 22.29370 21.75530 17.68819 5.988632
395 70.33540 42.99740 40.57600 26.95903 21.96881 15.50207
396 39.49780 13.42110 14.34960 6.428512 4.209143 2.324506
397 39.76710 20.28980 28.90330 8.031819 5.879207 7.259379
398 56.08980 20.40080 100.0000 31.00130 15.95428 96.76634
399 69.29740 58.80480 100.0000 47.43149 38.74382 99.91201
