Dell/U2718Q/U2718Q #1 2020-05-26 13-17 0.3127x 0.329y sRGB F-S XYZLUT+MTX/U2718Q #1 2020-05-26 13-17 0.3127x 0.329y sRGB F-S XYZLUT+MTX.ti3
CTI3   

DESCRIPTOR "Argyll Calibration Target chart information 3"
ORIGINATOR "Argyll dispread"
CREATED "Tue May 26 13:21:48 2020"
DEVICE_CLASS "DISPLAY"
SINGLE_DIM_STEPS "21"
COMP_GREY_STEPS "61"
DARK_REGION_EMPHASIS "1.6"
COLOR_REP "RGB_XYZ"
TARGET_INSTRUMENT "X-Rite i1 DisplayPro, ColorMunki Display"
DISPLAY_TYPE_REFRESH "NO"
DISPLAY_TYPE_BASE_ID "1"
INSTRUMENT_TYPE_SPECTRAL "NO"
LUMINANCE_XYZ_CDM2 "276.065723 290.584811 314.521394"
NORMALIZED_TO_Y_100 "YES"
VIDEO_LUT_CALIBRATION_POSSIBLE "YES"

BEGIN_ARGYLL_COLPROF_ARGS
-v -qh -aX -bn -C "No copyright. Created with DisplayCAL 3.8.9.3 and ArgyllCMS 2.1.2" -M "DELL U2718Q" -A "Dell, Inc."
END_ARGYLL_COLPROF_ARGS

OBSERVER "1931_2"
USE_BLACK_POINT_COMPENSATION "NO"
BLACK_POINT_CORRECTION "0.0"
HIRES_B2A "YES"
HIRES_B2A_SIZE "-1"
SMOOTH_B2A "YES"
PATCH_SEQUENCE "OPTIMIZE_DISPLAY_RESPONSE_DELAY"

NUMBER_OF_FIELDS 7
BEGIN_DATA_FORMAT
SAMPLE_ID RGB_R RGB_G RGB_B XYZ_X XYZ_Y XYZ_Z
END_DATA_FORMAT

NUMBER_OF_SETS 588
BEGIN_DATA
1 100.0000 100.0000 100.0000 95.00349 100.0000 108.2374
2 1.960800 1.960800 1.960800 0.240737 0.246146 0.340459
3 3.921600 3.921600 3.921600 0.369004 0.384778 0.476796
4 5.882400 5.882400 5.882400 0.538017 0.556614 0.667033
5 9.803900 9.803900 9.803900 1.001822 1.029644 1.226430
6 13.72600 13.72600 13.72600 1.633255 1.714895 1.998006
7 17.64700 17.64700 17.64700 2.498500 2.623822 2.994820
8 21.56900 21.56900 21.56900 3.650593 3.870993 4.235342
9 25.49000 25.49000 25.49000 5.146373 5.377392 5.871683
10 29.41200 29.41200 29.41200 6.756218 7.140070 7.766414
11 33.33300 33.33300 33.33300 8.828481 9.269840 10.04157
12 37.25500 37.25500 37.25500 10.87611 11.38412 12.10679
13 41.17600 41.17600 41.17600 13.40091 14.07166 15.29660
14 45.09800 45.09800 45.09800 16.36965 17.21383 18.70350
15 49.02000 49.02000 49.02000 19.58788 20.54415 22.30588
16 52.94100 52.94100 52.94100 22.87420 24.14235 26.43471
17 56.86300 56.86300 56.86300 26.80140 28.31217 30.49798
18 60.78400 60.78400 60.78400 31.31141 32.94514 35.67149
19 64.70600 64.70600 64.70600 35.66779 37.48383 41.04189
20 68.62700 68.62700 68.62700 40.92815 42.92162 47.06733
21 72.54900 72.54900 72.54900 46.34401 48.69408 53.16138
22 76.47100 76.47100 76.47100 51.91432 54.64499 59.38683
23 80.39200 80.39200 80.39200 58.17558 61.23196 66.39689
24 84.31400 84.31400 84.31400 64.35175 67.71476 73.21038
25 88.23500 88.23500 88.23500 71.41880 75.14437 81.13754
26 92.15700 92.15700 92.15700 78.14296 82.75540 89.53061
27 96.07800 96.07800 96.07800 86.10078 90.88488 98.69803
28 0.000000 35.66440 19.16970 4.353628 7.725940 4.492116
29 0.000000 35.41510 33.12130 5.281435 7.943029 9.845626
30 0.000000 60.21590 72.48900 20.25744 26.53587 50.72388
31 0.000000 74.01180 80.27330 28.82947 40.59515 63.84386
32 77.72720 77.44710 0.000000 43.47264 52.06643 6.808161
33 100.0000 88.07020 21.53500 69.04541 75.40042 14.89354
34 76.64540 0.000000 19.68840 23.68355 12.43952 4.476650
35 86.32490 0.000000 39.35890 32.45256 16.84821 13.74993
36 86.99100 39.31470 64.76230 41.84721 28.10804 38.90950
37 100.0000 61.23170 79.72490 64.81657 50.43342 62.28157
38 10.20410 0.000000 0.000000 0.561996 0.365019 0.267471
39 13.15790 0.000000 0.000000 0.751319 0.462839 0.269537
40 16.30430 0.000000 0.000000 1.066580 0.625710 0.274474
41 19.66290 0.000000 0.000000 1.412395 0.806437 0.283576
42 23.25580 0.000000 0.000000 1.931464 1.078731 0.300125
43 27.10840 0.000000 0.000000 2.586864 1.423593 0.317941
44 31.25000 0.000000 0.000000 3.485642 1.893281 0.347488
45 35.71430 0.000000 0.000000 4.454705 2.404533 0.384167
46 40.54050 0.000000 0.000000 5.954726 3.191487 0.434258
47 45.77470 0.000000 0.000000 7.699408 4.103592 0.481172
48 51.47060 0.000000 0.000000 9.744471 5.174359 0.550560
49 60.95320 0.000000 0.000000 13.93733 7.377864 0.695564
50 64.51610 0.000000 0.000000 15.89789 8.408703 0.768531
51 72.03390 0.000000 0.000000 20.17036 10.65675 0.917364
52 80.35710 0.000000 0.000000 25.66615 13.55610 1.147518
53 89.62260 0.000000 0.000000 32.75571 17.30755 1.426996
54 100.0000 29.24320 40.11290 47.60059 28.83889 16.00877
55 100.0000 29.04640 82.46560 56.77780 32.33738 64.78189
56 0.000000 4.807700 0.000000 0.239791 0.354994 0.277236
57 0.000000 7.425700 0.000000 0.335649 0.544898 0.306657
58 0.000000 10.20410 0.000000 0.472187 0.808739 0.340821
59 0.000000 13.15790 0.000000 0.660687 1.189134 0.390855
60 0.000000 16.30430 0.000000 0.924626 1.735204 0.449804
61 0.000000 19.66290 0.000000 1.231905 2.368704 0.516073
62 23.43430 27.10250 0.000000 3.913356 5.189626 0.801531
63 2.336400 0.000000 0.000000 0.178322 0.143220 0.207475
64 37.41950 28.17970 0.000000 7.157301 7.166649 0.978687
65 71.76240 58.40950 0.000000 30.42309 31.67545 3.828886
66 75.63180 73.43040 44.20940 43.07719 48.49436 22.49054
67 100.0000 100.0000 100.0000 95.01440 100.0257 108.2376
68 0.000000 100.0000 29.06220 36.35168 71.59344 17.81483
69 0.000000 100.0000 49.42020 38.91173 72.63527 31.52744
70 31.11570 100.0000 60.63860 44.36635 75.22681 42.60576
71 88.92360 100.0000 92.61510 82.06114 93.69689 91.71751
72 52.02090 16.07570 26.01800 11.87995 7.417432 5.956994
73 51.97330 27.22840 55.68850 17.01199 11.52359 27.17305
74 66.25240 32.48880 68.56750 27.70740 18.27363 43.66939
75 0.000000 0.000000 2.336400 0.140498 0.121071 0.343612
76 0.000000 0.000000 4.807700 0.169203 0.133067 0.493936
77 0.000000 0.000000 7.425700 0.216963 0.152996 0.739974
78 0.000000 0.000000 10.20410 0.285830 0.181326 1.102080
79 0.000000 0.000000 13.15790 0.396500 0.227219 1.680357
80 0.000000 0.000000 16.30430 0.519402 0.277904 2.317384
81 0.000000 0.000000 19.66290 0.671720 0.340724 3.116896
82 0.000000 0.000000 23.25580 0.928352 0.446746 4.458999
83 0.000000 0.000000 27.10840 1.202574 0.559358 5.884171
84 0.000000 0.000000 31.25000 1.540540 0.698382 7.656264
85 0.000000 0.000000 35.71430 2.015317 0.893006 10.13460
86 0.000000 0.000000 40.54050 2.587169 1.121264 13.09221
87 0.000000 0.000000 45.77470 3.369158 1.447865 17.20601
88 0.000000 0.000000 51.47060 4.257755 1.810834 21.84201
89 0.000000 0.000000 57.69230 5.370129 2.267227 27.65337
90 0.000000 0.000000 64.51610 7.023190 2.944042 36.27242
91 0.000000 0.000000 72.03390 8.960200 3.736226 46.39329
92 0.000000 0.000000 80.35710 11.36534 4.731727 58.99566
93 0.000000 100.0000 85.02720 47.27186 76.05920 75.92992
94 32.42370 100.0000 90.01860 52.93499 78.77075 86.15685
95 0.764500 0.764500 0.764500 0.176926 0.176460 0.277479
96 1.543200 1.543200 1.543200 0.215332 0.211873 0.313280
97 2.336400 2.336400 2.336400 0.258332 0.264742 0.360472
98 3.144700 3.144700 3.144700 0.311069 0.312973 0.419843
99 3.968300 3.968300 3.968300 0.368456 0.384141 0.477506
100 4.807700 4.807700 4.807700 0.425780 0.445676 0.547356
101 5.663400 5.663400 5.663400 0.507368 0.517056 0.655284
102 6.535900 6.535900 6.535900 0.608728 0.628274 0.751245
103 7.425700 7.425700 7.425700 0.693219 0.718780 0.858466
104 8.333300 8.333300 8.333300 0.795796 0.815327 0.958977
105 9.259300 9.259300 9.259300 0.948634 0.975145 1.153378
106 10.20410 10.20410 10.20410 1.065248 1.096291 1.309142
107 11.16840 11.16840 11.16840 1.178242 1.221632 1.426005
108 12.15280 12.15280 12.15280 1.382308 1.454075 1.715245
109 13.15790 13.15790 13.15790 1.559139 1.622656 1.993653
110 14.18440 14.18440 14.18440 1.719222 1.797262 2.106491
111 15.23300 15.23300 15.23300 1.947411 2.066331 2.349016
112 16.30430 16.30430 16.30430 2.262942 2.383105 2.703005
113 17.39930 17.39930 17.39930 2.417338 2.529468 2.845716
114 18.51850 18.51850 18.51850 2.748625 2.879898 3.255669
115 19.66290 19.66290 19.66290 3.062301 3.258500 3.555466
116 20.83330 20.83330 20.83330 3.455026 3.605535 4.031406
117 22.03070 22.03070 22.03070 3.830276 4.033512 4.434864
118 23.25580 23.25580 23.25580 4.225700 4.430516 5.048887
119 24.50980 24.50980 24.50980 4.567170 4.796942 5.288396
120 25.79360 25.79360 25.79360 5.221254 5.541232 5.956234
121 27.10840 27.10840 27.10840 5.667833 5.985864 6.545783
122 28.45530 28.45530 28.45530 6.336635 6.695439 7.271334
123 29.83540 29.83540 29.83540 7.016346 7.346090 8.095928
124 31.25000 31.25000 31.25000 7.629624 8.034662 8.650293
125 32.70040 32.70040 32.70040 8.367148 8.773946 9.448986
126 34.18800 34.18800 34.18800 8.993289 9.441606 10.35396
127 35.71430 35.71430 35.71430 9.887347 10.46498 11.32810
128 37.28070 37.28070 37.28070 10.88112 11.38867 12.11479
129 41.70490 53.41040 48.88100 18.26009 21.82947 22.74904
130 63.01980 54.43080 70.87300 32.33949 29.27285 47.83824
131 0.000000 0.000000 0.000000 0.114257 0.110182 0.206916
132 0.000000 2.336400 0.000000 0.170963 0.221659 0.238040
133 0.000000 45.77470 0.000000 6.236504 12.65430 1.829063
134 0.000000 53.91680 22.98320 9.466490 17.73462 7.271338
135 26.85180 76.23990 48.73350 24.92193 40.66117 25.77584
136 61.37830 78.33540 73.78640 43.54713 51.77880 55.17373
137 42.23740 42.23740 42.23740 14.27766 15.03851 16.41733
138 43.98150 43.98150 43.98150 15.42561 16.14071 17.33391
139 57.69230 57.69230 57.69230 27.61513 29.15564 31.55823
140 59.89580 59.89580 59.89580 30.57310 32.11707 35.02901
141 62.16930 62.16930 62.16930 33.34501 35.01512 38.10917
142 64.51610 64.51610 64.51610 35.70179 37.48468 41.05768
143 66.93990 66.93990 66.93990 38.76574 40.69253 44.66178
144 69.44440 69.44440 69.44440 41.97634 44.06396 48.26640
145 72.03390 72.03390 72.03390 45.75247 48.08638 52.39651
146 74.71260 74.71260 74.71260 49.49201 52.35870 56.46598
147 77.48540 77.48540 77.48540 53.84647 56.66529 61.18063
148 80.35710 80.35710 80.35710 58.15710 61.21895 66.42331
149 83.33330 83.33330 83.33330 62.31061 65.72746 70.88283
150 86.41970 86.41970 86.41970 67.83859 71.45762 76.97688
151 89.62260 89.62260 89.62260 73.85137 77.80563 84.51272
152 92.94870 92.94870 92.94870 79.94886 84.31779 91.13441
153 96.40520 96.40520 96.40520 87.35332 92.00676 99.65252
154 17.06250 0.000000 26.68250 2.185025 1.070523 5.723175
155 18.48030 14.73750 25.90510 2.909499 2.440878 5.610196
156 42.08510 28.69030 28.80360 9.670220 8.427691 7.354662
157 70.19830 35.73920 44.02410 25.60790 18.72704 17.28704
158 100.0000 51.99880 52.87840 55.08623 41.01128 27.74023
159 42.68810 19.00850 0.000000 7.554643 5.617985 0.763267
160 60.16180 25.71290 0.000000 15.59090 11.16525 1.220212
161 62.56660 58.55190 35.44540 27.40234 29.92112 14.17763
162 34.31870 100.0000 0.000000 39.47327 73.34875 10.91018
163 58.07780 100.0000 0.000000 47.73031 77.59820 11.53217
164 0.000000 0.000000 89.62260 14.42305 5.971750 74.92762
165 0.000000 0.000000 100.0000 18.52524 7.614692 96.34408
166 82.85680 80.65730 100.0000 66.80926 65.31091 103.8346
167 0.000000 0.000000 0.000000 0.114285 0.110266 0.207344
168 0.000000 24.14090 100.0000 20.28729 10.89703 97.81111
169 0.000000 38.49620 100.0000 22.83200 16.18867 98.31891
170 26.32130 49.12500 100.0000 27.50786 22.85263 99.07879
171 33.08180 62.01710 100.0000 34.01771 33.66799 100.7306
172 0.000000 24.83120 65.31010 9.008190 6.503837 38.32931
173 0.000000 35.39010 82.15780 15.46366 12.11367 63.17729
174 34.92230 35.47640 100.0000 26.21023 16.90480 98.93329
175 60.14610 68.56030 100.0000 46.77376 44.80140 101.4420
176 100.0000 87.50860 100.0000 85.94702 81.50640 105.3183
177 15.92040 9.022000 0.000000 1.285035 1.146203 0.370435
178 27.01230 15.25180 0.000000 3.270523 2.818935 0.522604
179 31.74690 75.25220 0.000000 21.95836 39.21304 5.519365
180 55.71570 78.36890 0.000000 31.36357 46.86158 6.384301
181 13.75000 0.000000 11.65910 0.978622 0.534981 1.340016
182 34.26700 0.000000 33.63250 5.790355 2.896919 9.382356
183 36.10270 56.02690 44.02230 16.83863 22.69330 18.66502
184 50.57790 71.31680 45.81780 28.95460 39.60942 22.94964
185 100.0000 76.41780 86.89890 74.48673 66.27850 77.04978
186 57.69230 0.000000 0.000000 12.24735 6.494422 0.651954
187 69.19380 23.08030 12.05080 20.22117 13.04833 2.994447
188 81.81390 41.61160 12.78300 32.29057 24.60352 5.010680
189 100.0000 79.15700 0.000000 62.78503 64.14625 8.153539
190 100.0000 100.0000 0.000000 76.68910 92.55320 12.90025
191 31.95540 56.55150 0.000000 13.08792 21.33167 2.873225
192 53.44880 59.70990 0.000000 21.07168 27.61437 3.528387
193 100.0000 60.80780 41.81680 56.53756 46.77863 19.96680
194 100.0000 71.46910 60.10680 64.61616 58.07461 38.14918
195 100.0000 100.0000 63.18580 83.34451 95.29012 47.57885
196 78.93930 27.24920 0.000000 27.00166 17.44036 1.710385
197 100.0000 47.84730 0.000000 49.29479 36.51772 4.062608
198 100.0000 64.16110 0.000000 55.16146 48.58269 5.682727
199 33.86590 33.06940 21.06520 7.838446 8.699181 5.097718
200 39.19420 34.61830 29.13270 10.01862 10.16420 7.867535
201 38.88890 38.88890 38.88890 11.96835 12.55579 13.59868
202 52.12320 86.09430 41.90650 37.41017 56.62123 22.64836
203 57.86850 100.0000 65.00440 54.59252 80.40208 48.42243
204 100.0000 100.0000 85.78340 89.59439 97.82830 80.22651
205 27.29840 49.75180 26.90400 10.98415 16.63172 8.343997
206 100.0000 75.00440 29.37660 61.93068 60.03895 14.94044
207 100.0000 75.57700 48.57140 64.65761 61.58544 27.93956
208 0.000000 0.000000 0.000000 0.114294 0.110370 0.207307
209 0.000000 13.58970 36.16900 2.671486 2.074202 10.81775
210 37.02480 28.35410 37.99610 9.275889 8.044599 12.29498
211 0.000000 89.62260 0.000000 27.09501 55.07972 8.098105
212 0.000000 100.0000 0.000000 35.01971 71.02544 10.74348
213 0.000000 100.0000 100.0000 53.00182 78.31883 106.1610
214 0.000000 24.83210 38.98490 4.100977 4.499533 12.76798
215 0.000000 28.07850 53.91230 7.001815 6.600072 25.21597
216 31.27450 34.18790 53.77760 11.33864 10.37535 25.60549
217 36.15970 58.54240 58.06670 20.20772 25.60094 31.74259
218 39.10960 83.27980 100.0000 46.43462 56.57353 103.2800
219 62.80500 91.76970 100.0000 61.33388 72.70947 104.8929
220 79.31710 100.0000 100.0000 77.69651 91.06731 107.0440
221 31.81460 0.000000 12.63880 3.853858 2.050777 1.709272
222 47.70350 0.000000 27.26770 9.387205 4.849629 6.456818
223 46.79880 0.000000 49.35400 11.59000 5.677130 20.81382
224 51.47060 51.47060 51.47060 21.77835 22.92949 24.74116
225 53.48260 53.48260 53.48260 23.30911 24.53410 26.96835
226 55.55560 55.55560 55.55560 25.57994 27.02625 29.46074
227 28.26180 21.87020 57.52540 9.395673 6.438693 28.57751
228 41.37790 32.29750 56.82920 14.19268 11.25676 28.32350
229 41.41660 0.000000 100.0000 24.53470 10.70579 97.61213
230 72.44870 0.000000 100.0000 38.93019 18.23866 97.84555
231 0.000000 27.10840 0.000000 2.163370 4.286786 0.742766
232 0.000000 31.25000 0.000000 2.864823 5.716501 0.934070
233 0.000000 35.71430 0.000000 3.702606 7.464479 1.167787
234 0.000000 40.54050 0.000000 4.716893 9.493157 1.432151
235 47.61910 47.61910 47.61910 18.32801 19.23929 21.00405
236 49.51690 49.51690 49.51690 19.82628 20.83881 22.83925
237 68.74580 70.58820 52.67970 38.55548 43.85676 28.76028
238 89.15430 70.61370 54.38710 53.13009 51.35421 31.27940
239 61.59040 100.0000 28.03170 50.63909 78.98935 18.17841
240 83.45150 100.0000 27.58620 64.10705 85.93997 18.61243
241 23.60400 39.22440 0.000000 6.316345 10.03397 1.436944
242 57.11870 39.13990 0.000000 16.54465 15.49837 1.864182
243 60.02880 39.43460 31.16910 19.60696 17.07350 9.737848
244 62.09410 39.80780 100.0000 37.94847 24.67130 99.34208
245 81.57160 49.60730 100.0000 51.94288 35.89340 100.2322
246 100.0000 72.67020 100.0000 77.67892 64.39338 103.2606
247 32.42810 43.49860 55.94260 14.30537 15.36412 27.99839
248 42.76970 57.63050 70.79150 24.97198 27.27520 47.91735
249 54.35800 100.0000 81.43510 57.06869 81.21675 70.96166
250 0.000000 23.25580 0.000000 1.624276 3.177475 0.621234
251 15.74180 27.91230 7.520600 3.203687 4.991058 1.450560
252 16.69510 29.23430 39.22260 5.814274 6.554112 12.96575
253 40.54050 40.54050 40.54050 13.01011 13.55050 14.84208
254 45.77470 45.77470 45.77470 17.18520 18.03838 19.69333
255 68.91380 48.50290 51.16540 29.56987 25.73787 24.93079
256 100.0000 70.49100 72.05660 67.16048 58.46044 53.35523
257 100.0000 0.000000 0.000000 42.41528 22.40538 1.852149
258 100.0000 0.000000 21.50800 43.30055 22.76925 6.459697
259 100.0000 0.000000 37.26040 44.54980 23.26914 13.14959
260 100.0000 0.000000 52.37300 46.83826 24.20332 25.16411
261 100.0000 28.92290 53.47340 49.56473 29.53024 26.71615
262 100.0000 32.50540 67.66790 53.40120 32.02724 43.96534
263 100.0000 29.20260 0.000000 44.96018 27.65033 2.701969
264 100.0000 44.19800 19.41910 49.09291 34.84653 7.823579
265 100.0000 43.98350 36.16260 50.24855 35.10038 14.43846
266 100.0000 100.0000 35.31040 78.76455 93.41101 23.68049
267 77.26620 100.0000 63.26640 65.07530 85.84354 46.65311
268 88.94980 100.0000 76.00880 76.96578 91.63939 64.35777
269 0.000000 51.47060 0.000000 7.841887 15.93035 2.280714
270 0.000000 57.69230 0.000000 10.05288 20.43954 2.894124
271 0.000000 64.51610 0.000000 13.04035 26.50246 3.716253
272 0.000000 77.25550 43.16660 22.23929 40.38457 21.29954
273 34.86680 82.99720 42.69120 30.12235 49.82915 22.51489
274 37.18250 100.0000 45.73160 43.43900 75.01801 29.20919
275 62.13030 100.0000 47.62940 53.33837 80.11292 30.90923
276 0.000000 72.03390 0.000000 16.66611 33.93044 4.837491
277 0.000000 80.35710 0.000000 21.11526 42.94970 6.192338
278 0.000000 83.74570 77.94750 33.58777 51.49201 61.53434
279 29.82310 90.99150 100.0000 49.14883 65.64864 104.6336
280 0.000000 39.75900 48.26310 8.302601 10.85671 20.75492
281 0.000000 41.92570 60.86420 11.22598 12.93821 33.36762
282 0.000000 52.49940 100.0000 26.74026 24.35738 99.05041
283 0.000000 65.11390 100.0000 31.69655 34.45843 100.6486
284 100.0000 0.000000 65.80480 49.66624 25.32991 39.98586
285 100.0000 0.000000 82.46290 54.26790 27.22443 64.08035
286 100.0000 0.000000 100.0000 60.91986 29.85978 98.94713
287 100.0000 32.21010 100.0000 64.01742 36.20529 99.72580
288 100.0000 54.74340 100.0000 69.78462 48.20161 100.8856
289 0.000000 100.0000 67.72110 42.59913 74.13298 51.31277
290 31.81150 100.0000 75.11790 48.11456 76.73570 61.67094
291 47.76460 100.0000 100.0000 61.09082 82.50145 106.2384
292 4.807700 0.000000 0.000000 0.249746 0.180572 0.210905
293 7.425700 0.000000 0.000000 0.382444 0.260322 0.236586
294 0.000000 11.74650 13.00910 0.835435 1.127382 1.799618
295 0.000000 22.94710 16.40900 2.037222 3.349523 2.852399
296 0.000000 24.31020 28.82340 2.968541 3.942391 7.058341
297 0.000000 56.75570 80.63490 20.94597 24.39306 61.66475
298 0.000000 76.60450 100.0000 37.17129 45.78980 101.9979
299 0.000000 87.07460 100.0000 43.54648 58.76971 104.0805
300 24.05950 0.000000 48.71200 5.682746 2.585948 19.87120
301 40.37640 0.000000 62.94810 12.40245 5.784281 35.38766
302 57.71430 0.000000 43.23270 15.14822 7.657534 15.82218
303 76.28510 0.000000 61.15330 29.22012 14.67177 33.44855
304 78.82320 0.000000 83.42800 36.86067 17.96568 65.04122
305 37.61170 17.26680 66.22020 13.18878 7.370973 39.26096
306 47.04870 41.35750 85.18420 25.18966 19.10642 67.26632
307 50.43330 52.49200 100.0000 36.02576 29.15228 99.90459
308 0.000000 61.83350 41.33740 14.58169 25.33791 17.50136
309 0.000000 64.25320 57.54070 18.24239 28.41121 31.88527
310 17.47840 71.80910 57.94670 23.15963 36.40639 33.71024
311 19.36230 87.59100 74.63900 36.22722 56.41738 56.93325
312 9.212100 17.67800 9.704500 1.522048 2.156358 1.409498
313 8.824900 21.59760 20.92380 2.450278 3.259809 4.080400
314 26.29440 35.44810 23.77800 6.792743 8.813028 5.801791
315 74.01080 50.54220 30.73200 30.42341 27.27347 11.09268
316 91.11210 52.97230 43.91380 45.25246 36.08590 19.95973
317 52.83610 15.64320 34.89810 12.76578 7.714413 10.56605
318 64.94560 19.58060 44.80200 20.43932 12.28125 17.19238
319 64.40990 30.86430 53.22100 22.88271 15.63431 25.32110
320 20.45230 23.67320 12.72470 3.396927 4.143597 2.192142
321 28.34290 24.11780 18.33960 4.998005 5.063283 3.602822
322 36.16760 56.42920 22.89720 14.95480 22.21815 7.782266
323 50.61210 60.78090 29.63480 22.12757 28.84944 11.27200
324 27.28180 37.41180 13.57250 6.843318 9.500698 3.175852
325 39.49140 43.55770 24.86710 12.13792 14.65427 7.093293
326 67.92310 66.47140 89.88700 45.85222 43.38718 80.37313
327 84.37350 68.61440 100.0000 61.64286 52.81135 101.7416
328 28.18190 0.000000 74.91140 12.21718 5.355824 50.49096
329 43.78670 14.88350 80.78600 18.70702 9.561098 59.35693
330 43.84800 29.60320 87.16700 22.30641 13.89930 70.03517
331 23.74190 26.36320 72.26280 12.69657 8.677147 46.87697
332 32.01080 59.58790 81.70670 25.81708 28.62751 63.55804
333 87.02440 68.88960 81.97720 57.09847 51.50345 66.73406
334 74.61830 0.000000 45.37040 24.82203 12.71675 17.98288
335 76.40610 22.46650 57.14060 29.80737 17.42745 28.97319
336 82.95980 36.35120 72.71270 40.33033 25.99149 49.88453
337 100.0000 48.81780 83.86080 61.75777 41.89325 68.33256
338 36.18210 68.60600 51.61680 23.71066 34.41981 27.12831
339 36.34390 68.96510 61.69530 25.98812 35.70731 37.51391
340 50.04000 84.31990 79.42070 43.36572 56.84764 64.35244
341 55.57670 90.38440 91.90440 53.20449 67.28120 86.87529
342 35.60830 23.42020 12.97110 6.289966 5.669988 2.429971
343 45.05510 23.91070 19.01170 9.531450 7.429163 3.975138
344 46.25450 37.08250 50.83380 15.73327 13.72208 23.30547
345 46.58160 46.91630 59.82950 20.20314 19.73840 33.27918
346 50.93920 72.57070 61.09670 32.42778 41.89692 37.65022
347 63.69000 82.27130 86.48380 50.42499 58.43910 75.84723
348 77.85610 88.62780 88.94640 64.01872 71.40529 81.80871
349 15.72600 5.973800 20.53200 1.723490 1.114746 3.545471
350 24.64950 7.272300 26.36290 3.419943 2.034132 5.741573
351 29.49200 17.55100 29.70410 5.287268 3.996731 7.715879
352 40.21530 51.39050 35.35790 15.60121 19.75539 12.86710
353 52.70250 56.83790 38.58560 22.10849 26.20924 15.63505
354 72.52950 58.99920 39.63290 33.63006 33.31065 17.21319
355 85.02970 77.65950 55.95470 53.63603 57.11163 33.46124
356 16.86790 37.51490 43.61850 8.010307 10.00291 16.75557
357 16.42800 37.14250 51.99970 9.264804 10.32944 24.06681
358 15.48590 50.32490 65.31040 15.44683 18.51751 40.06773
359 11.87650 71.97740 69.06460 25.32835 37.55868 47.43068
360 40.01460 84.69110 72.62060 38.35545 54.81787 54.38858
361 85.70530 87.66580 66.51370 63.05119 71.07102 48.46328
362 100.0000 89.23450 66.28920 76.28869 79.70630 48.60213
363 51.52820 0.000000 15.03940 10.08344 5.303803 2.478226
364 55.58320 15.11570 18.70930 12.66040 7.795118 4.000426
365 100.0000 26.35800 22.23690 45.46482 27.16884 7.441289
366 84.26000 17.01410 12.48470 29.86209 17.24416 3.541880
367 89.72450 23.23160 27.41800 35.71542 21.35122 8.407666
368 86.83260 14.23550 32.78540 32.86190 18.37650 10.65027
369 87.52050 13.59890 74.37390 41.06884 21.66026 51.76250
370 89.58030 15.76720 92.34600 48.96266 25.36936 82.24645
371 0.000000 11.86030 22.53700 1.308155 1.323728 4.276226
372 0.000000 14.11290 51.43660 4.928544 3.050130 22.44118
373 0.000000 52.81100 55.11890 13.16546 18.81618 28.07382
374 33.38710 63.29160 73.94970 25.82962 31.27608 53.46516
375 80.40920 69.71280 89.18690 55.05591 50.72190 79.17840
376 85.86430 80.16650 89.31930 64.69550 63.94554 81.54221
377 31.37470 41.74040 43.56440 11.36122 13.18338 17.21557
378 51.42680 47.38880 71.23390 24.80409 21.93603 47.37240
379 71.62600 65.58660 74.97400 42.81967 41.52484 54.81635
380 72.53790 79.97480 91.07000 55.87780 59.09515 84.14621
381 8.339300 42.57360 43.76010 8.679161 12.29977 17.17634
382 17.92970 50.95110 57.22010 14.01856 18.41076 29.75440
383 16.14090 55.72610 89.63620 24.47766 25.25903 77.77938
384 19.16270 75.79860 90.33380 34.11226 43.96472 81.67421
385 14.03630 89.19710 90.18890 41.56806 60.17721 83.27142
386 55.98250 85.77730 58.63640 41.58552 58.09370 37.65152
387 59.89830 87.18180 70.90400 47.09173 61.73306 52.67073
388 79.01260 90.78960 74.73720 61.96273 73.24152 59.76540
389 71.52360 67.58830 11.54140 34.75100 39.99005 7.382833
390 88.25750 72.30710 14.53790 49.12436 50.93988 9.520101
391 89.92710 88.94530 12.30110 59.78137 71.37788 12.46245
