Dell/U2718Q/U2718Q #1 2020-05-26 13-17 0.3127x 0.329y sRGB F-S XYZLUT+MTX/U2718Q #1 2020-05-26 13-17 0.3127x 0.329y sRGB F-S XYZLUT+MTX.cal
CAL    

DESCRIPTOR "Argyll Device Calibration Curves"
ORIGINATOR "Argyll dispcal"
CREATED "Tue May 26 13:21:00 2020"
DEVICE_CLASS "DISPLAY"
COLOR_REP "RGB"
VIDEO_LUT_CALIBRATION_POSSIBLE "YES"
TV_OUTPUT_ENCODING "NO"
DEVICE_TYPE "n"
TARGET_WHITE_XYZ "276.255282 290.655542 316.540670"
TARGET_GAMMA "sRGB"
DEGREE_OF_BLACK_OUTPUT_OFFSET "1.0"
BLACK_POINT_CORRECTION "0.0"
BLACK_NEUTRAL_BLEND_RATE "4.0"
BLACK_POINT_HACK "YES"
QUALITY "low"

BEGIN_ARGYLL_DISPCAL_ARGS
-v2 -d1 -c1 -yn -P0.475468687675,0.649334945586,2.11251980983 -F -ql -m -w0.3127,0.329 -gs -f1.0 -k0 -A4.0 -b
END_ARGYLL_DISPCAL_ARGS


NUMBER_OF_FIELDS 4
BEGIN_DATA_FORMAT
RGB_I RGB_R RGB_G RGB_B
END_DATA_FORMAT

NUMBER_OF_SETS 256
BEGIN_DATA
0.00000000 0.00000000 0.00000000 0.00000000
0.00392157 0.00497882 0.00484541 0.00435822
0.00784314 0.00993753 0.00966734 0.00869088
0.01176470 0.01487630 0.01446600 0.01299820
0.01568630 0.01979510 0.01924150 0.01728040
0.01960780 0.02469430 0.02399400 0.02153770
0.02352940 0.02957380 0.02872370 0.02577040
0.02745100 0.03443410 0.03343110 0.02997850
0.03137250 0.03927950 0.03811560 0.03416290
0.03529410 0.04409590 0.04276370 0.03831930
0.03921570 0.04887820 0.04736790 0.04245400
0.04313730 0.05364310 0.05193530 0.04656110
0.04705880 0.05839600 0.05645280 0.05062720
0.05098040 0.06310730 0.06089500 0.05464470
0.05490200 0.06774700 0.06524600 0.05859140
0.05882350 0.07229370 0.06950520 0.06245690
0.06274510 0.07675570 0.07368040 0.06625250
0.06666670 0.08114910 0.07777850 0.06999440
0.07058820 0.08547410 0.08180480 0.07368880
0.07450980 0.08974180 0.08576950 0.07733370
0.07843140 0.09395570 0.08967900 0.08093250
0.08235290 0.09811430 0.09353690 0.08448610
0.08627450 0.10221500 0.09734110 0.08800010
0.09019610 0.10625300 0.10109400 0.09148470
0.09411760 0.11023000 0.10480300 0.09494120
0.09803920 0.11414600 0.10847300 0.09836900
0.10196100 0.11800400 0.11210900 0.10176700
0.10588200 0.12181200 0.11571500 0.10514400
0.10980400 0.12557900 0.11929500 0.10850700
0.11372500 0.12931600 0.12285400 0.11187000
0.11764700 0.13302600 0.12639300 0.11524400
0.12156900 0.13670900 0.12990800 0.11864100
0.12549000 0.14036900 0.13339700 0.12205900
0.12941200 0.14401100 0.13686600 0.12549000
0.13333300 0.14765300 0.14033100 0.12893100
0.13725500 0.15130000 0.14379700 0.13237800
0.14117600 0.15496300 0.14726700 0.13582700
0.14509800 0.15865000 0.15074900 0.13927900
0.14902000 0.16235900 0.15423800 0.14273000
0.15294100 0.16608500 0.15773400 0.14618100
0.15686300 0.16983200 0.16123800 0.14963000
0.16078400 0.17359600 0.16474500 0.15307400
0.16470600 0.17737900 0.16825600 0.15650700
0.16862700 0.18117200 0.17176500 0.15992700
0.17254900 0.18496100 0.17526500 0.16332100
0.17647100 0.18873400 0.17875100 0.16668100
0.18039200 0.19247500 0.18221800 0.17000900
0.18431400 0.19617500 0.18565500 0.17329700
0.18823500 0.19983100 0.18905900 0.17655100
0.19215700 0.20344600 0.19243200 0.17977500
0.19607800 0.20701400 0.19577200 0.18297300
0.20000000 0.21053600 0.19908000 0.18615800
0.20392200 0.21400900 0.20235700 0.18933000
0.20784300 0.21743900 0.20560900 0.19249100
0.21176500 0.22083000 0.20883900 0.19564400
0.21568600 0.22418600 0.21204600 0.19879700
0.21960800 0.22752500 0.21523800 0.20195200
0.22352900 0.23085500 0.21841900 0.20511300
0.22745100 0.23417900 0.22159100 0.20827800
0.23137300 0.23750400 0.22475500 0.21144800
0.23529400 0.24084100 0.22792100 0.21462900
0.23921600 0.24418900 0.23109300 0.21782400
0.24313700 0.24754900 0.23427200 0.22102500
0.24705900 0.25093300 0.23746400 0.22423300
0.25098000 0.25436200 0.24068600 0.22745900
0.25490200 0.25784400 0.24394500 0.23070600
0.25882400 0.26137600 0.24724000 0.23397500
0.26274500 0.26495700 0.25057300 0.23726400
0.26666700 0.26858700 0.25394000 0.24057000
0.27058800 0.27226300 0.25733600 0.24388700
0.27451000 0.27598500 0.26075600 0.24721100
0.27843100 0.27974900 0.26420300 0.25054500
0.28235300 0.28354500 0.26767500 0.25388600
0.28627500 0.28737000 0.27116300 0.25723300
0.29019600 0.29120700 0.27465900 0.26058500
0.29411800 0.29505100 0.27815200 0.26394200
0.29803900 0.29889100 0.28163900 0.26729900
0.30196100 0.30272800 0.28511300 0.27064700
0.30588200 0.30655700 0.28857600 0.27398800
0.30980400 0.31037900 0.29202700 0.27732100
0.31372500 0.31419600 0.29546700 0.28064900
0.31764700 0.31799500 0.29890000 0.28396700
0.32156900 0.32177700 0.30232000 0.28726900
0.32549000 0.32554200 0.30573200 0.29055100
0.32941200 0.32928700 0.30913800 0.29380600
0.33333300 0.33301600 0.31253700 0.29703500
0.33725500 0.33673300 0.31593300 0.30023800
0.34117600 0.34042900 0.31933400 0.30341900
0.34509800 0.34410300 0.32273900 0.30657600
0.34902000 0.34775400 0.32614700 0.30970800
0.35294100 0.35138300 0.32955600 0.31281500
0.35686300 0.35500100 0.33296800 0.31589700
0.36078400 0.35861900 0.33638400 0.31895200
0.36470600 0.36224500 0.33981400 0.32198900
0.36862700 0.36588000 0.34326000 0.32501800
0.37254900 0.36951800 0.34672400 0.32804700
0.37647100 0.37316200 0.35020000 0.33107600
0.38039200 0.37682000 0.35368500 0.33410800
0.38431400 0.38050100 0.35717700 0.33714600
0.38823500 0.38420300 0.36068100 0.34019700
0.39215700 0.38792300 0.36419700 0.34327100
0.39607800 0.39165700 0.36772100 0.34637500
0.40000000 0.39539200 0.37125300 0.34951300
0.40392200 0.39912400 0.37478000 0.35268400
0.40784300 0.40284900 0.37830000 0.35588600
0.41176500 0.40655200 0.38180900 0.35911500
0.41568600 0.41022800 0.38530100 0.36237200
0.41960800 0.41387700 0.38876900 0.36565100
0.42352900 0.41749200 0.39221100 0.36895100
0.42745100 0.42108000 0.39562200 0.37226900
0.43137300 0.42464500 0.39900200 0.37559000
0.43529400 0.42818400 0.40235800 0.37891400
0.43921600 0.43170700 0.40569300 0.38224300
0.44313700 0.43522400 0.40900700 0.38557600
0.44705900 0.43874300 0.41231700 0.38891300
0.45098000 0.44225400 0.41562900 0.39224500
0.45490200 0.44575900 0.41894200 0.39557300
0.45882400 0.44927700 0.42225100 0.39888800
0.46274500 0.45281600 0.42556100 0.40219400
0.46666700 0.45638000 0.42888000 0.40549400
0.47058800 0.45996800 0.43220800 0.40878700
0.47451000 0.46357500 0.43555000 0.41207200
0.47843100 0.46720500 0.43890600 0.41535200
0.48235300 0.47084800 0.44228000 0.41862800
0.48627500 0.47450600 0.44567400 0.42189800
0.49019600 0.47818100 0.44909000 0.42516900
0.49411800 0.48186900 0.45253300 0.42845400
0.49803900 0.48556100 0.45599400 0.43176300
0.50196100 0.48925400 0.45947000 0.43510200
0.50588200 0.49294900 0.46296000 0.43846800
0.50980400 0.49664600 0.46646600 0.44186000
0.51372500 0.50035500 0.46998800 0.44527800
0.51764700 0.50408200 0.47353300 0.44872700
0.52156900 0.50782500 0.47710600 0.45220700
0.52549000 0.51158500 0.48069500 0.45571300
0.52941200 0.51536200 0.48430000 0.45924500
0.53333300 0.51915600 0.48791900 0.46280200
0.53725500 0.52297400 0.49155400 0.46638500
0.54117600 0.52682300 0.49520400 0.46999700
0.54509800 0.53070900 0.49886900 0.47364000
0.54902000 0.53462400 0.50255700 0.47730400
0.55294100 0.53856000 0.50627300 0.48097500
0.55686300 0.54251700 0.51001000 0.48463400
0.56078400 0.54648900 0.51376100 0.48827600
0.56470600 0.55046300 0.51752700 0.49189900
0.56862700 0.55444300 0.52130600 0.49550800
0.57254900 0.55843500 0.52509200 0.49910100
0.57647100 0.56244200 0.52889200 0.50267800
0.58039200 0.56644900 0.53271300 0.50624600
0.58431400 0.57045000 0.53655800 0.50980200
0.58823500 0.57444100 0.54042000 0.51333800
0.59215700 0.57840500 0.54429600 0.51685800
0.59607800 0.58233500 0.54817000 0.52035900
0.60000000 0.58623300 0.55203100 0.52383800
0.60392200 0.59010900 0.55586700 0.52729900
0.60784300 0.59397600 0.55968400 0.53074500
0.61176500 0.59784900 0.56348900 0.53419100
0.61568600 0.60172600 0.56728700 0.53764000
0.61960800 0.60560200 0.57108100 0.54109500
0.62352900 0.60947600 0.57486800 0.54457000
0.62745100 0.61334300 0.57864700 0.54807000
0.63137300 0.61719100 0.58241800 0.55159300
0.63529400 0.62102500 0.58617200 0.55513000
0.63921600 0.62484800 0.58991300 0.55867800
0.64313700 0.62867000 0.59365000 0.56222500
0.64705900 0.63249500 0.59738800 0.56577900
0.65098000 0.63632100 0.60113200 0.56935000
0.65490200 0.64015300 0.60488900 0.57293600
0.65882400 0.64398800 0.60866700 0.57653800
0.66274500 0.64783200 0.61247100 0.58015800
0.66666700 0.65167900 0.61630300 0.58380200
0.67058800 0.65552900 0.62015500 0.58746200
0.67451000 0.65938100 0.62402500 0.59112900
0.67843100 0.66323200 0.62790500 0.59480500
0.68235300 0.66708300 0.63179300 0.59849000
0.68627500 0.67094700 0.63569000 0.60218300
0.69019600 0.67482100 0.63958900 0.60587600
0.69411800 0.67870500 0.64347600 0.60955900
0.69803900 0.68259600 0.64735000 0.61323200
0.70196100 0.68650200 0.65120600 0.61689500
0.70588200 0.69041600 0.65503700 0.62054600
0.70980400 0.69432900 0.65883300 0.62417900
0.71372500 0.69824200 0.66259400 0.62779000
0.71764700 0.70215500 0.66632500 0.63137900
0.72156900 0.70606300 0.67002800 0.63494400
0.72549000 0.70996900 0.67370600 0.63849000
0.72941200 0.71387100 0.67736500 0.64202800
0.73333300 0.71778200 0.68101000 0.64555900
0.73725500 0.72171200 0.68466000 0.64907500
0.74117600 0.72564900 0.68831600 0.65257100
0.74509800 0.72957900 0.69196700 0.65604000
0.74902000 0.73348700 0.69560800 0.65948200
0.75294100 0.73736300 0.69923100 0.66290100
0.75686300 0.74120100 0.70283600 0.66630400
0.76078400 0.74500500 0.70642900 0.66969200
0.76470600 0.74878000 0.71001000 0.67307000
0.76862700 0.75254000 0.71358200 0.67643600
0.77254900 0.75631800 0.71717000 0.67980200
0.77647100 0.76011500 0.72078300 0.68317400
0.78039200 0.76393400 0.72442300 0.68655300
0.78431400 0.76777000 0.72808700 0.68994900
0.78823500 0.77162000 0.73176400 0.69335600
0.79215700 0.77549500 0.73546100 0.69676800
0.79607800 0.77940000 0.73918200 0.70018400
0.80000000 0.78334100 0.74293200 0.70360900
0.80392200 0.78732200 0.74671900 0.70704700
0.80784300 0.79135100 0.75054600 0.71050300
0.81176500 0.79542400 0.75441100 0.71398500
0.81568600 0.79953800 0.75830400 0.71749600
0.81960800 0.80367900 0.76222300 0.72103800
0.82352900 0.80783300 0.76615300 0.72460500
0.82745100 0.81200000 0.77009100 0.72819600
0.83137300 0.81617200 0.77403500 0.73180700
0.83529400 0.82034500 0.77798000 0.73542300
0.83921600 0.82451800 0.78192700 0.73904100
0.84313700 0.82869700 0.78588200 0.74266400
0.84705900 0.83288500 0.78985200 0.74630400
0.85098000 0.83708700 0.79383800 0.74996900
0.85490200 0.84129900 0.79783900 0.75365600
0.85882400 0.84552800 0.80185200 0.75735900
0.86274500 0.84977700 0.80588400 0.76108100
0.86666700 0.85405200 0.80994000 0.76482200
0.87058800 0.85835200 0.81402200 0.76858100
0.87451000 0.86265200 0.81812200 0.77235400
0.87843100 0.86694900 0.82221900 0.77613600
0.88235300 0.87123700 0.82631300 0.77992500
0.88627500 0.87551300 0.83040200 0.78372200
0.89019600 0.87978700 0.83449100 0.78753300
0.89411800 0.88406000 0.83858900 0.79136700
0.89803900 0.88831500 0.84268900 0.79523800
0.90196100 0.89256400 0.84678000 0.79913000
0.90588200 0.89682300 0.85087900 0.80303400
0.90980400 0.90109100 0.85497900 0.80695600
0.91372500 0.90536200 0.85907800 0.81089500
0.91764700 0.90963800 0.86318100 0.81484900
0.92156900 0.91391000 0.86729000 0.81881400
0.92549000 0.91817000 0.87139800 0.82277900
0.92941200 0.92242800 0.87550800 0.82675000
0.93333300 0.92669500 0.87962300 0.83073200
0.93725500 0.93097000 0.88375200 0.83473100
0.94117600 0.93525900 0.88789600 0.83874800
0.94509800 0.93955900 0.89205000 0.84279100
0.94902000 0.94385400 0.89620300 0.84684800
0.95294100 0.94814700 0.90035800 0.85091300
0.95686300 0.95242900 0.90451200 0.85499500
0.96078400 0.95671000 0.90867200 0.85908600
0.96470600 0.96099500 0.91283500 0.86319400
0.96862700 0.96527600 0.91700200 0.86731900
0.97254900 0.96955600 0.92117000 0.87145700
0.97647100 0.97384300 0.92534500 0.87561000
0.98039200 0.97813500 0.92952600 0.87977700
0.98431400 0.98243400 0.93371300 0.88395900
0.98823500 0.98673900 0.93790600 0.88815600
0.99215700 0.99105000 0.94210600 0.89236600
0.99607800 0.99536800 0.94631200 0.89659200
1.00000000 0.99969200 0.95052500 0.90083300
END_DATA
CAL    

DESCRIPTOR "Argyll Calibration options and model"
ORIGINATOR "Argyll dispcal"
CREATED "Tue May 26 13:21:00 202"

NUMBER_OF_FIELDS 3
BEGIN_DATA_FORMAT
R_P G_P B_P
END_DATA_FORMAT

NUMBER_OF_SETS 32
BEGIN_DATA
0.000764695 0.000796958 0.001410050
0.999235000 0.999203000 0.998590000
1.383985000 1.336642000 1.338611000
0.542142000 0.551761000 0.566258000
0.133360000 0.103724000 0.094032300
0.149325000 0.156345000 0.144903000
0.128461000 0.118118000 0.127588000
0.099920800 0.085364800 0.118921000
0.074497400 0.096031500 0.083225800
0.072783700 0.091157800 0.074524400
0.064871700 0.068720700 0.072025900
0.062112000 0.062450900 0.069570700
0.059066700 0.060192300 0.061477000
0.045485600 0.047930200 0.051088700
0.051260600 0.049329200 0.056772800
0.057824100 0.052413600 0.047074700
0.038648800 0.050752300 0.043689900
0.036201600 0.046773600 0.042690400
0.027936100 0.043654300 0.033090000
0.033069500 0.035060400 0.037338800
0.031805200 0.034265700 0.037850700
0.026999600 0.033612200 0.032421400
0.025579200 0.032931800 0.031592300
0.021055200 0.031697400 0.027910700
0.022281800 0.029156600 0.026162000
0.022211900 0.029615600 0.027663700
0.017254500 0.026333700 0.028430000
0.017259200 0.023673600 0.026768100
0.018158600 0.025151100 0.027018000
0.016558300 0.023663700 0.023700500
0.013986000 0.019101400 0.021819900
0.011847200 0.020420000 0.017864700
END_DATA
