Dell/U2718Q/U2718Q #1 2020-05-26 13-17 0.3127x 0.329y sRGB F-S XYZLUT+MTX/U2718Q #1 2020-05-26 13-17 0.3127x 0.329y sRGB F-S XYZLUT+MTX.bpc.ti3
CTI3   

DESCRIPTOR "Argyll Calibration Target chart information 3"
ORIGINATOR "Argyll dispread"
CREATED "Tue May 26 13:21:48 2020"
DEVICE_CLASS "DISPLAY"
SINGLE_DIM_STEPS "21"
COMP_GREY_STEPS "61"
DARK_REGION_EMPHASIS "1.6"
COLOR_REP "RGB_XYZ"
TARGET_INSTRUMENT "X-Rite i1 DisplayPro, ColorMunki Display"
DISPLAY_TYPE_REFRESH "NO"
DISPLAY_TYPE_BASE_ID "1"
INSTRUMENT_TYPE_SPECTRAL "NO"
LUMINANCE_XYZ_CDM2 "276.065723 290.584811 314.521394"
NORMALIZED_TO_Y_100 "YES"
VIDEO_LUT_CALIBRATION_POSSIBLE "YES"

BEGIN_ARGYLL_COLPROF_ARGS
-v -qh -aX -bn -C "No copyright. Created with DisplayCAL 3.8.9.3 and ArgyllCMS 2.1.2" -M "DELL U2718Q" -A "Dell, Inc."
END_ARGYLL_COLPROF_ARGS

OBSERVER "1931_2"
USE_BLACK_POINT_COMPENSATION "NO"
BLACK_POINT_CORRECTION "0.0"
HIRES_B2A "YES"
HIRES_B2A_SIZE "-1"
SMOOTH_B2A "YES"
PATCH_SEQUENCE "OPTIMIZE_DISPLAY_RESPONSE_DELAY"

NUMBER_OF_FIELDS 7
BEGIN_DATA_FORMAT
SAMPLE_ID RGB_R RGB_G RGB_B XYZ_X XYZ_Y XYZ_Z
END_DATA_FORMAT

NUMBER_OF_SETS 588
BEGIN_DATA
1 100.0000 100.0000 100.0000 95.00349 100.00000 108.2374
2 1.960800 1.960800 1.960800 0.234893 0.245823 0.286538
3 3.921600 3.921600 3.921600 0.365391 0.384455 0.444453
4 5.882400 5.882400 5.882400 0.535982 0.556292 0.649954
5 9.803900 9.803900 9.803900 1.001200 1.029323 1.222867
6 13.72600 13.72600 13.72600 1.632900 1.714577 1.997125
7 17.64700 17.64700 17.64700 2.498192 2.623507 2.994399
8 21.56900 21.56900 21.56900 3.650296 3.870682 4.234996
9 25.49000 25.49000 25.49000 5.146082 5.377085 5.871350
10 29.41200 29.41200 29.41200 6.755932 7.139769 7.766088
11 33.33300 33.33300 33.33300 8.828202 9.269546 10.04125
12 37.25500 37.25500 37.25500 10.87584 11.38383 12.10648
13 41.17600 41.17600 41.17600 13.40065 14.07138 15.29630
14 45.09800 45.09800 45.09800 16.36940 17.21356 18.70321
15 49.02000 49.02000 49.02000 19.58764 20.54389 22.30560
16 52.94100 52.94100 52.94100 22.87397 24.14210 26.43445
17 56.86300 56.86300 56.86300 26.80118 28.31194 30.49773
18 60.78400 60.78400 60.78400 31.31120 32.94492 35.67125
19 64.70600 64.70600 64.70600 35.66760 37.48363 41.04167
20 68.62700 68.62700 68.62700 40.92797 42.92144 47.06713
21 72.54900 72.54900 72.54900 46.34385 48.69391 53.16120
22 76.47100 76.47100 76.47100 51.91418 54.64484 59.38667
23 80.39200 80.39200 80.39200 58.17546 61.23183 66.39675
24 84.31400 84.31400 84.31400 64.35165 67.71466 73.21027
25 88.23500 88.23500 88.23500 71.41872 75.14429 81.13745
26 92.15700 92.15700 92.15700 78.14291 82.75534 89.53055
27 96.07800 96.07800 96.07800 86.10075 90.88485 98.69800
28 0.000000 35.66440 19.16970 4.353334 7.725641 4.491780
29 0.000000 35.41510 33.12130 5.281144 7.942731 9.845307
30 0.000000 60.21590 72.48900 20.25720 26.53563 50.72369
31 0.000000 74.01180 80.27330 28.82926 40.59496 63.84372
32 77.72720 77.44710 0.000000 43.47247 52.06627 6.807832
33 100.0000 88.07020 21.53500 69.04533 75.40034 14.89324
34 76.64540 0.000000 19.68840 23.68332 12.43924 4.476314
35 86.32490 0.000000 39.35890 32.45236 16.84794 13.74962
36 86.99100 39.31470 64.76230 41.84704 28.10781 38.90928
37 100.0000 61.23170 79.72490 64.81647 50.43326 62.28142
38 10.20410 0.000000 0.000000 0.558130 0.364696 0.232674
39 13.15790 0.000000 0.000000 0.748547 0.462517 0.245324
40 16.30430 0.000000 0.000000 1.064721 0.625388 0.261271
41 19.66290 0.000000 0.000000 1.411158 0.806116 0.276831
42 23.25580 0.000000 0.000000 1.930750 1.078411 0.297481
43 27.10840 0.000000 0.000000 2.586400 1.423274 0.316839
44 31.25000 0.000000 0.000000 3.485291 1.892963 0.346933
45 35.71430 0.000000 0.000000 4.454393 2.404217 0.383757
46 40.54050 0.000000 0.000000 5.954433 3.191173 0.433897
47 45.77470 0.000000 0.000000 7.699124 4.103281 0.480821
48 51.47060 0.000000 0.000000 9.744195 5.174052 0.550211
49 60.95320 0.000000 0.000000 13.93707 7.377564 0.695216
50 64.51610 0.000000 0.000000 15.89763 8.408406 0.768183
51 72.03390 0.000000 0.000000 20.17012 10.65646 0.917016
52 80.35710 0.000000 0.000000 25.66593 13.55582 1.147171
53 89.62260 0.000000 0.000000 32.75551 17.30728 1.426650
54 100.0000 29.24320 40.11290 47.60044 28.83866 16.00847
55 100.0000 29.04640 82.46560 56.77768 32.33716 64.78175
56 0.000000 4.807700 0.000000 0.235788 0.354671 0.241126
57 0.000000 7.425700 0.000000 0.333534 0.544576 0.288814
58 0.000000 10.20410 0.000000 0.471226 0.808418 0.334133
59 0.000000 13.15790 0.000000 0.660219 1.188814 0.388931
60 0.000000 16.30430 0.000000 0.924287 1.734886 0.449143
61 0.000000 19.66290 0.000000 1.231592 2.368388 0.515658
62 23.43430 27.10250 0.000000 3.913061 5.189319 0.801183
63 2.336400 0.000000 0.000000 0.169931 0.142896 0.128910
64 37.41950 28.17970 0.000000 7.157016 7.166348 0.978340
65 71.76240 58.40950 0.000000 30.42288 31.67523 3.828548
66 75.63180 73.43040 44.20940 43.07702 48.49419 22.49026
67 100.0000 100.0000 100.0000 95.01440 100.0257 108.2376
68 0.000000 100.0000 29.06220 36.35149 71.59335 17.81454
69 0.000000 100.0000 49.42020 38.91155 72.63518 31.52719
70 31.11570 100.0000 60.63860 44.36619 75.22673 42.60555
71 88.92360 100.0000 92.61510 82.06110 93.69687 91.71746
72 52.02090 16.07570 26.01800 11.87968 7.417132 5.956663
73 51.97330 27.22840 55.68850 17.01174 11.52330 27.17279
74 66.25240 32.48880 68.56750 27.70718 18.27337 43.66918
75 0.000000 0.000000 2.336400 0.131425 0.120747 0.258450
76 0.000000 0.000000 4.807700 0.160506 0.132743 0.412412
77 0.000000 0.000000 7.425700 0.208856 0.152673 0.664161
78 0.000000 0.000000 10.20410 0.278493 0.181003 1.028760
79 0.000000 0.000000 13.15790 0.390256 0.226896 1.597870
80 0.000000 0.000000 16.30430 0.514173 0.277581 2.232298
81 0.000000 0.000000 19.66290 0.667516 0.340401 3.034509
82 0.000000 0.000000 23.25580 0.925252 0.446423 4.388383
83 0.000000 0.000000 27.10840 1.200100 0.559036 5.828506
84 0.000000 0.000000 31.25000 1.538734 0.698060 7.617158
85 0.000000 0.000000 35.71430 2.014173 0.892685 10.11234
86 0.000000 0.000000 40.54050 2.586437 1.120944 13.08059
87 0.000000 0.000000 45.77470 3.368679 1.447546 17.20091
88 0.000000 0.000000 51.47060 4.257383 1.810516 21.83968
89 0.000000 0.000000 57.69230 5.369809 2.266910 27.65233
90 0.000000 0.000000 64.51610 7.022897 2.943728 36.27197
91 0.000000 0.000000 72.03390 8.959919 3.735914 46.39303
92 0.000000 0.000000 80.35710 11.36507 4.731418 58.99549
93 0.000000 100.0000 85.02720 47.27171 76.05912 75.92982
94 32.42370 100.0000 90.01860 52.93485 78.77068 86.15678
95 0.764500 0.764500 0.764500 0.169462 0.176137 0.207885
96 1.543200 1.543200 1.543200 0.208742 0.211550 0.252140
97 2.336400 2.336400 2.336400 0.252856 0.264419 0.310111
98 3.144700 3.144700 3.144700 0.306440 0.312650 0.377674
99 3.968300 3.968300 3.968300 0.364835 0.383818 0.445087
100 4.807700 4.807700 4.807700 0.422843 0.445353 0.521550
101 5.663400 5.663400 5.663400 0.505053 0.516734 0.635494
102 6.535900 6.535900 6.535900 0.607107 0.627952 0.738169
103 7.425700 7.425700 7.425700 0.691985 0.718458 0.849132
104 8.333300 8.333300 8.333300 0.794852 0.815006 0.952452
105 9.259300 9.259300 9.259300 0.947956 0.974824 1.149264
106 10.20410 10.20410 10.20410 1.064683 1.095971 1.306141
107 11.16840 11.16840 11.16840 1.177755 1.221312 1.423816
108 12.15280 12.15280 12.15280 1.381906 1.453756 1.713887
109 13.15790 13.15790 13.15790 1.558770 1.622337 1.992618
110 14.18440 14.18440 14.18440 1.718876 1.796944 2.105701
111 15.23300 15.23300 15.23300 1.947085 2.066014 2.348430
112 16.30430 16.30430 16.30430 2.262629 2.382789 2.702536
113 17.39930 17.39930 17.39930 2.417028 2.529152 2.845280
114 18.51850 18.51850 18.51850 2.748321 2.879583 3.255280
115 19.66290 19.66290 19.66290 3.062001 3.258187 3.555102
116 20.83330 20.83330 20.83330 3.454728 3.605223 4.031054
117 22.03070 22.03070 22.03070 3.829980 4.033201 4.434521
118 23.25580 23.25580 23.25580 4.225406 4.430206 5.048549
119 24.50980 24.50980 24.50980 4.566877 4.796634 5.288060
120 25.79360 25.79360 25.79360 5.220963 5.540926 5.955902
121 27.10840 27.10840 27.10840 5.667544 5.985559 6.545453
122 28.45530 28.45530 28.45530 6.336348 6.695137 7.271007
123 29.83540 29.83540 29.83540 7.016061 7.345790 8.095604
124 31.25000 31.25000 31.25000 7.629341 8.034364 8.649970
125 32.70040 32.70040 32.70040 8.366867 8.773650 9.448666
126 34.18800 34.18800 34.18800 8.993010 9.441313 10.35364
127 35.71430 35.71430 35.71430 9.887071 10.46469 11.32779
128 37.28070 37.28070 37.28070 10.88085 11.38838 12.11448
129 41.70490 53.41040 48.88100 18.25984 21.82922 22.74876
130 63.01980 54.43080 70.87300 32.33929 29.27262 47.83804
131 0.000000 0.000000 0.000000 0.104847 0.109858 0.118495
132 0.000000 2.336400 0.000000 0.164596 0.221336 0.179053
133 0.000000 45.77470 0.000000 6.236216 12.65402 1.828718
134 0.000000 53.91680 22.98320 9.466213 17.73435 7.271011
135 26.85180 76.23990 48.73350 24.92170 40.66098 25.77557
136 61.37830 78.33540 73.78640 43.54696 51.77864 55.17356
137 42.23740 42.23740 42.23740 14.27740 15.03823 16.41703
138 43.98150 43.98150 43.98150 15.42535 16.14044 17.33362
139 57.69230 57.69230 57.69230 27.61491 29.15541 31.55798
140 59.89580 59.89580 59.89580 30.57289 32.11685 35.02877
141 62.16930 62.16930 62.16930 33.34481 35.01491 38.10894
142 64.51610 64.51610 64.51610 35.70160 37.48448 41.05746
143 66.93990 66.93990 66.93990 38.76556 40.69234 44.66157
144 69.44440 69.44440 69.44440 41.97617 44.06378 48.26621
145 72.03390 72.03390 72.03390 45.75231 48.08621 52.39633
146 74.71260 74.71260 74.71260 49.49186 52.35855 56.46581
147 77.48540 77.48540 77.48540 53.84634 56.66515 61.18048
148 80.35710 80.35710 80.35710 58.15698 61.21882 66.42317
149 83.33330 83.33330 83.33330 62.31050 65.72735 70.88271
150 86.41970 86.41970 86.41970 67.83850 71.45753 76.97678
151 89.62260 89.62260 89.62260 73.85130 77.80556 84.51264
152 92.94870 92.94870 92.94870 79.94881 84.31774 91.13435
153 96.40520 96.40520 96.40520 87.35330 92.00673 99.65249
154 17.06250 0.000000 26.68250 2.184263 1.070202 5.715075
155 18.48030 14.73750 25.90510 2.909187 2.440562 5.609682
156 42.08510 28.69030 28.80360 9.669944 8.427394 7.354335
157 70.19830 35.73920 44.02410 25.60768 18.72678 17.28675
158 100.0000 51.99880 52.87840 55.08610 41.01109 27.73997
159 42.68810 19.00850 0.000000 7.554360 5.617679 0.762919
160 60.16180 25.71290 0.000000 15.59064 11.16496 1.219865
161 62.56660 58.55190 35.44540 27.40212 29.92089 14.17733
162 34.31870 100.0000 0.000000 39.47309 73.34866 10.90986
163 58.07780 100.0000 0.000000 47.73016 77.59813 11.53186
164 0.000000 0.000000 89.62260 14.42279 5.971445 74.92751
165 0.000000 0.000000 100.0000 18.52499 7.614393 96.34404
166 82.85680 80.65730 100.0000 66.80917 65.31080 103.8346
167 0.000000 0.000000 0.000000 0.104875 0.109942 0.118923
168 0.000000 24.14090 100.0000 20.28705 10.89674 97.81108
169 0.000000 38.49620 100.0000 22.83177 16.18840 98.31888
170 26.32130 49.12500 100.0000 27.50764 22.85238 99.07876
171 33.08180 62.01710 100.0000 34.01751 33.66778 100.7306
172 0.000000 24.83120 65.31010 9.007911 6.503534 38.32908
173 0.000000 35.39010 82.15780 15.46340 12.11339 63.17714
174 34.92230 35.47640 100.0000 26.21001 16.90453 98.93326
175 60.14610 68.56030 100.0000 46.77360 44.80122 101.4420
176 100.0000 87.50860 100.0000 85.94699 81.50634 105.3183
177 15.92040 9.022000 0.000000 1.284482 1.145883 0.368267
178 27.01230 15.25180 0.000000 3.270220 2.818620 0.522230
179 31.74690 75.25220 0.000000 21.95812 39.21284 5.519032
180 55.71570 78.36890 0.000000 31.36336 46.86141 6.383971
181 13.75000 0.000000 11.65910 0.976243 0.534659 1.317089
182 34.26700 0.000000 33.63250 5.790058 2.896604 9.381939
183 36.10270 56.02690 44.02230 16.83838 22.69305 18.66473
184 50.57790 71.31680 45.81780 28.95439 39.60922 22.94936
185 100.0000 76.41780 86.89890 74.48666 66.27839 77.04968
186 57.69230 0.000000 0.000000 12.24708 6.494119 0.651605
187 69.19380 23.08030 12.05080 20.22093 13.04805 2.994106
188 81.81390 41.61160 12.78300 32.29037 24.60328 5.010346
189 100.0000 79.15700 0.000000 62.78493 64.14613 8.153215
190 100.0000 100.0000 0.000000 76.68904 92.55318 12.89994
191 31.95540 56.55150 0.000000 13.08765 21.33142 2.872884
192 53.44880 59.70990 0.000000 21.07144 27.61414 3.528048
193 100.0000 60.80780 41.81680 56.53744 46.77846 19.96651
194 100.0000 71.46910 60.10680 64.61606 58.07447 38.14895
195 100.0000 100.0000 63.18580 83.34447 95.29010 47.57865
196 78.93930 27.24920 0.000000 27.00144 17.44009 1.710040
197 100.0000 47.84730 0.000000 49.29464 36.51751 4.062271
198 100.0000 64.16110 0.000000 55.16133 48.58252 5.682395
199 33.86590 33.06940 21.06520 7.838164 8.698885 5.097384
200 39.19420 34.61830 29.13270 10.01834 10.16391 7.867210
201 38.88890 38.88890 38.88890 11.96808 12.55551 13.59837
202 52.12320 86.09430 41.90650 37.40998 56.62109 22.64808
203 57.86850 100.0000 65.00440 54.59239 80.40202 48.42224
204 100.0000 100.0000 85.78340 89.59437 97.82829 80.22642
205 27.29840 49.75180 26.90400 10.98388 16.63145 8.343673
206 100.0000 75.00440 29.37660 61.93057 60.03882 14.94014
207 100.0000 75.57700 48.57140 64.65751 61.58532 27.93930
208 0.000000 0.000000 0.000000 0.104884 0.110046 0.118886
209 0.000000 13.58970 36.16900 2.671158 2.073885 10.81677
210 37.02480 28.35410 37.99610 9.275611 8.044301 12.29467
211 0.000000 89.62260 0.000000 27.09479 55.07957 8.097781
212 0.000000 100.0000 0.000000 35.01952 71.02535 10.74316
213 0.000000 100.0000 100.0000 53.00168 78.31876 106.1610
214 0.000000 24.83210 38.98490 4.100682 4.499224 12.76766
215 0.000000 28.07850 53.91230 7.001530 6.599769 25.21570
216 31.27450 34.18790 53.77760 11.33837 10.37506 25.60522
217 36.15970 58.54240 58.06670 20.20748 25.60070 31.74234
218 39.10960 83.27980 100.0000 46.43446 56.57339 103.2800
219 62.80500 91.76970 100.0000 61.33377 72.70938 104.8929
220 79.31710 100.0000 100.0000 77.69645 91.06728 107.0440
221 31.81460 0.000000 12.63880 3.853523 2.050460 1.708723
222 47.70350 0.000000 27.26770 9.386927 4.849321 6.456486
223 46.79880 0.000000 49.35400 11.58973 5.676824 20.81354
224 51.47060 51.47060 51.47060 21.77811 22.92924 24.74089
225 53.48260 53.48260 53.48260 23.30888 24.53386 26.96809
226 55.55560 55.55560 55.55560 25.57972 27.02601 29.46048
227 28.26180 21.87020 57.52540 9.395396 6.438390 28.57725
228 41.37790 32.29750 56.82920 14.19242 11.25647 28.32324
229 41.41660 0.000000 100.0000 24.53447 10.70550 97.61210
230 72.44870 0.000000 100.0000 38.93001 18.23840 97.84552
231 0.000000 27.10840 0.000000 2.163069 4.286476 0.742416
232 0.000000 31.25000 0.000000 2.864524 5.716196 0.933722
233 0.000000 35.71430 0.000000 3.702310 7.464179 1.167440
234 0.000000 40.54050 0.000000 4.716601 9.492864 1.431805
235 47.61910 47.61910 47.61910 18.32776 19.23903 21.00377
236 49.51690 49.51690 49.51690 19.82604 20.83855 22.83897
237 68.74580 70.58820 52.67970 38.55530 43.85658 28.76002
238 89.15430 70.61370 54.38710 53.12995 51.35405 31.27915
239 61.59040 100.0000 28.03170 50.63895 78.98928 18.17812
240 83.45150 100.0000 27.58620 64.10695 85.93992 18.61214
241 23.60400 39.22440 0.000000 6.316058 10.03368 1.436598
242 57.11870 39.13990 0.000000 16.54440 15.49810 1.863837
243 60.02880 39.43460 31.16910 19.60672 17.07323 9.737529
244 62.09410 39.80780 100.0000 37.94829 24.67106 99.34205
245 81.57160 49.60730 100.0000 51.94274 35.89319 100.2322
246 100.0000 72.67020 100.0000 77.67886 64.39326 103.2606
247 32.42810 43.49860 55.94260 14.30511 15.36385 27.99813
248 42.76970 57.63050 70.79150 24.97175 27.27496 47.91715
249 54.35800 100.0000 81.43510 57.06857 81.21669 70.96154
250 0.000000 23.25580 0.000000 1.623972 3.177161 0.620873
251 15.74180 27.91230 7.520600 3.203389 4.990750 1.450213
252 16.69510 29.23430 39.22260 5.813985 6.553809 12.96544
253 40.54050 40.54050 40.54050 13.00984 13.55022 14.84178
254 45.77470 45.77470 45.77470 17.18495 18.03811 19.69304
255 68.91380 48.50290 51.16540 29.56966 25.73763 24.93052
256 100.0000 70.49100 72.05660 67.16039 58.46031 53.35505
257 100.0000 0.000000 0.000000 42.41511 22.40513 1.851804
258 100.0000 0.000000 21.50800 43.30038 22.76900 6.459367
259 100.0000 0.000000 37.26040 44.54964 23.26889 13.14928
260 100.0000 0.000000 52.37300 46.83810 24.20307 25.16384
261 100.0000 28.92290 53.47340 49.56458 29.53001 26.71589
262 100.0000 32.50540 67.66790 53.40107 32.02702 43.96513
263 100.0000 29.20260 0.000000 44.96002 27.65010 2.701627
264 100.0000 44.19800 19.41910 49.09276 34.84632 7.823254
265 100.0000 43.98350 36.16260 50.24841 35.10017 14.43816
266 100.0000 100.0000 35.31040 78.76450 93.41099 23.68022
267 77.26620 100.0000 63.26640 65.07520 85.84349 46.65291
268 88.94980 100.0000 76.00880 76.96572 91.63936 64.35763
269 0.000000 51.47060 0.000000 7.841605 15.93008 2.280371
270 0.000000 57.69230 0.000000 10.05260 20.43928 2.893783
271 0.000000 64.51610 0.000000 13.04008 26.50222 3.715914
272 0.000000 77.25550 43.16660 22.23905 40.38438 21.29926
273 34.86680 82.99720 42.69120 30.12214 49.82899 22.51461
274 37.18250 100.0000 45.73160 43.43883 75.01793 29.20893
275 62.13030 100.0000 47.62940 53.33824 80.11286 30.90898
276 0.000000 72.03390 0.000000 16.66586 33.93023 4.837156
277 0.000000 80.35710 0.000000 21.11502 42.94952 6.192007
278 0.000000 83.74570 77.94750 33.58757 51.49185 61.53419
279 29.82310 90.99150 100.0000 49.14868 65.64853 104.6336
280 0.000000 39.75900 48.26310 8.302320 10.85642 20.75464
281 0.000000 41.92570 60.86420 11.22571 12.93793 33.36738
282 0.000000 52.49940 100.0000 26.74004 24.35713 99.05038
283 0.000000 65.11390 100.0000 31.69634 34.45822 100.6486
284 100.0000 0.000000 65.80480 49.66609 25.32967 39.98564
285 100.0000 0.000000 82.46290 54.26777 27.22419 64.08021
286 100.0000 0.000000 100.0000 60.91975 29.85955 98.94710
287 100.0000 32.21010 100.0000 64.01732 36.20508 99.72577
288 100.0000 54.74340 100.0000 69.78454 48.20144 100.8856
289 0.000000 100.0000 67.72110 42.59896 74.13290 51.31259
290 31.81150 100.0000 75.11790 48.11441 76.73562 61.67079
291 47.76460 100.0000 100.0000 61.09071 82.50139 106.2384
292 4.807700 0.000000 0.000000 0.242390 0.180249 0.142349
293 7.425700 0.000000 0.000000 0.376883 0.259999 0.185400
294 0.000000 11.74650 13.00910 0.834930 1.127062 1.796324
295 0.000000 22.94710 16.40900 2.036919 3.349210 2.852040
296 0.000000 24.31020 28.82340 2.968242 3.942080 7.058002
297 0.000000 56.75570 80.63490 20.94573 24.39282 61.66460
298 0.000000 76.60450 100.0000 37.17110 45.78962 101.9979
299 0.000000 87.07460 100.0000 43.54631 58.76958 104.0805
300 24.05950 0.000000 48.71200 5.682442 2.585632 19.87061
301 40.37640 0.000000 62.94810 12.40218 5.783976 35.38742
302 57.71430 0.000000 43.23270 15.14796 7.657235 15.82188
303 76.28510 0.000000 61.15330 29.21991 14.67149 33.44831
304 78.82320 0.000000 83.42800 36.86048 17.96541 65.04108
305 37.61170 17.26680 66.22020 13.18851 7.370673 39.26074
306 47.04870 41.35750 85.18420 25.18943 19.10616 67.26619
307 50.43330 52.49200 100.0000 36.02557 29.15205 99.90456
308 0.000000 61.83350 41.33740 14.58143 25.33767 17.50107
309 0.000000 64.25320 57.54070 18.24214 28.41098 31.88502
310 17.47840 71.80910 57.94670 23.15940 36.40618 33.71000
311 19.36230 87.59100 74.63900 36.22703 56.41724 56.93308
312 9.212100 17.67800 9.704500 1.521729 2.156041 1.409013
313 8.824900 21.59760 20.92380 2.449976 3.259496 4.080036
314 26.29440 35.44810 23.77800 6.792457 8.812733 5.801459
315 74.01080 50.54220 30.73200 30.42320 27.27323 11.09237
316 91.11210 52.97230 43.91380 45.25230 36.08569 19.95944
317 52.83610 15.64320 34.89810 12.76551 7.714114 10.56573
318 64.94560 19.58060 44.80200 20.43908 12.28097 17.19209
319 64.40990 30.86430 53.22100 22.88248 15.63404 25.32083
320 20.45230 23.67320 12.72470 3.396630 4.143286 2.191795
321 28.34290 24.11780 18.33960 4.997713 5.062975 3.602482
322 36.16760 56.42920 22.89720 14.95454 22.21790 7.781941
323 50.61210 60.78090 29.63480 22.12733 28.84921 11.27169
324 27.28180 37.41180 13.57250 6.843032 9.500405 3.175512
325 39.49140 43.55770 24.86710 12.13765 14.65399 7.092965
326 67.92310 66.47140 89.88700 45.85206 43.38700 80.37304
327 84.37350 68.61440 100.0000 61.64275 52.81120 101.7416
328 28.18190 0.000000 74.91140 12.21691 5.355517 50.49077
329 43.78670 14.88350 80.78600 18.70677 9.560805 59.35677
330 43.84800 29.60320 87.16700 22.30617 13.89902 70.03505
331 23.74190 26.36320 72.26280 12.69630 8.676851 46.87677
332 32.01080 59.58790 81.70670 25.81686 28.62728 63.55790
333 87.02440 68.88960 81.97720 57.09835 51.50329 66.73393
334 74.61830 0.000000 45.37040 24.82180 12.71647 17.98259
335 76.40610 22.46650 57.14060 29.80716 17.42718 28.97293
336 82.95980 36.35120 72.71270 40.33015 25.99125 49.88434
337 100.0000 48.81780 83.86080 61.75766 41.89306 68.33243
338 36.18210 68.60600 51.61680 23.71043 34.41960 27.12805
339 36.34390 68.96510 61.69530 25.98790 35.70710 37.51368
340 50.04000 84.31990 79.42070 43.36555 56.84750 64.35230
341 55.57670 90.38440 91.90440 53.20435 67.28109 86.87522
342 35.60830 23.42020 12.97110 6.289679 5.669682 2.429628
343 45.05510 23.91070 19.01170 9.531173 7.428863 3.974800
344 46.25450 37.08250 50.83380 15.73301 13.72180 23.30519
345 46.58160 46.91630 59.82950 20.20290 19.73814 33.27894
346 50.93920 72.57070 61.09670 32.42758 41.89673 37.64999
347 63.69000 82.27130 86.48380 50.42485 58.43897 75.84713
348 77.85610 88.62780 88.94640 64.01862 71.40520 81.80862
349 15.72600 5.973800 20.53200 1.722850 1.114426 3.540292
350 24.64950 7.272300 26.36290 3.419608 2.033815 5.740764
351 29.49200 17.55100 29.70410 5.286976 3.996420 7.715543
352 40.21530 51.39050 35.35790 15.60095 19.75513 12.86679
353 52.70250 56.83790 38.58560 22.10825 26.20900 15.63475
354 72.52950 58.99920 39.63290 33.62986 33.31043 17.21290
355 85.02970 77.65950 55.95470 53.63590 57.11149 33.46100
356 16.86790 37.51490 43.61850 8.010025 10.00262 16.75527
357 16.42800 37.14250 51.99970 9.264526 10.32915 24.06654
358 15.48590 50.32490 65.31040 15.44657 18.51725 40.06751
359 11.87650 71.97740 69.06460 25.32812 37.55848 47.43048
360 40.01460 84.69110 72.62060 38.35527 54.81772 54.38841
361 85.70530 87.66580 66.51370 63.05109 71.07093 48.46309
362 100.0000 89.23450 66.28920 76.28863 79.70623 48.60194
363 51.52820 0.000000 15.03940 10.08316 5.303496 2.477883
364 55.58320 15.11570 18.70930 12.66013 7.794819 4.000088
365 100.0000 26.35800 22.23690 45.46466 27.16860 7.440963
366 84.26000 17.01410 12.48470 29.86188 17.24389 3.541541
367 89.72450 23.23160 27.41800 35.71523 21.35097 8.407343
368 86.83260 14.23550 32.78540 32.86170 18.37624 10.64995
369 87.52050 13.59890 74.37390 41.06867 21.66001 51.76232
370 89.58030 15.76720 92.34600 48.96251 25.36912 82.24637
371 0.000000 11.86030 22.53700 1.307710 1.323408 4.273121
372 0.000000 14.11290 51.43660 4.928247 3.049816 22.44078
373 0.000000 52.81100 55.11890 13.16519 18.81592 28.07356
374 33.38710 63.29160 73.94970 25.82940 31.27586 53.46498
375 80.40920 69.71280 89.18690 55.05578 50.72174 79.17831
376 85.86430 80.16650 89.31930 64.69540 63.94542 81.54212
377 31.37470 41.74040 43.56440 11.36095 13.18310 17.21528
378 51.42680 47.38880 71.23390 24.80386 21.93578 47.37220
379 71.62600 65.58660 74.97400 42.81950 41.52465 54.81618
380 72.53790 79.97480 91.07000 55.87767 59.09502 84.14613
381 8.339300 42.57360 43.76010 8.678881 12.29949 17.17605
382 17.92970 50.95110 57.22010 14.01830 18.41050 29.75415
383 16.14090 55.72610 89.63620 24.47743 25.25879 77.77928
384 19.16270 75.79860 90.33380 34.11206 43.96454 81.67412
385 14.03630 89.19710 90.18890 41.56789 60.17708 83.27134
386 55.98250 85.77730 58.63640 41.58535 58.09356 37.65129
387 59.89830 87.18180 70.90400 47.09157 61.73294 52.67055
388 79.01260 90.78960 74.73720 61.96262 73.24143 59.76524
389 71.52360 67.58830 11.54140 34.75080 39.98986 7.382506
390 88.25750 72.30710 14.53790 49.12421 50.93972 9.519781
391 89.92710 88.94530 12.30110 59.78126 71.37779 12.46214
