Dell/U2414H/U2414H #2 2019-02-05 09-42 0.3127x 0.329y sRGB F-S XYZLUT+MTX/U2414H #2 2019-02-05 09-42 0.3127x 0.329y sRGB F-S XYZLUT+MTX.ti3
CTI3   

DESCRIPTOR "Argyll Calibration Target chart information 3"
ORIGINATOR "Argyll dispread"
CREATED "Tue Feb 05 09:50:18 2019"
DEVICE_CLASS "DISPLAY"
SINGLE_DIM_STEPS "5"
COMP_GREY_STEPS "52"
MULTI_DIM_STEPS "5"
COLOR_REP "RGB_XYZ"
TARGET_INSTRUMENT "X-Rite i1 DisplayPro, ColorMunki Display"
DISPLAY_TYPE_REFRESH "NO"
DISPLAY_TYPE_BASE_ID "1"
INSTRUMENT_TYPE_SPECTRAL "NO"
LUMINANCE_XYZ_CDM2 "34.093145 35.939566 39.136910"
NORMALIZED_TO_Y_100 "YES"
VIDEO_LUT_CALIBRATION_POSSIBLE "YES"

BEGIN_ARGYLL_COLPROF_ARGS
-M "DELL U2414H" -A "Dell, Inc."
END_ARGYLL_COLPROF_ARGS

OBSERVER "1931_2"

NUMBER_OF_FIELDS 7
BEGIN_DATA_FORMAT
SAMPLE_ID RGB_R RGB_G RGB_B XYZ_X XYZ_Y XYZ_Z
END_DATA_FORMAT

NUMBER_OF_SETS 175
BEGIN_DATA
1 100.0000 100.0000 100.0000 94.86243 100.0000 108.8964
2 100.0000 100.0000 75.00000 85.46482 96.13247 60.80959
3 100.0000 100.0000 100.0000 95.11077 100.0943 108.8942
4 100.0000 100.0000 100.0000 95.11077 100.0943 108.8942
5 0.000000 0.000000 0.000000 0.195747 0.184146 0.362395
6 25.00000 0.000000 0.000000 2.046029 1.136454 0.389108
7 50.00000 0.000000 0.000000 7.958260 4.176637 0.483459
8 75.00000 0.000000 0.000000 19.12955 9.919875 0.663366
9 100.0000 0.000000 0.000000 36.94043 19.07838 0.955697
10 100.0000 0.000000 25.00000 38.26625 19.65730 5.912381
11 100.0000 25.00000 25.00000 40.17705 23.31062 6.382040
12 100.0000 50.00000 25.00000 46.45481 35.45994 7.587844
13 100.0000 75.00000 25.00000 57.92141 57.65539 9.743414
14 0.000000 0.000000 25.00000 1.174291 0.585525 5.313555
15 25.00000 0.000000 25.00000 3.068260 1.561383 5.345282
16 75.00000 0.000000 100.0000 39.31684 18.20378 100.1005
17 100.0000 0.000000 100.0000 57.18467 27.38908 100.3841
18 1.960800 1.960800 1.960800 0.309155 0.309082 0.482803
19 3.921600 3.921600 3.921600 0.411235 0.412112 0.583395
20 5.882400 5.882400 5.882400 0.601656 0.618305 0.792778
21 7.843100 7.843100 7.843100 0.856145 0.869786 1.108806
22 9.803900 9.803900 9.803900 1.123523 1.156704 1.401131
23 11.76500 11.76500 11.76500 1.431920 1.494428 1.763224
24 13.72600 13.72600 13.72600 1.827133 1.901485 2.186969
25 15.68600 15.68600 15.68600 2.212543 2.337601 2.644382
26 17.64700 17.64700 17.64700 2.694339 2.788918 3.195396
27 19.60800 19.60800 19.60800 3.218385 3.387801 3.785024
28 21.56900 21.56900 21.56900 3.814288 3.989268 4.499599
29 23.52900 23.52900 23.52900 4.437858 4.618918 5.255486
30 27.45100 27.45100 27.45100 5.881448 6.151940 6.792789
31 29.41200 29.41200 29.41200 6.568786 6.867154 7.733374
32 31.37300 31.37300 31.37300 7.503249 7.850669 8.619766
33 33.33300 33.33300 33.33300 8.515363 8.842963 9.831557
34 35.29400 35.29400 35.29400 9.594911 10.10559 11.08921
35 37.25500 37.25500 37.25500 10.83440 11.45470 12.41843
36 39.21600 39.21600 39.21600 12.16389 12.82589 14.21281
37 41.17600 41.17600 41.17600 13.36116 14.07190 15.62285
38 43.13700 43.13700 43.13700 14.87654 15.68617 17.02883
39 45.09800 45.09800 45.09800 16.47454 17.46086 18.85547
40 47.05900 47.05900 47.05900 17.94286 18.97978 20.61205
41 49.02000 49.02000 49.02000 19.65663 20.85513 22.64949
42 50.98000 50.98000 50.98000 74.10112 90.32793 43.18517
43 52.94100 52.94100 52.94100 23.19622 24.36799 26.83316
44 54.90200 54.90200 54.90200 25.00095 26.36487 28.52014
45 56.86300 56.86300 56.86300 26.82649 28.23930 30.79214
46 58.82400 58.82400 58.82400 28.94132 30.59568 33.20399
47 60.78400 60.78400 60.78400 31.23485 32.77908 36.01268
48 62.74500 62.74500 62.74500 33.36174 34.92285 38.70377
49 64.70600 64.70600 64.70600 35.66139 37.56144 41.30188
50 66.66700 66.66700 66.66700 38.46302 40.37891 44.34954
51 68.62700 68.62700 68.62700 40.71543 42.71309 47.00528
52 70.58800 70.58800 70.58800 43.40080 45.60201 49.98552
53 72.54900 72.54900 72.54900 46.22881 48.65247 52.91698
54 76.47100 76.47100 76.47100 51.59744 54.23310 59.33130
55 78.43100 78.43100 78.43100 54.61974 57.42821 62.33885
56 80.39200 80.39200 80.39200 57.95997 60.63359 66.84452
57 82.35300 82.35300 82.35300 60.86333 64.14883 69.63767
58 84.31400 84.31400 84.31400 64.17559 67.55841 73.59834
59 86.27500 86.27500 86.27500 67.49815 70.96833 77.60752
60 88.23500 88.23500 88.23500 71.06500 74.79634 81.94142
61 90.19600 90.19600 90.19600 74.99708 78.92748 86.41070
62 92.15700 92.15700 92.15700 78.78457 82.72997 89.85266
63 94.11800 94.11800 94.11800 82.94909 87.27882 94.59081
64 96.07800 96.07800 96.07800 87.02009 91.61955 99.30153
65 98.03900 98.03900 98.03900 91.19282 95.96357 104.4915
66 25.00000 25.00000 0.000000 3.906016 4.717759 0.732981
67 50.00000 25.00000 0.000000 9.837081 7.787001 0.830000
68 75.00000 25.00000 0.000000 21.04009 13.56094 1.015860
69 100.0000 25.00000 0.000000 38.86967 22.74603 1.307952
70 100.0000 50.00000 0.000000 45.03345 34.85339 2.479397
71 50.00000 50.00000 0.000000 16.06842 19.82682 1.987493
72 75.00000 50.00000 0.000000 27.31469 25.66296 2.180916
73 25.00000 50.00000 0.000000 10.11211 16.69383 1.883497
74 25.00000 75.00000 0.000000 21.49770 38.67384 3.995547
75 50.00000 75.00000 0.000000 27.44234 41.85230 4.106365
76 75.00000 75.00000 0.000000 38.68003 47.71523 4.305458
77 100.0000 75.00000 0.000000 56.56656 56.99629 4.599029
78 25.00000 100.0000 0.000000 39.52083 73.22499 7.322713
79 50.00000 100.0000 0.000000 45.29789 76.45304 7.444692
80 75.00000 100.0000 0.000000 56.57820 82.28500 7.638004
81 100.0000 100.0000 0.000000 74.62578 91.72193 7.929593
82 100.0000 100.0000 25.00000 75.90260 92.17340 13.11949
83 50.00000 0.000000 25.00000 9.128607 4.673999 5.449484
84 50.00000 25.00000 50.00000 14.36919 9.660172 22.60349
85 0.000000 25.00000 0.000000 1.997996 3.673034 0.695294
86 0.000000 25.00000 25.00000 3.008071 4.087485 5.777107
87 25.49000 25.49000 25.49000 5.041853 5.259744 5.990571
88 50.00000 25.00000 25.00000 11.01736 8.286736 5.926037
89 75.00000 25.00000 25.00000 22.33827 14.12595 6.109256
90 0.000000 50.00000 0.000000 8.090082 15.41370 1.822949
91 0.000000 50.00000 25.00000 9.094471 15.82980 6.944105
92 25.00000 50.00000 25.00000 11.17801 17.14353 7.016412
93 50.00000 50.00000 25.00000 17.27473 20.34976 7.123887
94 75.00000 50.00000 25.00000 28.64075 26.24493 7.314458
95 0.000000 75.00000 0.000000 19.36791 37.15839 3.920553
96 0.000000 75.00000 25.00000 20.37398 37.58619 9.064988
97 25.00000 75.00000 25.00000 22.56984 39.12608 9.149101
98 50.00000 75.00000 25.00000 28.62836 42.36414 9.272624
99 75.00000 75.00000 25.00000 40.08933 48.33840 9.465650
100 0.000000 100.0000 0.000000 37.16127 71.63852 7.236420
101 0.000000 100.0000 25.00000 38.27753 72.20368 12.42895
102 25.00000 100.0000 25.00000 40.38797 73.69587 12.51381
103 50.00000 100.0000 25.00000 46.57260 76.90445 12.62464
104 75.00000 100.0000 25.00000 57.94442 82.94447 12.83598
105 0.000000 0.000000 50.00000 4.404205 1.906603 21.67728
106 25.00000 0.000000 50.00000 6.324412 2.889871 21.71359
107 50.00000 0.000000 50.00000 12.40427 6.020094 21.80689
108 75.00000 0.000000 50.00000 23.74503 11.84845 22.00459
109 100.0000 0.000000 50.00000 41.58357 21.02461 22.27963
110 100.0000 0.000000 75.00000 47.66407 23.51136 52.60959
111 100.0000 25.00000 75.00000 49.72295 27.23743 53.74122
112 75.00000 0.000000 25.00000 20.44601 10.49260 5.636890
113 75.00000 25.00000 50.00000 25.72310 15.51886 22.82565
114 100.0000 25.00000 50.00000 43.62164 24.73772 23.10088
115 25.00000 25.00000 50.00000 8.259950 6.510782 22.47147
116 25.00000 50.00000 50.00000 14.51020 18.50606 23.79950
117 75.00000 50.00000 50.00000 32.04423 27.64843 24.12281
118 100.0000 50.00000 50.00000 50.01314 36.92893 24.38622
119 100.0000 50.00000 75.00000 56.01841 39.39488 55.13008
120 25.00000 75.00000 50.00000 25.85713 40.46578 26.01622
121 50.00000 75.00000 50.00000 31.97521 43.72381 26.14308
122 75.00000 75.00000 50.00000 43.41427 49.71504 26.34577
123 100.0000 75.00000 50.00000 61.37051 58.94391 26.62015
124 100.0000 75.00000 75.00000 67.63988 61.50064 57.41058
125 25.00000 100.0000 50.00000 43.85267 74.98490 29.46401
126 50.00000 100.0000 50.00000 50.12455 78.40140 29.57277
127 75.00000 100.0000 50.00000 61.25080 84.34726 29.79939
128 100.0000 100.0000 50.00000 79.45758 93.67045 30.08192
129 25.00000 0.000000 75.00000 12.30951 5.333973 52.03506
130 50.00000 0.000000 75.00000 18.41558 8.477829 52.13589
131 75.00000 0.000000 75.00000 29.80754 14.32777 52.32375
132 75.00000 25.00000 75.00000 31.84167 18.01802 53.44054
133 75.00000 50.00000 100.0000 47.69501 34.03354 102.8108
134 25.00000 25.00000 75.00000 14.30611 8.973616 53.14498
135 25.00000 50.00000 100.0000 30.03994 24.82839 102.5234
136 0.000000 25.00000 50.00000 6.288453 5.426173 22.47137
137 0.000000 25.00000 75.00000 12.34665 7.899290 53.08239
138 0.000000 50.00000 75.00000 18.46281 19.64494 54.44892
139 25.00000 50.00000 75.00000 20.55744 20.97251 54.54772
140 50.00000 50.00000 75.00000 26.71813 24.19484 54.63809
141 75.00000 50.00000 75.00000 38.13638 30.13152 54.84997
142 74.51000 74.51000 74.51000 49.09411 51.75628 56.35714
143 0.000000 75.00000 75.00000 29.78437 41.43536 56.69910
144 25.00000 75.00000 75.00000 31.88154 42.92900 56.82893
145 50.00000 75.00000 75.00000 38.31537 46.23186 56.94162
146 0.000000 75.00000 50.00000 23.68424 38.93973 25.93308
147 0.000000 100.0000 50.00000 41.74434 73.49278 29.38909
148 0.000000 100.0000 75.00000 47.77440 75.95554 60.22433
149 25.00000 100.0000 75.00000 49.98529 77.65608 60.36931
150 50.00000 100.0000 75.00000 56.16974 80.86465 60.47930
151 75.00000 100.0000 75.00000 67.53854 86.90457 60.67640
152 75.00000 100.0000 100.0000 77.28619 90.75076 108.4810
153 25.00000 0.000000 100.0000 21.80988 9.197478 100.0153
154 50.00000 0.000000 100.0000 27.94357 12.35636 100.1206
155 0.000000 0.000000 75.00000 10.39847 4.349776 52.02027
156 0.000000 0.000000 100.0000 19.86660 8.198369 99.97489
157 0.000000 25.00000 100.0000 21.81184 11.74587 101.1194
158 25.00000 25.00000 100.0000 23.80204 12.83612 101.1822
159 50.00000 25.00000 100.0000 29.99143 16.02438 101.2851
160 75.00000 25.00000 100.0000 41.40052 21.91770 101.4416
161 100.0000 25.00000 100.0000 59.32171 31.14324 101.7429
162 100.0000 50.00000 100.0000 65.68203 43.33772 103.1734
163 50.00000 25.00000 75.00000 20.44877 12.14212 53.29464
164 50.00000 50.00000 100.0000 36.25191 28.08445 102.6434
165 0.000000 50.00000 50.00000 12.42657 17.18660 23.74779
166 0.000000 50.00000 100.0000 27.98044 23.51114 102.5094
167 0.000000 75.00000 100.0000 39.15789 45.30399 104.7800
168 25.00000 75.00000 100.0000 41.51379 46.89034 104.8490
169 50.00000 75.00000 100.0000 47.69831 50.09891 104.9593
170 75.00000 75.00000 100.0000 59.06387 56.13873 105.1412
171 100.0000 75.00000 100.0000 77.28533 65.46240 105.4929
172 0.000000 100.0000 100.0000 57.12231 79.82146 108.0770
173 25.00000 100.0000 100.0000 59.57349 81.41089 108.5950
174 50.00000 100.0000 100.0000 65.56587 84.73213 108.5592
175 100.0000 100.0000 100.0000 95.11077 100.0943 108.8942
END_DATA
CAL    

DESCRIPTOR "Argyll Device Calibration State"
ORIGINATOR "Argyll dispread"
CREATED "Tue Feb 05 09:50:18 2019"
DEVICE_CLASS "DISPLAY"
COLOR_REP "RGB"

BEGIN_ARGYLL_DISPCAL_ARGS
-v2 -ql -m -w0.3127,0.329 -gs -f1.0 -k0 -A4.0 -d2 -c1 -yn -P0.474890829694,0.298689138577,1.49589041096
END_ARGYLL_DISPCAL_ARGS


NUMBER_OF_FIELDS 4
BEGIN_DATA_FORMAT
RGB_I RGB_R RGB_G RGB_B
END_DATA_FORMAT

NUMBER_OF_SETS 256
BEGIN_DATA
0.00000000 0.00000000 0.00000000 0.00000000
0.00392157 0.00743809 0.00749287 0.00828233
0.00784314 0.01475530 0.01481080 0.01639490
0.01176470 0.02195460 0.02195990 0.02434280
0.01568630 0.02903880 0.02894580 0.03213100
0.01960780 0.03600820 0.03577590 0.03977170
0.02352940 0.04281450 0.04244490 0.04724310
0.02745100 0.04932970 0.04886990 0.05438110
0.03137250 0.05547010 0.05497320 0.06107060
0.03529410 0.06120740 0.06071420 0.06728220
0.03921570 0.06654590 0.06607340 0.07301670
0.04313730 0.07151000 0.07104740 0.07829040
0.04705880 0.07614520 0.07566280 0.08315160
0.05098040 0.08051230 0.07996860 0.08766370
0.05490200 0.08465950 0.08401590 0.09189370
0.05882350 0.08863100 0.08784960 0.09589720
0.06274510 0.09246440 0.09151080 0.09971870
0.06666670 0.09618170 0.09503020 0.10339700
0.07058820 0.09980150 0.09843050 0.10697200
0.07450980 0.10333600 0.10173800 0.11046300
0.07843140 0.10680600 0.10496500 0.11389300
0.08235290 0.11021900 0.10812600 0.11727500
0.08627450 0.11357900 0.11123800 0.12061400
0.09019610 0.11688900 0.11430300 0.12391400
0.09411760 0.12016900 0.11732900 0.12720000
0.09803920 0.12341400 0.12032600 0.13047200
0.10196100 0.12662300 0.12330500 0.13372500
0.10588200 0.12979400 0.12626400 0.13696100
0.10980400 0.13293900 0.12920200 0.14018100
0.11372500 0.13607100 0.13212400 0.14340200
0.11764700 0.13918800 0.13503800 0.14662600
0.12156900 0.14228900 0.13795600 0.14984600
0.12549000 0.14536900 0.14087700 0.15305900
0.12941200 0.14842500 0.14380000 0.15626100
0.13333300 0.15145900 0.14672200 0.15945500
0.13725500 0.15449400 0.14964000 0.16265300
0.14117600 0.15753300 0.15255400 0.16587200
0.14509800 0.16057300 0.15547500 0.16911300
0.14902000 0.16361600 0.15842300 0.17237300
0.15294100 0.16666500 0.16139700 0.17565500
0.15686300 0.16971700 0.16439200 0.17896600
0.16078400 0.17277000 0.16740900 0.18230200
0.16470600 0.17582100 0.17045200 0.18566400
0.16862700 0.17886400 0.17351200 0.18905300
0.17254900 0.18192300 0.17658800 0.19247700
0.17647100 0.18501000 0.17967400 0.19596700
0.18039200 0.18812300 0.18276600 0.19952200
0.18431400 0.19125600 0.18588600 0.20313700
0.18823500 0.19440700 0.18904400 0.20678800
0.19215700 0.19757400 0.19224000 0.21047100
0.19607800 0.20076000 0.19546300 0.21418500
0.20000000 0.20396000 0.19869900 0.21793000
0.20392200 0.20716500 0.20194800 0.22169300
0.20784300 0.21038000 0.20520900 0.22547200
0.21176500 0.21359500 0.20848100 0.22925700
0.21568600 0.21680700 0.21175700 0.23303100
0.21960800 0.22002300 0.21504100 0.23679100
0.22352900 0.22324900 0.21832600 0.24055100
0.22745100 0.22649600 0.22159900 0.24432200
0.23137300 0.22977000 0.22486300 0.24811000
0.23529400 0.23307000 0.22812900 0.25191700
0.23921600 0.23639600 0.23141600 0.25575100
0.24313700 0.23973600 0.23472900 0.25958900
0.24705900 0.24308900 0.23807100 0.26343300
0.25098000 0.24645900 0.24144700 0.26728500
0.25490200 0.24984200 0.24485600 0.27114500
0.25882400 0.25324200 0.24828800 0.27502200
0.26274500 0.25667100 0.25174500 0.27893800
0.26666700 0.26014100 0.25522500 0.28288300
0.27058800 0.26364000 0.25873400 0.28685000
0.27451000 0.26716300 0.26228000 0.29085100
0.27843100 0.27071100 0.26588600 0.29485200
0.28235300 0.27426500 0.26954900 0.29883000
0.28627500 0.27781500 0.27326000 0.30280300
0.29019600 0.28136600 0.27702200 0.30680000
0.29411800 0.28492900 0.28080900 0.31081600
0.29803900 0.28849200 0.28460200 0.31485400
0.30196100 0.29205100 0.28840300 0.31891400
0.30588200 0.29560100 0.29223700 0.32299500
0.30980400 0.29914400 0.29610200 0.32710400
0.31372500 0.30268300 0.29999600 0.33124800
0.31764700 0.30623100 0.30391500 0.33543900
0.32156900 0.30979100 0.30785700 0.33966500
0.32549000 0.31337200 0.31182900 0.34388600
0.32941200 0.31695800 0.31583500 0.34809700
0.33333300 0.32053200 0.31988200 0.35230000
0.33725500 0.32409600 0.32396200 0.35649100
0.34117600 0.32765300 0.32802900 0.36067500
0.34509800 0.33120400 0.33207800 0.36483700
0.34902000 0.33475000 0.33610700 0.36898000
0.35294100 0.33828000 0.34011500 0.37309200
0.35686300 0.34179100 0.34411200 0.37718400
0.36078400 0.34527400 0.34808700 0.38127800
0.36470600 0.34872800 0.35203400 0.38539200
0.36862700 0.35217200 0.35594300 0.38953100
0.37254900 0.35561500 0.35981900 0.39368500
0.37647100 0.35906500 0.36368700 0.39783700
0.38039200 0.36253300 0.36755300 0.40199000
0.38431400 0.36600800 0.37142900 0.40614700
0.38823500 0.36947900 0.37531000 0.41027100
0.39215700 0.37294800 0.37918500 0.41433300
0.39607800 0.37643100 0.38305300 0.41831800
0.40000000 0.37990400 0.38693200 0.42224400
0.40392200 0.38334800 0.39080400 0.42612700
0.40784300 0.38675200 0.39462900 0.42998400
0.41176500 0.39011800 0.39838700 0.43383700
0.41568600 0.39345700 0.40208700 0.43769000
0.41960800 0.39677500 0.40574500 0.44154600
0.42352900 0.40008800 0.40936800 0.44539600
0.42745100 0.40340600 0.41298300 0.44923500
0.43137300 0.40673000 0.41659500 0.45305200
0.43529400 0.41006200 0.42021000 0.45684600
0.43921600 0.41339200 0.42381800 0.46063800
0.44313700 0.41671900 0.42741400 0.46442200
0.44705900 0.42003800 0.43099100 0.46820400
0.45098000 0.42334400 0.43454100 0.47197300
0.45490200 0.42665200 0.43808000 0.47573400
0.45882400 0.42996100 0.44161500 0.47948300
0.46274500 0.43326700 0.44514300 0.48322100
0.46666700 0.43656700 0.44865900 0.48694700
0.47058800 0.43986000 0.45215500 0.49066000
0.47451000 0.44314700 0.45563800 0.49435900
0.47843100 0.44642800 0.45910600 0.49804800
0.48235300 0.44970300 0.46256100 0.50176900
0.48627500 0.45297100 0.46600000 0.50551800
0.49019600 0.45623200 0.46942300 0.50927200
0.49411800 0.45948700 0.47283100 0.51302800
0.49803900 0.46273900 0.47622700 0.51678700
0.50196100 0.46601700 0.47964300 0.52055000
0.50588200 0.46931600 0.48308300 0.52431900
0.50980400 0.47261900 0.48652600 0.52809200
0.51372500 0.47591800 0.48996900 0.53187300
0.51764700 0.47921500 0.49341100 0.53565800
0.52156900 0.48250900 0.49685300 0.53945500
0.52549000 0.48580000 0.50029600 0.54326300
0.52941200 0.48908900 0.50374000 0.54707400
0.53333300 0.49237600 0.50718600 0.55088700
0.53725500 0.49566000 0.51062700 0.55469000
0.54117600 0.49894200 0.51407000 0.55849300
0.54509800 0.50222800 0.51752100 0.56231300
0.54902000 0.50552300 0.52098000 0.56615200
0.55294100 0.50882100 0.52444000 0.56999400
0.55686300 0.51211900 0.52789300 0.57383800
0.56078400 0.51541100 0.53133000 0.57767300
0.56470600 0.51870100 0.53477100 0.58148400
0.56862700 0.52200400 0.53822400 0.58526200
0.57254900 0.52532500 0.54168700 0.58902400
0.57647100 0.52865200 0.54515100 0.59278000
0.58039200 0.53198000 0.54861800 0.59652200
0.58431400 0.53530900 0.55207000 0.60025800
0.58823500 0.53862600 0.55549800 0.60399400
0.59215700 0.54192100 0.55889700 0.60771400
0.59607800 0.54519700 0.56228200 0.61142400
0.60000000 0.54846000 0.56566400 0.61512600
0.60392200 0.55171500 0.56904300 0.61881900
0.60784300 0.55495700 0.57242700 0.62250100
0.61176500 0.55819700 0.57583500 0.62616200
0.61568600 0.56145100 0.57924900 0.62982600
0.61960800 0.56471800 0.58266900 0.63350200
0.62352900 0.56799900 0.58609800 0.63720300
0.62745100 0.57129800 0.58953000 0.64095500
0.63137300 0.57461100 0.59296700 0.64477100
0.63529400 0.57793100 0.59640100 0.64864600
0.63921600 0.58125400 0.59984200 0.65256400
0.64313700 0.58459800 0.60330600 0.65650300
0.64705900 0.58796700 0.60679400 0.66045400
0.65098000 0.59136600 0.61032100 0.66441900
0.65490200 0.59481100 0.61391300 0.66840300
0.65882400 0.59832100 0.61757700 0.67239500
0.66274500 0.60189700 0.62130400 0.67636700
0.66666700 0.60553100 0.62507300 0.68031800
0.67058800 0.60920500 0.62887100 0.68424300
0.67451000 0.61290500 0.63269500 0.68811600
0.67843100 0.61663000 0.63654600 0.69192000
0.68235300 0.62037900 0.64042100 0.69564900
0.68627500 0.62414300 0.64428800 0.69931200
0.69019600 0.62790800 0.64814000 0.70293400
0.69411800 0.63167400 0.65197700 0.70654500
0.69803900 0.63543400 0.65578100 0.71014900
0.70196100 0.63916700 0.65953600 0.71374400
0.70588200 0.64285700 0.66323300 0.71735300
0.70980400 0.64650700 0.66688000 0.72098000
0.71372500 0.65013200 0.67049000 0.72462900
0.71764700 0.65374900 0.67408800 0.72829500
0.72156900 0.65736400 0.67768300 0.73198200
0.72549000 0.66098100 0.68127700 0.73568300
0.72941200 0.66459800 0.68488400 0.73939000
0.73333300 0.66823900 0.68852300 0.74310600
0.73725500 0.67190900 0.69219600 0.74682700
0.74117600 0.67560600 0.69589800 0.75056100
0.74509800 0.67932600 0.69962300 0.75431400
0.74902000 0.68306200 0.70336100 0.75808000
0.75294100 0.68681000 0.70709800 0.76185700
0.75686300 0.69057100 0.71083800 0.76564600
0.76078400 0.69434300 0.71458000 0.76944800
0.76470600 0.69814000 0.71834100 0.77326400
0.76862700 0.70196200 0.72212500 0.77708800
0.77254900 0.70580000 0.72593000 0.78092900
0.77647100 0.70965200 0.72975300 0.78481100
0.78039200 0.71351900 0.73359000 0.78873900
0.78431400 0.71739400 0.73743200 0.79270300
0.78823500 0.72126800 0.74127500 0.79668100
0.79215700 0.72513700 0.74511400 0.80067200
0.79607800 0.72902300 0.74897500 0.80466400
0.80000000 0.73294000 0.75286800 0.80863000
0.80392200 0.73687800 0.75678700 0.81256200
0.80784300 0.74081700 0.76071300 0.81643900
0.81176500 0.74475700 0.76464300 0.82026200
0.81568600 0.74869300 0.76857700 0.82405800
0.81960800 0.75260900 0.77248700 0.82783800
0.82352900 0.75648900 0.77636400 0.83159300
0.82745100 0.76032200 0.78019400 0.83532900
0.83137300 0.76412600 0.78398300 0.83907400
0.83529400 0.76791900 0.78775900 0.84282900
0.83921600 0.77170200 0.79153800 0.84660100
0.84313700 0.77547400 0.79531800 0.85039200
0.84705900 0.77926000 0.79912600 0.85419500
0.85098000 0.78306200 0.80297300 0.85800300
0.85490200 0.78687800 0.80685800 0.86181400
0.85882400 0.79072200 0.81078800 0.86561200
0.86274500 0.79458600 0.81476900 0.86938000
0.86666700 0.79846000 0.81878700 0.87311300
0.87058800 0.80233200 0.82282700 0.87682200
0.87451000 0.80619300 0.82687500 0.88053100
0.87843100 0.81003000 0.83091100 0.88424800
0.88235300 0.81385600 0.83492100 0.88796400
0.88627500 0.81769800 0.83892000 0.89167400
0.89019600 0.82156500 0.84293200 0.89537000
0.89411800 0.82545400 0.84695500 0.89904200
0.89803900 0.82935600 0.85097300 0.90269400
0.90196100 0.83327300 0.85498000 0.90635800
0.90588200 0.83719600 0.85896700 0.91002300
0.90980400 0.84113800 0.86293900 0.91368800
0.91372500 0.84509700 0.86692300 0.91734600
0.91764700 0.84906300 0.87091100 0.92100500
0.92156900 0.85302500 0.87489400 0.92466800
0.92549000 0.85699000 0.87887100 0.92834100
0.92941200 0.86094700 0.88285600 0.93202000
0.93333300 0.86489000 0.88684600 0.93570400
0.93725500 0.86880800 0.89083400 0.93940100
0.94117600 0.87270800 0.89482100 0.94310400
0.94509800 0.87658500 0.89881600 0.94681900
0.94902000 0.88044000 0.90281700 0.95054400
0.95294100 0.88427300 0.90683100 0.95428200
0.95686300 0.88808400 0.91085600 0.95803300
0.96078400 0.89187500 0.91488800 0.96179500
0.96470600 0.89564900 0.91892100 0.96556600
0.96862700 0.89941100 0.92295500 0.96934400
0.97254900 0.90316300 0.92699200 0.97313000
0.97647100 0.90690500 0.93103400 0.97692300
0.98039200 0.91063600 0.93508300 0.98072500
0.98431400 0.91435800 0.93913600 0.98453300
0.98823500 0.91807000 0.94319600 0.98835000
0.99215700 0.92177200 0.94726100 0.99217500
0.99607800 0.92546400 0.95133200 0.99600700
1.00000000 0.92914600 0.95540800 0.99984700
END_DATA
