Dell/U2414H/U2414H #2 2019-02-05 09-42 0.3127x 0.329y sRGB F-S XYZLUT+MTX/U2414H #2 2019-02-05 09-42 0.3127x 0.329y sRGB F-S XYZLUT+MTX.cal
CAL    

DESCRIPTOR "Argyll Device Calibration Curves"
ORIGINATOR "Argyll dispcal"
CREATED "Tue Feb 05 09:50:17 2019"
DEVICE_CLASS "DISPLAY"
COLOR_REP "RGB"
VIDEO_LUT_CALIBRATION_POSSIBLE "YES"
TV_OUTPUT_ENCODING "NO"
DEVICE_TYPE "n"
TARGET_WHITE_XYZ "34.026737 35.800436 38.988743"
TARGET_GAMMA "sRGB"
DEGREE_OF_BLACK_OUTPUT_OFFSET "1.0"
BLACK_POINT_CORRECTION "0.0"
BLACK_NEUTRAL_BLEND_RATE "4.0"
BLACK_POINT_HACK "YES"
QUALITY "low"

BEGIN_ARGYLL_DISPCAL_ARGS
-v2 -d2 -c1 -yn -P0.474890829694,0.298689138577,1.49589041096 -ql -m -w0.3127,0.329 -gs -f1.0 -k0 -A4.0 -b
END_ARGYLL_DISPCAL_ARGS


NUMBER_OF_FIELDS 4
BEGIN_DATA_FORMAT
RGB_I RGB_R RGB_G RGB_B
END_DATA_FORMAT

NUMBER_OF_SETS 256
BEGIN_DATA
0.00000000 0.00000000 0.00000000 0.00000000
0.00392157 0.00743809 0.00749287 0.00828233
0.00784314 0.01475530 0.01481080 0.01639490
0.01176470 0.02195460 0.02195990 0.02434280
0.01568630 0.02903880 0.02894580 0.03213100
0.01960780 0.03600820 0.03577590 0.03977170
0.02352940 0.04281450 0.04244490 0.04724310
0.02745100 0.04932970 0.04886990 0.05438110
0.03137250 0.05547010 0.05497320 0.06107060
0.03529410 0.06120740 0.06071420 0.06728220
0.03921570 0.06654590 0.06607340 0.07301670
0.04313730 0.07151000 0.07104740 0.07829040
0.04705880 0.07614520 0.07566280 0.08315160
0.05098040 0.08051230 0.07996860 0.08766370
0.05490200 0.08465950 0.08401590 0.09189370
0.05882350 0.08863100 0.08784960 0.09589720
0.06274510 0.09246440 0.09151080 0.09971870
0.06666670 0.09618170 0.09503020 0.10339700
0.07058820 0.09980150 0.09843050 0.10697200
0.07450980 0.10333600 0.10173800 0.11046300
0.07843140 0.10680600 0.10496500 0.11389300
0.08235290 0.11021900 0.10812600 0.11727500
0.08627450 0.11357900 0.11123800 0.12061400
0.09019610 0.11688900 0.11430300 0.12391400
0.09411760 0.12016900 0.11732900 0.12720000
0.09803920 0.12341400 0.12032600 0.13047200
0.10196100 0.12662300 0.12330500 0.13372500
0.10588200 0.12979400 0.12626400 0.13696100
0.10980400 0.13293900 0.12920200 0.14018100
0.11372500 0.13607100 0.13212400 0.14340200
0.11764700 0.13918800 0.13503800 0.14662600
0.12156900 0.14228900 0.13795600 0.14984600
0.12549000 0.14536900 0.14087700 0.15305900
0.12941200 0.14842500 0.14380000 0.15626100
0.13333300 0.15145900 0.14672200 0.15945500
0.13725500 0.15449400 0.14964000 0.16265300
0.14117600 0.15753300 0.15255400 0.16587200
0.14509800 0.16057300 0.15547500 0.16911300
0.14902000 0.16361600 0.15842300 0.17237300
0.15294100 0.16666500 0.16139700 0.17565500
0.15686300 0.16971700 0.16439200 0.17896600
0.16078400 0.17277000 0.16740900 0.18230200
0.16470600 0.17582100 0.17045200 0.18566400
0.16862700 0.17886400 0.17351200 0.18905300
0.17254900 0.18192300 0.17658800 0.19247700
0.17647100 0.18501000 0.17967400 0.19596700
0.18039200 0.18812300 0.18276600 0.19952200
0.18431400 0.19125600 0.18588600 0.20313700
0.18823500 0.19440700 0.18904400 0.20678800
0.19215700 0.19757400 0.19224000 0.21047100
0.19607800 0.20076000 0.19546300 0.21418500
0.20000000 0.20396000 0.19869900 0.21793000
0.20392200 0.20716500 0.20194800 0.22169300
0.20784300 0.21038000 0.20520900 0.22547200
0.21176500 0.21359500 0.20848100 0.22925700
0.21568600 0.21680700 0.21175700 0.23303100
0.21960800 0.22002300 0.21504100 0.23679100
0.22352900 0.22324900 0.21832600 0.24055100
0.22745100 0.22649600 0.22159900 0.24432200
0.23137300 0.22977000 0.22486300 0.24811000
0.23529400 0.23307000 0.22812900 0.25191700
0.23921600 0.23639600 0.23141600 0.25575100
0.24313700 0.23973600 0.23472900 0.25958900
0.24705900 0.24308900 0.23807100 0.26343300
0.25098000 0.24645900 0.24144700 0.26728500
0.25490200 0.24984200 0.24485600 0.27114500
0.25882400 0.25324200 0.24828800 0.27502200
0.26274500 0.25667100 0.25174500 0.27893800
0.26666700 0.26014100 0.25522500 0.28288300
0.27058800 0.26364000 0.25873400 0.28685000
0.27451000 0.26716300 0.26228000 0.29085100
0.27843100 0.27071100 0.26588600 0.29485200
0.28235300 0.27426500 0.26954900 0.29883000
0.28627500 0.27781500 0.27326000 0.30280300
0.29019600 0.28136600 0.27702200 0.30680000
0.29411800 0.28492900 0.28080900 0.31081600
0.29803900 0.28849200 0.28460200 0.31485400
0.30196100 0.29205100 0.28840300 0.31891400
0.30588200 0.29560100 0.29223700 0.32299500
0.30980400 0.29914400 0.29610200 0.32710400
0.31372500 0.30268300 0.29999600 0.33124800
0.31764700 0.30623100 0.30391500 0.33543900
0.32156900 0.30979100 0.30785700 0.33966500
0.32549000 0.31337200 0.31182900 0.34388600
0.32941200 0.31695800 0.31583500 0.34809700
0.33333300 0.32053200 0.31988200 0.35230000
0.33725500 0.32409600 0.32396200 0.35649100
0.34117600 0.32765300 0.32802900 0.36067500
0.34509800 0.33120400 0.33207800 0.36483700
0.34902000 0.33475000 0.33610700 0.36898000
0.35294100 0.33828000 0.34011500 0.37309200
0.35686300 0.34179100 0.34411200 0.37718400
0.36078400 0.34527400 0.34808700 0.38127800
0.36470600 0.34872800 0.35203400 0.38539200
0.36862700 0.35217200 0.35594300 0.38953100
0.37254900 0.35561500 0.35981900 0.39368500
0.37647100 0.35906500 0.36368700 0.39783700
0.38039200 0.36253300 0.36755300 0.40199000
0.38431400 0.36600800 0.37142900 0.40614700
0.38823500 0.36947900 0.37531000 0.41027100
0.39215700 0.37294800 0.37918500 0.41433300
0.39607800 0.37643100 0.38305300 0.41831800
0.40000000 0.37990400 0.38693200 0.42224400
0.40392200 0.38334800 0.39080400 0.42612700
0.40784300 0.38675200 0.39462900 0.42998400
0.41176500 0.39011800 0.39838700 0.43383700
0.41568600 0.39345700 0.40208700 0.43769000
0.41960800 0.39677500 0.40574500 0.44154600
0.42352900 0.40008800 0.40936800 0.44539600
0.42745100 0.40340600 0.41298300 0.44923500
0.43137300 0.40673000 0.41659500 0.45305200
0.43529400 0.41006200 0.42021000 0.45684600
0.43921600 0.41339200 0.42381800 0.46063800
0.44313700 0.41671900 0.42741400 0.46442200
0.44705900 0.42003800 0.43099100 0.46820400
0.45098000 0.42334400 0.43454100 0.47197300
0.45490200 0.42665200 0.43808000 0.47573400
0.45882400 0.42996100 0.44161500 0.47948300
0.46274500 0.43326700 0.44514300 0.48322100
0.46666700 0.43656700 0.44865900 0.48694700
0.47058800 0.43986000 0.45215500 0.49066000
0.47451000 0.44314700 0.45563800 0.49435900
0.47843100 0.44642800 0.45910600 0.49804800
0.48235300 0.44970300 0.46256100 0.50176900
0.48627500 0.45297100 0.46600000 0.50551800
0.49019600 0.45623200 0.46942300 0.50927200
0.49411800 0.45948700 0.47283100 0.51302800
0.49803900 0.46273900 0.47622700 0.51678700
0.50196100 0.46601700 0.47964300 0.52055000
0.50588200 0.46931600 0.48308300 0.52431900
0.50980400 0.47261900 0.48652600 0.52809200
0.51372500 0.47591800 0.48996900 0.53187300
0.51764700 0.47921500 0.49341100 0.53565800
0.52156900 0.48250900 0.49685300 0.53945500
0.52549000 0.48580000 0.50029600 0.54326300
0.52941200 0.48908900 0.50374000 0.54707400
0.53333300 0.49237600 0.50718600 0.55088700
0.53725500 0.49566000 0.51062700 0.55469000
0.54117600 0.49894200 0.51407000 0.55849300
0.54509800 0.50222800 0.51752100 0.56231300
0.54902000 0.50552300 0.52098000 0.56615200
0.55294100 0.50882100 0.52444000 0.56999400
0.55686300 0.51211900 0.52789300 0.57383800
0.56078400 0.51541100 0.53133000 0.57767300
0.56470600 0.51870100 0.53477100 0.58148400
0.56862700 0.52200400 0.53822400 0.58526200
0.57254900 0.52532500 0.54168700 0.58902400
0.57647100 0.52865200 0.54515100 0.59278000
0.58039200 0.53198000 0.54861800 0.59652200
0.58431400 0.53530900 0.55207000 0.60025800
0.58823500 0.53862600 0.55549800 0.60399400
0.59215700 0.54192100 0.55889700 0.60771400
0.59607800 0.54519700 0.56228200 0.61142400
0.60000000 0.54846000 0.56566400 0.61512600
0.60392200 0.55171500 0.56904300 0.61881900
0.60784300 0.55495700 0.57242700 0.62250100
0.61176500 0.55819700 0.57583500 0.62616200
0.61568600 0.56145100 0.57924900 0.62982600
0.61960800 0.56471800 0.58266900 0.63350200
0.62352900 0.56799900 0.58609800 0.63720300
0.62745100 0.57129800 0.58953000 0.64095500
0.63137300 0.57461100 0.59296700 0.64477100
0.63529400 0.57793100 0.59640100 0.64864600
0.63921600 0.58125400 0.59984200 0.65256400
0.64313700 0.58459800 0.60330600 0.65650300
0.64705900 0.58796700 0.60679400 0.66045400
0.65098000 0.59136600 0.61032100 0.66441900
0.65490200 0.59481100 0.61391300 0.66840300
0.65882400 0.59832100 0.61757700 0.67239500
0.66274500 0.60189700 0.62130400 0.67636700
0.66666700 0.60553100 0.62507300 0.68031800
0.67058800 0.60920500 0.62887100 0.68424300
0.67451000 0.61290500 0.63269500 0.68811600
0.67843100 0.61663000 0.63654600 0.69192000
0.68235300 0.62037900 0.64042100 0.69564900
0.68627500 0.62414300 0.64428800 0.69931200
0.69019600 0.62790800 0.64814000 0.70293400
0.69411800 0.63167400 0.65197700 0.70654500
0.69803900 0.63543400 0.65578100 0.71014900
0.70196100 0.63916700 0.65953600 0.71374400
0.70588200 0.64285700 0.66323300 0.71735300
0.70980400 0.64650700 0.66688000 0.72098000
0.71372500 0.65013200 0.67049000 0.72462900
0.71764700 0.65374900 0.67408800 0.72829500
0.72156900 0.65736400 0.67768300 0.73198200
0.72549000 0.66098100 0.68127700 0.73568300
0.72941200 0.66459800 0.68488400 0.73939000
0.73333300 0.66823900 0.68852300 0.74310600
0.73725500 0.67190900 0.69219600 0.74682700
0.74117600 0.67560600 0.69589800 0.75056100
0.74509800 0.67932600 0.69962300 0.75431400
0.74902000 0.68306200 0.70336100 0.75808000
0.75294100 0.68681000 0.70709800 0.76185700
0.75686300 0.69057100 0.71083800 0.76564600
0.76078400 0.69434300 0.71458000 0.76944800
0.76470600 0.69814000 0.71834100 0.77326400
0.76862700 0.70196200 0.72212500 0.77708800
0.77254900 0.70580000 0.72593000 0.78092900
0.77647100 0.70965200 0.72975300 0.78481100
0.78039200 0.71351900 0.73359000 0.78873900
0.78431400 0.71739400 0.73743200 0.79270300
0.78823500 0.72126800 0.74127500 0.79668100
0.79215700 0.72513700 0.74511400 0.80067200
0.79607800 0.72902300 0.74897500 0.80466400
0.80000000 0.73294000 0.75286800 0.80863000
0.80392200 0.73687800 0.75678700 0.81256200
0.80784300 0.74081700 0.76071300 0.81643900
0.81176500 0.74475700 0.76464300 0.82026200
0.81568600 0.74869300 0.76857700 0.82405800
0.81960800 0.75260900 0.77248700 0.82783800
0.82352900 0.75648900 0.77636400 0.83159300
0.82745100 0.76032200 0.78019400 0.83532900
0.83137300 0.76412600 0.78398300 0.83907400
0.83529400 0.76791900 0.78775900 0.84282900
0.83921600 0.77170200 0.79153800 0.84660100
0.84313700 0.77547400 0.79531800 0.85039200
0.84705900 0.77926000 0.79912600 0.85419500
0.85098000 0.78306200 0.80297300 0.85800300
0.85490200 0.78687800 0.80685800 0.86181400
0.85882400 0.79072200 0.81078800 0.86561200
0.86274500 0.79458600 0.81476900 0.86938000
0.86666700 0.79846000 0.81878700 0.87311300
0.87058800 0.80233200 0.82282700 0.87682200
0.87451000 0.80619300 0.82687500 0.88053100
0.87843100 0.81003000 0.83091100 0.88424800
0.88235300 0.81385600 0.83492100 0.88796400
0.88627500 0.81769800 0.83892000 0.89167400
0.89019600 0.82156500 0.84293200 0.89537000
0.89411800 0.82545400 0.84695500 0.89904200
0.89803900 0.82935600 0.85097300 0.90269400
0.90196100 0.83327300 0.85498000 0.90635800
0.90588200 0.83719600 0.85896700 0.91002300
0.90980400 0.84113800 0.86293900 0.91368800
0.91372500 0.84509700 0.86692300 0.91734600
0.91764700 0.84906300 0.87091100 0.92100500
0.92156900 0.85302500 0.87489400 0.92466800
0.92549000 0.85699000 0.87887100 0.92834100
0.92941200 0.86094700 0.88285600 0.93202000
0.93333300 0.86489000 0.88684600 0.93570400
0.93725500 0.86880800 0.89083400 0.93940100
0.94117600 0.87270800 0.89482100 0.94310400
0.94509800 0.87658500 0.89881600 0.94681900
0.94902000 0.88044000 0.90281700 0.95054400
0.95294100 0.88427300 0.90683100 0.95428200
0.95686300 0.88808400 0.91085600 0.95803300
0.96078400 0.89187500 0.91488800 0.96179500
0.96470600 0.89564900 0.91892100 0.96556600
0.96862700 0.89941100 0.92295500 0.96934400
0.97254900 0.90316300 0.92699200 0.97313000
0.97647100 0.90690500 0.93103400 0.97692300
0.98039200 0.91063600 0.93508300 0.98072500
0.98431400 0.91435800 0.93913600 0.98453300
0.98823500 0.91807000 0.94319600 0.98835000
0.99215700 0.92177200 0.94726100 0.99217500
0.99607800 0.92546400 0.95133200 0.99600700
1.00000000 0.92914600 0.95540800 0.99984700
END_DATA
CAL    

DESCRIPTOR "Argyll Calibration options and model"
ORIGINATOR "Argyll dispcal"
CREATED "Tue Feb 05 09:50:17 201"

NUMBER_OF_FIELDS 3
BEGIN_DATA_FORMAT
R_P G_P B_P
END_DATA_FORMAT

NUMBER_OF_SETS 32
BEGIN_DATA
0.000184544 0.000864166 0.002857360
0.999815000 0.999136000 0.997143000
1.790264000 1.570872000 1.829733000
0.412054000 0.525961000 0.505445000
0.303349000 0.130097000 0.121687000
0.091041900 0.130566000 0.135436000
0.079968900 0.115535000 0.115764000
0.122798000 0.099442000 0.103452000
0.064672500 0.057977300 0.055800400
0.019875400 0.049528200 0.044726100
0.033777200 0.047550100 0.042242000
0.050237300 0.047537700 0.041678800
0.051620700 0.044453800 0.039090500
0.038371400 0.046395900 0.046145900
0.028086700 0.028353800 0.026797500
0.021780800 0.041777100 0.037628500
0.025396400 0.033604800 0.032096800
0.024578700 0.035132700 0.032424000
0.024910200 0.031154300 0.027843600
0.022758800 0.030864600 0.027450100
0.021877000 0.024607300 0.022202200
0.018474500 0.026377300 0.025417300
0.018600300 0.027071300 0.023715000
0.013705200 0.024649500 0.021242200
0.013177800 0.024213900 0.021920900
0.015633400 0.024229700 0.020511300
0.014504100 0.022591400 0.016267600
0.014047700 0.022089500 0.016235300
0.015322900 0.023076100 0.016732200
0.013720100 0.022616900 0.016663200
0.012697400 0.021957000 0.016256300
0.013195000 0.021983900 0.014753200
END_DATA
