KOIOS/K2418U/K2418U #2 2021-02-09 09-32 0.3127x 0.329y sRGB F-S XYZLUT+MTX/K2418U #2 2021-02-09 09-32 0.3127x 0.329y sRGB F-S XYZLUT+MTX.ti1
CTI1   

DESCRIPTOR "Argyll Calibration Target chart information 1"
ORIGINATOR "Argyll targen"
CREATED "Tue Feb 09 09:39:36 2021"
APPROX_WHITE_POINT "90.470294 99.999743 106.456108"
COLOR_REP "RGB"
ACCURATE_EXPECTED_VALUES "true"
DARK_REGION_EMPHASIS "1.6"
WHITE_COLOR_PATCHES "4"
BLACK_COLOR_PATCHES "4"
SINGLE_DIM_STEPS "17"
COMP_GREY_STEPS "49"
OFPS_PATCHES "288"

NUMBER_OF_FIELDS 7
BEGIN_DATA_FORMAT
SAMPLE_ID RGB_R RGB_G RGB_B XYZ_X XYZ_Y XYZ_Z
END_DATA_FORMAT

NUMBER_OF_SETS 417
BEGIN_DATA
1 100.0000 100.0000 100.0000 90.47029 99.99974 106.4561
2 1.960800 1.960800 1.960800 1.142800 1.150200 1.163700
3 3.921600 3.921600 3.921600 1.285600 1.300500 1.327300
4 5.882400 5.882400 5.882400 1.449500 1.472900 1.515200
5 9.803900 9.803900 9.803900 1.914800 1.962400 2.048400
6 13.72600 13.72600 13.72600 2.581700 2.663900 2.812600
7 17.64700 17.64700 17.64700 3.469500 3.597900 3.830000
8 21.56900 21.56900 21.56900 4.595300 4.782200 5.120100
9 25.49000 25.49000 25.49000 5.974500 6.233200 6.700700
10 29.41200 29.41200 29.41200 7.621300 7.965600 8.587900
11 33.33300 33.33300 33.33300 9.548800 9.993300 10.79700
12 37.25500 37.25500 37.25500 11.76900 12.32900 13.34100
13 41.17600 41.17600 41.17600 14.29400 14.98500 16.23400
14 45.09800 45.09800 45.09800 17.13400 17.97300 19.48900
15 49.02000 49.02000 49.02000 20.29900 21.30300 23.11700
16 52.94100 52.94100 52.94100 23.80000 24.98600 27.12900
17 56.86300 56.86300 56.86300 27.64600 29.03200 31.53600
18 60.78400 60.78400 60.78400 31.84600 33.45000 36.34900
19 64.70600 64.70600 64.70600 36.40900 38.25000 41.57800
20 68.62700 68.62700 68.62700 41.34300 43.44000 47.23200
21 72.54900 72.54900 72.54900 46.65600 49.03000 53.32100
22 76.47100 76.47100 76.47100 52.35600 55.02700 59.85300
23 80.39200 80.39200 80.39200 58.45200 61.43900 66.83800
24 84.31400 84.31400 84.31400 64.94900 68.27500 74.28500
25 88.23500 88.23500 88.23500 71.85700 75.54100 82.20000
26 92.15700 92.15700 92.15700 79.18100 83.24600 90.59400
27 96.07800 96.07800 96.07800 86.92900 91.39700 99.47200
28 46.80590 77.17000 45.98820 39.60665 53.08012 32.76643
29 53.18360 90.30550 67.07330 54.97037 71.41362 56.27347
30 15.95780 64.85740 50.78490 26.29126 36.77410 34.19709
31 25.64800 69.55200 64.46890 33.35839 43.39659 48.91959
32 71.58170 79.07660 100.0000 62.96127 64.81667 100.3927
33 17.57030 30.83040 48.99300 11.81085 11.56272 27.87007
34 83.10930 53.02840 49.19880 40.15339 38.26597 31.90292
35 87.00220 72.65720 59.14700 54.16306 58.07524 44.74754
36 100.0000 81.85210 75.80590 69.15433 73.05963 65.64861
37 100.0000 100.0000 84.12780 85.36951 98.42268 81.00381
38 0.000000 19.73150 15.46530 3.318601 4.601063 4.554740
39 0.000000 20.84230 26.75900 4.549271 5.311238 9.633581
40 0.000000 56.56590 38.47190 18.81171 27.98071 21.97723
41 38.31890 61.21090 48.32770 28.68705 36.00062 31.74749
42 13.52780 26.22320 13.03870 5.404327 7.598081 4.333378
43 23.33700 61.33650 13.63190 20.59774 32.53601 9.240115
44 28.59510 65.20110 30.49470 25.29275 37.37009 17.75244
45 28.78900 77.98440 47.48360 35.50177 51.21547 34.10138
46 35.83570 77.06330 59.53180 38.89913 51.85040 45.12139
47 47.60340 90.15250 77.74000 55.32567 70.75608 68.88972
48 76.08700 0.000000 0.000000 18.89400 11.44119 1.609734
49 87.20930 0.000000 0.000000 23.41872 14.14282 1.835269
50 100.0000 0.000000 100.0000 46.36171 22.68244 91.50491
51 100.0000 27.69340 100.0000 50.49687 29.93090 92.90658
52 0.000000 0.000000 0.000000 0.416423 0.408576 0.688717
53 0.000000 2.941200 0.000000 0.575198 0.686892 0.742536
54 0.000000 6.097600 0.000000 0.775897 1.038693 0.810566
55 0.000000 17.12330 0.000000 2.196349 3.528584 1.292047
56 0.000000 21.42860 0.000000 3.052342 5.029040 1.582197
57 0.000000 26.11940 0.000000 4.150724 6.954378 1.954509
58 0.000000 31.25000 0.000000 5.579295 9.458501 2.438742
59 0.000000 36.88520 0.000000 7.491099 12.80967 3.086773
60 0.000000 43.10350 0.000000 9.917271 17.06248 3.909157
61 0.000000 50.00000 0.000000 12.77728 22.07575 4.878597
62 0.000000 57.69230 0.000000 16.12971 27.95218 6.014948
63 0.000000 61.89340 0.000000 18.20513 31.59015 6.718439
64 0.000000 66.32650 0.000000 20.72564 36.00831 7.572799
65 33.63570 79.07860 0.000000 32.66242 51.88678 10.35687
66 25.17100 19.46700 9.898900 5.458350 5.911177 3.036295
67 35.74180 22.52800 23.07030 9.544135 8.825104 8.134575
68 51.85100 25.07040 24.34720 15.27396 12.90000 9.228965
69 58.95930 25.14450 34.00930 18.89071 14.74172 15.22731
70 68.94850 41.64960 33.46370 27.65325 26.24370 16.83588
71 91.26100 43.63860 59.58640 42.06820 34.48596 40.52099
72 100.0000 50.78590 75.98430 51.83204 42.62581 60.00193
73 0.000000 0.000000 0.000000 0.416423 0.408576 0.688717
74 0.000000 0.000000 9.493700 0.690301 0.493254 2.055337
75 0.000000 0.000000 13.15790 0.891012 0.555310 3.056862
76 0.000000 0.000000 43.10350 4.439873 1.652552 20.76525
77 0.000000 0.000000 50.00000 5.677719 2.035271 26.94195
78 0.000000 0.000000 57.69230 7.090939 2.472212 33.99375
79 0.000000 0.000000 66.32650 8.908132 3.034055 43.06132
80 0.000000 0.000000 76.08700 11.19198 3.740177 54.45742
81 100.0000 68.90740 100.0000 68.19170 60.94791 98.90448
82 100.0000 100.0000 100.0000 90.47029 99.99974 106.4561
83 0.957900 0.957900 0.957900 0.475894 0.480426 0.756064
84 1.938000 1.938000 1.938000 0.593921 0.618610 0.891759
85 2.941200 2.941200 2.941200 0.712150 0.752728 1.022780
86 3.968300 3.968300 3.968300 0.837797 0.892190 1.165956
87 5.020100 5.020100 5.020100 0.977797 1.044653 1.329446
88 6.097600 6.097600 6.097600 1.132518 1.211484 1.517111
89 7.201600 7.201600 7.201600 1.305226 1.396459 1.733709
90 8.333300 8.333300 8.333300 1.509344 1.616325 1.997550
91 38.26850 92.47200 9.915300 43.76028 69.20868 15.06243
92 74.35290 100.0000 21.89680 63.45767 88.70424 22.17683
93 100.0000 100.0000 100.0000 90.47029 99.99974 106.4561
94 13.15790 13.15790 13.15790 2.719397 2.928189 3.468479
95 14.44440 14.44440 14.44440 3.147534 3.395630 3.941160
96 15.76580 15.76580 15.76580 3.619432 3.911704 4.450974
97 17.12330 17.12330 17.12330 4.136094 4.475992 5.005417
98 18.51850 18.51850 18.51850 4.699863 5.087847 5.622073
99 19.95310 19.95310 19.95310 5.315244 5.748893 6.321272
100 21.42860 21.42860 21.42860 5.992328 6.471271 7.102551
101 22.94690 22.94690 22.94690 6.734872 7.261359 7.961287
102 24.50980 24.50980 24.50980 7.543462 8.122902 8.885680
103 26.11940 26.11940 26.11940 8.406555 9.047305 9.856398
104 27.77780 27.77780 27.77780 9.321564 10.03279 10.87414
105 29.48720 29.48720 29.48720 10.33576 11.12752 12.02945
106 31.25000 31.25000 31.25000 11.48288 12.36309 13.37724
107 33.06880 33.06880 33.06880 12.79654 13.75891 14.90080
108 34.94620 34.94620 34.94620 14.25342 15.28614 16.51712
109 36.88520 36.88520 36.88520 15.85422 16.94444 18.23797
110 38.88890 38.88890 38.88890 17.58290 18.73639 20.12967
111 40.96050 40.96050 40.96050 19.35618 20.62685 22.17735
112 43.10350 43.10350 43.10350 21.15051 22.61128 24.34506
113 45.32160 45.32160 45.32160 23.05662 24.73891 26.69573
114 47.61910 47.61910 47.61910 25.15376 27.00673 29.20224
115 50.00000 50.00000 50.00000 27.32926 29.24974 31.59493
116 52.46910 52.46910 52.46910 29.59447 31.54603 33.92287
117 55.03140 55.03140 55.03140 32.16320 34.25612 36.70086
118 57.69230 57.69230 57.69230 34.87555 37.22337 39.92167
119 60.45750 60.45750 60.45750 37.55526 40.20395 43.34055
120 63.33330 63.33330 63.33330 40.50318 43.52940 47.05400
121 66.32650 66.32650 66.32650 44.01404 47.46862 50.68294
122 69.44440 69.44440 69.44440 47.65718 51.59265 54.23826
123 72.69500 72.69500 72.69500 51.26314 55.54809 58.63194
124 76.08700 76.08700 76.08700 55.39495 59.86646 64.09840
125 79.62960 79.62960 79.62960 59.95734 65.33123 69.28079
126 83.33330 83.33330 83.33330 65.28732 71.39007 75.22106
127 87.20930 87.20930 87.20930 70.30167 76.71685 80.88923
128 0.000000 14.71860 48.54340 6.791210 4.338821 26.18629
129 15.44330 14.77990 57.64030 9.434776 5.455210 34.45236
130 21.44460 75.36980 88.93270 41.60255 50.20383 79.36648
131 0.000000 78.11320 80.88610 39.50166 51.66585 69.52337
132 0.000000 100.0000 85.06420 57.58587 81.76405 80.81202
133 37.40460 100.0000 90.72900 64.64001 85.54367 88.58109
134 57.68900 100.0000 100.0000 74.51553 90.47345 105.6608
135 48.31930 18.74350 0.000000 11.17940 9.247907 1.828788
136 50.53890 21.55930 37.93470 15.72664 11.72249 17.77963
137 85.75690 22.90050 39.70470 29.15513 20.00051 19.97635
138 100.0000 30.71510 55.54360 39.66691 27.82736 34.85599
139 0.000000 100.0000 0.000000 44.52501 77.72588 15.63991
140 30.47860 100.0000 22.69650 49.31291 80.23640 21.85400
141 38.14540 100.0000 52.57010 55.99793 82.94282 44.23775
142 41.60690 100.0000 74.99940 61.82802 85.04284 68.22497
143 75.03580 100.0000 90.58270 77.11304 93.00439 88.97437
144 10.13040 33.44240 28.25310 8.530222 11.53873 11.59666
145 62.43460 36.82070 75.01430 31.29447 23.97990 56.01024
146 0.000000 100.0000 49.93430 49.77569 79.34929 41.84020
147 0.000000 100.0000 68.05060 53.33046 80.44836 59.57805
148 100.0000 0.000000 32.49960 30.77333 17.86280 13.72079
149 100.0000 0.000000 46.08220 33.00886 18.55399 24.87581
150 100.0000 0.000000 60.94670 35.80905 19.41975 38.84840
151 100.0000 0.000000 79.86580 40.12916 20.75545 60.40523
152 100.0000 48.77090 100.0000 58.26067 43.53996 95.53823
153 49.34470 13.46180 43.06780 14.63690 9.077745 21.57676
154 59.72040 16.55090 64.00800 22.76025 13.37346 41.97967
155 81.05700 29.08020 63.38950 33.00476 22.80768 42.67491
156 68.08280 0.000000 15.87450 16.60013 9.885412 4.689511
157 76.47690 14.26140 15.33200 20.91173 13.95127 5.099281
158 84.37750 13.09960 25.99920 24.76047 15.77027 9.849780
159 100.0000 44.75690 24.10160 40.00264 35.45689 12.28697
160 100.0000 62.11240 26.08960 47.89950 49.00643 15.90685
161 100.0000 100.0000 60.57030 79.83573 96.71173 53.39093
162 22.63750 47.25890 16.48560 14.45063 21.63925 8.047359
163 24.50890 58.07630 37.46380 21.78180 30.65314 21.53427
164 0.000000 57.53600 100.0000 33.97455 33.36078 95.40871
165 0.000000 71.52910 100.0000 41.61955 46.76158 98.00008
166 34.18260 77.73460 100.0000 49.71177 55.71622 99.43477
167 54.58170 87.39970 100.0000 62.79886 71.12007 101.9856
168 48.47990 0.000000 67.67630 17.88737 8.324591 44.72366
169 53.97820 29.70030 82.66620 28.36696 18.93992 64.85892
170 0.000000 33.59450 34.66990 8.998642 11.62745 15.91934
171 22.19080 34.51610 36.15880 11.51377 13.42671 17.23439
172 34.35170 35.48700 50.90110 16.97552 16.34749 30.10483
173 36.54390 30.82030 62.93650 18.52339 14.78465 41.62906
174 49.78170 42.93230 85.74700 32.27786 26.52330 70.32847
175 70.75850 45.00270 100.0000 45.13100 33.87249 94.42651
176 0.000000 79.39530 54.78280 34.62038 51.59033 40.54775
177 20.17130 87.37610 70.61770 44.77543 62.82224 58.52820
178 19.93800 88.83490 83.89590 49.11705 65.48706 76.07680
179 29.57190 92.78000 100.0000 59.20126 73.66985 102.9815
180 0.000000 33.09960 21.31010 7.260297 10.85060 8.016406
181 0.000000 48.83160 20.51940 13.34182 21.61622 9.738241
182 0.000000 74.21280 23.68130 26.38130 44.03328 15.57454
183 0.000000 100.0000 29.86750 46.49685 78.33553 25.47917
184 27.13480 47.66590 0.000000 14.77186 22.22792 4.718177
185 100.0000 49.44380 0.000000 40.59364 38.44304 6.204737
186 100.0000 75.01110 0.000000 53.54130 61.13881 10.59352
187 100.0000 81.25240 29.78270 59.97658 69.58803 21.89520
188 38.70020 33.62710 0.000000 12.34770 14.40244 3.001907
189 56.95050 37.91800 13.79020 20.22526 20.69953 6.365283
190 75.66500 43.52660 21.95000 29.55652 28.66918 10.55840
191 9.493700 0.000000 0.000000 0.821167 0.650241 0.708892
192 11.83560 6.926300 29.15620 3.310210 2.078331 10.26924
193 22.93330 36.69630 66.00800 17.96328 16.55725 45.23636
194 26.54880 48.93890 88.09010 28.96423 27.30491 73.76803
195 49.96720 67.46850 89.37920 44.83653 47.10784 78.91113
196 0.000000 76.08700 0.000000 26.14181 45.50224 9.408683
197 0.000000 87.20930 0.000000 33.71874 58.78373 11.97698
198 27.91990 87.83250 35.90320 39.97959 62.14548 26.39544
199 64.10670 89.44360 55.05260 55.20356 71.53053 43.75299
200 70.68530 100.0000 74.69190 71.36046 90.75981 68.26567
201 23.13630 0.000000 28.50360 4.372028 2.249168 9.829524
202 31.39330 0.000000 76.75310 15.13843 6.048958 55.47043
203 33.69860 0.000000 100.0000 22.71995 8.566391 90.32649
204 37.75590 34.38730 100.0000 30.20738 20.20485 92.49270
205 0.000000 0.000000 87.20930 13.99705 4.607454 68.45441
206 0.000000 0.000000 100.0000 18.33655 5.949147 90.10800
207 0.000000 15.56250 100.0000 19.83678 8.578867 90.61652
208 0.000000 29.81520 100.0000 23.06130 14.23110 91.70951
209 0.000000 43.24750 100.0000 27.89854 22.71021 93.34916
210 0.000000 85.73360 100.0000 50.79622 62.84723 101.1106
211 0.000000 100.0000 100.0000 62.44514 83.26645 105.0592
212 42.06660 60.95810 60.43170 31.92745 37.13343 43.10439
213 50.63280 72.88060 65.91920 42.34013 50.73085 51.27365
214 66.88920 85.40330 77.88710 58.95263 69.43667 68.37268
215 100.0000 87.02650 100.0000 79.55474 80.86602 102.7561
216 83.08860 15.12570 67.99950 31.73451 18.22325 46.11525
217 100.0000 27.68160 73.72040 42.67986 27.50960 53.91494
218 28.48060 78.81260 19.14200 32.13731 51.07980 14.64986
219 50.35520 83.82580 35.89860 44.01904 61.85512 25.91734
220 70.41720 84.47930 65.41100 56.83151 68.37614 53.76076
221 88.54060 89.43430 65.51640 67.16901 78.03169 55.24766
222 85.61820 22.94430 10.43820 25.98168 19.01560 4.407582
223 88.48870 26.85510 28.32060 29.76387 21.94632 12.12556
224 57.69230 0.000000 0.000000 12.48774 7.616131 1.290413
225 66.32650 0.000000 0.000000 15.21311 9.243398 1.426259
226 85.27740 40.70330 9.459000 31.32112 28.62580 6.035868
227 92.24130 47.60120 36.47890 39.90389 36.36133 20.38960
228 100.0000 57.62400 63.02050 51.95084 47.04863 46.46490
229 0.000000 0.000000 0.000000 0.416423 0.408576 0.688717
230 19.50100 8.223900 11.25350 2.854573 2.367549 2.759697
231 56.82630 28.89990 13.24950 17.16600 15.43054 5.185991
232 75.31370 32.28590 22.24750 25.26099 21.25972 9.275850
233 0.000000 9.675900 14.75010 1.653922 1.749795 3.775523
234 16.81870 9.775600 73.95540 12.43038 5.432926 51.73598
235 19.89710 27.42510 89.02440 20.14560 12.84081 72.28194
236 38.15560 49.95510 100.0000 36.48397 31.05221 94.58152
237 71.64600 63.23710 100.0000 53.61463 48.40876 97.21847
238 73.80840 57.96540 0.000000 33.84386 38.67906 6.935458
239 87.43450 77.72110 14.59890 50.93665 61.43288 13.75230
240 14.39770 17.92110 7.262700 3.384298 4.358495 2.278505
241 15.44640 17.68840 37.67100 6.395770 5.262681 16.87979
242 18.16570 21.71020 51.80700 10.01134 7.658101 29.33947
243 23.01150 25.21890 68.53820 14.94601 10.58146 46.37067
244 29.91670 36.32470 86.37360 24.12195 18.65867 69.92572
245 0.000000 43.09580 55.95500 16.22599 19.00838 35.40381
246 35.20090 46.83310 57.31600 22.95459 24.80928 37.60926
247 65.04510 46.12580 58.93550 32.41074 30.01147 39.66811
248 83.28090 57.69970 67.45000 46.01662 43.29734 50.46810
249 2.941200 0.000000 0.000000 0.498027 0.457300 0.692785
250 0.000000 0.000000 31.25000 2.571112 1.074766 11.44036
251 0.000000 0.000000 36.88520 3.399062 1.330752 15.57173
252 16.25420 7.098800 40.44160 5.505962 2.920070 18.68389
253 32.23030 12.49010 43.29230 9.474211 5.817010 21.47247
254 75.51100 47.91900 72.40630 39.98450 34.60127 54.11470
255 92.66910 59.18950 85.62060 55.28768 48.36602 73.35347
256 0.000000 0.000000 0.000000 0.416423 0.408576 0.688717
257 6.097600 0.000000 0.000000 0.633617 0.538259 0.699543
258 13.15790 0.000000 0.000000 1.136329 0.838418 0.724601
259 17.12330 0.000000 0.000000 1.624050 1.129627 0.748911
260 23.60330 8.214300 23.86380 4.498084 3.070634 7.598713
261 28.77890 17.83190 26.01110 7.094356 6.160696 9.210013
262 29.73460 20.64620 39.09080 9.642121 7.810458 18.35453
263 43.29960 28.71080 44.39120 16.33574 13.78827 23.76258
264 43.16830 0.000000 27.46230 9.336662 5.246631 9.507776
265 42.77630 0.000000 42.05280 11.39045 5.855161 20.21001
266 65.99070 0.000000 40.10740 18.57811 10.24226 18.92984
267 65.04510 0.000000 100.0000 32.58421 14.45615 90.81817
268 72.51400 25.99210 100.0000 39.11122 22.63292 92.21403
269 72.64810 27.20730 0.000000 21.55054 17.66160 2.901379
270 100.0000 26.26550 0.000000 32.21213 23.75121 3.363713
271 100.0000 26.82250 22.16300 33.51053 24.35565 9.188615
272 100.0000 44.44400 45.07500 42.89440 36.15536 27.34672
273 61.63890 39.30000 0.000000 21.52224 22.22126 4.044770
274 62.16890 55.04730 26.27670 29.68708 34.09745 14.08464
275 65.31770 65.23560 42.33710 38.32999 44.64925 27.47945
276 21.10020 25.20460 0.000000 5.722647 7.631182 1.967383
277 39.75610 27.00120 8.073000 10.89570 11.17787 3.399942
278 53.41950 48.76260 9.737300 23.21362 27.68736 6.676476
279 54.15520 68.11110 29.82190 34.63753 44.96904 18.28320
280 55.12850 70.83390 51.34760 40.05201 48.98705 36.32425
281 36.88520 0.000000 0.000000 5.796906 3.621162 0.956908
282 43.10350 0.000000 0.000000 7.626209 4.713404 1.048090
283 54.01820 13.90920 13.24580 12.96186 9.176916 4.038915
284 59.91440 13.66180 23.23200 15.54834 10.45076 8.024879
285 100.0000 0.000000 0.000000 28.44158 17.14187 2.085634
286 100.0000 0.000000 18.50790 29.27654 17.40003 6.251986
287 100.0000 25.50680 38.17060 35.21137 24.40676 19.20505
288 84.22950 9.436700 49.26740 27.82480 16.03202 27.62601
289 84.28700 89.80750 78.73190 68.51817 78.26863 70.60896
290 91.26980 91.26980 91.26980 76.18367 83.22088 87.72302
291 95.52850 95.52850 95.52850 82.52241 90.97536 96.48495
292 11.90480 11.90480 11.90480 2.342115 2.517751 3.032264
293 15.67180 19.39010 28.42610 5.448316 5.453501 10.47977
294 27.99750 30.80570 39.02040 11.83143 12.07468 19.14482
295 69.36280 36.52000 47.86330 28.26553 23.65281 28.28193
296 0.000000 9.493700 0.000000 1.060950 1.538359 0.907188
297 0.000000 13.15790 0.000000 1.524901 2.351612 1.064451
298 0.000000 13.46300 30.60430 3.639775 3.072924 11.40018
299 0.000000 27.89810 40.94210 8.256753 8.880452 20.32796
300 21.42860 0.000000 0.000000 2.268601 1.514477 0.781039
301 26.11940 0.000000 0.000000 3.115633 2.020224 0.823260
302 28.60580 0.000000 0.000000 3.601507 2.310330 0.847478
303 31.25000 0.000000 0.000000 4.165321 2.646972 0.875581
304 44.93180 0.000000 15.60050 8.701140 5.174265 4.206743
305 49.71340 15.47090 100.0000 29.00472 14.03463 91.06893
306 29.05980 16.91750 72.00480 15.07065 8.398440 49.51676
307 43.28300 20.45280 86.64660 23.53852 13.15272 68.94087
308 80.93940 51.98770 88.97660 47.66292 39.69704 76.19555
309 11.16400 7.944300 17.81230 2.228412 1.844759 4.789501
310 20.09140 29.78860 22.39150 7.951305 10.01968 8.256401
311 31.89060 42.61000 29.56200 15.54808 19.62854 13.68332
312 32.37240 46.69030 40.98610 19.15404 23.31692 22.89215
313 37.28450 48.33900 72.78900 27.51207 27.31940 54.06619
314 84.74530 75.28340 85.32590 60.66338 61.78909 75.82598
315 26.00690 12.08860 9.005200 4.300512 3.758953 2.400005
316 39.64320 18.59980 10.89560 9.097636 7.873423 3.418645
317 44.84170 28.65110 35.65950 15.24035 13.53408 16.51403
318 85.53780 59.59010 38.48090 42.51861 43.83386 23.59107
319 100.0000 63.30550 50.21460 52.28761 51.29562 34.79903
320 100.0000 80.68370 55.36700 63.76490 70.11941 42.85995
321 52.58700 100.0000 0.000000 54.81674 83.87088 16.15290
322 100.0000 100.0000 0.000000 72.55016 94.45917 17.03683
323 100.0000 100.0000 31.25460 74.70547 95.12555 27.79155
324 57.76230 12.31780 31.09480 15.62779 10.01700 12.27303
325 66.33080 18.74590 48.63890 22.33668 14.46109 27.25101
326 15.25090 0.000000 13.24210 1.859259 1.131969 3.130233
327 28.27320 0.000000 14.61930 4.099637 2.445047 3.664178
328 35.78120 10.65770 18.23090 7.019497 5.009986 5.261304
329 36.39390 12.39670 30.78820 8.723980 5.919422 11.72926
330 58.72120 46.42480 30.41390 25.76184 27.59899 15.20835
331 67.64120 55.28360 45.77080 34.80790 36.44058 28.87591
332 86.03550 66.82120 65.03840 51.72879 52.48605 49.93848
333 0.000000 0.000000 17.12330 1.148540 0.634933 4.341893
334 0.000000 0.000000 21.42860 1.504231 0.744906 6.116749
335 0.000000 0.000000 26.11940 1.973043 0.889854 8.456064
336 0.000000 28.81410 54.60830 10.89976 10.05998 32.34891
337 0.000000 30.59980 74.16160 15.60961 12.26981 53.42261
338 8.868000 40.85190 82.66530 21.79030 19.50247 65.65280
339 0.000000 44.42060 75.24480 21.02144 21.30961 56.69555
340 0.000000 60.42630 78.23630 28.75716 33.76937 62.86154
341 29.35630 61.95570 78.30350 32.89390 37.13999 63.37009
342 19.43020 60.86610 68.16170 28.03686 34.30504 50.65384
343 43.04160 69.47650 76.63450 40.68026 46.91753 63.00361
344 64.27870 76.24340 83.54380 52.87717 57.93911 73.36970
345 54.42630 37.52360 35.29410 21.45366 20.62443 17.39672
346 66.33190 47.19540 49.22370 31.61019 30.57444 30.85013
347 70.15200 71.82250 60.51220 47.40405 53.46040 45.73598
348 44.06230 55.72200 32.87660 24.98317 31.42996 17.96637
349 52.51810 58.13020 47.28720 31.39413 35.92806 30.50277
350 16.28500 37.82370 46.42800 13.55976 15.49390 26.37002
351 19.30540 44.57900 63.46180 19.98984 21.52694 43.72447
352 18.50540 57.85410 86.21290 30.94342 33.04699 72.65051
353 38.73360 65.64090 100.0000 44.23537 44.41341 97.15239
354 32.16190 31.10200 19.49820 10.42205 12.03295 7.192094
355 44.55390 31.47780 22.97790 14.44652 14.47961 9.015004
356 71.99810 31.89180 32.73640 25.03253 20.62890 15.15703
357 84.08810 40.46250 46.75870 35.09502 29.49610 28.03480
358 84.32470 71.99080 93.04910 60.95411 59.33402 86.25898
359 0.000000 47.45360 40.68070 15.39546 21.45785 22.54138
360 18.36660 53.18120 48.84590 20.43281 26.58095 30.64556
361 0.000000 54.29640 57.14910 21.03821 27.08396 38.19377
362 0.000000 73.55600 64.24460 32.81714 45.53181 49.27131
363 30.78140 79.54370 82.48050 44.68522 55.91811 72.22748
364 49.53540 84.37600 82.98820 53.72835 65.24040 74.36505
365 0.000000 16.24210 73.82590 12.17254 6.382249 51.81551
366 26.32400 18.10230 100.0000 23.03801 11.02563 90.91000
367 100.0000 100.0000 100.0000 90.47029 99.99974 106.4561
368 67.70360 0.000000 57.19280 22.36458 11.62184 34.24001
369 74.82790 0.000000 81.80090 30.60085 14.92015 62.43764
370 76.81760 22.05260 85.07040 34.96316 20.47836 67.74107
371 93.49270 27.68540 85.50140 43.10214 26.88197 69.05144
372 83.29380 37.84260 83.63490 41.72633 29.99844 67.60517
373 100.0000 74.61480 83.13120 65.88282 64.63565 73.20366
374 64.95330 19.76610 9.080100 17.17088 12.98523 3.444070
375 83.51710 55.64910 13.94580 36.94436 39.06739 9.344896
376 83.56560 66.79910 31.64420 44.53642 49.91463 19.75439
377 50.00000 0.000000 0.000000 9.707103 5.955867 1.151812
378 71.62340 0.000000 29.45590 19.09636 11.00901 11.10875
379 79.53890 20.15850 45.41290 26.80129 17.62228 24.62831
380 9.493700 9.493700 9.493700 1.739573 1.864703 2.293982
381 10.68380 10.68380 10.68380 2.015878 2.164119 2.640049
382 38.35440 10.01720 11.61840 7.371959 5.261430 3.135946
383 40.92020 53.30100 15.62280 21.31826 28.44441 8.779379
384 51.57580 76.82640 14.89550 37.12446 52.46980 12.97970
385 0.000000 68.56190 35.11560 24.76324 39.16523 21.57147
386 11.58100 84.94260 42.22460 36.86685 58.06091 30.88247
387 23.78850 92.99760 61.14090 47.76650 70.09422 50.54703
388 15.60440 10.41610 0.000000 2.169572 2.317060 0.991656
389 29.76760 15.81010 0.000000 5.384215 5.158510 1.382535
390 49.13040 25.07580 56.84300 19.35952 13.86650 34.73252
391 68.04090 33.96360 56.68900 28.45770 22.29119 35.77309
392 0.000000 0.000000 2.941200 0.471770 0.425688 0.964893
393 0.000000 0.000000 6.097600 0.555849 0.451684 1.384436
394 25.52480 36.02980 11.96010 10.17713 13.94641 5.127580
395 41.26180 39.66750 17.45960 16.02749 18.88605 7.548862
396 48.28710 39.53360 48.89790 22.21580 21.27746 29.18506
397 52.19850 43.06180 65.25780 28.32904 25.64953 45.76367
398 55.78650 56.33250 85.98200 40.21452 37.73530 72.62282
399 69.56630 91.91000 91.59310 68.05947 78.97032 87.99997
