KOIOS/K2418U/K2418U #2 2021-02-09 09-32 0.3127x 0.329y sRGB F-S XYZLUT+MTX/K2418U #2 2021-02-09 09-32 0.3127x 0.329y sRGB F-S XYZLUT+MTX.ti3
CTI3   

DESCRIPTOR "Argyll Calibration Target chart information 3"
ORIGINATOR "Argyll dispread"
CREATED "Tue Feb 09 09:39:42 2021"
DEVICE_CLASS "DISPLAY"
SINGLE_DIM_STEPS "17"
COMP_GREY_STEPS "49"
DARK_REGION_EMPHASIS "1.6"
COLOR_REP "RGB_XYZ"
TARGET_INSTRUMENT "X-Rite i1 DisplayPro, ColorMunki Display"
DISPLAY_TYPE_REFRESH "NO"
DISPLAY_TYPE_BASE_ID "1"
INSTRUMENT_TYPE_SPECTRAL "NO"
LUMINANCE_XYZ_CDM2 "72.800047 80.398770 85.663180"
NORMALIZED_TO_Y_100 "YES"
VIDEO_LUT_CALIBRATION_POSSIBLE "YES"

BEGIN_ARGYLL_COLPROF_ARGS
-v -qh -aX -bn -C "No copyright. Created with DisplayCAL 3.8.9.3 and ArgyllCMS 2.1.2" -M "KOIOS K2418U"
END_ARGYLL_COLPROF_ARGS

OBSERVER "1931_2"
USE_BLACK_POINT_COMPENSATION "NO"
BLACK_POINT_CORRECTION "0.0"
HIRES_B2A "YES"
HIRES_B2A_SIZE "-1"
SMOOTH_B2A "YES"
PATCH_SEQUENCE "OPTIMIZE_DISPLAY_RESPONSE_DELAY"

NUMBER_OF_FIELDS 7
BEGIN_DATA_FORMAT
SAMPLE_ID RGB_R RGB_G RGB_B XYZ_X XYZ_Y XYZ_Z
END_DATA_FORMAT

NUMBER_OF_SETS 417
BEGIN_DATA
1 100.0000 100.0000 100.0000 90.54871 100.0000 106.5479
2 1.960800 1.960800 1.960800 0.600274 0.625673 0.901115
3 3.921600 3.921600 3.921600 0.810805 0.866766 1.125706
4 5.882400 5.882400 5.882400 1.085442 1.157768 1.434237
5 9.803900 9.803900 9.803900 1.753511 1.880865 2.332138
6 13.72600 13.72600 13.72600 2.904982 3.127887 3.695479
7 17.64700 17.64700 17.64700 4.348707 4.718335 5.183325
8 21.56900 21.56900 21.56900 6.040296 6.522667 7.163387
9 25.49000 25.49000 25.49000 8.100274 8.710528 9.532266
10 29.41200 29.41200 29.41200 10.22886 11.01667 11.85462
11 33.33300 33.33300 33.33300 12.97126 13.96234 15.17936
12 37.25500 37.25500 37.25500 16.17702 17.27454 18.53954
13 41.17600 41.17600 41.17600 19.64403 20.87412 22.44095
14 45.09800 45.09800 45.09800 22.77071 24.47858 26.38276
15 49.02000 49.02000 49.02000 26.57235 28.55334 30.97012
16 52.94100 52.94100 52.94100 29.89653 31.77178 34.10768
17 56.86300 56.86300 56.86300 34.21905 36.49142 38.99009
18 60.78400 60.78400 60.78400 37.82200 40.48257 43.69083
19 64.70600 64.70600 64.70600 41.93951 45.17160 48.99671
20 68.62700 68.62700 68.62700 46.96529 50.74961 53.27422
21 72.54900 72.54900 72.54900 50.96517 55.43484 58.02583
22 76.47100 76.47100 76.47100 55.94275 60.16104 65.13020
23 80.39200 80.39200 80.39200 60.81408 66.56558 70.13407
24 84.31400 84.31400 84.31400 67.02543 73.32221 77.25369
25 88.23500 88.23500 88.23500 71.40168 77.89857 82.23441
26 92.15700 92.15700 92.15700 77.80311 84.88356 89.35496
27 96.07800 96.07800 96.07800 83.28598 91.97976 97.67493
28 46.80590 77.17000 45.98820 40.36930 55.92439 31.07693
29 53.18360 90.30550 67.07330 53.49276 72.60451 53.46897
30 15.95780 64.85740 50.78490 28.20921 39.83827 35.30435
31 25.64800 69.55200 64.46890 34.93868 45.63797 49.51755
32 71.58170 79.07660 100.0000 62.54384 63.53502 108.7272
33 17.57030 30.83040 48.99300 11.89497 11.22961 30.63983
34 83.10930 53.02840 49.19880 42.43702 39.59834 30.09437
35 87.00220 72.65720 59.14700 55.66044 59.08942 42.39053
36 100.0000 81.85210 75.80590 71.87579 74.50134 62.91124
37 100.0000 100.0000 84.12780 85.75090 99.36140 77.77227
38 0.000000 19.73150 15.46530 3.181800 4.591377 4.533887
39 0.000000 20.84230 26.75900 4.499371 5.241202 10.56790
40 0.000000 56.56590 38.47190 20.21148 30.46049 21.79433
41 38.31890 61.21090 48.32770 29.58199 37.43414 31.52692
42 13.52780 26.22320 13.03870 5.526623 8.050307 3.892142
43 23.33700 61.33650 13.63190 23.20005 36.50485 9.162215
44 28.59510 65.20110 30.49470 27.45565 41.03794 17.23428
45 28.78900 77.98440 47.48360 37.35695 54.72384 32.94452
46 35.83570 77.06330 59.53180 40.09154 55.17898 45.09086
47 47.60340 90.15250 77.74000 54.16965 72.18371 66.92516
48 76.08700 0.000000 0.000000 26.25507 15.55333 1.572774
49 87.20930 0.000000 0.000000 32.55651 19.48140 1.904340
50 100.0000 0.000000 100.0000 59.40562 28.69469 110.0809
51 100.0000 27.69340 100.0000 60.29821 33.72654 108.4971
52 0.000000 0.000000 0.000000 0.413821 0.407821 0.676804
53 0.000000 2.941200 0.000000 0.552225 0.659420 0.729422
54 0.000000 6.097600 0.000000 0.793812 1.105890 0.797786
55 0.000000 17.12330 0.000000 2.261866 3.816351 1.199291
56 0.000000 21.42860 0.000000 3.188699 5.526516 1.394621
57 0.000000 26.11940 0.000000 4.442432 7.821611 1.760540
58 0.000000 31.25000 0.000000 5.956207 10.39782 2.241799
59 0.000000 36.88520 0.000000 8.009158 14.10509 2.796849
60 0.000000 43.10350 0.000000 10.95564 19.32066 3.686257
61 0.000000 50.00000 0.000000 14.43917 25.23134 4.754108
62 0.000000 57.69230 0.000000 18.68128 32.21024 6.048906
63 0.000000 61.89340 0.000000 21.34011 36.03534 7.026595
64 0.000000 66.32650 0.000000 24.27928 41.22079 7.942263
65 33.63570 79.07860 0.000000 35.93388 56.64993 11.10570
66 25.17100 19.46700 9.898900 5.657899 6.026442 2.545108
67 35.74180 22.52800 23.07030 9.882828 8.620301 8.049379
68 51.85100 25.07040 24.34720 16.73008 13.17237 8.460589
69 58.95930 25.14450 34.00930 20.60469 15.05311 14.51308
70 68.94850 41.64960 33.46370 29.45764 26.87685 15.14776
71 91.26100 43.63860 59.58640 46.41933 36.10130 41.87739
72 100.0000 50.78590 75.98430 57.97106 44.67077 62.38628
73 0.000000 0.000000 0.000000 0.416409 0.407880 0.689382
74 0.000000 0.000000 9.493700 0.725738 0.502815 2.293388
75 0.000000 0.000000 13.15790 1.014938 0.587306 3.864543
76 0.000000 0.000000 43.10350 5.885939 2.058798 29.20821
77 0.000000 0.000000 50.00000 7.613240 2.584430 38.04838
78 0.000000 0.000000 57.69230 9.693190 3.235229 48.24565
79 0.000000 0.000000 66.32650 11.96098 3.934969 59.56892
80 0.000000 0.000000 76.08700 14.92735 4.869677 73.95839
81 100.0000 68.90740 100.0000 72.84284 60.83975 107.1062
82 100.0000 100.0000 100.0000 90.54871 100.0000 106.5479
83 0.957900 0.957900 0.957900 0.484794 0.485887 0.769661
84 1.938000 1.938000 1.938000 0.601097 0.625339 0.901588
85 2.941200 2.941200 2.941200 0.682498 0.684675 1.011837
86 3.968300 3.968300 3.968300 0.811467 0.866882 1.127029
87 5.020100 5.020100 5.020100 0.960370 1.007630 1.362570
88 6.097600 6.097600 6.097600 1.151379 1.224579 1.523551
89 7.201600 7.201600 7.201600 1.228840 1.307505 1.684828
90 8.333300 8.333300 8.333300 1.462294 1.577739 1.908047
91 38.26850 92.47200 9.915300 46.64698 75.51500 15.79604
92 74.35290 100.0000 21.89680 64.44462 93.34495 21.14720
93 100.0000 100.0000 100.0000 90.52711 100.0524 106.7855
94 13.15790 13.15790 13.15790 2.798609 3.012021 3.620792
95 14.44440 14.44440 14.44440 3.218982 3.477375 3.919868
96 15.76580 15.76580 15.76580 3.626445 3.853519 4.516724
97 17.12330 17.12330 17.12330 4.190394 4.512895 5.102920
98 18.51850 18.51850 18.51850 4.629528 4.895296 5.591710
99 19.95310 19.95310 19.95310 5.275834 5.656680 6.583602
100 21.42860 21.42860 21.42860 6.037247 6.516530 7.176381
101 22.94690 22.94690 22.94690 6.792285 7.191598 8.241279
102 24.50980 24.50980 24.50980 7.293108 7.890634 8.584875
103 26.11940 26.11940 26.11940 8.484967 8.965687 9.911410
104 27.77780 27.77780 27.77780 9.453858 10.02790 10.79228
105 29.48720 29.48720 29.48720 10.23235 11.01597 11.87657
106 31.25000 31.25000 31.25000 11.63793 12.37043 13.24202
107 33.06880 33.06880 33.06880 12.79611 13.67488 14.74783
108 34.94620 34.94620 34.94620 14.07262 14.92857 16.01350
109 36.88520 36.88520 36.88520 15.88844 16.90234 18.16833
110 38.88890 38.88890 38.88890 17.19290 18.24946 19.55496
111 40.96050 40.96050 40.96050 19.24096 20.44723 22.02225
112 43.10350 43.10350 43.10350 20.72211 22.07848 23.70895
113 45.32160 45.32160 45.32160 22.97425 24.72775 26.89831
114 47.61910 47.61910 47.61910 25.03401 26.55502 28.59253
115 50.00000 50.00000 50.00000 27.38597 29.04810 31.23411
116 52.46910 52.46910 52.46910 29.53085 31.60222 34.10278
117 55.03140 55.03140 55.03140 32.09738 34.57524 37.69538
118 57.69230 57.69230 57.69230 34.87152 37.38097 40.38462
119 60.45750 60.45750 60.45750 37.53652 39.90811 43.11369
120 63.33330 63.33330 63.33330 40.88122 44.26694 46.73902
121 66.32650 66.32650 66.32650 43.76858 47.09092 50.82520
122 69.44440 69.44440 69.44440 47.26896 50.83695 55.08943
123 72.69500 72.69500 72.69500 50.93490 55.45201 57.94746
124 76.08700 76.08700 76.08700 55.30782 59.43356 64.56610
125 79.62960 79.62960 79.62960 59.43521 64.99496 68.61487
126 83.33330 83.33330 83.33330 65.30883 71.41813 75.25158
127 87.20930 87.20930 87.20930 69.87837 75.73422 82.58197
128 0.000000 14.71860 48.54340 7.485174 4.179401 32.15680
129 15.44330 14.77990 57.64030 10.69769 5.305224 43.66302
130 21.44460 75.36980 88.93270 44.51242 52.86334 88.73148
131 0.000000 78.11320 80.88610 42.32565 54.50542 73.19149
132 0.000000 100.0000 85.06420 59.81069 86.39577 82.20596
133 37.40460 100.0000 90.72900 63.69565 87.76525 89.97006
134 57.68900 100.0000 100.0000 71.83268 90.40043 108.8002
135 48.31930 18.74350 0.000000 13.38376 10.02367 1.469629
136 50.53890 21.55930 37.93470 17.11941 11.80668 18.76776
137 85.75690 22.90050 39.70470 35.24417 22.88399 19.56930
138 100.0000 30.71510 55.54360 48.97101 32.51309 35.84924
139 0.000000 100.0000 0.000000 49.47068 86.63851 17.14391
140 30.47860 100.0000 22.69650 51.89319 87.30957 21.56092
141 38.14540 100.0000 52.57010 56.05057 87.44398 41.15013
142 41.60690 100.0000 74.99940 60.34548 87.76208 66.38333
143 75.03580 100.0000 90.58270 74.08197 92.87743 87.76970
144 10.13040 33.44240 28.25310 8.651993 12.01058 11.66558
145 62.43460 36.82070 75.01430 32.64323 23.45990 60.05344
146 0.000000 100.0000 49.93430 52.32282 86.09943 38.10464
147 0.000000 100.0000 68.05060 55.67359 86.44950 56.97756
148 100.0000 0.000000 32.49960 42.21234 24.58115 13.27847
149 100.0000 0.000000 46.08220 44.10733 24.79933 25.52029
150 100.0000 0.000000 60.94670 47.12423 25.44039 42.43670
151 100.0000 0.000000 79.86580 52.23984 26.82043 70.44726
152 100.0000 48.77090 100.0000 65.26967 44.78288 109.0796
153 49.34470 13.46180 43.06780 16.86512 9.457702 24.37179
154 59.72040 16.55090 64.00800 26.06905 14.02016 47.94004
155 81.05700 29.08020 63.38950 37.84074 24.43410 45.78922
156 68.08280 0.000000 15.87450 22.10105 12.61990 4.174639
157 76.47690 14.26140 15.33200 27.18229 17.05559 4.561308
158 84.37750 13.09960 25.99920 32.00083 19.55142 9.090728
159 100.0000 44.75690 24.10160 48.44878 39.79113 10.65697
160 100.0000 62.11240 26.08960 54.66308 52.49939 14.29516
161 100.0000 100.0000 60.57030 80.99278 99.48148 46.31858
162 22.63750 47.25890 16.48560 15.07726 23.01716 7.352205
163 24.50890 58.07630 37.46380 23.25837 33.29374 21.26679
164 0.000000 57.53600 100.0000 38.00518 34.85949 113.1119
165 0.000000 71.52910 100.0000 45.01881 47.59245 112.0367
166 34.18260 77.73460 100.0000 51.30471 55.95838 111.3720
167 54.58170 87.39970 100.0000 61.66005 71.64976 109.5863
168 48.47990 0.000000 67.67630 21.79383 9.422198 55.96505
169 53.97820 29.70030 82.66620 30.02324 18.35599 74.19050
170 0.000000 33.59450 34.66990 9.039973 12.14252 16.02149
171 22.19080 34.51610 36.15880 11.48799 13.40002 17.57555
172 34.35170 35.48700 50.90110 16.96155 15.66089 32.11186
173 36.54390 30.82030 62.93650 19.06390 14.24321 46.26685
174 49.78170 42.93230 85.74700 33.28684 25.38523 80.64094
175 70.75850 45.00270 100.0000 47.43462 32.99568 110.5726
176 0.000000 79.39530 54.78280 37.20853 55.14005 40.32554
177 20.17130 87.37610 70.61770 47.56361 68.16965 57.73996
178 19.93800 88.83490 83.89590 51.51999 69.53846 79.68571
179 29.57190 92.78000 100.0000 60.49977 75.80272 110.8557
180 0.000000 33.09960 21.31010 7.428758 11.52524 7.857203
181 0.000000 48.83160 20.51940 14.28290 23.60520 9.069243
182 0.000000 74.21280 23.68130 30.13466 49.22180 15.33097
183 0.000000 100.0000 29.86750 50.49952 86.53219 24.95147
184 27.13480 47.66590 0.000000 15.58074 23.74705 4.269118
185 100.0000 49.44380 0.000000 49.20691 43.23184 6.007871
186 100.0000 75.01110 0.000000 60.73557 65.61245 10.63695
187 100.0000 81.25240 29.78270 65.88162 73.87607 20.35811
188 38.70020 33.62710 0.000000 13.12925 15.02014 2.546645
189 56.95050 37.91800 13.79020 21.77926 21.49115 5.465123
190 75.66500 43.52660 21.95000 32.15965 29.67911 9.017386
191 9.493700 0.000000 0.000000 0.971528 0.722942 0.711459
192 11.83560 6.926300 29.15620 3.628633 2.014654 12.43316
193 22.93330 36.69630 66.00800 18.40414 16.35646 49.98755
194 26.54880 48.93890 88.09010 31.15318 27.53874 87.09199
195 49.96720 67.46850 89.37920 45.14193 46.33342 88.37575
196 0.000000 76.08700 0.000000 30.98014 52.65074 10.23000
197 0.000000 87.20930 0.000000 39.30741 67.38070 13.19281
198 27.91990 87.83250 35.90320 43.36262 68.92034 25.89160
199 64.10670 89.44360 55.05260 53.89268 72.94860 41.29353
200 70.68530 100.0000 74.69190 68.88740 91.92290 64.43158
201 23.13630 0.000000 28.50360 5.179201 2.448083 12.11148
202 31.39330 0.000000 76.75310 18.85226 7.042679 72.04384
203 33.69860 0.000000 100.0000 28.97359 10.25697 119.9280
204 37.75590 34.38730 100.0000 32.61162 19.43352 111.9897
205 0.000000 0.000000 87.20930 19.26511 6.215955 95.66155
206 0.000000 0.000000 100.0000 25.06695 8.049002 123.7327
207 0.000000 15.56250 100.0000 25.01550 9.283060 119.9722
208 0.000000 29.81520 100.0000 26.69854 14.11510 115.0637
209 0.000000 43.24750 100.0000 30.65928 22.26060 112.7762
210 0.000000 85.73360 100.0000 54.52875 66.52490 111.7366
211 0.000000 100.0000 100.0000 64.51529 87.13764 111.2211
212 42.06660 60.95810 60.43170 32.07997 37.71286 43.79120
213 50.63280 72.88060 65.91920 42.41165 51.67199 51.63206
214 66.88920 85.40330 77.88710 57.45693 70.50196 66.37387
215 100.0000 87.02650 100.0000 81.19262 80.11191 106.8295
216 83.08860 15.12570 67.99950 37.92169 20.91703 51.42034
217 100.0000 27.68160 73.72040 52.22071 31.88058 58.00449
218 28.48060 78.81260 19.14200 34.96672 55.42268 14.31495
219 50.35520 83.82580 35.89860 44.72952 65.08764 24.51760
220 70.41720 84.47930 65.41100 55.73211 69.40737 50.07170
221 88.54060 89.43430 65.51640 67.14923 79.20063 50.06164
222 85.61820 22.94430 10.43820 32.64805 22.62942 3.936164
223 88.48870 26.85510 28.32060 35.70901 24.94545 10.95208
224 57.69230 0.000000 0.000000 16.84485 9.644330 1.119545
225 66.32650 0.000000 0.000000 21.58407 12.54170 1.346000
226 85.27740 40.70330 9.459000 37.02354 31.85520 5.547271
227 92.24130 47.60120 36.47890 44.42252 38.36622 18.84726
228 100.0000 57.62400 63.02050 57.45216 49.28077 44.81693
229 0.000000 0.000000 0.000000 0.417307 0.408801 0.691617
230 19.50100 8.223900 11.25350 3.009969 2.316911 2.674853
231 56.82630 28.89990 13.24950 19.16642 16.17130 4.391145
232 75.31370 32.28590 22.24750 29.70657 23.45766 8.296737
233 0.000000 9.675900 14.75010 1.657668 1.735721 4.199479
234 16.81870 9.775600 73.95540 15.56189 5.944983 69.00279
235 19.89710 27.42510 89.02440 23.14038 12.84343 91.45882
236 38.15560 49.95510 100.0000 38.32359 29.80627 112.3130
237 71.64600 63.23710 100.0000 54.75625 46.99821 109.7504
238 73.80840 57.96540 0.000000 37.38928 42.05130 6.843075
239 87.43450 77.72110 14.59890 54.80359 64.98551 13.02665
240 14.39770 17.92110 7.262700 3.494167 4.591581 2.036975
241 15.44640 17.68840 37.67100 6.603374 5.050868 19.58932
242 18.16570 21.71020 51.80700 10.57562 7.270593 35.03883
243 23.01150 25.21890 68.53820 16.38225 10.10307 56.76840
244 29.91670 36.32470 86.37360 26.13314 18.46752 82.99790
245 0.000000 43.09580 55.95500 17.19660 19.99469 39.19010
246 35.20090 46.83310 57.31600 22.87303 24.12763 38.78441
247 65.04510 46.12580 58.93550 33.47687 29.96160 40.63329
248 83.28090 57.69970 67.45000 48.07245 43.51556 50.46292
249 2.941200 0.000000 0.000000 0.514181 0.471495 0.693996
250 0.000000 0.000000 31.25000 3.270352 1.273871 15.52995
251 0.000000 0.000000 36.88520 4.385618 1.611663 21.30658
252 16.25420 7.098800 40.44160 6.186693 2.815576 23.48825
253 32.23030 12.49010 43.29230 10.40962 5.662692 25.43711
254 75.51100 47.91900 72.40630 42.46278 34.44328 58.90592
255 92.66910 59.18950 85.62060 59.58174 49.23215 78.74845
256 0.000000 0.000000 0.000000 0.417386 0.408781 0.692266
257 6.097600 0.000000 0.000000 0.723494 0.590350 0.701667
258 13.15790 0.000000 0.000000 1.369627 0.938992 0.724189
259 17.12330 0.000000 0.000000 2.046621 1.310024 0.740810
260 23.60330 8.214300 23.86380 4.779285 2.975498 8.676085
261 28.77890 17.83190 26.01110 7.256377 5.849209 9.625407
262 29.73460 20.64620 39.09080 10.11283 7.580378 20.79445
263 43.29960 28.71080 44.39120 16.46859 13.02930 24.69877
264 43.16830 0.000000 27.46230 11.16017 5.877437 10.11895
265 42.77630 0.000000 42.05280 13.55078 6.478509 23.87622
266 65.99070 0.000000 40.10740 23.87619 12.56134 20.27097
267 65.04510 0.000000 100.0000 40.19030 16.83467 114.9030
268 72.51400 25.99210 100.0000 44.46054 23.03231 112.1053
269 72.64810 27.20730 0.000000 26.35383 20.08601 2.467278
270 100.0000 26.26550 0.000000 43.19355 29.93420 3.362144
271 100.0000 26.82250 22.16300 43.80501 29.77782 8.199209
272 100.0000 44.44400 45.07500 50.41343 39.57549 25.83369
273 61.63890 39.30000 0.000000 23.95639 23.75270 3.529637
274 62.16890 55.04730 26.27670 31.43811 36.08107 12.76262
275 65.31770 65.23560 42.33710 38.88741 45.30154 26.64824
276 21.10020 25.20460 0.000000 6.002879 8.094027 1.709726
277 39.75610 27.00120 8.073000 11.45743 11.40299 2.879833
278 53.41950 48.76260 9.737300 24.37138 28.90571 5.959536
279 54.15520 68.11110 29.82190 35.31455 46.97292 17.37406
280 55.12850 70.83390 51.34760 39.46185 49.20634 34.91869
281 36.88520 0.000000 0.000000 7.312327 4.250728 0.860323
282 43.10350 0.000000 0.000000 9.865825 5.683680 0.909796
283 54.01820 13.90920 13.24580 15.90605 10.32392 3.464986
284 59.91440 13.66180 23.23200 18.91174 11.90983 7.664742
285 100.0000 0.000000 0.000000 41.49584 24.96583 2.494098
286 100.0000 0.000000 18.50790 41.60431 24.73663 6.140393
287 100.0000 25.50680 38.17060 45.09937 29.82385 18.17598
288 84.22950 9.436700 49.26740 34.82511 19.47666 29.81044
289 84.28700 89.80750 78.73190 67.80219 78.81349 68.24634
290 91.26980 91.26980 91.26980 76.57984 83.47705 88.28268
291 95.52850 95.52850 95.52850 82.74248 91.39631 97.30391
292 11.90480 11.90480 11.90480 2.304672 2.421906 2.878634
293 15.67180 19.39010 28.42610 5.357404 5.186670 11.17636
294 27.99750 30.80570 39.02040 11.74783 11.78781 20.30358
295 69.36280 36.52000 47.86330 30.29320 23.96197 28.02468
296 0.000000 9.493700 0.000000 1.084758 1.657765 0.878095
297 0.000000 13.15790 0.000000 1.571647 2.544832 0.978448
298 0.000000 13.46300 30.60430 3.862369 2.966576 13.84846
299 0.000000 27.89810 40.94210 8.387081 8.840805 22.58041
300 21.42860 0.000000 0.000000 2.847854 1.754697 0.739638
301 26.11940 0.000000 0.000000 3.948757 2.364819 0.775692
302 28.60580 0.000000 0.000000 4.686703 2.788181 0.802694
303 31.25000 0.000000 0.000000 5.447911 3.192990 0.796232
304 44.93180 0.000000 15.60050 11.26089 6.244394 4.143139
305 49.71340 15.47090 100.0000 34.03722 14.48567 115.4304
306 29.05980 16.91750 72.00480 17.02768 8.191481 61.69037
307 43.28300 20.45280 86.64660 26.73492 13.10490 85.26238
308 80.93940 51.98770 88.97660 50.62725 39.94773 87.71180
309 11.16400 7.944300 17.81230 2.275416 1.749379 5.502879
310 20.09140 29.78860 22.39150 7.928719 10.37003 8.146985
311 31.89060 42.61000 29.56200 15.90242 20.63850 12.82365
312 32.37240 46.69030 40.98610 19.18860 23.47301 23.39532
313 37.28450 48.33900 72.78900 27.99441 26.75927 60.17998
314 84.74530 75.28340 85.32590 62.19306 61.50737 80.33305
315 26.00690 12.08860 9.005200 4.618378 3.842898 2.159081
316 39.64320 18.59980 10.89560 9.726910 7.965711 2.946628
317 44.84170 28.65110 35.65950 15.79479 13.17878 16.48150
318 85.53780 59.59010 38.48090 46.14430 45.93163 22.54564
319 100.0000 63.30550 50.21460 57.64140 53.65321 32.00179
320 100.0000 80.68370 55.36700 68.40412 73.18150 39.61092
321 52.58700 100.0000 0.000000 56.45356 90.14682 17.09468
322 100.0000 100.0000 0.000000 77.41386 100.7253 17.34133
323 100.0000 100.0000 31.25460 78.28056 99.97195 25.67779
324 57.76230 12.31780 31.09480 18.77923 11.19397 12.19475
325 66.33080 18.74590 48.63890 25.72910 15.39403 28.99487
326 15.25090 0.000000 13.24210 2.195068 1.249827 3.515578
327 28.27320 0.000000 14.61930 4.972714 2.771963 3.690077
328 35.78120 10.65770 18.23090 7.746028 5.146540 5.100198
329 36.39390 12.39670 30.78820 9.563155 5.958521 12.50883
330 58.72120 46.42480 30.41390 26.50771 27.61825 14.29426
331 67.64120 55.28360 45.77080 36.24291 37.86685 28.10001
332 86.03550 66.82120 65.03840 53.14854 53.11248 49.12827
333 0.000000 0.000000 17.12330 1.391958 0.703290 5.805725
334 0.000000 0.000000 21.42860 1.859662 0.843143 8.273017
335 0.000000 0.000000 26.11940 2.483841 1.032417 11.52993
336 0.000000 28.81410 54.60830 11.48551 9.924899 38.20329
337 0.000000 30.59980 74.16160 17.14322 12.05133 64.82638
338 8.868000 40.85190 82.66530 23.65574 19.70244 76.43792
339 0.000000 44.42060 75.24480 22.13010 21.40444 63.48900
340 0.000000 60.42630 78.23630 31.52828 36.24611 70.44964
341 29.35630 61.95570 78.30350 34.61881 38.04306 70.43257
342 19.43020 60.86610 68.16170 29.82540 36.75461 53.70131
343 43.04160 69.47650 76.63450 40.82781 47.63692 66.48037
344 64.27870 76.24340 83.54380 52.20386 57.60400 76.63817
345 54.42630 37.52360 35.29410 21.94320 20.48833 16.74427
346 66.33190 47.19540 49.22370 32.79677 30.82200 30.74047
347 70.15200 71.82250 60.51220 47.16373 53.56418 45.07480
348 44.06230 55.72200 32.87660 26.02475 33.23608 17.18751
349 52.51810 58.13020 47.28720 31.77459 36.60577 30.72355
350 16.28500 37.82370 46.42800 13.85907 15.75879 28.32888
351 19.30540 44.57900 63.46180 20.58747 21.69621 48.38923
352 18.50540 57.85410 86.21290 33.54079 34.47752 83.62638
353 38.73360 65.64090 100.0000 45.91687 43.76444 112.4314
354 32.16190 31.10200 19.49820 10.62636 12.10613 6.583529
355 44.55390 31.47780 22.97790 15.13179 14.63730 8.195336
356 71.99810 31.89180 32.73640 28.18491 21.94878 14.14117
357 84.08810 40.46250 46.75870 39.28683 31.35546 27.18719
358 84.32470 71.99080 93.04910 62.02210 58.81499 91.63662
359 0.000000 47.45360 40.68070 15.96740 22.63244 23.54004
360 18.36660 53.18120 48.84590 21.67612 28.62105 32.05017
361 0.000000 54.29640 57.14910 22.25401 28.68877 40.47787
362 0.000000 73.55600 64.24460 35.79067 49.36725 50.98546
363 30.78140 79.54370 82.48050 46.04846 57.70330 76.49760
364 49.53540 84.37600 82.98820 52.90646 66.16481 77.48041
365 0.000000 16.24210 73.82590 14.78727 6.581140 67.84343
366 26.32400 18.10230 100.0000 27.65682 11.27883 117.3652
367 100.0000 100.0000 100.0000 90.86695 100.2853 107.4933
368 67.70360 0.000000 57.19280 27.85425 13.82875 40.12638
369 74.82790 0.000000 81.80090 37.59086 17.65428 74.53573
370 76.81760 22.05260 85.07040 39.84553 21.55888 78.82168
371 93.49270 27.68540 85.50140 50.18625 29.25111 79.02916
372 83.29380 37.84260 83.63490 46.15263 30.71077 75.56969
373 100.0000 74.61480 83.13120 70.29288 65.38820 74.60128
374 64.95330 19.76610 9.080100 21.78910 14.92982 2.887114
375 83.51710 55.64910 13.94580 41.27982 42.13626 8.739454
376 83.56560 66.79910 31.64420 47.85466 52.32761 18.72398
377 50.00000 0.000000 0.000000 13.29553 7.594625 1.006490
378 71.62340 0.000000 29.45590 24.78158 13.86951 11.13835
379 79.53890 20.15850 45.41290 31.91209 19.57169 25.76545
380 9.493700 9.493700 9.493700 1.709131 1.795861 2.217070
381 10.68380 10.68380 10.68380 1.994567 2.140637 2.650590
382 38.35440 10.01720 11.61840 8.615725 5.717616 2.860219
383 40.92020 53.30100 15.62280 22.49296 30.45376 8.153256
384 51.57580 76.82640 14.89550 39.15584 56.71852 12.96619
385 0.000000 68.56190 35.11560 27.46101 42.91144 21.52129
386 11.58100 84.94260 42.22460 40.48149 64.15252 30.21538
387 23.78850 92.99760 61.14090 49.91834 74.96665 48.59937
388 15.60440 10.41610 0.000000 2.393781 2.494641 0.918191
389 29.76760 15.81010 0.000000 6.046563 5.465033 1.155628
390 49.13040 25.07580 56.84300 20.83159 13.54704 39.58770
391 68.04090 33.96360 56.68900 30.58547 22.70993 37.52010
