KOIOS/K2418U/K2418U #2 2021-02-09 09-32 0.3127x 0.329y sRGB F-S XYZLUT+MTX/K2418U #2 2021-02-09 09-32 0.3127x 0.329y sRGB F-S XYZLUT+MTX.bpc.ti3
CTI3   

DESCRIPTOR "Argyll Calibration Target chart information 3"
ORIGINATOR "Argyll dispread"
CREATED "Tue Feb 09 09:39:42 2021"
DEVICE_CLASS "DISPLAY"
SINGLE_DIM_STEPS "17"
COMP_GREY_STEPS "49"
DARK_REGION_EMPHASIS "1.6"
COLOR_REP "RGB_XYZ"
TARGET_INSTRUMENT "X-Rite i1 DisplayPro, ColorMunki Display"
DISPLAY_TYPE_REFRESH "NO"
DISPLAY_TYPE_BASE_ID "1"
INSTRUMENT_TYPE_SPECTRAL "NO"
LUMINANCE_XYZ_CDM2 "72.800047 80.398770 85.663180"
NORMALIZED_TO_Y_100 "YES"
VIDEO_LUT_CALIBRATION_POSSIBLE "YES"

BEGIN_ARGYLL_COLPROF_ARGS
-v -qh -aX -bn -C "No copyright. Created with DisplayCAL 3.8.9.3 and ArgyllCMS 2.1.2" -M "KOIOS K2418U"
END_ARGYLL_COLPROF_ARGS

OBSERVER "1931_2"
USE_BLACK_POINT_COMPENSATION "NO"
BLACK_POINT_CORRECTION "0.0"
HIRES_B2A "YES"
HIRES_B2A_SIZE "-1"
SMOOTH_B2A "YES"
PATCH_SEQUENCE "OPTIMIZE_DISPLAY_RESPONSE_DELAY"

NUMBER_OF_FIELDS 7
BEGIN_DATA_FORMAT
SAMPLE_ID RGB_R RGB_G RGB_B XYZ_X XYZ_Y XYZ_Z
END_DATA_FORMAT

NUMBER_OF_SETS 417
BEGIN_DATA
1 100.0000 100.0000 100.0000 90.54871 100.0000 106.5479
2 1.960800 1.960800 1.960800 0.580121 0.626356 0.789026
3 3.921600 3.921600 3.921600 0.803222 0.867448 1.077451
4 5.882400 5.882400 5.882400 1.082598 1.158448 1.414808
5 9.803900 9.803900 9.803900 1.753541 1.881540 2.329449
6 13.72600 13.72600 13.72600 2.905534 3.128553 3.695899
7 17.64700 17.64700 17.64700 4.349296 4.718990 5.184004
8 21.56900 21.56900 21.56900 6.040877 6.523310 7.164073
9 25.49000 25.49000 25.49000 8.100841 8.711156 9.532937
10 29.41200 29.41200 29.41200 10.22941 11.01728 11.85528
11 33.33300 33.33300 33.33300 12.97179 13.96293 15.17999
12 37.25500 37.25500 37.25500 16.17753 17.27511 18.54015
13 41.17600 41.17600 41.17600 19.64452 20.87466 22.44153
14 45.09800 45.09800 45.09800 22.77118 24.47910 26.38332
15 49.02000 49.02000 49.02000 26.57279 28.55383 30.97064
16 52.94100 52.94100 52.94100 29.89695 31.77225 34.10818
17 56.86300 56.86300 56.86300 34.21944 36.49186 38.99056
18 60.78400 60.78400 60.78400 37.82236 40.48298 43.69127
19 64.70600 64.70600 64.70600 41.93985 45.17198 48.99711
20 68.62700 68.62700 68.62700 46.96559 50.74995 53.27459
21 72.54900 72.54900 72.54900 50.96544 55.43515 58.02617
22 76.47100 76.47100 76.47100 55.94299 60.16132 65.13049
23 80.39200 80.39200 80.39200 60.81429 66.56581 70.13433
24 84.31400 84.31400 84.31400 67.02559 73.32239 77.25390
25 88.23500 88.23500 88.23500 71.40181 77.89872 82.23458
26 92.15700 92.15700 92.15700 77.80320 84.88367 89.35508
27 96.07800 96.07800 96.07800 83.28603 91.97982 97.67500
28 46.80590 77.17000 45.98820 40.36965 55.92469 31.07745
29 53.18360 90.30550 67.07330 53.49302 72.60470 53.46934
30 15.95780 64.85740 50.78490 28.20964 39.83868 35.30484
31 25.64800 69.55200 64.46890 34.93906 45.63834 49.51795
32 71.58170 79.07660 100.0000 62.54403 63.53527 108.7272
33 17.57030 30.83040 48.99300 11.89551 11.23022 30.64036
34 83.10930 53.02840 49.19880 42.43735 39.59876 30.09490
35 87.00220 72.65720 59.14700 55.66068 59.08970 42.39098
36 100.0000 81.85210 75.80590 71.87592 74.50152 62.91155
37 100.0000 100.0000 84.12780 85.75094 99.36141 77.77247
38 0.000000 19.73150 15.46530 3.182397 4.592033 4.534568
39 0.000000 20.84230 26.75900 4.499961 5.241854 10.56855
40 0.000000 56.56590 38.47190 20.21196 30.46097 21.79492
41 38.31890 61.21090 48.32770 29.58241 37.43457 31.52744
42 13.52780 26.22320 13.03870 5.527208 8.050939 3.892852
43 23.33700 61.33650 13.63190 23.20051 36.50529 9.162889
44 28.59510 65.20110 30.49470 27.45608 41.03835 17.23490
45 28.78900 77.98440 47.48360 37.35732 54.72415 32.94503
46 35.83570 77.06330 59.53180 40.09189 55.17929 45.09129
47 47.60340 90.15250 77.74000 54.16990 72.18390 66.92544
48 76.08700 0.000000 0.000000 26.25551 15.55391 1.573500
49 87.20930 0.000000 0.000000 32.55691 19.48195 1.905064
50 100.0000 0.000000 100.0000 59.40584 28.69518 110.0809
51 100.0000 27.69340 100.0000 60.29842 33.72700 108.4971
52 0.000000 0.000000 0.000000 0.367298 0.408506 0.421486
53 0.000000 2.941200 0.000000 0.534587 0.660103 0.630994
54 0.000000 6.097600 0.000000 0.791044 1.106570 0.780129
55 0.000000 17.12330 0.000000 2.262461 3.817012 1.199981
56 0.000000 21.42860 0.000000 3.189299 5.527166 1.395346
57 0.000000 26.11940 0.000000 4.443024 7.822245 1.761265
58 0.000000 31.25000 0.000000 5.956789 10.39844 2.242521
59 0.000000 36.88520 0.000000 8.009726 14.10568 2.797567
60 0.000000 43.10350 0.000000 10.95619 19.32122 3.686969
61 0.000000 50.00000 0.000000 14.43969 25.23185 4.754812
62 0.000000 57.69230 0.000000 18.68177 32.21071 6.049601
63 0.000000 61.89340 0.000000 21.34059 36.03578 7.027284
64 0.000000 66.32650 0.000000 24.27974 41.22119 7.942945
65 33.63570 79.07860 0.000000 35.93426 56.65023 11.10636
66 25.17100 19.46700 9.898900 5.658482 6.027088 2.545826
67 35.74180 22.52800 23.07030 9.883383 8.620929 8.050061
68 51.85100 25.07040 24.34720 16.73059 13.17297 8.461268
69 58.95930 25.14450 34.00930 20.60517 15.05369 14.51372
70 68.94850 41.64960 33.46370 29.45806 26.87735 15.14839
71 91.26100 43.63860 59.58640 46.41963 36.10174 41.87784
72 100.0000 50.78590 75.98430 57.97129 44.67115 62.38659
73 0.000000 0.000000 0.000000 0.369886 0.408565 0.434063
74 0.000000 0.000000 9.493700 0.693242 0.503499 1.985848
75 0.000000 0.000000 13.15790 0.987747 0.587989 3.542389
76 0.000000 0.000000 43.10350 5.885687 2.059471 29.19696
77 0.000000 0.000000 50.00000 7.613514 2.585100 38.04464
78 0.000000 0.000000 57.69230 9.693654 3.235894 48.24474
79 0.000000 0.000000 66.32650 11.96149 3.935630 59.56883
80 0.000000 0.000000 76.08700 14.92786 4.870331 73.95852
81 100.0000 68.90740 100.0000 72.84296 60.84002 107.1062
82 100.0000 100.0000 100.0000 90.54871 100.0000 106.5479
83 0.957900 0.957900 0.957900 0.450117 0.486571 0.578683
84 1.938000 1.938000 1.938000 0.580917 0.626022 0.789355
85 2.941200 2.941200 2.941200 0.666545 0.685358 0.921349
86 3.968300 3.968300 3.968300 0.803884 0.867564 1.078757
87 5.020100 5.020100 5.020100 0.955601 1.008311 1.330482
88 6.097600 6.097600 6.097600 1.149109 1.225258 1.507439
89 7.201600 7.201600 7.201600 1.227142 1.308184 1.671727
90 8.333300 8.333300 8.333300 1.461744 1.578416 1.902035
91 38.26850 92.47200 9.915300 46.64728 75.51517 15.79667
92 74.35290 100.0000 21.89680 64.44480 93.34500 21.14779
93 100.0000 100.0000 100.0000 90.52711 100.0524 106.7855
94 13.15790 13.15790 13.15790 2.799150 3.012688 3.621143
95 14.44440 14.44440 14.44440 3.219555 3.478039 3.920422
96 15.76580 15.76580 15.76580 3.627028 3.854180 4.517343
97 17.12330 17.12330 17.12330 4.190983 4.513552 5.103591
98 18.51850 18.51850 18.51850 4.630116 4.895950 5.592391
99 19.95310 19.95310 19.95310 5.276420 5.657329 6.584288
100 21.42860 21.42860 21.42860 6.037828 6.517173 7.177067
101 22.94690 22.94690 22.94690 6.792861 7.192236 8.241959
102 24.50980 24.50980 24.50980 7.293681 7.891267 8.585553
103 26.11940 26.11940 26.11940 8.485532 8.966313 9.912079
104 27.77780 27.77780 27.77780 9.454416 10.02852 10.79294
105 29.48720 29.48720 29.48720 10.23290 11.01658 11.87723
106 31.25000 31.25000 31.25000 11.63847 12.37103 13.24267
107 33.06880 33.06880 33.06880 12.79665 13.67547 14.74847
108 34.94620 34.94620 34.94620 14.07315 14.92916 16.01413
109 36.88520 36.88520 36.88520 15.88895 16.90291 18.16894
110 38.88890 38.88890 38.88890 17.19341 18.25002 19.55556
111 40.96050 40.96050 40.96050 19.24145 20.44778 22.02284
112 43.10350 43.10350 43.10350 20.72259 22.07902 23.70952
113 45.32160 45.32160 45.32160 22.97472 24.72827 26.89886
114 47.61910 47.61910 47.61910 25.03446 26.55553 28.59307
115 50.00000 50.00000 50.00000 27.38641 29.04859 31.23463
116 52.46910 52.46910 52.46910 29.53127 31.60269 34.10328
117 55.03140 55.03140 55.03140 32.09778 34.57569 37.69586
118 57.69230 57.69230 57.69230 34.87190 37.38140 40.38508
119 60.45750 60.45750 60.45750 37.53689 39.90852 43.11413
120 63.33330 63.33330 63.33330 40.88156 44.26732 46.73944
121 66.32650 66.32650 66.32650 43.76890 47.09128 50.82559
122 69.44440 69.44440 69.44440 47.26926 50.83729 55.08979
123 72.69500 72.69500 72.69500 50.93517 55.45232 57.94780
124 76.08700 76.08700 76.08700 55.30806 59.43384 64.56639
125 79.62960 79.62960 79.62960 59.43543 64.99520 68.61514
126 83.33330 83.33330 83.33330 65.30901 71.41833 75.25180
127 87.20930 87.20930 87.20930 69.87851 75.73439 82.58214
128 0.000000 14.71860 48.54340 7.485731 4.180060 32.15713
129 15.44330 14.77990 57.64030 10.69824 5.305875 43.66342
130 21.44460 75.36980 88.93270 44.51274 52.86367 88.73161
131 0.000000 78.11320 80.88610 42.32598 54.50573 73.19173
132 0.000000 100.0000 85.06420 59.81090 86.39587 82.20613
133 37.40460 100.0000 90.72900 63.69584 87.76534 89.97018
134 57.68900 100.0000 100.0000 71.83281 90.40050 108.8002
135 48.31930 18.74350 0.000000 13.38429 10.02429 1.470356
136 50.53890 21.55930 37.93470 17.11992 11.80729 18.76837
137 85.75690 22.90050 39.70470 35.24455 22.88452 19.56990
138 100.0000 30.71510 55.54360 48.97130 32.51355 35.84973
139 0.000000 100.0000 0.000000 49.47096 86.63860 17.14453
140 30.47860 100.0000 22.69650 51.89346 87.30966 21.56151
141 38.14540 100.0000 52.57010 56.05081 87.44407 41.15058
142 41.60690 100.0000 74.99940 60.34569 87.76217 66.38361
143 75.03580 100.0000 90.58270 74.08209 92.87748 87.76984
144 10.13040 33.44240 28.25310 8.652557 12.01119 11.66624
145 62.43460 36.82070 75.01430 32.64363 23.46043 60.05377
146 0.000000 100.0000 49.93430 52.32308 86.09953 38.10512
147 0.000000 100.0000 68.05060 55.67383 86.44959 56.97791
148 100.0000 0.000000 32.49960 42.21267 24.58167 13.27912
149 100.0000 0.000000 46.08220 44.10765 24.79985 25.52085
150 100.0000 0.000000 60.94670 47.12453 25.44090 42.43715
151 100.0000 0.000000 79.86580 52.24010 26.82093 70.44751
152 100.0000 48.77090 100.0000 65.26985 44.78326 109.0796
153 49.34470 13.46180 43.06780 16.86563 9.458325 24.37236
154 59.72040 16.55090 64.00800 26.06949 14.02075 47.94045
155 81.05700 29.08020 63.38950 37.84110 24.43462 45.78964
156 68.08280 0.000000 15.87450 22.10152 12.62050 4.175347
157 76.47690 14.26140 15.33200 27.18273 17.05616 4.562014
158 84.37750 13.09960 25.99920 32.00123 19.55197 9.091403
159 100.0000 44.75690 24.10160 48.44907 39.79154 10.65763
160 100.0000 62.11240 26.08960 54.66333 52.49972 14.29580
161 100.0000 100.0000 60.57030 80.99285 99.48149 46.31900
162 22.63750 47.25890 16.48560 15.07778 23.01769 7.352892
163 24.50890 58.07630 37.46380 23.25883 33.29420 21.26738
164 0.000000 57.53600 100.0000 38.00554 34.85994 113.1119
165 0.000000 71.52910 100.0000 45.01912 47.59281 112.0367
166 34.18260 77.73460 100.0000 51.30498 55.95868 111.3720
167 54.58170 87.39970 100.0000 61.66025 71.64996 109.5863
168 48.47990 0.000000 67.67630 21.79430 9.422821 55.96540
169 53.97820 29.70030 82.66620 30.02366 18.35655 74.19073
170 0.000000 33.59450 34.66990 9.040534 12.14312 16.02212
171 22.19080 34.51610 36.15880 11.48853 13.40062 17.57617
172 34.35170 35.48700 50.90110 16.96206 15.66147 32.11238
173 36.54390 30.82030 62.93650 19.06439 14.24380 46.26727
174 49.78170 42.93230 85.74700 33.28723 25.38574 80.64112
175 70.75850 45.00270 100.0000 47.43492 32.99614 110.5726
176 0.000000 79.39530 54.78280 37.20890 55.14036 40.32600
177 20.17130 87.37610 70.61770 47.56391 68.16987 57.74030
178 19.93800 88.83490 83.89590 51.52026 69.53867 79.68590
179 29.57190 92.78000 100.0000 60.49998 75.80289 110.8557
180 0.000000 33.09960 21.31010 7.429330 11.52585 7.857886
181 0.000000 48.83160 20.51940 14.28343 23.60573 9.069918
182 0.000000 74.21280 23.68130 30.13508 49.22215 15.33160
183 0.000000 100.0000 29.86750 50.49980 86.53228 24.95204
184 27.13480 47.66590 0.000000 15.58126 23.74757 4.269826
185 100.0000 49.44380 0.000000 49.20720 43.23223 6.008567
186 100.0000 75.01110 0.000000 60.73578 65.61269 10.63761
187 100.0000 81.25240 29.78270 65.88179 73.87625 20.35871
188 38.70020 33.62710 0.000000 13.12978 15.02072 2.547364
189 56.95050 37.91800 13.79020 21.77973 21.49169 5.465822
190 75.66500 43.52660 21.95000 32.16005 29.67959 9.018061
191 9.493700 0.000000 0.000000 0.956018 0.723625 0.634505
192 11.83560 6.926300 29.15620 3.628557 2.015328 12.42638
193 22.93330 36.69630 66.00800 18.40464 16.35704 49.98794
194 26.54880 48.93890 88.09010 31.15359 27.53924 87.09213
195 49.96720 67.46850 89.37920 45.14224 46.33379 88.37588
196 0.000000 76.08700 0.000000 30.98055 52.65107 10.23067
197 0.000000 87.20930 0.000000 39.30776 67.38093 13.19346
198 27.91990 87.83250 35.90320 43.36295 68.92056 25.89216
199 64.10670 89.44360 55.05260 53.89293 72.94879 41.29398
200 70.68530 100.0000 74.69190 68.88755 91.92296 64.43188
201 23.13630 0.000000 28.50360 5.179479 2.448754 12.10949
202 31.39330 0.000000 76.75310 18.85275 7.043318 72.04408
203 33.69860 0.000000 100.0000 28.97401 10.25759 119.9279
204 37.75590 34.38730 100.0000 32.61202 19.43407 111.9897
205 0.000000 0.000000 87.20930 19.26560 6.216600 95.66161
206 0.000000 0.000000 100.0000 25.06740 8.049634 123.7326
207 0.000000 15.56250 100.0000 25.01595 9.283684 119.9721
208 0.000000 29.81520 100.0000 26.69898 14.11569 115.0636
209 0.000000 43.24750 100.0000 30.65969 22.26113 112.7762
210 0.000000 85.73360 100.0000 54.52900 66.52513 111.7366
211 0.000000 100.0000 100.0000 64.51547 87.13773 111.2211
212 42.06660 60.95810 60.43170 32.08037 37.71329 43.79164
213 50.63280 72.88060 65.91920 42.41198 51.67232 51.63244
214 66.88920 85.40330 77.88710 57.45716 70.50216 66.37415
215 100.0000 87.02650 100.0000 81.19269 80.11205 106.8295
216 83.08860 15.12570 67.99950 37.92205 20.91757 51.42072
217 100.0000 27.68160 73.72040 52.22097 31.88105 58.00483
218 28.48060 78.81260 19.14200 34.96710 55.42299 14.31559
219 50.35520 83.82580 35.89860 44.72984 65.08788 24.51817
220 70.41720 84.47930 65.41100 55.73235 69.40758 50.07209
221 88.54060 89.43430 65.51640 67.14939 79.20077 50.06203
222 85.61820 22.94430 10.43820 32.64845 22.62995 3.936874
223 88.48870 26.85510 28.32060 35.70939 24.94597 10.95274
224 57.69230 0.000000 0.000000 16.84536 9.644951 1.120274
225 66.32650 0.000000 0.000000 21.58454 12.54230 1.346728
226 85.27740 40.70330 9.459000 37.02391 31.85567 5.547970
227 92.24130 47.60120 36.47890 44.42284 38.36664 18.84787
228 100.0000 57.62400 63.02050 57.45239 49.28112 44.81736
229 0.000000 0.000000 0.000000 0.370784 0.409486 0.436298
230 19.50100 8.223900 11.25350 3.010281 2.317583 2.674271
231 56.82630 28.89990 13.24950 19.16691 16.17188 4.391852
232 75.31370 32.28590 22.24750 29.70699 23.45819 8.297417
233 0.000000 9.675900 14.75010 1.657461 1.736397 4.192803
234 16.81870 9.775600 73.95540 15.56240 5.945630 69.00303
235 19.89710 27.42510 89.02440 23.14084 12.84403 91.45893
236 38.15560 49.95510 100.0000 38.32395 29.80675 112.3130
237 71.64600 63.23710 100.0000 54.75650 46.99858 109.7504
238 73.80840 57.96540 0.000000 37.38965 42.05170 6.843765
239 87.43450 77.72110 14.59890 54.80384 64.98575 13.02730
240 14.39770 17.92110 7.262700 3.494762 4.592237 2.037683
241 15.44640 17.68840 37.67100 6.603948 5.051521 19.58989
242 18.16570 21.71020 51.80700 10.57617 7.271231 35.03932
243 23.01150 25.21890 68.53820 16.38276 10.10369 56.76875
244 29.91670 36.32470 86.37360 26.13358 18.46808 82.99807
245 0.000000 43.09580 55.95500 17.19711 19.99524 39.19057
246 35.20090 46.83310 57.31600 22.87350 24.12815 38.78488
247 65.04510 46.12580 58.93550 33.47726 29.96208 40.63375
248 83.28090 57.69970 67.45000 48.07274 43.51595 50.46331
249 2.941200 0.000000 0.000000 0.477538 0.472179 0.492344
250 0.000000 0.000000 31.25000 3.266013 1.274550 15.46289
251 0.000000 0.000000 36.88520 4.384012 1.612339 21.27656
252 16.25420 7.098800 40.44160 6.187115 2.816244 23.48695
253 32.23030 12.49010 43.29230 10.41017 5.663341 25.43766
254 75.51100 47.91900 72.40630 42.46311 34.44373 58.90625
255 92.66910 59.18950 85.62060 59.58195 49.23250 78.74865
256 0.000000 0.000000 0.000000 0.370863 0.409466 0.436947
257 6.097600 0.000000 0.000000 0.700346 0.591033 0.573319
258 13.15790 0.000000 0.000000 1.361437 0.939673 0.691306
259 17.12330 0.000000 0.000000 2.044007 1.310703 0.732140
260 23.60330 8.214300 23.86380 4.779779 2.976165 8.676066
261 28.77890 17.83190 26.01110 7.256949 5.849856 9.626072
262 29.73460 20.64620 39.09080 10.11338 7.581014 20.79504
263 43.29960 28.71080 44.39120 16.46910 13.02990 24.69934
264 43.16830 0.000000 27.46230 11.16072 5.878084 10.11961
265 42.77630 0.000000 42.05280 13.55131 6.479152 23.87679
266 65.99070 0.000000 40.10740 23.87665 12.56194 20.27157
267 65.04510 0.000000 100.0000 40.19065 16.83524 114.9029
268 72.51400 25.99210 100.0000 44.46086 23.03284 112.1053
269 72.64810 27.20730 0.000000 26.35427 20.08656 2.467998
270 100.0000 26.26550 0.000000 43.19388 29.93468 3.362858
271 100.0000 26.82250 22.16300 43.80533 29.77830 8.199890
272 100.0000 44.44400 45.07500 50.41371 39.57591 25.83425
273 61.63890 39.30000 0.000000 23.95685 23.75322 3.530350
274 62.16890 55.04730 26.27670 31.43852 36.08151 12.76327
275 65.31770 65.23560 42.33710 38.88777 45.30192 26.64879
276 21.10020 25.20460 0.000000 6.003461 8.094659 1.710451
277 39.75610 27.00120 8.073000 11.45797 11.40360 2.880550
278 53.41950 48.76260 9.737300 24.37184 28.90620 5.960232
279 54.15520 68.11110 29.82190 35.31493 46.97329 17.37468
280 55.12850 70.83390 51.34760 39.46220 49.20669 34.91919
281 36.88520 0.000000 0.000000 7.312887 4.251386 0.861038
282 43.10350 0.000000 0.000000 9.866379 5.684329 0.910525
283 54.01820 13.90920 13.24580 15.90656 10.32454 3.465699
284 59.91440 13.66180 23.23200 18.91223 11.91044 7.665426
285 100.0000 0.000000 0.000000 41.49618 24.96635 2.494818
286 100.0000 0.000000 18.50790 41.60465 24.73715 6.141088
287 100.0000 25.50680 38.17060 45.09968 29.82433 18.17659
288 84.22950 9.436700 49.26740 34.82549 19.47721 29.81097
289 84.28700 89.80750 78.73190 67.80235 78.81364 68.24661
290 91.26980 91.26980 91.26980 76.57994 83.47717 88.28281
291 95.52850 95.52850 95.52850 82.74254 91.39637 97.30398
292 11.90480 11.90480 11.90480 2.305088 2.422577 2.878274
293 15.67180 19.39010 28.42610 5.357988 5.187322 11.17700
294 27.99750 30.80570 39.02040 11.74837 11.78842 20.30418
295 69.36280 36.52000 47.86330 30.29362 23.96249 28.02522
296 0.000000 9.493700 0.000000 1.084611 1.658441 0.875432
297 0.000000 13.15790 0.000000 1.572146 2.545502 0.978778
298 0.000000 13.46300 30.60430 3.862880 2.967243 13.84813
299 0.000000 27.89810 40.94210 8.387646 8.841432 22.58099
300 21.42860 0.000000 0.000000 2.847341 1.755372 0.737759
301 26.11940 0.000000 0.000000 3.949041 2.365490 0.775838
302 28.60580 0.000000 0.000000 4.687154 2.788849 0.803191
303 31.25000 0.000000 0.000000 5.448428 3.193656 0.796860
304 44.93180 0.000000 15.60050 11.26143 6.245039 4.143846
305 49.71340 15.47090 100.0000 34.03761 14.48626 115.4303
306 29.05980 16.91750 72.00480 17.02819 8.192112 61.69068
307 43.28300 20.45280 86.64660 26.73536 13.10550 85.26253
308 80.93940 51.98770 88.97660 50.62753 39.94814 87.71194
309 11.16400 7.944300 17.81230 2.275049 1.750054 5.495053
310 20.09140 29.78860 22.39150 7.929288 10.37065 8.147666
311 31.89060 42.61000 29.56200 15.90293 20.63905 12.82430
312 32.37240 46.69030 40.98610 19.18909 23.47354 23.39590
313 37.28450 48.33900 72.78900 27.99484 26.75977 60.18030
314 84.74530 75.28340 85.32590 62.19326 61.50764 80.33324
315 26.00690 12.08860 9.005200 4.618951 3.843559 2.159749
316 39.64320 18.59980 10.89560 9.727466 7.966344 2.947345
317 44.84170 28.65110 35.65950 15.79530 13.17938 16.48212
318 85.53780 59.59010 38.48090 46.14461 45.93200 22.54622
319 100.0000 63.30550 50.21460 57.64163 53.65353 32.00231
320 100.0000 80.68370 55.36700 68.40427 73.18169 39.61139
321 52.58700 100.0000 0.000000 56.45380 90.14689 17.09530
322 100.0000 100.0000 0.000000 77.41395 100.7253 17.34195
323 100.0000 100.0000 31.25460 78.28065 99.97195 25.67835
324 57.76230 12.31780 31.09480 18.77972 11.19458 12.19540
325 66.33080 18.74590 48.63890 25.72955 15.39461 28.99541
326 15.25090 0.000000 13.24210 2.191587 1.250506 3.489165
327 28.27320 0.000000 14.61930 4.973153 2.772631 3.690192
328 35.78120 10.65770 18.23090 7.746595 5.147192 5.100889
329 36.39390 12.39670 30.78820 9.563711 5.959168 12.50947
330 58.72120 46.42480 30.41390 26.50815 27.61875 14.29490
331 67.64120 55.28360 45.77080 36.24328 37.86728 28.10055
332 86.03550 66.82120 65.03840 53.14880 53.11280 49.12867
333 0.000000 0.000000 17.12330 1.370460 0.703973 5.531196
334 0.000000 0.000000 21.42860 1.844627 0.843825 8.069338
335 0.000000 0.000000 26.11940 2.475163 1.033097 11.40544
336 0.000000 28.81410 54.60830 11.48605 9.925518 38.20376
337 0.000000 30.59980 74.16160 17.14373 12.05193 64.82667
338 8.868000 40.85190 82.66530 23.65620 19.70299 76.43813
339 0.000000 44.42060 75.24480 22.13057 21.40498 63.48930
340 0.000000 60.42630 78.23630 31.52869 36.24655 70.44989
341 29.35630 61.95570 78.30350 34.61920 38.04349 70.43282
342 19.43020 60.86610 68.16170 29.82582 36.75505 53.70168
343 43.04160 69.47650 76.63450 40.82815 47.63728 66.48065
344 64.27870 76.24340 83.54380 52.20413 57.60429 76.63838
345 54.42630 37.52360 35.29410 21.94367 20.48888 16.74489
346 66.33190 47.19540 49.22370 32.79717 30.82248 30.74100
347 70.15200 71.82250 60.51220 47.16403 53.56450 45.07523
348 44.06230 55.72200 32.87660 26.02519 33.23654 17.18813
349 52.51810 58.13020 47.28720 31.77500 36.60621 30.72408
350 16.28500 37.82370 46.42800 13.85960 15.75937 28.32942
351 19.30540 44.57900 63.46180 20.58795 21.69675 48.38964
352 18.50540 57.85410 86.21290 33.54118 34.47797 83.62654
353 38.73360 65.64090 100.0000 45.91718 43.76483 112.4314
354 32.16190 31.10200 19.49820 10.62691 12.10673 6.584221
355 44.55390 31.47780 22.97790 15.13231 14.63789 8.196017
356 71.99810 31.89180 32.73640 28.18534 21.94932 14.14181
357 84.08810 40.46250 46.75870 39.28718 31.35593 27.18774
358 84.32470 71.99080 93.04910 62.02230 58.81527 91.63673
359 0.000000 47.45360 40.68070 15.96791 22.63297 23.54062
360 18.36660 53.18120 48.84590 21.67659 28.62154 32.05069
361 0.000000 54.29640 57.14910 22.25448 28.68926 40.47833
362 0.000000 73.55600 64.24460 35.79105 49.36760 50.98585
363 30.78140 79.54370 82.48050 46.04877 57.70359 76.49781
364 49.53540 84.37600 82.98820 52.90672 66.16504 77.48062
365 0.000000 16.24210 73.82590 14.78779 6.581782 67.84369
366 26.32400 18.10230 100.0000 27.65725 11.27944 117.3651
367 100.0000 100.0000 100.0000 90.86695 100.2853 107.4933
368 67.70360 0.000000 57.19280 27.85468 13.82934 40.12684
369 74.82790 0.000000 81.80090 37.59123 17.65485 74.53596
370 76.81760 22.05260 85.07040 39.84588 21.55942 78.82188
371 93.49270 27.68540 85.50140 50.18653 29.25160 79.02936
372 83.29380 37.84260 83.63490 46.15294 30.71125 75.56991
373 100.0000 74.61480 83.13120 70.29302 65.38844 74.60151
374 64.95330 19.76610 9.080100 21.78957 14.93041 2.887831
375 83.51710 55.64910 13.94580 41.28016 42.13666 8.740131
376 83.56560 66.79910 31.64420 47.85495 52.32794 18.72459
377 50.00000 0.000000 0.000000 13.29606 7.595260 1.007220
378 71.62340 0.000000 29.45590 24.78203 13.87010 11.13901
379 79.53890 20.15850 45.41290 31.91249 19.57224 25.76601
380 9.493700 9.493700 9.493700 1.709030 1.796536 2.213681
381 10.68380 10.68380 10.68380 1.994843 2.141310 2.649356
382 38.35440 10.01720 11.61840 8.616287 5.718264 2.860933
383 40.92020 53.30100 15.62280 22.49343 30.45424 8.153937
384 51.57580 76.82640 14.89550 39.15619 56.71882 12.96684
385 0.000000 68.56190 35.11560 27.46144 42.91183 21.52188
386 11.58100 84.94260 42.22460 40.48184 64.15277 30.21591
387 23.78850 92.99760 61.14090 49.91862 74.96682 48.59977
388 15.60440 10.41610 0.000000 2.394221 2.495311 0.918483
389 29.76760 15.81010 0.000000 6.047143 5.465683 1.156354
390 49.13040 25.07580 56.84300 20.83207 13.54763 39.58817
391 68.04090 33.96360 56.68900 30.58588 22.71046 37.52058
