KOIOS/K2418U/K2418U #2 2021-02-09 09-32 0.3127x 0.329y sRGB F-S XYZLUT+MTX/K2418U #2 2021-02-09 09-32 0.3127x 0.329y sRGB F-S XYZLUT+MTX.cal
CAL    

DESCRIPTOR "Argyll Device Calibration Curves"
ORIGINATOR "Argyll dispcal"
CREATED "Tue Feb 09 09:38:53 2021"
DEVICE_CLASS "DISPLAY"
COLOR_REP "RGB"
VIDEO_LUT_CALIBRATION_POSSIBLE "YES"
TV_OUTPUT_ENCODING "NO"
DEVICE_TYPE "n"
TARGET_WHITE_XYZ "151.778784 159.690502 173.912179"
TARGET_GAMMA "sRGB"
DEGREE_OF_BLACK_OUTPUT_OFFSET "1.0"
BLACK_POINT_CORRECTION "0.0"
BLACK_NEUTRAL_BLEND_RATE "4.0"
BLACK_POINT_HACK "YES"
QUALITY "low"

BEGIN_ARGYLL_DISPCAL_ARGS
-v2 -d2 -c1 -yn -P0.499239543726,0.498947368421,1.62416107383 -ql -m -w0.3127,0.329 -gs -f1.0 -k0 -A4.0 -b
END_ARGYLL_DISPCAL_ARGS


NUMBER_OF_FIELDS 4
BEGIN_DATA_FORMAT
RGB_I RGB_R RGB_G RGB_B
END_DATA_FORMAT

NUMBER_OF_SETS 256
BEGIN_DATA
0.00000000 0.00000000 0.00000000 0.00000000
0.00392157 0.00341214 0.00379553 0.00373079
0.00784314 0.00680368 0.00755901 0.00742927
0.01176470 0.01017480 0.01129090 0.01109580
0.01568630 0.01352570 0.01499150 0.01473090
0.01960780 0.01685650 0.01866120 0.01833500
0.02352940 0.02016750 0.02230050 0.02190830
0.02745100 0.02345870 0.02590970 0.02545130
0.03137250 0.02673050 0.02948910 0.02896450
0.03529410 0.02998290 0.03303930 0.03244800
0.03921570 0.03321620 0.03656080 0.03590120
0.04313730 0.03643220 0.04005960 0.03932350
0.04705880 0.03963620 0.04353710 0.04272020
0.05098040 0.04284250 0.04699360 0.04609220
0.05490200 0.04605630 0.05042480 0.04943590
0.05882350 0.04927960 0.05382480 0.05274950
0.06274510 0.05250930 0.05719910 0.05603920
0.06666670 0.05574450 0.06055870 0.05931810
0.07058820 0.05899050 0.06391190 0.06259880
0.07450980 0.06225210 0.06726080 0.06588460
0.07843140 0.06552390 0.07060190 0.06917350
0.08235290 0.06880260 0.07393140 0.07246430
0.08627450 0.07208910 0.07724420 0.07575370
0.09019610 0.07538180 0.08054840 0.07904280
0.09411760 0.07867550 0.08385020 0.08233600
0.09803920 0.08196440 0.08715790 0.08564030
0.10196100 0.08525220 0.09047280 0.08896140
0.10588200 0.08853860 0.09379450 0.09230230
0.10980400 0.09182060 0.09712550 0.09566770
0.11372500 0.09509680 0.10047000 0.09905960
0.11764700 0.09836710 0.10382300 0.10247000
0.12156900 0.10163200 0.10718500 0.10589300
0.12549000 0.10489200 0.11055300 0.10932200
0.12941200 0.10814500 0.11392400 0.11274900
0.13333300 0.11138100 0.11729600 0.11616600
0.13725500 0.11460300 0.12066100 0.11957000
0.14117600 0.11781100 0.12401300 0.12295200
0.14509800 0.12100800 0.12735700 0.12631600
0.14902000 0.12420900 0.13070400 0.12967500
0.15294100 0.12742500 0.13405300 0.13302800
0.15686300 0.13065500 0.13740900 0.13638000
0.16078400 0.13390100 0.14076900 0.13973300
0.16470600 0.13716300 0.14413300 0.14308700
0.16862700 0.14044800 0.14750100 0.14644500
0.17254900 0.14376400 0.15087000 0.14980300
0.17647100 0.14710900 0.15423500 0.15316100
0.18039200 0.15047400 0.15758900 0.15650900
0.18431400 0.15384500 0.16093300 0.15984600
0.18823500 0.15721800 0.16427200 0.16317800
0.19215700 0.16058600 0.16760200 0.16650400
0.19607800 0.16394800 0.17091800 0.16981800
0.20000000 0.16730100 0.17421700 0.17311900
0.20392200 0.17064300 0.17750200 0.17640900
0.20784300 0.17397800 0.18078000 0.17969900
0.21176500 0.17730900 0.18405800 0.18299000
0.21568600 0.18063300 0.18733900 0.18628400
0.21960800 0.18395200 0.19062900 0.18958400
0.22352900 0.18726300 0.19393100 0.19289400
0.22745100 0.19057500 0.19724600 0.19621500
0.23137300 0.19388500 0.20057200 0.19954500
0.23529400 0.19719200 0.20390900 0.20288200
0.23921600 0.20050000 0.20725900 0.20622800
0.24313700 0.20381000 0.21062200 0.20958500
0.24705900 0.20712500 0.21399400 0.21294600
0.25098000 0.21044600 0.21736900 0.21630800
0.25490200 0.21377700 0.22074800 0.21966800
0.25882400 0.21712000 0.22412500 0.22302000
0.26274500 0.22047800 0.22749200 0.22635900
0.26666700 0.22385400 0.23084900 0.22968100
0.27058800 0.22724700 0.23420300 0.23299200
0.27451000 0.23065100 0.23755500 0.23628900
0.27843100 0.23406200 0.24089500 0.23956100
0.28235300 0.23747200 0.24422300 0.24280700
0.28627500 0.24088200 0.24754000 0.24602800
0.29019600 0.24428300 0.25084300 0.24922100
0.29411800 0.24767400 0.25413100 0.25238500
0.29803900 0.25105400 0.25740500 0.25552200
0.30196100 0.25442800 0.26066600 0.25863500
0.30588200 0.25779400 0.26391700 0.26172600
0.30980400 0.26115100 0.26716300 0.26480300
0.31372500 0.26450700 0.27040600 0.26787300
0.31764700 0.26786100 0.27364800 0.27094000
0.32156900 0.27121500 0.27688700 0.27400800
0.32549000 0.27457700 0.28013000 0.27708400
0.32941200 0.27794500 0.28337800 0.28017400
0.33333300 0.28131300 0.28662900 0.28328100
0.33725500 0.28468300 0.28988100 0.28640400
0.34117600 0.28806200 0.29313200 0.28954400
0.34509800 0.29144900 0.29639100 0.29270400
0.34902000 0.29484400 0.29965600 0.29589100
0.35294100 0.29824700 0.30292200 0.29910000
0.35686300 0.30164300 0.30618900 0.30232500
0.36078400 0.30502500 0.30945300 0.30556300
0.36470600 0.30838900 0.31271000 0.30880400
0.36862700 0.31173600 0.31596100 0.31204600
0.37254900 0.31506200 0.31920100 0.31528600
0.37647100 0.31836500 0.32243100 0.31851700
0.38039200 0.32164600 0.32565400 0.32173700
0.38431400 0.32489400 0.32887100 0.32494900
0.38823500 0.32809400 0.33208000 0.32815100
0.39215700 0.33124800 0.33526600 0.33134200
0.39607800 0.33436000 0.33842600 0.33450300
0.40000000 0.33743600 0.34156500 0.33763500
0.40392200 0.34048100 0.34468300 0.34073800
0.40784300 0.34348800 0.34778000 0.34381600
0.41176500 0.34645400 0.35085200 0.34687000
0.41568600 0.34938400 0.35389600 0.34990200
0.41960800 0.35228200 0.35690700 0.35290900
0.42352900 0.35514700 0.35988200 0.35588300
0.42745100 0.35798100 0.36282000 0.35882300
0.43137300 0.36078300 0.36572200 0.36173000
0.43529400 0.36355200 0.36859100 0.36460500
0.43921600 0.36630000 0.37143100 0.36744700
0.44313700 0.36903400 0.37424100 0.37026000
0.44705900 0.37175300 0.37702400 0.37304300
0.45098000 0.37445600 0.37978900 0.37580000
0.45490200 0.37714200 0.38253900 0.37853900
0.45882400 0.37981400 0.38528000 0.38126100
0.46274500 0.38247200 0.38801800 0.38396800
0.46666700 0.38511500 0.39075800 0.38666600
0.47058800 0.38774600 0.39350500 0.38936100
0.47451000 0.39037100 0.39625900 0.39205300
0.47843100 0.39299500 0.39902300 0.39474400
0.48235300 0.39561900 0.40180900 0.39743500
0.48627500 0.39824500 0.40462100 0.40014100
0.49019600 0.40087800 0.40745900 0.40286500
0.49411800 0.40352200 0.41032500 0.40560900
0.49803900 0.40618000 0.41322500 0.40837400
0.50196100 0.40885200 0.41616200 0.41116400
0.50588200 0.41154500 0.41914200 0.41398800
0.50980400 0.41426500 0.42216400 0.41685100
0.51372500 0.41701800 0.42522600 0.41975300
0.51764700 0.41980600 0.42833300 0.42269000
0.52156900 0.42263000 0.43148100 0.42566800
0.52549000 0.42548600 0.43467000 0.42868500
0.52941200 0.42838000 0.43789900 0.43174200
0.53333300 0.43131600 0.44117100 0.43484000
0.53725500 0.43429500 0.44448100 0.43798000
0.54117600 0.43731700 0.44782300 0.44116400
0.54509800 0.44037800 0.45119400 0.44438600
0.54902000 0.44347800 0.45459300 0.44764200
0.55294100 0.44661700 0.45802100 0.45092900
0.55686300 0.44978400 0.46147900 0.45425400
0.56078400 0.45297300 0.46496200 0.45762000
0.56470600 0.45617900 0.46846700 0.46101900
0.56862700 0.45939700 0.47198900 0.46444800
0.57254900 0.46262400 0.47552700 0.46790200
0.57647100 0.46585900 0.47909000 0.47137200
0.58039200 0.46910200 0.48268400 0.47486500
0.58431400 0.47235400 0.48631200 0.47838300
0.58823500 0.47561500 0.48997500 0.48192800
0.59215700 0.47890200 0.49368600 0.48550500
0.59607800 0.48221800 0.49745400 0.48912200
0.60000000 0.48556600 0.50125900 0.49279200
0.60392200 0.48894700 0.50506700 0.49651600
0.60784300 0.49236400 0.50887600 0.50026200
0.61176500 0.49581500 0.51268600 0.50401500
0.61568600 0.49930200 0.51649900 0.50777400
0.61960800 0.50282500 0.52030900 0.51154000
0.62352900 0.50638400 0.52411100 0.51531100
0.62745100 0.50998100 0.52789300 0.51908200
0.63137300 0.51362300 0.53166000 0.52285200
0.63529400 0.51731600 0.53542000 0.52661300
0.63921600 0.52106000 0.53918700 0.53037700
0.64313700 0.52484900 0.54297200 0.53415500
0.64705900 0.52868600 0.54678200 0.53795700
0.65098000 0.53256800 0.55061800 0.54178900
0.65490200 0.53649200 0.55447800 0.54565200
0.65882400 0.54044900 0.55835300 0.54954600
0.66274500 0.54442300 0.56224400 0.55346900
0.66666700 0.54840200 0.56615600 0.55740500
0.67058800 0.55238800 0.57008900 0.56135500
0.67451000 0.55638000 0.57404000 0.56531600
0.67843100 0.56037400 0.57800400 0.56928600
0.68235300 0.56437700 0.58198700 0.57326500
0.68627500 0.56839700 0.58600200 0.57726200
0.69019600 0.57242600 0.59004300 0.58129100
0.69411800 0.57645900 0.59409800 0.58535800
0.69803900 0.58049600 0.59816400 0.58944500
0.70196100 0.58454600 0.60224600 0.59354300
0.70588200 0.58859600 0.60633800 0.59765500
0.70980400 0.59264300 0.61044800 0.60177600
0.71372500 0.59668500 0.61458500 0.60590600
0.71764700 0.60070200 0.61873800 0.61005800
0.72156900 0.60469400 0.62289800 0.61423100
0.72549000 0.60869000 0.62707900 0.61841400
0.72941200 0.61270400 0.63129100 0.62261600
0.73333300 0.61674200 0.63552900 0.62685700
0.73725500 0.62079800 0.63979600 0.63113100
0.74117600 0.62486500 0.64409000 0.63543700
0.74509800 0.62895400 0.64841400 0.63977900
0.74902000 0.63306900 0.65277500 0.64415900
0.75294100 0.63722200 0.65717100 0.64859000
0.75686300 0.64141600 0.66160100 0.65307500
0.76078400 0.64565300 0.66606600 0.65761400
0.76470600 0.64992000 0.67054600 0.66220700
0.76862700 0.65421100 0.67503400 0.66683300
0.77254900 0.65852800 0.67953200 0.67147600
0.77647100 0.66288100 0.68404100 0.67613700
0.78039200 0.66726500 0.68856700 0.68081700
0.78431400 0.67167200 0.69312300 0.68552800
0.78823500 0.67609500 0.69772400 0.69028200
0.79215700 0.68053400 0.70236300 0.69509300
0.79607800 0.68498900 0.70703500 0.69994600
0.80000000 0.68945700 0.71173400 0.70482500
0.80392200 0.69395500 0.71646300 0.70972400
0.80784300 0.69848700 0.72122100 0.71464400
0.81176500 0.70304800 0.72603000 0.71959600
0.81568600 0.70764200 0.73090100 0.72459600
0.81960800 0.71227900 0.73582400 0.72964800
0.82352900 0.71696200 0.74078700 0.73473700
0.82745100 0.72168800 0.74578200 0.73984300
0.83137300 0.72645000 0.75080900 0.74496200
0.83529400 0.73123700 0.75586200 0.75009200
0.83921600 0.73605100 0.76093900 0.75523300
0.84313700 0.74090800 0.76605800 0.76039600
0.84705900 0.74582200 0.77122100 0.76559600
0.85098000 0.75076900 0.77641100 0.77080700
0.85490200 0.75573500 0.78161400 0.77600600
0.85882400 0.76070500 0.78681900 0.78117300
0.86274500 0.76568100 0.79202900 0.78631100
0.86666700 0.77066500 0.79725500 0.79143200
0.87058800 0.77566800 0.80253700 0.79655200
0.87451000 0.78071700 0.80789000 0.80172000
0.87843100 0.78583300 0.81330200 0.80694300
0.88235300 0.79100600 0.81876300 0.81221600
0.88627500 0.79621800 0.82427500 0.81754500
0.89019600 0.80144500 0.82982600 0.82291500
0.89411800 0.80668500 0.83540100 0.82831600
0.89803900 0.81192800 0.84098000 0.83373600
0.90196100 0.81718700 0.84655700 0.83916100
0.90588200 0.82246000 0.85215600 0.84459200
0.90980400 0.82774200 0.85777800 0.85004200
0.91372500 0.83303000 0.86341100 0.85551900
0.91764700 0.83830700 0.86904000 0.86101400
0.92156900 0.84356700 0.87466700 0.86651600
0.92549000 0.84882700 0.88032600 0.87204300
0.92941200 0.85412800 0.88604300 0.87763100
0.93333300 0.85949800 0.89179800 0.88331100
0.93725500 0.86496400 0.89760000 0.88906700
0.94117600 0.87052500 0.90344000 0.89491800
0.94509800 0.87618200 0.90930400 0.90084200
0.94902000 0.88193600 0.91520300 0.90682800
0.95294100 0.88779100 0.92115900 0.91288700
0.95686300 0.89377100 0.92715300 0.91903400
0.96078400 0.89985500 0.93317800 0.92524300
0.96470600 0.90604700 0.93924600 0.93152200
0.96862700 0.91232300 0.94534900 0.93787500
0.97254900 0.91866000 0.95148600 0.94429400
0.97647100 0.92506100 0.95765800 0.95077400
0.98039200 0.93153200 0.96386800 0.95731700
0.98431400 0.93808100 0.97011400 0.96392500
0.98823500 0.94471600 0.97639800 0.97059400
0.99215700 0.95143800 0.98272000 0.97732700
0.99607800 0.95825000 0.98908000 0.98412400
1.00000000 0.96515300 0.99547800 0.99098600
END_DATA
CAL    

DESCRIPTOR "Argyll Calibration options and model"
ORIGINATOR "Argyll dispcal"
CREATED "Tue Feb 09 09:38:53 202"

NUMBER_OF_FIELDS 3
BEGIN_DATA_FORMAT
R_P G_P B_P
END_DATA_FORMAT

NUMBER_OF_SETS 32
BEGIN_DATA
0.00122172 0.00175358 0.00256091
0.99877800 0.99824600 0.99743900
1.22792400 0.99788700 1.25125800
0.52531400 0.52040300 0.26846500
0.07994050 0.14015400 0.19689100
0.08026250 0.13350100 0.13807100
0.10277700 0.12458900 0.12005500
0.11343300 0.11240600 0.10369100
0.08215940 0.07952810 0.09712820
0.06584630 0.07052190 0.07657520
0.05669730 0.06053100 0.06945830
0.04801020 0.05803940 0.07433240
0.04399790 0.05527080 0.05074790
0.03813440 0.05082430 0.04516510
0.03294390 0.05513200 0.05490270
0.05439390 0.04509880 0.04652570
0.03496520 0.03458580 0.04013480
0.03133700 0.02771480 0.03588190
0.02027680 0.03011790 0.02903670
0.02121260 0.03332560 0.03615650
0.02143340 0.03587250 0.03272680
0.02530610 0.03137480 0.03221600
0.02960430 0.02980530 0.03225780
0.02390870 0.02343570 0.02323290
0.01957170 0.02255360 0.02410070
0.01925900 0.02366700 0.02619090
0.01741200 0.02013840 0.01907590
0.01392610 0.01969450 0.01480280
0.01235400 0.02396760 0.00993907
0.01314600 0.02287700 0.01910550
0.01328640 0.01898920 0.01734850
0.01419580 0.01615860 0.01384670
END_DATA
