Lenovo/Xiaoxin Pro 13 2020/MND307DA1-2 #1 2023-02-12 11-49 0.3127x 0.329y sRGB VF-S XYZLUT+MTX/MND307DA1-2 #1 2023-02-12 11-49 0.3127x 0.329y sRGB VF-S XYZLUT+MTX.ti3
CTI3   

DESCRIPTOR "Argyll Calibration Target chart information 3"
ORIGINATOR "Argyll dispread"
CREATED "Sun Feb 12 11:57:07 2023"
DEVICE_CLASS "DISPLAY"
SINGLE_DIM_STEPS "5"
COMP_GREY_STEPS "52"
MULTI_DIM_STEPS "5"
COLOR_REP "RGB_XYZ"
TARGET_INSTRUMENT "X-Rite ColorMunki"
DISPLAY_TYPE_REFRESH "YES"
INSTRUMENT_TYPE_SPECTRAL "YES"
SPECTRAL_BANDS "106"
SPECTRAL_START_NM "380.0"
SPECTRAL_END_NM "730.0"
LUMINANCE_XYZ_CDM2 "163.624726 172.148388 187.933435"
NORMALIZED_TO_Y_100 "YES"
VIDEO_LUT_CALIBRATION_POSSIBLE "YES"

BEGIN_ARGYLL_COLPROF_ARGS
-v -qh -aX -bn -C "No copyright. Created with DisplayCAL 3.8.9.3 and ArgyllCMS 2.3.1d" -M "MND307DA1-2" -A "California Institute of Technology"
END_ARGYLL_COLPROF_ARGS

OBSERVER "1931_2"
USE_BLACK_POINT_COMPENSATION "NO"
BLACK_POINT_CORRECTION "0.0"
HIRES_B2A "YES"
HIRES_B2A_SIZE "-1"
SMOOTH_B2A "YES"
PATCH_SEQUENCE "OPTIMIZE_DISPLAY_RESPONSE_DELAY"

NUMBER_OF_FIELDS 113
BEGIN_DATA_FORMAT
SAMPLE_ID RGB_R RGB_G RGB_B XYZ_X XYZ_Y XYZ_Z SPEC_380 SPEC_383 SPEC_387 SPEC_390 SPEC_393 SPEC_397 SPEC_400 SPEC_403 SPEC_407 SPEC_410 SPEC_413 SPEC_417 SPEC_420 SPEC_423 SPEC_427 SPEC_430 SPEC_433 SPEC_437 SPEC_440 SPEC_443 SPEC_447 SPEC_450 SPEC_453 SPEC_457 SPEC_460 SPEC_463 SPEC_467 SPEC_470 SPEC_473 SPEC_477 SPEC_480 SPEC_483 SPEC_487 SPEC_490 SPEC_493 SPEC_497 SPEC_500 SPEC_503 SPEC_507 SPEC_510 SPEC_513 SPEC_517 SPEC_520 SPEC_523 SPEC_527 SPEC_530 SPEC_533 SPEC_537 SPEC_540 SPEC_543 SPEC_547 SPEC_550 SPEC_553 SPEC_557 SPEC_560 SPEC_563 SPEC_567 SPEC_570 SPEC_573 SPEC_577 SPEC_580 SPEC_583 SPEC_587 SPEC_590 SPEC_593 SPEC_597 SPEC_600 SPEC_603 SPEC_607 SPEC_610 SPEC_613 SPEC_617 SPEC_620 SPEC_623 SPEC_627 SPEC_630 SPEC_633 SPEC_637 SPEC_640 SPEC_643 SPEC_647 SPEC_650 SPEC_653 SPEC_657 SPEC_660 SPEC_663 SPEC_667 SPEC_670 SPEC_673 SPEC_677 SPEC_680 SPEC_683 SPEC_687 SPEC_690 SPEC_693 SPEC_697 SPEC_700 SPEC_703 SPEC_707 SPEC_710 SPEC_713 SPEC_717 SPEC_720 SPEC_723 SPEC_727 SPEC_730
END_DATA_FORMAT

NUMBER_OF_SETS 175
BEGIN_DATA
1 100.0000000000 100.0000000000 100.0000000000 95.04870000000 100.0000000000 109.1690000000 0.004443820000 0.004443820000 0.004443820000 0.004443820000 0.004443820000 0.004443820000 0.004443860000 0.005772480000 0.008607930000 0.013848200000 0.025138100000 0.049518100000 0.100221000000 0.193334000000 0.351742000000 0.610973000000 1.041530000000 1.745230000000 2.682270000000 3.435050000000 3.546890000000 3.097810000000 2.494860000000 1.990300000000 1.608270000000 1.282370000000 1.007700000000 0.816562000000 0.694456000000 0.598151000000 0.512490000000 0.442801000000 0.401185000000 0.393375000000 0.415806000000 0.467918000000 0.545528000000 0.641396000000 0.753660000000 0.880931000000 1.020620000000 1.168300000000 1.316720000000 1.481820000000 1.647600000000 1.781460000000 1.882380000000 1.958310000000 2.020420000000 2.053590000000 2.048500000000 2.021220000000 1.972450000000 1.897580000000 1.782470000000 1.633160000000 1.470110000000 1.300090000000 1.130610000000 0.973821000000 0.855446000000 0.803477000000 0.828157000000 0.921228000000 1.061440000000 1.223600000000 1.367230000000 1.461950000000 1.495820000000 1.474620000000 1.427190000000 1.365650000000 1.293980000000 1.223640000000 1.153950000000 1.076260000000 0.994844000000 0.924992000000 0.861365000000 0.796068000000 0.719002000000 0.641863000000 0.577906000000 0.522151000000 0.475565000000 0.436979000000 0.402295000000 0.372233000000 0.344951000000 0.318206000000 0.291575000000 0.266103000000 0.241768000000 0.217938000000 0.195025000000 0.173686000000 0.154465000000 0.137514000000 0.123057000000 0.111083000000 0.101523000000 0.093134200000 0.085000700000 0.077525300000 0.070866100000 0.065134800000
2 100.0000000000 100.0000000000 75.00000000000 85.66460000000 96.73820000000 61.00510000000 0.002376740000 0.002376740000 0.002376740000 0.002376740000 0.002376740000 0.002376740000 0.002376780000 0.003569290000 0.004459090000 0.007167140000 0.013540700000 0.026919200000 0.054096500000 0.103604000000 0.187650000000 0.325132000000 0.554305000000 0.930922000000 1.433810000000 1.838140000000 1.897730000000 1.653390000000 1.325960000000 1.056120000000 0.857144000000 0.693054000000 0.563064000000 0.484159000000 0.443136000000 0.409519000000 0.372146000000 0.336842000000 0.316472000000 0.319284000000 0.345039000000 0.396085000000 0.470297000000 0.561900000000 0.670884000000 0.796001000000 0.934115000000 1.082410000000 1.234740000000 1.404880000000 1.575870000000 1.714920000000 1.821340000000 1.903840000000 1.972630000000 2.012410000000 2.014280000000 1.993570000000 1.950860000000 1.881240000000 1.770090000000 1.623970000000 1.463650000000 1.295360000000 1.126390000000 0.970507000000 0.852680000000 0.800927000000 0.825979000000 0.919348000000 1.059920000000 1.222230000000 1.365920000000 1.460890000000 1.494540000000 1.473350000000 1.426010000000 1.364370000000 1.292670000000 1.222730000000 1.153410000000 1.075180000000 0.993596000000 0.923816000000 0.860078000000 0.794209000000 0.716773000000 0.639460000000 0.575021000000 0.519050000000 0.472386000000 0.434081000000 0.399817000000 0.370110000000 0.342849000000 0.316380000000 0.289919000000 0.264624000000 0.240481000000 0.216824000000 0.194238000000 0.173022000000 0.153688000000 0.136465000000 0.122111000000 0.110567000000 0.101128000000 0.092523200000 0.084410400000 0.077133600000 0.070487000000 0.064526200000
3 100.0000000000 100.0000000000 100.0000000000 95.01440000000 99.96190000000 109.1200000000 0.004248600000 0.004248600000 0.004248600000 0.004248600000 0.004248600000 0.004248600000 0.004248650000 0.005886400000 0.008490420000 0.013949000000 0.024901600000 0.049159600000 0.100198000000 0.192894000000 0.351231000000 0.610928000000 1.041420000000 1.744560000000 2.681020000000 3.433900000000 3.545550000000 3.096130000000 2.493630000000 1.989760000000 1.607870000000 1.281610000000 1.007080000000 0.815910000000 0.693701000000 0.597721000000 0.512299000000 0.442514000000 0.400529000000 0.392713000000 0.415349000000 0.467737000000 0.545591000000 0.641627000000 0.753771000000 0.880781000000 1.020100000000 1.167630000000 1.315790000000 1.481180000000 1.647470000000 1.780930000000 1.881590000000 1.957460000000 2.019400000000 2.052800000000 2.047660000000 2.020150000000 1.971100000000 1.896580000000 1.781910000000 1.632750000000 1.469580000000 1.299600000000 1.130270000000 0.973501000000 0.855249000000 0.803379000000 0.827961000000 0.920799000000 1.060830000000 1.223160000000 1.367220000000 1.461990000000 1.495360000000 1.474100000000 1.426620000000 1.365280000000 1.293530000000 1.223260000000 1.153620000000 1.075790000000 0.994482000000 0.924850000000 0.861032000000 0.795646000000 0.718599000000 0.641514000000 0.577705000000 0.522234000000 0.475566000000 0.436657000000 0.401826000000 0.371804000000 0.344624000000 0.317986000000 0.291293000000 0.266063000000 0.241825000000 0.217888000000 0.194873000000 0.173671000000 0.154466000000 0.137388000000 0.122757000000 0.110992000000 0.101419000000 0.092744200000 0.084733200000 0.077385600000 0.070754500000 0.064952000000
4 100.0000000000 100.0000000000 100.0000000000 94.99250000000 99.94080000000 109.0900000000 0.004193640000 0.004193640000 0.004193640000 0.004193640000 0.004193640000 0.004193640000 0.004193690000 0.005601860000 0.007957150000 0.013206400000 0.024448700000 0.049248800000 0.100097000000 0.192785000000 0.351059000000 0.610564000000 1.040930000000 1.744020000000 2.680510000000 3.432870000000 3.544540000000 3.095620000000 2.493030000000 1.989060000000 1.607320000000 1.281200000000 1.006760000000 0.815988000000 0.693863000000 0.597542000000 0.512133000000 0.442664000000 0.400645000000 0.392965000000 0.415581000000 0.467385000000 0.545045000000 0.640961000000 0.753142000000 0.880168000000 1.019300000000 1.167020000000 1.315650000000 1.481170000000 1.647430000000 1.780920000000 1.881180000000 1.956870000000 2.018910000000 2.052370000000 2.047680000000 2.020100000000 1.971010000000 1.896280000000 1.781310000000 1.632190000000 1.469290000000 1.299290000000 1.129940000000 0.973395000000 0.855149000000 0.803143000000 0.827817000000 0.920497000000 1.060740000000 1.223090000000 1.366950000000 1.461460000000 1.494940000000 1.473620000000 1.426370000000 1.364960000000 1.293170000000 1.222900000000 1.153390000000 1.075660000000 0.994313000000 0.924539000000 0.860938000000 0.795544000000 0.718172000000 0.640940000000 0.577341000000 0.521982000000 0.475311000000 0.436534000000 0.402086000000 0.371888000000 0.344363000000 0.317905000000 0.291322000000 0.265937000000 0.241610000000 0.217692000000 0.194851000000 0.173540000000 0.154303000000 0.137174000000 0.122626000000 0.110790000000 0.101456000000 0.092986700000 0.084722800000 0.077361200000 0.070820800000 0.064958700000
5 0.000000000000 0.000000000000 0.000000000000 0.070774400000 0.065454000000 0.150252000000 -0.000025574400 -0.000025574400 -0.000025574400 -0.000025574400 -0.000025574400 -0.000025574400 -0.000025574200 -0.000019956000 0.000022074700 0.000147274000 0.000241515000 0.000160084000 0.000065587400 0.000342279000 0.000688611000 0.001120010000 0.001733630000 0.002809600000 0.004143300000 0.005057040000 0.005034860000 0.004251810000 0.003318470000 0.002562200000 0.001970700000 0.001509520000 0.001189530000 0.000939688000 0.000747315000 0.000596258000 0.000533919000 0.000510044000 0.000437332000 0.000446200000 0.000452433000 0.000535650000 0.000534895000 0.000538856000 0.000651916000 0.000790232000 0.000922696000 0.000933792000 0.001013260000 0.001097470000 0.001136930000 0.001204710000 0.001256950000 0.001310570000 0.001322400000 0.001345410000 0.001329880000 0.001289210000 0.001277570000 0.001201850000 0.001032800000 0.000947210000 0.000872425000 0.000762343000 0.000684909000 0.000581305000 0.000539633000 0.000530794000 0.000467741000 0.000491796000 0.000584892000 0.000680884000 0.000720611000 0.000774886000 0.000776155000 0.000774553000 0.000779800000 0.000716625000 0.000689376000 0.000631710000 0.000565074000 0.000552755000 0.000521971000 0.000453017000 0.000431528000 0.000486387000 0.000439695000 0.000350678000 0.000320434000 0.000246519000 0.000216447000 0.000193601000 0.000178350000 0.000233018000 0.000231325000 0.000239846000 0.000147662000 0.000151394000 0.000181171000 0.000156983000 0.000092835200 0.000032784200 0.000035470900 0.000092788900 0.000127278000 0.000100280000 0.000089655700 0.000124632000 0.000161579000 0.000288965000 0.000341097000 0.000333604000
6 25.00000000000 0.000000000000 0.000000000000 1.947080000000 1.037580000000 0.184193000000 -0.000036302700 -0.000036302700 -0.000036302700 -0.000036302700 -0.000036302700 -0.000036302700 -0.000036303000 -0.000048452400 0.000100362000 0.000129589000 0.000248300000 0.000122907000 0.000111528000 0.000591936000 0.001109190000 0.001582960000 0.002415940000 0.003764570000 0.005344730000 0.006394780000 0.006247600000 0.005127010000 0.003858210000 0.002885510000 0.002147060000 0.001644670000 0.001327260000 0.001044820000 0.000825078000 0.000623179000 0.000488041000 0.000487378000 0.000425786000 0.000452826000 0.000486500000 0.000523859000 0.000484620000 0.000471439000 0.000588250000 0.000698731000 0.000840400000 0.000876062000 0.001023880000 0.001087330000 0.001057990000 0.001128570000 0.001232070000 0.001304170000 0.001296090000 0.001311830000 0.001309490000 0.001282120000 0.001272100000 0.001185270000 0.001055570000 0.000995720000 0.000891436000 0.000935183000 0.001276470000 0.002354760000 0.005113370000 0.010220900000 0.017958600000 0.027857300000 0.038857100000 0.049767800000 0.058864700000 0.064991300000 0.067637000000 0.067143500000 0.065147700000 0.062543500000 0.059360900000 0.056220100000 0.053285800000 0.049749100000 0.045597100000 0.042067600000 0.039258800000 0.036458900000 0.032949700000 0.029246100000 0.026092000000 0.023337500000 0.021232700000 0.019590200000 0.018083200000 0.016658900000 0.015202000000 0.013867700000 0.012619300000 0.011422700000 0.010357500000 0.009280790000 0.008184850000 0.007200430000 0.006407960000 0.005728780000 0.005092180000 0.004549400000 0.004194270000 0.003911400000 0.003689130000 0.003528610000 0.003258850000 0.002961330000
7 50.00000000000 0.000000000000 0.000000000000 8.856470000000 4.623300000000 0.324310000000 -0.000087816900 -0.000087816900 -0.000087816900 -0.000087816900 -0.000087816900 -0.000087816900 -0.000087818100 -0.000129314000 -0.000055527300 0.000005851690 0.000132597000 0.000357536000 0.000782663000 0.001360120000 0.002206420000 0.003340710000 0.005010240000 0.007473690000 0.010264000000 0.011763100000 0.011016700000 0.008765590000 0.006382650000 0.004638820000 0.003376450000 0.002475330000 0.001779320000 0.001245200000 0.001007890000 0.000750643000 0.000532806000 0.000450603000 0.000358152000 0.000398941000 0.000403606000 0.000487513000 0.000537789000 0.000532695000 0.000640294000 0.000793598000 0.000855051000 0.000847449000 0.000981155000 0.001141780000 0.001238680000 0.001325130000 0.001352160000 0.001387990000 0.001361630000 0.001388390000 0.001393600000 0.001404390000 0.001345700000 0.001243170000 0.001128780000 0.001109270000 0.001226630000 0.001803820000 0.003794870000 0.009344790000 0.022173100000 0.045898900000 0.082260700000 0.128607000000 0.179593000000 0.230247000000 0.272791000000 0.301297000000 0.313401000000 0.310977000000 0.301700000000 0.289965000000 0.275498000000 0.260827000000 0.247014000000 0.230421000000 0.211432000000 0.195488000000 0.182329000000 0.169059000000 0.152949000000 0.136134000000 0.121211000000 0.108153000000 0.098468700000 0.091172400000 0.084018700000 0.077106800000 0.070676900000 0.064600400000 0.058624800000 0.052971800000 0.047883500000 0.042957100000 0.038115900000 0.033645400000 0.029729200000 0.026337500000 0.023307900000 0.020820800000 0.019059000000 0.017695700000 0.016344600000 0.014978500000 0.013579100000 0.012344000000
8 75.00000000000 0.000000000000 0.000000000000 21.15130000000 11.00340000000 0.580339000000 -0.000312552000 -0.000312552000 -0.000312552000 -0.000312552000 -0.000312552000 -0.000312552000 -0.000312549000 -0.000227297000 0.000123169000 0.000169386000 0.000363411000 0.000851749000 0.001571270000 0.002937460000 0.004666240000 0.006918260000 0.009951240000 0.014099000000 0.018753200000 0.021370000000 0.019768900000 0.015283200000 0.010791500000 0.007660340000 0.005453540000 0.003780080000 0.002766900000 0.001904100000 0.001331980000 0.001025310000 0.000744220000 0.000633855000 0.000676823000 0.000580156000 0.000501481000 0.000667242000 0.000626071000 0.000734398000 0.000851568000 0.000801760000 0.000969203000 0.001087060000 0.001127440000 0.001257580000 0.001349470000 0.001403900000 0.001515360000 0.001563430000 0.001434300000 0.001391010000 0.001397190000 0.001424730000 0.001448620000 0.001387410000 0.001366980000 0.001555000000 0.001988670000 0.003472290000 0.008273490000 0.021722500000 0.052456000000 0.109394000000 0.196514000000 0.307470000000 0.429829000000 0.551631000000 0.653410000000 0.721194000000 0.750211000000 0.745057000000 0.723367000000 0.694836000000 0.659855000000 0.624823000000 0.591249000000 0.551729000000 0.507138000000 0.469383000000 0.437334000000 0.404831000000 0.366063000000 0.325817000000 0.290491000000 0.259770000000 0.236322000000 0.218345000000 0.201044000000 0.184588000000 0.169524000000 0.155283000000 0.141182000000 0.127576000000 0.114938000000 0.102902000000 0.091345100000 0.080661600000 0.071256000000 0.063070200000 0.055952200000 0.050254600000 0.045838200000 0.042306500000 0.038983400000 0.035656800000 0.032266300000 0.029189300000
9 100.0000000000 0.000000000000 0.000000000000 40.85970000000 21.22200000000 0.935386000000 -0.001206100000 -0.001206100000 -0.001206100000 -0.001206100000 -0.001206100000 -0.001206100000 -0.001206100000 -0.001479090000 -0.000755868000 -0.000147633000 0.000377218000 0.001083740000 0.002518910000 0.004255620000 0.007350720000 0.011302800000 0.016558100000 0.023674100000 0.031435600000 0.035531000000 0.032575700000 0.025024200000 0.017437300000 0.011840200000 0.007991100000 0.005516300000 0.003867830000 0.002393780000 0.001528600000 0.001147900000 0.000869330000 0.000473088000 0.000182366000 0.000331501000 0.000463660000 0.000513167000 0.000517485000 0.000402347000 0.000606164000 0.000900143000 0.000995987000 0.001221840000 0.001234620000 0.001199270000 0.001272250000 0.001442670000 0.001398490000 0.001549940000 0.001620190000 0.001685160000 0.001565270000 0.001597820000 0.001529730000 0.001539500000 0.001675320000 0.001961910000 0.002744680000 0.005807790000 0.015404200000 0.041369900000 0.100723000000 0.210401000000 0.377801000000 0.592007000000 0.830432000000 1.067380000000 1.263120000000 1.392620000000 1.448600000000 1.441560000000 1.402970000000 1.346680000000 1.277950000000 1.209440000000 1.141140000000 1.063860000000 0.983128000000 0.913855000000 0.850010000000 0.784255000000 0.706947000000 0.629345000000 0.564714000000 0.508413000000 0.461118000000 0.422087000000 0.387065000000 0.357106000000 0.329510000000 0.302188000000 0.274617000000 0.248433000000 0.223752000000 0.200102000000 0.177522000000 0.156747000000 0.138494000000 0.122655000000 0.109150000000 0.098379800000 0.089734200000 0.082175500000 0.075113500000 0.068494100000 0.062407200000 0.056899800000
10 100.0000000000 0.000000000000 25.00000000000 41.80980000000 21.55290000000 5.764460000000 -0.000213487000 -0.000213487000 -0.000213487000 -0.000213487000 -0.000213487000 -0.000213487000 -0.000213486000 -0.000179887000 0.000147835000 0.000859614000 0.001737620000 0.003757570000 0.007748560000 0.014172900000 0.024927700000 0.040688500000 0.065607600000 0.105514000000 0.156649000000 0.195187000000 0.197506000000 0.169348000000 0.133845000000 0.105059000000 0.083323000000 0.064737900000 0.048298600000 0.035558500000 0.026784300000 0.019903700000 0.014789600000 0.011377200000 0.009045740000 0.007801590000 0.007240450000 0.007459710000 0.008025690000 0.008493930000 0.008889480000 0.009209170000 0.009265820000 0.009236360000 0.009193890000 0.008759330000 0.008448210000 0.008248660000 0.007730500000 0.007206750000 0.006458140000 0.005700410000 0.005024040000 0.004364160000 0.003628070000 0.003093370000 0.002929860000 0.003014790000 0.003775980000 0.006592750000 0.015768900000 0.041586600000 0.101098000000 0.210897000000 0.378091000000 0.592181000000 0.830735000000 1.067700000000 1.263520000000 1.393050000000 1.449100000000 1.442100000000 1.403180000000 1.346700000000 1.278160000000 1.209910000000 1.141620000000 1.064360000000 0.983510000000 0.913979000000 0.850075000000 0.784399000000 0.707325000000 0.629633000000 0.565159000000 0.509067000000 0.461964000000 0.422860000000 0.387692000000 0.357221000000 0.329415000000 0.302091000000 0.274928000000 0.248843000000 0.224205000000 0.200386000000 0.177503000000 0.156895000000 0.138803000000 0.122654000000 0.109148000000 0.098490400000 0.089777300000 0.082198500000 0.074989800000 0.068368000000 0.062290400000 0.056803800000
11 100.0000000000 25.00000000000 25.00000000000 43.44050000000 24.93540000000 6.155610000000 -0.000426849000 -0.000426849000 -0.000426849000 -0.000426849000 -0.000426849000 -0.000426849000 -0.000426859000 -0.000759876000 -0.000646695000 -0.000120222000 0.001405410000 0.003933820000 0.007629870000 0.014345400000 0.024252100000 0.040394700000 0.066087200000 0.106925000000 0.159877000000 0.200011000000 0.202533000000 0.173487000000 0.136589000000 0.106675000000 0.084908200000 0.066816800000 0.051821600000 0.041614000000 0.034915300000 0.029521100000 0.025162300000 0.021906200000 0.019892400000 0.019347100000 0.020153400000 0.022701100000 0.026267500000 0.030664000000 0.035972300000 0.042315300000 0.049064300000 0.056081100000 0.062943200000 0.070803700000 0.078927900000 0.085376400000 0.090228100000 0.093784400000 0.096593500000 0.098153100000 0.097945500000 0.096588000000 0.094137700000 0.090615800000 0.085312900000 0.078511800000 0.071625800000 0.066558000000 0.067586300000 0.085087400000 0.136123000000 0.238044000000 0.398890000000 0.607555000000 0.841528000000 1.075040000000 1.268630000000 1.396490000000 1.451320000000 1.443650000000 1.404470000000 1.347700000000 1.278820000000 1.210400000000 1.141930000000 1.064750000000 0.983947000000 0.914599000000 0.850593000000 0.784835000000 0.707626000000 0.630051000000 0.565453000000 0.509098000000 0.461882000000 0.422785000000 0.387888000000 0.357662000000 0.329984000000 0.302560000000 0.275339000000 0.249501000000 0.224794000000 0.200884000000 0.178413000000 0.157553000000 0.138944000000 0.123001000000 0.109560000000 0.098882000000 0.090131900000 0.082442500000 0.075236600000 0.068585300000 0.062577300000 0.057192100000
12 100.0000000000 50.00000000000 25.00000000000 48.96560000000 36.40780000000 7.527200000000 0.000150827000 0.000150827000 0.000150827000 0.000150827000 0.000150827000 0.000150827000 0.000150829000 0.000181898000 0.000502878000 0.001120660000 0.001638340000 0.003518700000 0.007645410000 0.014618600000 0.025530500000 0.041992000000 0.068813800000 0.112762000000 0.170098000000 0.214423000000 0.217940000000 0.186166000000 0.145991000000 0.114437000000 0.092497400000 0.076154100000 0.065708800000 0.062064800000 0.062894400000 0.063528600000 0.061510500000 0.057969900000 0.055828700000 0.057597700000 0.063356300000 0.073824200000 0.088837200000 0.107200000000 0.129380000000 0.154945000000 0.183538000000 0.214110000000 0.246182000000 0.282221000000 0.318321000000 0.347953000000 0.370277000000 0.387566000000 0.402444000000 0.411691000000 0.412570000000 0.408589000000 0.400467000000 0.387098000000 0.364796000000 0.334932000000 0.302527000000 0.270433000000 0.243403000000 0.232022000000 0.254994000000 0.331576000000 0.469960000000 0.659560000000 0.878170000000 1.099390000000 1.284150000000 1.406580000000 1.457940000000 1.448210000000 1.407620000000 1.349880000000 1.280690000000 1.212100000000 1.143540000000 1.065990000000 0.985122000000 0.915966000000 0.851920000000 0.785894000000 0.708510000000 0.631226000000 0.566743000000 0.510451000000 0.463292000000 0.424254000000 0.389442000000 0.359377000000 0.331654000000 0.304380000000 0.277458000000 0.251827000000 0.227225000000 0.203408000000 0.180789000000 0.160194000000 0.141629000000 0.125249000000 0.111570000000 0.100740000000 0.092050200000 0.084356200000 0.076818000000 0.070120300000 0.063932000000 0.058387700000
13 100.0000000000 75.00000000000 25.00000000000 59.65000000000 58.60290000000 10.15210000000 0.000863717000 0.000863717000 0.000863717000 0.000863717000 0.000863717000 0.000863717000 0.000863725000 0.001073330000 0.001172390000 0.001484080000 0.002335860000 0.004281150000 0.008499980000 0.015620400000 0.026607900000 0.044186800000 0.073675400000 0.123162000000 0.189836000000 0.242629000000 0.247604000000 0.210582000000 0.163774000000 0.128313000000 0.106250000000 0.093705500000 0.091842700000 0.101706000000 0.116951000000 0.127781000000 0.130295000000 0.127407000000 0.126099000000 0.132045000000 0.147079000000 0.173068000000 0.209405000000 0.254502000000 0.309394000000 0.372974000000 0.444234000000 0.521117000000 0.600997000000 0.690584000000 0.780535000000 0.854463000000 0.911419000000 0.956203000000 0.994674000000 1.018340000000 1.021590000000 1.012730000000 0.993078000000 0.960347000000 0.905691000000 0.831667000000 0.749580000000 0.665273000000 0.584316000000 0.517150000000 0.485354000000 0.512244000000 0.606918000000 0.759316000000 0.947853000000 1.146330000000 1.314890000000 1.426610000000 1.470990000000 1.456410000000 1.413160000000 1.354300000000 1.284110000000 1.214990000000 1.146330000000 1.068810000000 0.987744000000 0.918279000000 0.854272000000 0.788348000000 0.710914000000 0.633455000000 0.569147000000 0.512867000000 0.465892000000 0.427219000000 0.392735000000 0.362925000000 0.335493000000 0.308690000000 0.281971000000 0.256398000000 0.232107000000 0.208348000000 0.185590000000 0.164671000000 0.146147000000 0.129527000000 0.115485000000 0.104373000000 0.095314100000 0.087303200000 0.079693900000 0.072648800000 0.066306300000 0.060624200000
