Lenovo/Xiaoxin Pro 13 2020/MND307DA1-2 #1 2023-02-12 11-49 0.3127x 0.329y sRGB VF-S XYZLUT+MTX/MND307DA1-2 #1 2023-02-12 11-49 0.3127x 0.329y sRGB VF-S XYZLUT+MTX.cal
CAL    

DESCRIPTOR "Argyll Device Calibration Curves"
ORIGINATOR "Argyll dispcal"
CREATED "Sun Feb 12 11:57:07 2023"
DEVICE_CLASS "DISPLAY"
COLOR_REP "RGB"
VIDEO_LUT_CALIBRATION_POSSIBLE "YES"
TV_OUTPUT_ENCODING "NO"
DEVICE_TYPE "l"
TARGET_WHITE_XYZ "161.408982 169.822689 184.946716"
TARGET_GAMMA "sRGB"
DEGREE_OF_BLACK_OUTPUT_OFFSET "1.0"
BLACK_POINT_CORRECTION "0.0"
BLACK_NEUTRAL_BLEND_RATE "4.0"
BLACK_POINT_HACK "YES"
QUALITY "very low"

BEGIN_ARGYLL_DISPCAL_ARGS
-v2 -d1 -c1 -yl -P0.819069069069,0.537634408602,1.37206703911 -H -Ib -qv -m -w0.3127,0.329 -gs -f1.0 -k0 -A4.0 -b
END_ARGYLL_DISPCAL_ARGS


NUMBER_OF_FIELDS 4
BEGIN_DATA_FORMAT
RGB_I RGB_R RGB_G RGB_B
END_DATA_FORMAT

NUMBER_OF_SETS 256
BEGIN_DATA
0.00000000 0.00000000 0.00000000 0.00000000
0.00392157 0.00706716 0.00760254 0.00597941
0.00784314 0.01364770 0.01455480 0.01156290
0.01176470 0.01979030 0.02093670 0.01678850
0.01568630 0.02553720 0.02681570 0.02168960
0.01960780 0.03092550 0.03224890 0.02629540
0.02352940 0.03599000 0.03729700 0.03063270
0.02745100 0.04078790 0.04204870 0.03474570
0.03137250 0.04537630 0.04657600 0.03868330
0.03529410 0.04979820 0.05092300 0.04247680
0.03921570 0.05409430 0.05513210 0.04616300
0.04313730 0.05829990 0.05923260 0.04978090
0.04705880 0.06243900 0.06324130 0.05335580
0.05098040 0.06652940 0.06717270 0.05690070
0.05490200 0.07057750 0.07103630 0.06042110
0.05882350 0.07458000 0.07483690 0.06391280
0.06274510 0.07853430 0.07857830 0.06737060
0.06666670 0.08244170 0.08226220 0.07079280
0.07058820 0.08630380 0.08589710 0.07417940
0.07450980 0.09012080 0.08948740 0.07753540
0.07843140 0.09389440 0.09304300 0.08086240
0.08235290 0.09762270 0.09656120 0.08416740
0.08627450 0.10130200 0.10005100 0.08744160
0.09019610 0.10493800 0.10351100 0.09068660
0.09411760 0.10853100 0.10694000 0.09390140
0.09803920 0.11208500 0.11034600 0.09708330
0.10196100 0.11561000 0.11372900 0.10023900
0.10588200 0.11910700 0.11709400 0.10336800
0.10980400 0.12257600 0.12045000 0.10647000
0.11372500 0.12602300 0.12380700 0.10954800
0.11764700 0.12945700 0.12716500 0.11261300
0.12156900 0.13287900 0.13052800 0.11566400
0.12549000 0.13629000 0.13388700 0.11870300
0.12941200 0.13968400 0.13724700 0.12172600
0.13333300 0.14306700 0.14061900 0.12473500
0.13725500 0.14644700 0.14399300 0.12773700
0.14117600 0.14981700 0.14736500 0.13072700
0.14509800 0.15318200 0.15073600 0.13370900
0.14902000 0.15654100 0.15409000 0.13668500
0.15294100 0.15988800 0.15743000 0.13965000
0.15686300 0.16322600 0.16076000 0.14261100
0.16078400 0.16656100 0.16408600 0.14557200
0.16470600 0.16990300 0.16739700 0.14854000
0.16862700 0.17324700 0.17069100 0.15151300
0.17254900 0.17659600 0.17397100 0.15449600
0.17647100 0.17995400 0.17724200 0.15749400
0.18039200 0.18332700 0.18049100 0.16050800
0.18431400 0.18670400 0.18371800 0.16352400
0.18823500 0.19008900 0.18692700 0.16654700
0.19215700 0.19348400 0.19011900 0.16957100
0.19607800 0.19688800 0.19330600 0.17259800
0.20000000 0.20031800 0.19649300 0.17563200
0.20392200 0.20377300 0.19967000 0.17866400
0.20784300 0.20724200 0.20283600 0.18168500
0.21176500 0.21072200 0.20599100 0.18469300
0.21568600 0.21420900 0.20913200 0.18767800
0.21960800 0.21769700 0.21226600 0.19063900
0.22352900 0.22119200 0.21539600 0.19357800
0.22745100 0.22469300 0.21851000 0.19649100
0.23137300 0.22817700 0.22160000 0.19936400
0.23529400 0.23164400 0.22467200 0.20219900
0.23921600 0.23510300 0.22773200 0.20500200
0.24313700 0.23855400 0.23078000 0.20777500
0.24705900 0.24199700 0.23381600 0.21051900
0.25098000 0.24543600 0.23684000 0.21323900
0.25490200 0.24888400 0.23986800 0.21593800
0.25882400 0.25235000 0.24291300 0.21862700
0.26274500 0.25583500 0.24598200 0.22132600
0.26666700 0.25933700 0.24907100 0.22403200
0.27058800 0.26285700 0.25218500 0.22674700
0.27451000 0.26639900 0.25532400 0.22947100
0.27843100 0.26996400 0.25849500 0.23221100
0.28235300 0.27355000 0.26169000 0.23496800
0.28627500 0.27716300 0.26492100 0.23774100
0.29019600 0.28080300 0.26819700 0.24053900
0.29411800 0.28448100 0.27152200 0.24336200
0.29803900 0.28819300 0.27490700 0.24621700
0.30196100 0.29190600 0.27833800 0.24910700
0.30588200 0.29561800 0.28177900 0.25202000
0.30980400 0.29934000 0.28523400 0.25493700
0.31372500 0.30307500 0.28871200 0.25786200
0.31764700 0.30682600 0.29221400 0.26080000
0.32156900 0.31059500 0.29574400 0.26375100
0.32549000 0.31437300 0.29930200 0.26671400
0.32941200 0.31817000 0.30287200 0.26969100
0.33333300 0.32197900 0.30645600 0.27267400
0.33725500 0.32580300 0.31004900 0.27566900
0.34117600 0.32964500 0.31364600 0.27867100
0.34509800 0.33351200 0.31725800 0.28167700
0.34902000 0.33740500 0.32088900 0.28469400
0.35294100 0.34130500 0.32454100 0.28772900
0.35686300 0.34521000 0.32818900 0.29078500
0.36078400 0.34911600 0.33182500 0.29386500
0.36470600 0.35302400 0.33544800 0.29695500
0.36862700 0.35693700 0.33906000 0.30005600
0.37254900 0.36084900 0.34266600 0.30316500
0.37647100 0.36476700 0.34626400 0.30628200
0.38039200 0.36867900 0.34986500 0.30941400
0.38431400 0.37259000 0.35347200 0.31255800
0.38823500 0.37650400 0.35706600 0.31571400
0.39215700 0.38043300 0.36065500 0.31888400
0.39607800 0.38437900 0.36424000 0.32204900
0.40000000 0.38833900 0.36783000 0.32521900
0.40392200 0.39232300 0.37142600 0.32839400
0.40784300 0.39634700 0.37503300 0.33158400
0.41176500 0.40042100 0.37865800 0.33479100
0.41568600 0.40450900 0.38231700 0.33801100
0.41960800 0.40856000 0.38601700 0.34124900
0.42352900 0.41258100 0.38972600 0.34451700
0.42745100 0.41658800 0.39340300 0.34782700
0.43137300 0.42058500 0.39704900 0.35117000
0.43529400 0.42457200 0.40067600 0.35450500
0.43921600 0.42854200 0.40429100 0.35782800
0.44313700 0.43251000 0.40790200 0.36115100
0.44705900 0.43647800 0.41150300 0.36448100
0.45098000 0.44044600 0.41510000 0.36782000
0.45490200 0.44442900 0.41870200 0.37116200
0.45882400 0.44841100 0.42230800 0.37450600
0.46274500 0.45237800 0.42592000 0.37785900
0.46666700 0.45634700 0.42954700 0.38122300
0.47058800 0.46032400 0.43317400 0.38460100
0.47451000 0.46431000 0.43679600 0.38799800
0.47843100 0.46829500 0.44042900 0.39140000
0.48235300 0.47228300 0.44408900 0.39480000
0.48627500 0.47626600 0.44777800 0.39821700
0.49019600 0.48024800 0.45147900 0.40166200
0.49411800 0.48422700 0.45520100 0.40513700
0.49803900 0.48819800 0.45894400 0.40863400
0.50196100 0.49216100 0.46271300 0.41215500
0.50588200 0.49611400 0.46650800 0.41569800
0.50980400 0.50006000 0.47032800 0.41926600
0.51372500 0.50401300 0.47417400 0.42285700
0.51764700 0.50796100 0.47804600 0.42646800
0.52156900 0.51189200 0.48195500 0.43009900
0.52549000 0.51580800 0.48590700 0.43375200
0.52941200 0.51971000 0.48987300 0.43743300
0.53333300 0.52360200 0.49385300 0.44112900
0.53725500 0.52748600 0.49784700 0.44482500
0.54117600 0.53136000 0.50185400 0.44852000
0.54509800 0.53522600 0.50587600 0.45221500
0.54902000 0.53908000 0.50991500 0.45591300
0.55294100 0.54292900 0.51396200 0.45961600
0.55686300 0.54677900 0.51801400 0.46332300
0.56078400 0.55061500 0.52206700 0.46703300
0.56470600 0.55444000 0.52613800 0.47074300
0.56862700 0.55825600 0.53021600 0.47446000
0.57254900 0.56207200 0.53428600 0.47818200
0.57647100 0.56588600 0.53835600 0.48188800
0.58039200 0.56970900 0.54242600 0.48558300
0.58431400 0.57354500 0.54649400 0.48926900
0.58823500 0.57735700 0.55057300 0.49294400
0.59215700 0.58114400 0.55464600 0.49661600
0.59607800 0.58492100 0.55866400 0.50028800
0.60000000 0.58869900 0.56264400 0.50392500
0.60392200 0.59247700 0.56660700 0.50752800
0.60784300 0.59625500 0.57056300 0.51111600
0.61176500 0.60003400 0.57450800 0.51470200
0.61568600 0.60382200 0.57843800 0.51828500
0.61960800 0.60761200 0.58235800 0.52186400
0.62352900 0.61140800 0.58626900 0.52543600
0.62745100 0.61521400 0.59017300 0.52899000
0.63137300 0.61902700 0.59407600 0.53252500
0.63529400 0.62283900 0.59796200 0.53604800
0.63921600 0.62665400 0.60182300 0.53956400
0.64313700 0.63048200 0.60566300 0.54306400
0.64705900 0.63432400 0.60949600 0.54655200
0.65098000 0.63817800 0.61332300 0.55003900
0.65490200 0.64204800 0.61715300 0.55352900
0.65882400 0.64592900 0.62099200 0.55701700
0.66274500 0.64982400 0.62484300 0.56051400
0.66666700 0.65375100 0.62871400 0.56401700
0.67058800 0.65773100 0.63262800 0.56753100
0.67451000 0.66177700 0.63660300 0.57107500
0.67843100 0.66589200 0.64064400 0.57467000
0.68235300 0.67004400 0.64474400 0.57832600
0.68627500 0.67413900 0.64880000 0.58204200
0.69019600 0.67817400 0.65277600 0.58575700
0.69411800 0.68215300 0.65666900 0.58942300
0.69803900 0.68609700 0.66050000 0.59303400
0.70196100 0.69002700 0.66428800 0.59660100
0.70588200 0.69395000 0.66804600 0.60014600
0.70980400 0.69786600 0.67177800 0.60368300
0.71372500 0.70177300 0.67548200 0.60721100
0.71764700 0.70567600 0.67916400 0.61072600
0.72156900 0.70957500 0.68283200 0.61423000
0.72549000 0.71347100 0.68648800 0.61772300
0.72941200 0.71736900 0.69014000 0.62120500
0.73333300 0.72127700 0.69379600 0.62467900
0.73725500 0.72519100 0.69745100 0.62815200
0.74117600 0.72912400 0.70110800 0.63162300
0.74509800 0.73305800 0.70476200 0.63510500
0.74902000 0.73699700 0.70839900 0.63858400
0.75294100 0.74093300 0.71202900 0.64205400
0.75686300 0.74486300 0.71564500 0.64551000
0.76078400 0.74878300 0.71924400 0.64894200
0.76470600 0.75270800 0.72282400 0.65234600
0.76862700 0.75664900 0.72641500 0.65573200
0.77254900 0.76060400 0.73003400 0.65913000
0.77647100 0.76457000 0.73368000 0.66254600
0.78039200 0.76854600 0.73735600 0.66597400
0.78431400 0.77253800 0.74106300 0.66940600
0.78823500 0.77653700 0.74480100 0.67285000
0.79215700 0.78055100 0.74855100 0.67629500
0.79607800 0.78459000 0.75231700 0.67974800
0.80000000 0.78864900 0.75610500 0.68321100
0.80392200 0.79273200 0.75991000 0.68668000
0.80784300 0.79686200 0.76374200 0.69015600
0.81176500 0.80104600 0.76762200 0.69365500
0.81568600 0.80522500 0.77156100 0.69719000
0.81960800 0.80936600 0.77551400 0.70074500
0.82352900 0.81348100 0.77943600 0.70427400
0.82745100 0.81758600 0.78333600 0.70778100
0.83137300 0.82168300 0.78722900 0.71128200
0.83529400 0.82577800 0.79111700 0.71478100
0.83921600 0.82986900 0.79501700 0.71828600
0.84313700 0.83395100 0.79893300 0.72180300
0.84705900 0.83804000 0.80286600 0.72532700
0.85098000 0.84213900 0.80682100 0.72885800
0.85490200 0.84625000 0.81079400 0.73240800
0.85882400 0.85036800 0.81479100 0.73597800
0.86274500 0.85450800 0.81880500 0.73955800
0.86666700 0.85868000 0.82285100 0.74315000
0.87058800 0.86284500 0.82694800 0.74677300
0.87451000 0.86699800 0.83105900 0.75042100
0.87843100 0.87114800 0.83514900 0.75406100
0.88235300 0.87528900 0.83923100 0.75770400
0.88627500 0.87942900 0.84330700 0.76135300
0.89019600 0.88357100 0.84737800 0.76500300
0.89411800 0.88772000 0.85145500 0.76866900
0.89803900 0.89187900 0.85553500 0.77234900
0.90196100 0.89601700 0.85962400 0.77605500
0.90588200 0.90014700 0.86369800 0.77976700
0.90980400 0.90427400 0.86777100 0.78348500
0.91372500 0.90840700 0.87185200 0.78721800
0.91764700 0.91254700 0.87595100 0.79097000
0.92156900 0.91667900 0.88006400 0.79475000
0.92549000 0.92081400 0.88416900 0.79853200
0.92941200 0.92496200 0.88828500 0.80232100
0.93333300 0.92911100 0.89242500 0.80612700
0.93725500 0.93326600 0.89657200 0.80994200
0.94117600 0.93742700 0.90073900 0.81376800
0.94509800 0.94159100 0.90491800 0.81760600
0.94902000 0.94576000 0.90910700 0.82145300
0.95294100 0.94993300 0.91330500 0.82530800
0.95686300 0.95410800 0.91751400 0.82917200
0.96078400 0.95828700 0.92173300 0.83304500
0.96470600 0.96246800 0.92596000 0.83692600
0.96862700 0.96665000 0.93019400 0.84081500
0.97254900 0.97083400 0.93443500 0.84471200
0.97647100 0.97502400 0.93868700 0.84862100
0.98039200 0.97922000 0.94295000 0.85254300
0.98431400 0.98342000 0.94722500 0.85647700
0.98823500 0.98762600 0.95151200 0.86042300
0.99215700 0.99183800 0.95581100 0.86438300
0.99607800 0.99605500 0.96012100 0.86835400
1.00000000 1.00000000 0.96444400 0.87233900
END_DATA
CAL    

DESCRIPTOR "Argyll Calibration options and model"
ORIGINATOR "Argyll dispcal"
CREATED "Sun Feb 12 11:57:07 202"

NUMBER_OF_FIELDS 3
BEGIN_DATA_FORMAT
R_P G_P B_P
END_DATA_FORMAT

NUMBER_OF_SETS 32
BEGIN_DATA
-0.0001568490 0.0000918577 0.0006277040
1.0001600000 0.9999080000 0.9993720000
1.6160900000 1.4695800000 1.3306000000
0.5577440000 0.5329610000 0.6070920000
0.0787025000 0.1117050000 0.0833730000
0.0973676000 0.1421150000 0.1398300000
0.0968646000 0.1209190000 0.1063640000
0.1044360000 0.1020880000 0.0835493000
0.0754936000 0.0645055000 0.0822540000
0.0669957000 0.0665619000 0.0791806000
0.0635753000 0.0642489000 0.0661626000
0.0429452000 0.0643362000 0.0600557000
0.0534414000 0.0516915000 0.0582249000
0.0518243000 0.0475410000 0.0583998000
0.0512664000 0.0461942000 0.0536861000
0.0429279000 0.0384214000 0.0504200000
0.0400027000 0.0463940000 0.0454128000
0.0331456000 0.0449727000 0.0407857000
0.0332524000 0.0403523000 0.0382376000
0.0308125000 0.0413002000 0.0358006000
0.0264590000 0.0369005000 0.0345789000
0.0255239000 0.0322075000 0.0358377000
0.0258122000 0.0320098000 0.0349615000
0.0254318000 0.0289996000 0.0331120000
0.0255440000 0.0335728000 0.0296360000
0.0226978000 0.0297309000 0.0272544000
0.0204963000 0.0331795000 0.0269287000
0.0186084000 0.0301445000 0.0263530000
0.0208837000 0.0289309000 0.0270122000
0.0186978000 0.0253887000 0.0243371000
0.0203890000 0.0273690000 0.0234157000
0.0170444000 0.0239892000 0.0202323000
END_DATA
