KOIOS/K2721UG/K2721UG #1 2023-02-12 01-07 205.8cdm² D6500 0.2164cdm² sRGB VF-S XYZLUT+MTX/K2721UG #1 2023-02-12 01-07 205.8cdm² D6500 0.2164cdm² sRGB VF-S XYZLUT+MTX.cal
CAL    

DESCRIPTOR "Argyll Device Calibration Curves"
ORIGINATOR "Argyll dispcal"
CREATED "Sun Feb 12 01:13:44 2023"
DEVICE_CLASS "DISPLAY"
COLOR_REP "RGB"
VIDEO_LUT_CALIBRATION_POSSIBLE "YES"
TV_OUTPUT_ENCODING "NO"
DEVICE_TYPE "l"
TARGET_WHITE_XYZ "195.545342 205.800000 223.812971"
TARGET_GAMMA "sRGB"
DEGREE_OF_BLACK_OUTPUT_OFFSET "1.0"
BLACK_POINT_CORRECTION "0.0"
BLACK_NEUTRAL_BLEND_RATE "4.0"
TARGET_BLACK_BRIGHTNESS "0.2164"
QUALITY "very low"

BEGIN_ARGYLL_DISPCAL_ARGS
-v2 -d1 -c1 -yl -P0.466203703704,0.404166666667,2.61275272162 -F -H -Ib -qv -m -t6500 -b205.8 -gs -f1.0 -k0 -A4.0 -B0.216400
END_ARGYLL_DISPCAL_ARGS


NUMBER_OF_FIELDS 4
BEGIN_DATA_FORMAT
RGB_I RGB_R RGB_G RGB_B
END_DATA_FORMAT

NUMBER_OF_SETS 256
BEGIN_DATA
0.00000000 0.01215500 0.01025370 0.00980012
0.00392157 0.01736670 0.01574570 0.01583490
0.00784314 0.02233110 0.02092170 0.02149190
0.01176470 0.02706530 0.02580820 0.02680540
0.01568630 0.03158500 0.03042880 0.03180580
0.01960780 0.03590440 0.03480460 0.03652010
0.02352940 0.04003660 0.03895460 0.04097200
0.02745100 0.04399460 0.04290260 0.04519470
0.03137250 0.04780360 0.04669300 0.04923730
0.03529410 0.05148480 0.05035440 0.05313340
0.03921570 0.05506930 0.05392510 0.05692510
0.04313730 0.05860400 0.05745390 0.06066160
0.04705880 0.06213460 0.06098500 0.06438530
0.05098040 0.06569260 0.06454340 0.06812200
0.05490200 0.06928830 0.06813570 0.07188050
0.05882350 0.07291820 0.07175090 0.07565220
0.06274510 0.07656330 0.07536520 0.07942210
0.06666670 0.08020400 0.07896250 0.08318190
0.07058820 0.08383520 0.08254840 0.08693500
0.07450980 0.08745710 0.08612190 0.09068340
0.07843140 0.09106780 0.08967650 0.09442170
0.08235290 0.09465370 0.09319890 0.09813450
0.08627450 0.09819500 0.09667330 0.10180500
0.09019610 0.10167300 0.10008300 0.10542000
0.09411760 0.10507400 0.10341800 0.10897000
0.09803920 0.10839100 0.10667500 0.11245000
0.10196100 0.11161700 0.10985400 0.11586400
0.10588200 0.11475500 0.11296300 0.11921500
0.10980400 0.11781300 0.11600500 0.12250600
0.11372500 0.12079400 0.11898000 0.12573200
0.11764700 0.12370100 0.12189300 0.12890300
0.12156900 0.12654100 0.12476700 0.13203500
0.12549000 0.12933500 0.12760900 0.13513200
0.12941200 0.13209100 0.13042300 0.13819800
0.13333300 0.13481700 0.13322000 0.14123900
0.13725500 0.13752400 0.13600000 0.14425800
0.14117600 0.14021600 0.13877000 0.14726500
0.14509800 0.14290600 0.14153600 0.15025900
0.14902000 0.14560500 0.14430100 0.15324900
0.15294100 0.14831600 0.14707300 0.15623600
0.15686300 0.15104900 0.14984400 0.15921800
0.16078400 0.15380400 0.15262600 0.16220600
0.16470600 0.15659000 0.15542200 0.16520000
0.16862700 0.15941400 0.15824200 0.16820700
0.17254900 0.16228000 0.16109100 0.17122800
0.17647100 0.16519400 0.16397300 0.17426600
0.18039200 0.16815700 0.16688900 0.17732300
0.18431400 0.17116900 0.16984400 0.18040800
0.18823500 0.17422900 0.17283800 0.18351500
0.19215700 0.17734000 0.17586500 0.18664800
0.19607800 0.18049200 0.17892600 0.18980400
0.20000000 0.18368500 0.18201000 0.19297600
0.20392200 0.18690800 0.18512000 0.19617100
0.20784300 0.19015800 0.18825800 0.19938900
0.21176500 0.19344200 0.19140000 0.20261200
0.21568600 0.19673200 0.19454100 0.20583800
0.21960800 0.20002000 0.19767700 0.20906300
0.22352900 0.20330700 0.20079200 0.21226900
0.22745100 0.20657600 0.20387600 0.21545800
0.23137300 0.20981800 0.20693400 0.21863200
0.23529400 0.21304100 0.20994900 0.22177100
0.23921600 0.21622800 0.21291300 0.22487000
0.24313700 0.21937300 0.21583600 0.22793600
0.24705900 0.22248800 0.21873100 0.23098100
0.25098000 0.22557800 0.22159900 0.23400300
0.25490200 0.22864900 0.22445100 0.23701000
0.25882400 0.23171100 0.22729100 0.24000500
0.26274500 0.23476900 0.23013200 0.24300600
0.26666700 0.23784000 0.23299600 0.24603200
0.27058800 0.24094100 0.23588000 0.24908300
0.27451000 0.24406600 0.23878300 0.25216100
0.27843100 0.24721500 0.24170700 0.25526700
0.28235300 0.25038700 0.24465800 0.25840700
0.28627500 0.25359400 0.24764600 0.26159000
0.29019600 0.25684200 0.25067200 0.26481500
0.29411800 0.26012500 0.25373300 0.26807600
0.29803900 0.26343400 0.25682400 0.27136800
0.30196100 0.26677500 0.25995400 0.27470500
0.30588200 0.27015400 0.26312400 0.27808500
0.30980400 0.27355400 0.26631700 0.28148200
0.31372500 0.27696600 0.26953200 0.28488900
0.31764700 0.28039700 0.27277500 0.28831900
0.32156900 0.28384900 0.27604700 0.29176900
0.32549000 0.28730800 0.27933300 0.29523000
0.32941200 0.29078300 0.28263800 0.29870600
0.33333300 0.29427400 0.28595200 0.30219100
0.33725500 0.29778000 0.28928000 0.30568900
0.34117600 0.30129100 0.29261100 0.30919000
0.34509800 0.30481500 0.29595000 0.31269700
0.34902000 0.30835500 0.29930800 0.31621800
0.35294100 0.31190900 0.30268500 0.31975400
0.35686300 0.31547600 0.30608000 0.32330600
0.36078400 0.31904300 0.30948100 0.32686200
0.36470600 0.32260800 0.31288200 0.33041900
0.36862700 0.32616600 0.31628000 0.33397500
0.37254900 0.32971500 0.31967000 0.33752400
0.37647100 0.33326400 0.32306200 0.34107500
0.38039200 0.33680300 0.32645100 0.34462100
0.38431400 0.34032400 0.32982500 0.34815800
0.38823500 0.34381500 0.33317700 0.35168400
0.39215700 0.34729500 0.33650400 0.35519600
0.39607800 0.35077500 0.33982500 0.35871500
0.40000000 0.35428400 0.34315300 0.36224800
0.40392200 0.35782100 0.34650900 0.36581400
0.40784300 0.36137400 0.34988700 0.36940800
0.41176500 0.36495600 0.35329100 0.37303000
0.41568600 0.36858900 0.35674200 0.37669900
0.41960800 0.37228300 0.36026300 0.38044000
0.42352900 0.37600700 0.36385200 0.38425700
0.42745100 0.37974500 0.36747700 0.38810300
0.43137300 0.38351300 0.37113400 0.39196600
0.43529400 0.38732700 0.37484600 0.39586400
0.43921600 0.39118400 0.37862100 0.39981500
0.44313700 0.39506600 0.38245200 0.40382300
0.44705900 0.39897600 0.38632000 0.40786700
0.45098000 0.40294500 0.39022900 0.41195300
0.45490200 0.40697600 0.39419800 0.41609500
0.45882400 0.41106100 0.39822300 0.42029500
0.46274500 0.41518000 0.40230400 0.42455600
0.46666700 0.41931700 0.40640200 0.42885200
0.47058800 0.42349400 0.41053500 0.43317200
0.47451000 0.42769600 0.41470900 0.43753900
0.47843100 0.43192400 0.41891800 0.44193900
0.48235300 0.43616600 0.42314900 0.44636400
0.48627500 0.44041000 0.42738100 0.45080300
0.49019600 0.44466600 0.43162200 0.45524600
0.49411800 0.44893400 0.43587200 0.45969800
0.49803900 0.45321200 0.44012600 0.46416000
0.50196100 0.45749800 0.44438100 0.46862400
0.50588200 0.46179400 0.44863800 0.47309200
0.50980400 0.46608900 0.45289500 0.47756400
0.51372500 0.47032400 0.45710900 0.48202400
0.51764700 0.47448800 0.46124300 0.48641800
0.52156900 0.47858300 0.46529500 0.49073400
0.52549000 0.48261300 0.46927300 0.49497700
0.52941200 0.48658000 0.47318000 0.49915100
0.53333300 0.49047600 0.47701800 0.50326200
0.53725500 0.49430600 0.48078100 0.50730000
0.54117600 0.49808100 0.48448200 0.51127400
0.54509800 0.50181300 0.48814200 0.51519700
0.54902000 0.50550300 0.49177100 0.51908300
0.55294100 0.50914500 0.49535700 0.52293000
0.55686300 0.51275600 0.49891200 0.52674200
0.56078400 0.51634400 0.50244100 0.53053100
0.56470600 0.51990700 0.50594700 0.53429800
0.56862700 0.52345200 0.50942900 0.53804200
0.57254900 0.52699100 0.51290300 0.54177700
0.57647100 0.53050400 0.51635900 0.54550400
0.58039200 0.53398500 0.51978300 0.54918800
0.58431400 0.53745300 0.52319200 0.55283600
0.58823500 0.54091300 0.52659900 0.55647000
0.59215700 0.54436600 0.53000500 0.56009600
0.59607800 0.54782300 0.53341500 0.56371400
0.60000000 0.55128700 0.53683300 0.56732800
0.60392200 0.55475200 0.54026100 0.57093600
0.60784300 0.55819800 0.54367600 0.57453200
0.61176500 0.56162500 0.54707800 0.57811100
0.61568600 0.56503200 0.55047000 0.58167700
0.61960800 0.56842400 0.55385800 0.58523900
0.62352900 0.57180700 0.55723500 0.58879100
0.62745100 0.57519600 0.56061000 0.59233800
0.63137300 0.57861600 0.56400800 0.59589500
0.63529400 0.58206700 0.56743600 0.59947200
0.63921600 0.58553600 0.57088200 0.60306300
0.64313700 0.58900700 0.57433400 0.60665700
0.64705900 0.59246900 0.57778400 0.61024300
0.65098000 0.59591200 0.58121900 0.61381200
0.65490200 0.59935000 0.58465100 0.61736900
0.65882400 0.60281300 0.58811200 0.62094100
0.66274500 0.60630800 0.59161400 0.62455100
0.66666700 0.60983700 0.59516100 0.62820400
0.67058800 0.61338700 0.59873700 0.63190200
0.67451000 0.61689800 0.60227200 0.63560200
0.67843100 0.62036100 0.60575600 0.63924600
0.68235300 0.62378100 0.60919200 0.64283400
0.68627500 0.62716700 0.61259700 0.64637100
0.69019600 0.63055000 0.61600100 0.64988100
0.69411800 0.63393900 0.61941200 0.65338900
0.69803900 0.63733000 0.62283000 0.65689800
0.70196100 0.64071800 0.62625100 0.66041200
0.70588200 0.64409000 0.62966200 0.66392400
0.70980400 0.64743500 0.63305600 0.66742200
0.71372500 0.65075200 0.63643100 0.67090300
0.71764700 0.65404700 0.63979200 0.67436400
0.72156900 0.65733900 0.64315400 0.67780800
0.72549000 0.66064400 0.64651800 0.68124900
0.72941200 0.66396500 0.64989900 0.68468800
0.73333300 0.66731100 0.65329700 0.68813600
0.73725500 0.67067100 0.65670200 0.69160000
0.74117600 0.67403600 0.66009900 0.69507100
0.74509800 0.67738500 0.66346900 0.69854200
0.74902000 0.68071500 0.66681300 0.70199400
0.75294100 0.68402700 0.67013000 0.70542400
0.75686300 0.68733000 0.67344800 0.70883700
0.76078400 0.69065100 0.67677800 0.71225900
0.76470600 0.69398700 0.68011700 0.71570600
0.76862700 0.69733800 0.68345500 0.71917500
0.77254900 0.70069000 0.68678500 0.72266200
0.77647100 0.70404100 0.69010700 0.72615600
0.78039200 0.70739400 0.69342300 0.72966900
0.78431400 0.71076000 0.69674100 0.73319400
0.78823500 0.71414900 0.70006200 0.73674100
0.79215700 0.71756200 0.70337700 0.74031600
0.79607800 0.72098200 0.70667600 0.74391300
0.80000000 0.72440600 0.70997900 0.74752200
0.80392200 0.72785700 0.71329800 0.75116100
0.80784300 0.73134200 0.71662700 0.75485100
0.81176500 0.73484000 0.71994000 0.75858300
0.81568600 0.73832900 0.72323200 0.76231300
0.81960800 0.74181500 0.72651900 0.76603500
0.82352900 0.74531500 0.72980500 0.76976700
0.82745100 0.74882500 0.73308100 0.77351700
0.83137300 0.75233000 0.73634500 0.77727200
0.83529400 0.75582700 0.73959700 0.78102700
0.83921600 0.75932500 0.74283800 0.78478100
0.84313700 0.76282500 0.74607400 0.78853200
0.84705900 0.76634000 0.74932000 0.79229200
0.85098000 0.76987200 0.75257800 0.79606500
0.85490200 0.77340600 0.75583100 0.79983900
0.85882400 0.77693900 0.75908700 0.80361100
0.86274500 0.78049100 0.76236700 0.80740300
0.86666700 0.78407000 0.76567800 0.81122900
0.87058800 0.78765000 0.76899900 0.81505100
0.87451000 0.79123800 0.77233700 0.81887000
0.87843100 0.79483600 0.77569900 0.82269200
0.88235300 0.79842100 0.77906800 0.82650000
0.88627500 0.80201100 0.78245200 0.83030600
0.89019600 0.80562300 0.78587200 0.83412100
0.89411800 0.80925800 0.78933000 0.83795200
0.89803900 0.81291500 0.79283200 0.84179700
0.90196100 0.81656300 0.79635100 0.84562300
0.90588200 0.82021800 0.79988900 0.84945000
0.90980400 0.82388000 0.80345800 0.85327400
0.91372500 0.82754200 0.80704400 0.85709300
0.91764700 0.83121800 0.81065900 0.86091800
0.92156900 0.83489800 0.81429500 0.86474300
0.92549000 0.83859400 0.81795400 0.86857800
0.92941200 0.84230700 0.82164100 0.87243200
0.93333300 0.84603700 0.82535100 0.87629500
0.93725500 0.84977700 0.82907100 0.88016400
0.94117600 0.85352200 0.83279300 0.88404200
0.94509800 0.85727800 0.83652400 0.88793000
0.94902000 0.86104200 0.84026400 0.89182400
0.95294100 0.86481700 0.84401100 0.89572700
0.95686300 0.86859800 0.84776400 0.89963400
0.96078400 0.87238700 0.85152700 0.90354700
0.96470600 0.87618400 0.85529900 0.90746500
0.96862700 0.87998700 0.85908000 0.91138700
0.97254900 0.88379900 0.86287300 0.91531400
0.97647100 0.88762500 0.86668200 0.91925100
0.98039200 0.89146400 0.87050900 0.92319800
0.98431400 0.89531700 0.87435400 0.92715600
0.98823500 0.89918400 0.87821600 0.93112500
0.99215700 0.90306400 0.88209500 0.93510400
0.99607800 0.90695800 0.88599300 0.93909300
1.00000000 0.91086700 0.88990800 0.94309400
END_DATA
CAL    

DESCRIPTOR "Argyll Calibration options and model"
ORIGINATOR "Argyll dispcal"
CREATED "Sun Feb 12 01:13:44 202"

NUMBER_OF_FIELDS 3
BEGIN_DATA_FORMAT
R_P G_P B_P
END_DATA_FORMAT

NUMBER_OF_SETS 32
BEGIN_DATA
0.000079318 0.000387047 0.001365940
0.999921000 0.999613000 0.998634000
1.572653000 1.571245000 1.571273000
0.544595000 0.473135000 0.458441000
0.089000800 0.128035000 0.141060000
0.132167000 0.140708000 0.115033000
0.101619000 0.107559000 0.084911600
0.076580900 0.071103900 0.114472000
0.060340300 0.064670400 0.074090800
0.057594600 0.071657700 0.039820700
0.052694800 0.055862500 0.069486700
0.056987700 0.049993800 0.060451900
0.041956400 0.049677300 0.061126900
0.045477800 0.044243500 0.046432800
0.042754100 0.040671600 0.047721000
0.039374600 0.045529900 0.046490500
0.038059800 0.040084900 0.041708900
0.034445500 0.042724800 0.038979100
0.032737400 0.039330500 0.036677600
0.031868200 0.036067000 0.034033800
0.029015900 0.031831100 0.032010300
0.027713200 0.027701000 0.030064900
0.027243000 0.026043200 0.028275700
0.025851200 0.026808400 0.027761000
0.025165600 0.028455700 0.026509500
0.023596700 0.027712300 0.025891500
0.021471000 0.030488600 0.024857200
0.021074900 0.028563600 0.023789700
0.020479700 0.026798000 0.021794800
0.019037700 0.027101800 0.022081600
0.018602900 0.024353400 0.020014900
0.017310300 0.024137500 0.017341700
END_DATA
