KOIOS/K2721UG/K2721UG #1 2023-02-12 01-07 205.8cdm² D6500 0.2164cdm² sRGB VF-S XYZLUT+MTX/K2721UG #1 2023-02-12 01-07 205.8cdm² D6500 0.2164cdm² sRGB VF-S XYZLUT+MTX.ti1
CTI1   

DESCRIPTOR "Argyll Calibration Target chart information 1"
ORIGINATOR "Argyll targen"
CREATED "Sun Feb 12 01:16:15 2023"
APPROX_WHITE_POINT "94.734727 98.524838 109.406531"
COLOR_REP "RGB"
ACCURATE_EXPECTED_VALUES "true"
DARK_REGION_EMPHASIS "1.6"
WHITE_COLOR_PATCHES "4"
BLACK_COLOR_PATCHES "4"
SINGLE_DIM_STEPS "21"
COMP_GREY_STEPS "61"
OFPS_PATCHES "435"

NUMBER_OF_FIELDS 7
BEGIN_DATA_FORMAT
SAMPLE_ID RGB_R RGB_G RGB_B XYZ_X XYZ_Y XYZ_Z
END_DATA_FORMAT

NUMBER_OF_SETS 588
BEGIN_DATA
1 100.0000 100.0000 100.0000 94.73473 98.52484 109.4065
2 1.960800 1.960800 1.960800 1.142800 1.150200 1.163700
3 3.921600 3.921600 3.921600 1.285600 1.300500 1.327300
4 5.882400 5.882400 5.882400 1.449500 1.472900 1.515200
5 9.803900 9.803900 9.803900 1.914800 1.962400 2.048400
6 13.72600 13.72600 13.72600 2.581700 2.663900 2.812600
7 17.64700 17.64700 17.64700 3.469500 3.597900 3.830000
8 21.56900 21.56900 21.56900 4.595300 4.782200 5.120100
9 25.49000 25.49000 25.49000 5.974500 6.233200 6.700700
10 29.41200 29.41200 29.41200 7.621300 7.965600 8.587900
11 33.33300 33.33300 33.33300 9.548800 9.993300 10.79700
12 37.25500 37.25500 37.25500 11.76900 12.32900 13.34100
13 41.17600 41.17600 41.17600 14.29400 14.98500 16.23400
14 45.09800 45.09800 45.09800 17.13400 17.97300 19.48900
15 49.02000 49.02000 49.02000 20.29900 21.30300 23.11700
16 52.94100 52.94100 52.94100 23.80000 24.98600 27.12900
17 56.86300 56.86300 56.86300 27.64600 29.03200 31.53600
18 60.78400 60.78400 60.78400 31.84600 33.45000 36.34900
19 64.70600 64.70600 64.70600 36.40900 38.25000 41.57800
20 68.62700 68.62700 68.62700 41.34300 43.44000 47.23200
21 72.54900 72.54900 72.54900 46.65600 49.03000 53.32100
22 76.47100 76.47100 76.47100 52.35600 55.02700 59.85300
23 80.39200 80.39200 80.39200 58.45200 61.43900 66.83800
24 84.31400 84.31400 84.31400 64.94900 68.27500 74.28500
25 88.23500 88.23500 88.23500 71.85700 75.54100 82.20000
26 92.15700 92.15700 92.15700 79.18100 83.24600 90.59400
27 96.07800 96.07800 96.07800 86.92900 91.39700 99.47200
28 0.000000 44.72730 35.91850 6.476729 12.11626 11.21505
29 0.000000 62.60450 54.36520 14.82025 26.76703 28.15661
30 40.03790 81.44870 57.40120 29.25119 49.78813 33.14834
31 0.000000 65.28490 29.44550 12.04729 27.92214 8.886087
32 0.000000 78.95210 51.15890 20.81763 43.69274 25.85579
33 0.000000 80.01570 71.15690 26.04180 46.45596 50.97718
34 0.000000 87.91030 100.0000 40.50652 59.92011 107.3711
35 40.43090 87.80640 100.0000 46.56396 62.61007 107.4757
36 62.89140 28.84950 34.30070 20.46674 12.99876 10.12255
37 100.0000 28.68310 68.48850 58.02678 29.43727 45.35484
38 100.0000 29.75310 84.40740 63.11190 31.37120 71.51868
39 100.0000 48.39240 100.0000 72.95991 42.47733 105.5223
40 16.30430 0.000000 0.000000 1.158032 0.602792 0.246228
41 19.66290 0.000000 0.000000 1.574195 0.795465 0.254013
42 23.25580 0.000000 0.000000 2.117753 1.047120 0.264182
43 27.10840 0.000000 0.000000 2.788040 1.357448 0.276721
44 31.25000 0.000000 0.000000 3.668489 1.765076 0.293192
45 35.71430 0.000000 0.000000 4.831743 2.303635 0.314953
46 40.54050 0.000000 0.000000 6.274798 2.971737 0.341949
47 43.08680 0.000000 0.000000 7.171748 3.387004 0.358728
48 45.77470 0.000000 0.000000 8.230812 3.877327 0.378541
49 51.47060 0.000000 0.000000 10.86394 5.096404 0.427799
50 57.69230 0.000000 0.000000 14.14551 6.615698 0.489189
51 64.51610 0.000000 0.000000 17.94943 8.376824 0.560350
52 80.35710 0.000000 0.000000 29.26882 13.61744 0.772105
53 89.62260 0.000000 0.000000 37.03422 17.21265 0.917375
54 100.0000 100.0000 0.000000 75.11263 92.15863 5.965107
55 100.0000 100.0000 29.99740 76.44372 92.59049 12.98219
56 100.0000 84.07260 0.000000 66.72943 70.58059 4.469705
57 100.0000 86.37800 49.41680 71.87609 74.92147 25.55345
58 100.0000 100.0000 51.64320 79.51887 93.58819 29.19337
59 0.000000 100.0000 23.82760 28.14265 70.29292 9.624406
60 0.000000 100.0000 86.80300 41.46609 74.61559 79.86135
61 0.000000 100.0000 100.0000 46.90085 76.37885 108.5117
62 41.30440 100.0000 100.0000 53.30697 79.34473 108.6315
63 0.000000 16.30430 0.000000 0.723130 1.659515 0.333252
64 0.000000 19.66290 0.000000 0.975566 2.309276 0.378282
65 0.000000 31.25000 0.000000 2.187566 5.428916 0.594479
66 0.000000 35.71430 0.000000 2.850390 7.134997 0.712714
67 0.000000 40.54050 0.000000 3.676393 9.261095 0.860057
68 0.000000 45.77470 0.000000 4.796088 12.14315 1.059789
69 0.000000 51.47060 0.000000 6.424987 16.33587 1.350353
70 0.000000 57.69230 0.000000 8.283675 21.12006 1.681907
71 0.000000 64.51610 0.000000 10.49273 26.80608 2.075961
72 0.000000 72.03390 0.000000 13.46026 34.44438 2.605310
73 33.74990 77.59260 0.000000 20.08373 42.68271 3.120410
74 79.15980 81.30500 0.000000 45.71771 58.05224 3.864811
75 53.27490 0.000000 71.65490 21.00764 8.518722 48.92403
76 75.47560 46.15900 100.0000 49.78494 30.45441 104.9909
77 83.45260 62.02740 100.0000 61.02430 45.73383 105.9633
78 0.000000 0.000000 10.20410 0.323330 0.189167 1.261065
79 0.000000 0.000000 13.15790 0.419737 0.220446 1.769294
80 0.000000 0.000000 16.30430 0.553151 0.263731 2.472609
81 0.000000 0.000000 19.66290 0.731668 0.321649 3.413694
82 0.000000 0.000000 23.25580 0.953203 0.393524 4.581556
83 0.000000 0.000000 27.10840 1.222167 0.480787 5.999450
84 0.000000 0.000000 31.25000 1.574176 0.594993 7.855127
85 0.000000 0.000000 35.71430 2.039492 0.745960 10.30813
86 0.000000 0.000000 40.54050 2.618093 0.933682 13.35833
87 0.000000 0.000000 45.77470 3.409641 1.190492 17.53112
88 0.000000 0.000000 51.47060 4.497997 1.543600 23.26859
89 0.000000 0.000000 57.69230 5.824774 1.974060 30.26293
90 0.000000 0.000000 64.51610 7.448741 2.500941 38.82397
91 0.000000 0.000000 72.03390 9.430220 3.143814 49.26969
92 0.000000 0.000000 80.35710 12.00411 3.978887 62.83840
93 0.000000 0.000000 89.62260 15.38875 5.077002 80.68115
94 0.000000 77.29980 100.0000 35.40138 46.77966 106.4604
95 100.0000 78.35190 100.0000 83.70081 70.12397 107.4383
96 1.543200 1.543200 1.543200 0.180461 0.178291 0.286964
97 2.336400 2.336400 2.336400 0.233162 0.231840 0.344257
98 3.144700 3.144700 3.144700 0.292706 0.294501 0.411343
99 3.968300 3.968300 3.968300 0.359601 0.366130 0.487308
100 4.807700 4.807700 4.807700 0.435412 0.448275 0.574427
101 5.663400 5.663400 5.663400 0.518284 0.539009 0.670936
102 6.535900 6.535900 6.535900 0.611641 0.641314 0.779224
103 7.425700 7.425700 7.425700 0.712686 0.752637 0.898032
104 8.333300 8.333300 8.333300 0.828442 0.876708 1.028413
105 9.259300 9.259300 9.259300 0.953861 1.010827 1.169568
106 10.20410 10.20410 10.20410 1.089004 1.151503 1.321366
107 11.16840 11.16840 11.16840 1.233277 1.300450 1.483280
108 12.15280 12.15280 12.15280 1.390067 1.460115 1.663186
109 13.15790 13.15790 13.15790 1.559241 1.631817 1.857461
110 14.18440 14.18440 14.18440 1.746670 1.823877 2.078618
111 15.23300 15.23300 15.23300 1.951407 2.035887 2.323393
112 16.30430 16.30430 16.30430 2.179985 2.274991 2.598203
113 17.39930 17.39930 17.39930 2.434961 2.544331 2.902348
114 18.51850 18.51850 18.51850 2.715136 2.842465 3.232977
115 19.66290 19.66290 19.66290 3.027101 3.175344 3.592103
116 20.83330 20.83330 20.83330 3.365100 3.537346 3.977527
117 22.03070 22.03070 22.03070 3.731428 3.930261 4.389641
118 23.25580 23.25580 23.25580 4.122395 4.348798 4.829034
119 24.50980 24.50980 24.50980 4.538173 4.791207 5.297130
120 25.79360 25.79360 25.79360 4.977804 5.252173 5.794969
121 27.10840 27.10840 27.10840 5.445620 5.734721 6.327962
122 28.45530 28.45530 28.45530 5.959469 6.264640 6.913408
123 29.83540 29.83540 29.83540 6.529550 6.855726 7.560710
124 31.25000 31.25000 31.25000 7.175903 7.537938 8.288912
125 32.70040 32.70040 32.70040 7.889305 8.290888 9.090984
126 34.18800 34.18800 34.18800 8.654345 9.090927 9.956140
127 35.71430 35.71430 35.71430 9.467296 9.933546 10.88191
128 37.28070 37.28070 37.28070 10.33543 10.83306 11.87017
129 38.88890 38.88890 38.88890 11.27627 11.82131 12.93559
130 40.54050 40.54050 40.54050 12.31495 12.91547 14.10645
131 42.23740 42.23740 42.23740 13.46156 14.10786 15.40206
132 43.98150 43.98150 43.98150 14.74639 15.44327 16.86481
133 45.77470 45.77470 45.77470 16.18221 16.95992 18.51556
134 47.61910 47.61910 47.61910 17.78993 18.69146 20.36763
135 49.51690 49.51690 49.51690 19.57912 20.63026 22.40442
136 51.47060 51.47060 51.47060 21.53259 22.72482 24.59285
137 53.48260 53.48260 53.48260 23.60891 24.90273 26.90044
138 55.55560 55.55560 55.55560 25.76831 27.13148 29.34071
139 57.69230 57.69230 57.69230 27.99964 29.45877 31.98014
140 59.89580 59.89580 59.89580 30.35169 31.94768 34.84381
141 62.16930 62.16930 62.16930 32.87437 34.58036 37.85440
142 64.51610 64.51610 64.51610 35.63657 37.43280 41.00639
143 66.93990 66.93990 66.93990 38.67929 40.62485 44.39399
144 69.44440 69.44440 69.44440 42.02377 44.18645 48.07349
145 72.03390 72.03390 72.03390 45.62340 48.04637 52.07571
146 74.71260 74.71260 74.71260 49.44179 52.18154 56.43519
147 77.48540 77.48540 77.48540 53.59715 56.58184 61.20780
148 80.35710 80.35710 80.35710 58.15694 61.25691 66.41802
149 83.33330 83.33330 83.33330 63.06743 66.32085 72.11402
150 86.41970 86.41970 86.41970 68.34728 71.93742 78.45360
151 89.62260 89.62260 89.62260 73.94325 77.88379 85.23307
152 100.0000 89.99180 100.0000 89.42178 84.84952 108.4588
153 0.000000 13.15790 0.000000 0.545835 1.203165 0.301626
154 12.35980 14.15510 0.000000 1.247663 1.635630 0.322889
155 25.37930 20.13950 0.000000 3.363998 3.500454 0.429421
156 31.25740 20.65460 21.09950 5.294099 4.394259 4.095556
157 31.66880 41.69520 58.88120 13.51528 13.45731 32.46316
158 0.000000 32.73540 100.0000 22.02453 12.34820 104.0742
159 0.000000 43.74500 100.0000 23.94370 17.28807 104.4166
160 0.000000 18.87440 75.93930 11.36637 5.533648 55.48773
161 0.000000 59.54400 75.37290 19.15205 25.96300 55.99505
162 16.23730 63.29420 87.07020 25.39151 30.85027 77.34869
163 92.94870 92.94870 92.94870 80.10416 84.22953 92.51711
164 96.40520 96.40520 96.40520 87.23294 91.54643 100.6100
165 0.000000 0.000000 7.425700 0.247466 0.164554 0.861139
166 57.65250 0.000000 22.51810 14.90367 6.858882 4.591849
167 59.69710 0.000000 40.34040 17.64504 7.894427 13.50249
168 72.85700 20.04330 44.77760 27.54875 14.24846 17.23928
169 0.000000 7.425700 0.000000 0.303715 0.579959 0.258436
170 0.000000 10.20410 0.000000 0.415109 0.866681 0.278307
171 0.000000 27.47010 28.11950 2.899789 4.623700 6.695427
172 0.000000 100.0000 56.04820 32.60856 71.74185 33.16726
173 0.000000 100.0000 71.33620 36.38534 72.96719 53.07728
174 32.42920 100.0000 73.81340 40.92754 74.97177 56.89164
175 67.92210 100.0000 100.0000 66.92705 85.65052 108.8863
176 50.15470 13.32430 32.60730 12.20802 6.400885 8.827327
177 54.63070 39.67060 53.48490 20.70684 16.14058 26.28751
178 0.000000 46.57020 21.00110 5.682840 12.88758 4.700343
179 0.000000 55.71660 59.22340 13.74254 21.54940 33.49725
180 67.81310 58.57790 68.94790 36.96886 33.81647 46.67169
181 0.000000 89.62260 0.000000 21.77461 55.84518 4.088430
182 0.000000 100.0000 0.000000 27.27876 70.01264 5.070264
183 36.21110 100.0000 0.000000 32.12176 72.25484 5.160863
184 33.78880 0.000000 76.83510 15.04563 5.545293 56.89490
185 47.26870 25.25960 77.02850 21.03594 11.21563 57.54666
186 25.17620 0.000000 17.57190 2.929245 1.354985 2.851607
187 40.39480 0.000000 29.02430 7.474110 3.354221 6.915397
188 0.000000 0.000000 0.000000 0.127164 0.125523 0.226943
189 0.000000 23.25580 0.000000 1.305767 3.159200 0.437183
190 0.000000 28.98650 17.55550 2.384429 4.836022 3.119304
191 100.0000 100.0000 100.0000 94.73473 98.52484 109.4065
192 0.000000 27.10840 0.000000 1.689741 4.147533 0.505677
193 21.27630 31.82830 14.17990 4.281647 6.524586 2.391874
194 46.03650 45.54260 14.61240 13.30034 15.91191 3.046222
195 82.05830 48.02370 36.17540 37.93054 28.48359 12.09079
196 84.98920 61.99680 70.19320 51.46221 42.78657 48.88422
197 0.000000 4.807700 0.000000 0.216543 0.355580 0.242886
198 15.03510 21.81390 31.32840 3.520286 3.691413 8.096424
199 29.31450 42.90460 34.64400 9.039391 12.47758 10.46419
200 54.03960 46.25930 39.04060 19.30844 18.79686 13.43120
201 0.000000 16.65740 15.19290 1.120925 1.840544 2.312638
202 0.000000 18.67170 55.79100 6.167864 3.810714 28.16511
203 30.48970 23.99520 58.74320 10.68535 6.833763 31.83723
204 0.000000 40.93650 45.36020 6.963539 10.49670 17.80593
205 0.000000 41.69270 57.54070 9.560938 11.66869 30.75303
206 0.000000 53.56800 100.0000 26.67647 24.32210 104.9040
207 0.000000 66.33490 100.0000 30.77059 34.86020 105.6344
208 0.000000 38.91860 70.19900 12.16945 11.34415 47.15527
209 65.41090 39.09020 69.98850 30.52844 19.91721 47.20243
210 72.09500 100.0000 70.63990 59.09482 83.50795 52.48609
211 100.0000 100.0000 71.70320 84.32221 95.14659 54.51505
212 33.81050 0.000000 100.0000 23.93881 8.431398 103.7467
213 57.01690 0.000000 100.0000 33.41749 12.81981 103.9241
214 77.44600 0.000000 100.0000 46.51343 18.88293 104.1691
215 100.0000 0.000000 100.0000 67.58313 28.63772 104.5632
216 100.0000 27.83410 100.0000 69.22099 32.85351 104.8554
217 30.18650 12.83760 0.000000 3.825020 2.688703 0.360501
218 50.48290 19.14540 0.000000 11.16863 6.937606 0.562097
219 54.77370 45.62870 0.000000 17.24504 17.83119 1.286962
220 76.91110 51.29100 0.000000 32.72037 28.39369 1.833469
221 86.65220 63.71890 37.87190 46.77600 42.73273 14.05236
222 100.0000 76.73520 52.67800 67.97986 63.41174 28.21168
223 0.000000 0.000000 0.000000 0.127164 0.125523 0.226943
224 0.764500 0.764500 0.764500 0.142464 0.139943 0.244519
225 0.000000 80.35710 0.000000 17.13835 43.91162 3.261410
226 57.47410 100.0000 51.66210 45.59534 77.88184 28.57907
227 86.34910 100.0000 77.75090 72.44477 89.39616 63.82739
228 38.43470 69.30770 64.39420 25.09638 36.41118 40.94387
229 82.45720 71.99490 63.94650 51.52797 51.03850 41.04516
230 73.77560 23.19020 0.000000 25.36354 14.28378 0.886209
231 100.0000 31.27880 0.000000 50.02539 27.58507 1.490027
232 100.0000 51.20360 0.000000 54.17705 38.27127 2.230602
233 100.0000 50.55330 23.70610 54.83555 38.04109 6.706923
234 33.95590 43.42110 42.16680 11.19324 13.57966 15.34675
235 33.99200 48.56170 56.90950 15.31129 17.84472 30.37699
236 50.10900 54.77560 70.48670 26.32946 26.39765 48.47879
237 31.77820 43.09720 100.0000 27.47375 18.62867 104.4604
238 37.87540 55.93300 100.0000 32.69447 28.57940 105.1279
239 29.63490 100.0000 33.42820 32.11648 72.02157 13.91302
240 53.41180 100.0000 70.23830 47.83949 78.31229 51.69561
241 64.78790 100.0000 85.88810 59.11106 82.83286 78.36941
242 85.48930 100.0000 89.65580 75.98379 90.44591 86.21680
243 100.0000 100.0000 100.0000 94.73473 98.52484 109.4065
244 72.03390 0.000000 0.000000 22.98725 10.70922 0.654594
245 73.04420 0.000000 18.30250 24.21150 11.20282 3.453107
246 100.0000 0.000000 31.20650 49.40396 22.73965 8.728399
247 100.0000 0.000000 44.85680 51.08843 23.28617 17.60842
248 100.0000 0.000000 59.30360 54.03513 24.24220 33.14246
249 100.0000 61.76330 63.86840 64.57729 48.92600 40.57315
250 100.0000 70.81330 82.38750 73.34410 59.33194 69.66812
251 100.0000 30.37690 21.27200 50.60318 27.49724 5.159235
252 100.0000 48.67300 40.97380 55.96810 37.14817 15.53104
253 0.000000 0.000000 2.336400 0.148253 0.132365 0.338118
254 0.000000 0.000000 4.807700 0.189500 0.145747 0.555556
255 43.52890 63.50670 0.000000 17.36215 29.26255 2.149712
256 60.18700 63.43670 0.000000 25.43840 32.95220 2.297055
257 65.39860 100.0000 34.40080 47.42511 79.09489 14.73873
258 82.76840 100.0000 55.69440 63.69476 86.14473 33.34358
259 15.27250 45.07520 25.86040 6.551599 12.45681 6.338996
260 58.36840 64.82730 31.14890 26.40122 34.20047 9.941958
261 100.0000 76.13290 69.71700 71.75809 64.04147 49.47891
262 100.0000 86.67070 86.29760 82.06647 78.57478 78.48795
263 100.0000 100.0000 88.87190 90.08763 97.01713 84.90853
264 41.86120 26.42030 0.000000 8.219783 7.023764 0.616715
265 60.56910 35.35910 0.000000 18.31184 14.17902 0.993313
266 100.0000 67.74150 0.000000 59.52448 52.03535 3.184481
267 100.0000 67.50840 28.76690 60.65868 52.19721 9.630307
268 61.85180 100.0000 0.000000 43.50563 77.52531 5.373825
269 80.02880 100.0000 0.000000 56.14636 83.37768 5.610299
270 80.23690 100.0000 32.88650 57.92987 83.98038 14.10023
271 22.97570 39.50500 0.000000 5.429346 9.666237 0.862107
272 40.54430 48.68010 0.000000 11.73658 17.02752 1.316027
273 37.85560 54.68660 41.83180 15.36390 22.12523 15.67789
274 40.32510 58.88220 72.54480 24.18444 27.96407 51.67233
275 0.000000 0.000000 100.0000 19.74926 6.491729 103.6684
276 0.000000 19.38850 100.0000 20.57478 8.616590 103.8156
277 34.81890 25.19170 100.0000 25.57831 12.08147 103.9961
278 59.86440 57.89400 100.0000 43.10997 34.65837 105.4178
279 60.26570 73.49340 100.0000 49.07198 49.55557 106.4474
280 84.82560 83.67340 100.0000 71.19681 69.50810 107.5957
281 0.000000 12.30720 36.94390 2.557230 1.766829 11.10637
282 0.000000 26.59530 36.95450 3.689810 4.679291 11.31465
283 14.02700 28.59270 42.56050 5.421320 5.830957 15.15072
284 21.16020 0.000000 32.95910 3.407292 1.420087 8.784148
285 38.96860 0.000000 44.16860 8.790700 3.718780 16.22959
286 56.95730 0.000000 55.16850 18.90336 8.106486 27.57514
287 78.81550 0.000000 57.03210 33.54115 14.82682 29.99597
288 100.0000 0.000000 0.000000 47.96104 22.27151 1.121787
289 100.0000 0.000000 16.47990 48.39537 22.41243 3.411420
290 100.0000 44.35060 51.66650 56.69935 34.84092 25.14715
291 100.0000 49.64370 68.42620 62.02304 39.76046 45.98400
292 4.807700 0.000000 0.000000 0.283698 0.197995 0.229871
293 7.425700 0.000000 0.000000 0.415833 0.259170 0.232343
294 10.20410 0.000000 0.000000 0.604894 0.346701 0.235880
295 13.15790 0.000000 0.000000 0.847998 0.459253 0.240428
296 77.12580 0.000000 78.35020 37.86059 16.04123 59.85688
297 100.0000 0.000000 78.29970 59.16202 25.90557 60.16981
298 100.0000 64.83440 100.0000 78.05934 55.60307 106.4320
299 0.000000 2.336400 0.000000 0.155664 0.198882 0.232027
300 16.60720 8.499300 0.000000 1.409311 1.179537 0.285754
301 19.55070 14.90420 35.09640 3.912794 2.698629 10.06764
302 59.60650 48.08050 47.73420 24.05575 21.86200 20.61797
303 71.37870 53.46710 47.72730 33.06012 29.42776 21.03660
304 25.27330 56.11360 0.000000 10.13423 20.96598 1.640067
305 50.95020 73.23240 37.81190 26.60461 41.33164 14.23816
306 60.95070 75.34290 62.68960 37.51394 47.69250 39.43036
307 62.49690 85.09900 100.0000 55.63589 63.82393 107.4196
308 81.09230 90.51180 100.0000 71.62033 77.18225 108.1692
309 61.39230 22.28580 21.59760 17.89837 10.54421 4.515548
310 86.63740 38.32860 25.06990 38.60630 24.45389 6.430920
311 88.02770 72.28050 34.97020 50.93825 51.76661 12.93933
312 87.55740 73.66330 56.12020 54.66567 54.28122 31.56996
313 11.76790 44.22010 42.24060 7.750229 12.35097 15.36466
314 21.04320 54.25980 45.29600 12.10335 20.27747 18.40474
315 45.79010 55.60630 48.68280 19.58071 24.49346 21.83946
316 45.56030 57.08660 57.95520 21.87150 26.21982 32.15486
317 22.43420 88.65550 16.47630 23.56912 55.56260 6.322931
318 66.47840 96.34560 18.03540 45.06239 74.37109 7.815711
319 88.63060 100.0000 18.79000 63.88603 86.88408 8.670735
320 89.62870 22.23730 7.843100 38.25089 20.03886 1.799867
321 90.85390 37.06260 11.09250 41.29213 25.34869 2.636302
322 89.16540 53.14460 14.03160 43.76423 34.63611 3.843470
323 88.41990 64.69890 16.40550 46.85890 43.71523 5.029181
324 34.38270 10.71830 16.25800 5.202488 3.070146 2.597482
325 46.67580 12.71820 41.16040 11.57953 5.910836 14.02610
326 57.73240 28.58800 45.35480 19.09974 12.10148 17.72452
327 66.89020 38.56220 46.76120 26.11208 18.40687 19.37883
328 13.99460 36.15700 12.68210 3.991969 7.769217 2.192286
329 13.45180 38.09200 28.03880 5.148011 8.847498 6.944111
330 21.19900 56.79760 28.66730 10.89605 21.58278 8.083041
331 34.27640 71.30430 33.11040 19.09512 36.16910 11.23951
332 38.25100 88.20510 38.35950 28.68721 57.18464 15.74553
333 65.83010 91.64310 46.46340 44.87816 68.28242 22.56186
334 86.82980 91.45160 57.87840 63.00878 76.14210 35.16647
335 50.14050 85.81890 12.49890 30.12490 55.48415 5.342135
336 0.000000 51.74030 78.79690 17.87037 20.23598 61.26392
337 14.53600 53.37570 88.61800 22.72308 23.02580 79.89854
338 60.07760 60.57920 87.86520 39.04313 35.27319 79.04266
339 76.80700 71.14310 100.0000 58.97284 51.99530 106.4704
340 89.00030 38.91680 66.92270 47.67128 27.90018 43.26174
341 100.0000 53.85630 84.57240 68.32510 44.65371 72.75671
342 0.000000 0.000000 0.000000 0.127164 0.125523 0.226943
343 12.64190 0.000000 14.52350 1.148330 0.550377 2.063166
344 16.39010 8.815100 18.87230 1.957688 1.382970 3.237728
345 27.24550 16.36480 25.15570 4.367713 3.222795 5.415058
346 69.77810 62.37420 80.69640 43.06069 38.71086 65.55686
347 69.60910 74.19300 92.64640 52.03217 52.01758 89.89192
348 85.40340 100.0000 100.0000 80.26096 91.82382 109.1358
349 100.0000 100.0000 100.0000 94.73473 98.52484 109.4065
350 10.33170 25.96170 17.42920 2.543845 4.232575 3.036463
351 23.36110 30.57290 23.03240 4.914242 6.383852 4.893095
352 35.69680 31.27160 24.09750 7.772228 7.898554 5.332493
353 37.40040 40.49380 30.91760 10.26595 12.09712 8.418963
354 61.11300 50.36610 34.13030 23.63925 23.35723 10.75826
355 73.16810 70.92390 37.78170 38.77759 44.87046 14.28853
356 56.14810 56.34240 14.44150 21.42994 26.29267 3.662196
357 69.21790 58.85860 14.50640 29.90282 31.85678 3.958437
358 73.82220 72.86300 62.32930 44.70984 48.72945 38.93328
359 84.00570 73.48880 74.37280 56.27087 54.21969 55.94319
360 91.78870 85.43520 78.31390 69.67882 71.85946 63.49822
361 36.50930 55.23260 28.34840 13.66198 21.88248 7.923020
362 68.09860 57.37340 29.81190 29.64429 30.61916 8.969976
363 35.91190 34.28500 0.000000 7.392611 8.779407 0.763003
364 42.54830 34.19610 13.26870 9.761668 9.806936 2.363885
365 54.75700 42.86340 14.09830 16.93770 16.31901 2.909280
366 71.46320 50.54630 16.02690 29.01746 26.14487 3.896863
367 82.32110 60.99760 47.07550 43.63647 39.21990 20.96989
368 85.01290 63.84460 62.32120 50.09293 43.71632 38.45602
369 39.15850 0.000000 15.18140 6.208424 2.889170 2.306249
370 46.59990 13.34310 13.05550 9.292006 5.231892 1.983417
371 49.33430 14.83580 23.87990 11.17825 6.189894 5.070768
372 59.12630 25.57840 69.45670 24.88080 13.36902 46.03957
373 58.57750 38.85560 85.71900 31.61358 19.63175 73.70304
374 66.88930 52.39070 88.76510 40.97512 30.84595 80.48902
375 11.01910 36.54920 56.21960 8.887705 9.460271 29.04168
376 24.97250 44.30150 73.64880 16.48874 15.45848 52.53473
377 32.24010 65.81180 100.0000 34.36310 36.11784 105.6709
378 35.91690 76.61460 100.0000 39.85799 48.20078 106.4952
379 27.77110 64.54740 14.80540 13.64716 28.23960 4.014983
380 44.36790 68.11010 19.11130 19.94728 33.94044 5.477155
381 46.28320 88.99640 77.13130 40.59559 62.38182 61.26838
382 0.000000 72.91770 78.36810 25.06640 39.07160 61.83811
383 23.80830 84.91490 93.67860 38.27631 55.96994 92.64005
384 38.28180 16.38370 51.43450 10.53253 5.607230 23.43862
385 53.95760 19.22460 54.82850 18.05504 9.437672 27.30744
386 68.91430 38.23140 59.61200 30.10277 19.76163 33.57401
387 72.08160 51.64880 66.14380 37.09962 29.58297 42.51896
388 91.36580 56.53910 74.15040 56.33097 41.24916 54.61258
389 5.288600 13.07950 9.734600 0.902847 1.334943 1.266427
390 12.29490 22.02450 8.862900 1.990838 3.204821 1.261138
391 24.77690 24.48540 13.11440 3.961904 4.605154 2.034588
392 37.66640 27.33650 34.01100 8.700353 7.203396 9.713684
393 39.26020 64.30100 88.26210 30.89914 34.05612 79.88136
394 0.000000 26.30970 50.43070 5.769650 5.289542 22.42501
395 16.35500 30.52760 58.95930 9.118316 7.599717 32.18901
396 40.69250 39.41970 64.87520 17.07549 13.99876 40.00065
397 40.27100 41.59550 85.52810 23.64412 17.03459 73.25930
398 53.13730 42.37390 100.0000 35.26513 21.91860 104.5822
399 80.87670 39.62700 0.000000 33.08457 22.51706 1.383024
