KOIOS/K2721UG/K2721UG #1 2023-02-12 01-07 205.8cdm² D6500 0.2164cdm² sRGB VF-S XYZLUT+MTX/K2721UG #1 2023-02-12 01-07 205.8cdm² D6500 0.2164cdm² sRGB VF-S XYZLUT+MTX.ti3
CTI3   

DESCRIPTOR "Argyll Calibration Target chart information 3"
ORIGINATOR "Argyll dispread"
CREATED "Sun Feb 12 01:16:25 2023"
DEVICE_CLASS "DISPLAY"
SINGLE_DIM_STEPS "21"
COMP_GREY_STEPS "61"
DARK_REGION_EMPHASIS "1.6"
COLOR_REP "RGB_XYZ"
TARGET_INSTRUMENT "X-Rite ColorMunki"
DISPLAY_TYPE_REFRESH "YES"
INSTRUMENT_TYPE_SPECTRAL "YES"
SPECTRAL_BANDS "106"
SPECTRAL_START_NM "380.0"
SPECTRAL_END_NM "730.0"
LUMINANCE_XYZ_CDM2 "196.605553 206.353677 226.362247"
NORMALIZED_TO_Y_100 "YES"
VIDEO_LUT_CALIBRATION_POSSIBLE "YES"

BEGIN_ARGYLL_COLPROF_ARGS
-v -qh -aX -bn -C "No copyright. Created with DisplayCAL 3.8.9.3 and ArgyllCMS 2.1.2" -M "KOIOS K2721UG"
END_ARGYLL_COLPROF_ARGS

OBSERVER "1931_2"
USE_BLACK_POINT_COMPENSATION "NO"
BLACK_POINT_CORRECTION "0.0"
HIRES_B2A "YES"
HIRES_B2A_SIZE "-1"
SMOOTH_B2A "YES"
PATCH_SEQUENCE "OPTIMIZE_DISPLAY_RESPONSE_DELAY"

NUMBER_OF_FIELDS 113
BEGIN_DATA_FORMAT
SAMPLE_ID RGB_R RGB_G RGB_B XYZ_X XYZ_Y XYZ_Z SPEC_380 SPEC_383 SPEC_387 SPEC_390 SPEC_393 SPEC_397 SPEC_400 SPEC_403 SPEC_407 SPEC_410 SPEC_413 SPEC_417 SPEC_420 SPEC_423 SPEC_427 SPEC_430 SPEC_433 SPEC_437 SPEC_440 SPEC_443 SPEC_447 SPEC_450 SPEC_453 SPEC_457 SPEC_460 SPEC_463 SPEC_467 SPEC_470 SPEC_473 SPEC_477 SPEC_480 SPEC_483 SPEC_487 SPEC_490 SPEC_493 SPEC_497 SPEC_500 SPEC_503 SPEC_507 SPEC_510 SPEC_513 SPEC_517 SPEC_520 SPEC_523 SPEC_527 SPEC_530 SPEC_533 SPEC_537 SPEC_540 SPEC_543 SPEC_547 SPEC_550 SPEC_553 SPEC_557 SPEC_560 SPEC_563 SPEC_567 SPEC_570 SPEC_573 SPEC_577 SPEC_580 SPEC_583 SPEC_587 SPEC_590 SPEC_593 SPEC_597 SPEC_600 SPEC_603 SPEC_607 SPEC_610 SPEC_613 SPEC_617 SPEC_620 SPEC_623 SPEC_627 SPEC_630 SPEC_633 SPEC_637 SPEC_640 SPEC_643 SPEC_647 SPEC_650 SPEC_653 SPEC_657 SPEC_660 SPEC_663 SPEC_667 SPEC_670 SPEC_673 SPEC_677 SPEC_680 SPEC_683 SPEC_687 SPEC_690 SPEC_693 SPEC_697 SPEC_700 SPEC_703 SPEC_707 SPEC_710 SPEC_713 SPEC_717 SPEC_720 SPEC_723 SPEC_727 SPEC_730
END_DATA_FORMAT

NUMBER_OF_SETS 588
BEGIN_DATA
1 100.000000000 100.000000000 100.000000000 95.2760100000 100.000000000 109.696300000 0.00589551000 0.00589551000 0.00589551000 0.00589551000 0.00589551000 0.00589551000 0.00589555000 0.00699451000 0.00839380000 0.01418860000 0.02603890000 0.05025740000 0.09710900000 0.17906700000 0.31550600000 0.53518400000 0.89658900000 1.45840700000 2.21086800000 2.98055900000 3.44069000000 3.38033500000 2.92258500000 2.37987600000 1.91800400000 1.51537200000 1.15122100000 0.84887700000 0.63443300000 0.49889200000 0.41336300000 0.35354000000 0.31177400000 0.29644300000 0.32047700000 0.39398900000 0.52078300000 0.69210300000 0.89725800000 1.13736100000 1.38887400000 1.60575600000 1.76098600000 1.91834500000 2.14818400000 2.38470700000 2.53646000000 2.58476800000 2.52561500000 2.37094900000 2.16732200000 1.96029400000 1.76574300000 1.57540700000 1.37912100000 1.17664600000 0.95881100000 0.72750200000 0.51942500000 0.37462700000 0.29953900000 0.28447100000 0.31453700000 0.36659700000 0.42854300000 0.49860700000 0.58060000000 0.74043000000 1.10958500000 1.64848900000 1.92185800000 1.68435300000 1.36678100000 1.57445400000 2.60526500000 4.01769100000 4.22620800000 2.97647600000 1.58146600000 0.94651900000 0.88113300000 0.78492900000 0.57431800000 0.40968800000 0.31994800000 0.27045600000 0.24677200000 0.23474000000 0.21530300000 0.19017700000 0.16977500000 0.15606100000 0.14649300000 0.13765700000 0.12832400000 0.11824900000 0.10790200000 0.09737000000 0.08673740000 0.07671370000 0.06792770000 0.06081070000 0.05477810000 0.04918030000 0.04348730000 0.03700900000
2 1.96080000000 1.96080000000 1.96080000000 0.20933900000 0.20700400000 0.31862600000 0.00019554000 0.00019554000 0.00019554000 0.00019554000 0.00019554000 0.00019554000 0.00019553800 0.00010895700 0.00014984600 0.00012331400 0.00019654900 0.00007774600 0.00027468700 0.00057618400 0.00113098000 0.00182099000 0.00289236000 0.00464816000 0.00687667000 0.00909011000 0.01024160000 0.00983192000 0.00840336000 0.00673519000 0.00535408000 0.00414799000 0.00303877000 0.00216197000 0.00160330000 0.00131193000 0.00111085000 0.00097728000 0.00089212200 0.00081143500 0.00080624200 0.00094287200 0.00121098000 0.00167797000 0.00219256000 0.00269886000 0.00315333000 0.00357833000 0.00381672000 0.00415549000 0.00460779000 0.00498225000 0.00520043000 0.00526631000 0.00508407000 0.00471446000 0.00426895000 0.00385983000 0.00347207000 0.00304522000 0.00269047000 0.00232358000 0.00186695000 0.00142750000 0.00108551000 0.00080054000 0.00064187900 0.00057650300 0.00063360900 0.00070287700 0.00087065900 0.00102872000 0.00118903000 0.00150445000 0.00221793000 0.00330133000 0.00383889000 0.00340473000 0.00275275000 0.00314632000 0.00519046000 0.00801321000 0.00842688000 0.00592900000 0.00318980000 0.00191223000 0.00174877000 0.00157958000 0.00117194000 0.00084078100 0.00063013200 0.00053991600 0.00047970800 0.00046040200 0.00042445800 0.00035164200 0.00031973400 0.00030898100 0.00030864500 0.00031409600 0.00029729900 0.00022904000 0.00021806300 0.00021555600 0.00016160000 0.00011803800 0.00018149400 0.00022295300 0.00017767000 0.00018247700 0.00019076500 0.00017581900
3 3.92160000000 3.92160000000 3.92160000000 0.35517800000 0.35976500000 0.47841800000 0.00028718300 0.00028718300 0.00028718300 0.00028718300 0.00028718300 0.00028718300 0.00028718000 0.00019237800 0.00023747100 0.00015940300 0.00032619300 0.00039803000 0.00063286000 0.00098926900 0.00173363000 0.00267064000 0.00421761000 0.00675907000 0.01002210000 0.01330760000 0.01500710000 0.01450230000 0.01258910000 0.01024600000 0.00820537000 0.00637545000 0.00474810000 0.00343942000 0.00255232000 0.00206344000 0.00175530000 0.00155558000 0.00139732000 0.00128971000 0.00131136000 0.00157864000 0.00207045000 0.00274822000 0.00354622000 0.00442221000 0.00528143000 0.00601245000 0.00646428000 0.00703094000 0.00781878000 0.00855612000 0.00904631000 0.00918380000 0.00890374000 0.00829656000 0.00753915000 0.00680946000 0.00614200000 0.00545368000 0.00477711000 0.00409505000 0.00333473000 0.00255370000 0.00188134000 0.00139211000 0.00113401000 0.00103918000 0.00115429000 0.00132613000 0.00159122000 0.00185326000 0.00211828000 0.00266201000 0.00395693000 0.00588048000 0.00684222000 0.00601187000 0.00486532000 0.00559556000 0.00922489000 0.01421140000 0.01495530000 0.01053400000 0.00566464000 0.00341968000 0.00312226000 0.00278529000 0.00208756000 0.00148842000 0.00116227000 0.00101820000 0.00089833800 0.00084156200 0.00074958900 0.00061733200 0.00063825700 0.00059756100 0.00058394400 0.00058399600 0.00053985200 0.00044863600 0.00041489300 0.00043046900 0.00034897900 0.00024820800 0.00030300500 0.00034488600 0.00030652800 0.00026890800 0.00027287200 0.00026964900
4 5.88240000000 5.88240000000 5.88240000000 0.52785400000 0.55467500000 0.69172000000 0.00026670500 0.00026670500 0.00026670500 0.00026670500 0.00026670500 0.00026670500 0.00026670400 0.00022103200 0.00022799000 0.00017391800 0.00027567500 0.00043767200 0.00081899600 0.00129531000 0.00225059000 0.00365044000 0.00591879000 0.00958900000 0.01435850000 0.01911440000 0.02166120000 0.02106200000 0.01827330000 0.01486010000 0.01195490000 0.00933874000 0.00699197000 0.00512262000 0.00382737000 0.00307697000 0.00259247000 0.00224949000 0.00200504000 0.00189029000 0.00198479000 0.00237857000 0.00307969000 0.00410735000 0.00535338000 0.00670927000 0.00805244000 0.00924180000 0.01003890000 0.01095760000 0.01223730000 0.01347300000 0.01425000000 0.01452420000 0.01413080000 0.01318030000 0.01199240000 0.01084050000 0.00976870000 0.00866855000 0.00758337000 0.00650050000 0.00530202000 0.00402627000 0.00289790000 0.00210607000 0.00170216000 0.00157971000 0.00174799000 0.00198700000 0.00232017000 0.00266727000 0.00308693000 0.00388120000 0.00578696000 0.00856694000 0.00996470000 0.00879636000 0.00712189000 0.00818241000 0.01350230000 0.02080910000 0.02191830000 0.01544040000 0.00826099000 0.00493116000 0.00453780000 0.00407031000 0.00302372000 0.00215560000 0.00167824000 0.00145653000 0.00132044000 0.00126848000 0.00114999000 0.00098714400 0.00089576800 0.00083033200 0.00078613200 0.00077551400 0.00070841900 0.00063469800 0.00058087700 0.00054943300 0.00046874800 0.00037662800 0.00040617200 0.00043567600 0.00038574900 0.00035379700 0.00037460200 0.00031945000
5 9.80390000000 9.80390000000 9.80390000000 1.03251900000 1.10090100000 1.25145900000 0.00038393600 0.00038393600 0.00038393600 0.00038393600 0.00038393600 0.00038393600 0.00038393100 0.00022854100 0.00025757700 0.00022221000 0.00044960800 0.00070865100 0.00124374000 0.00217108000 0.00384705000 0.00630700000 0.01044350000 0.01698060000 0.02555140000 0.03416990000 0.03914150000 0.03837080000 0.03319780000 0.02696870000 0.02169980000 0.01703500000 0.01287330000 0.00945763000 0.00709316000 0.00566673000 0.00469430000 0.00407486000 0.00365043000 0.00342423000 0.00367011000 0.00454830000 0.00592300000 0.00792967000 0.01029920000 0.01294800000 0.01570570000 0.01807710000 0.01975910000 0.02158880000 0.02418560000 0.02671180000 0.02834410000 0.02888320000 0.02812910000 0.02630890000 0.02401230000 0.02170470000 0.01956990000 0.01744520000 0.01529370000 0.01308170000 0.01063010000 0.00806817000 0.00581339000 0.00416472000 0.00329648000 0.00306058000 0.00338758000 0.00393018000 0.00462755000 0.00533606000 0.00613389000 0.00779850000 0.01163310000 0.01728490000 0.02011440000 0.01766440000 0.01429340000 0.01639480000 0.02711750000 0.04187520000 0.04410580000 0.03104300000 0.01651400000 0.00984245000 0.00909678000 0.00814183000 0.00598007000 0.00428599000 0.00333091000 0.00283048000 0.00257940000 0.00246377000 0.00228998000 0.00202469000 0.00180886000 0.00167795000 0.00157512000 0.00150080000 0.00141521000 0.00126421000 0.00113922000 0.00109067000 0.00093200200 0.00079247200 0.00077990700 0.00078815900 0.00069249900 0.00057449700 0.00056355000 0.00051657400
6 13.7260000000 13.7260000000 13.7260000000 1.64366100000 1.70894000000 1.94260000000 0.00017582700 0.00017582700 0.00017582700 0.00017582700 0.00017582700 0.00017582700 0.00017582300 0.00005115840 0.00027761800 0.00037564200 0.00046305200 0.00084985400 0.00166954000 0.00309056000 0.00569490000 0.00964293000 0.01603010000 0.02605540000 0.03936700000 0.05296470000 0.06092820000 0.05972470000 0.05174310000 0.04222620000 0.03403300000 0.02679110000 0.02025530000 0.01484650000 0.01108510000 0.00881459000 0.00740150000 0.00632169000 0.00559157000 0.00527438000 0.00557131000 0.00681279000 0.00902845000 0.01198050000 0.01549240000 0.01963230000 0.02390630000 0.02757300000 0.03018450000 0.03287710000 0.03676230000 0.04072570000 0.04323060000 0.04402280000 0.04292860000 0.04021080000 0.03673410000 0.03319440000 0.02989420000 0.02663040000 0.02334490000 0.01995090000 0.01620800000 0.01230160000 0.00881325000 0.00638882000 0.00518029000 0.00489687000 0.00537936000 0.00623529000 0.00735287000 0.00854135000 0.00990423000 0.01268380000 0.01902240000 0.02828070000 0.03304270000 0.02906610000 0.02357040000 0.02708980000 0.04477820000 0.06921210000 0.07295700000 0.05135950000 0.02730540000 0.01630180000 0.01505840000 0.01343860000 0.00990338000 0.00712545000 0.00555327000 0.00467715000 0.00422146000 0.00403417000 0.00369744000 0.00325074000 0.00298277000 0.00271724000 0.00255689000 0.00244660000 0.00225394000 0.00202107000 0.00180193000 0.00167370000 0.00149526000 0.00130211000 0.00117533000 0.00109744000 0.00104471000 0.00093472600 0.00079279500 0.00072834300
7 17.6470000000 17.6470000000 17.6470000000 2.47504800000 2.58481900000 2.96869500000 0.00018763500 0.00018763500 0.00018763500 0.00018763500 0.00018763500 0.00018763500 0.00018763100 0.00007441570 0.00025791300 0.00044427700 0.00069170700 0.00130399000 0.00267756000 0.00485259000 0.00863874000 0.01457640000 0.02431510000 0.03963950000 0.06007710000 0.08090770000 0.09312300000 0.09142110000 0.07922460000 0.06460140000 0.05208780000 0.04102210000 0.03106740000 0.02281320000 0.01702470000 0.01348970000 0.01126980000 0.00961947000 0.00845558000 0.00802232000 0.00856950000 0.01042320000 0.01368460000 0.01819200000 0.02364430000 0.02980190000 0.03621670000 0.04185120000 0.04576220000 0.04984420000 0.05576490000 0.06175680000 0.06557580000 0.06687560000 0.06529870000 0.06117320000 0.05582590000 0.05048470000 0.04546120000 0.04049710000 0.03542970000 0.03027000000 0.02466410000 0.01870290000 0.01337520000 0.00964056000 0.00774427000 0.00736364000 0.00816444000 0.00944248000 0.01104550000 0.01282540000 0.01485460000 0.01887980000 0.02832680000 0.04223030000 0.04926020000 0.04328770000 0.03507880000 0.04029980000 0.06665190000 0.10297400000 0.10853200000 0.07645220000 0.04061920000 0.02423410000 0.02250980000 0.02010030000 0.01476020000 0.01050420000 0.00816012000 0.00688808000 0.00626538000 0.00600685000 0.00550923000 0.00477377000 0.00427378000 0.00391273000 0.00372771000 0.00356845000 0.00329412000 0.00303534000 0.00275926000 0.00250960000 0.00219902000 0.00195080000 0.00178289000 0.00165033000 0.00150446000 0.00138176000 0.00124618000 0.00101533000
8 21.5690000000 21.5690000000 21.5690000000 3.59572700000 3.78498300000 4.23541300000 0.00030149400 0.00030149400 0.00030149400 0.00030149400 0.00030149400 0.00030149400 0.00030149400 0.00028583400 0.00047496400 0.00063332100 0.00113476000 0.00189686000 0.00361237000 0.00690219000 0.01222880000 0.02075350000 0.03477340000 0.05646440000 0.08540680000 0.11512300000 0.13247300000 0.13011300000 0.11295500000 0.09211260000 0.07428050000 0.05853480000 0.04443820000 0.03279610000 0.02451250000 0.01935740000 0.01611180000 0.01380120000 0.01215790000 0.01145370000 0.01231020000 0.01515360000 0.02003490000 0.02661840000 0.03443790000 0.04349990000 0.05292330000 0.06117120000 0.06701780000 0.07304020000 0.08176710000 0.09067170000 0.09641630000 0.09822240000 0.09585210000 0.08984700000 0.08207400000 0.07428460000 0.06695870000 0.05966230000 0.05221130000 0.04458510000 0.03629840000 0.02759670000 0.01978740000 0.01426770000 0.01141320000 0.01077510000 0.01190730000 0.01379970000 0.01610240000 0.01869700000 0.02171890000 0.02756900000 0.04125910000 0.06140700000 0.07164070000 0.06290550000 0.05098560000 0.05864140000 0.09691150000 0.14960600000 0.15767700000 0.11111400000 0.05904170000 0.03521300000 0.03265770000 0.02911010000 0.02139880000 0.01532110000 0.01197890000 0.01016990000 0.00925951000 0.00877562000 0.00802089000 0.00707418000 0.00641577000 0.00589230000 0.00553545000 0.00519541000 0.00484941000 0.00447929000 0.00404409000 0.00369020000 0.00328584000 0.00286445000 0.00257408000 0.00234711000 0.00216016000 0.00195724000 0.00174599000 0.00153628000
9 25.4900000000 25.4900000000 25.4900000000 4.88470000000 5.17087200000 5.68102700000 0.00021856800 0.00021856800 0.00021856800 0.00021856800 0.00021856800 0.00021856800 0.00021857000 0.00026197300 0.00048005900 0.00076240100 0.00146756000 0.00265845000 0.00509910000 0.00930085000 0.01628700000 0.02761990000 0.04627530000 0.07534760000 0.11440400000 0.15433800000 0.17749600000 0.17443000000 0.15168800000 0.12367300000 0.09959280000 0.07860400000 0.05966590000 0.04397430000 0.03283000000 0.02589230000 0.02158370000 0.01855870000 0.01638180000 0.01550020000 0.01670230000 0.02058170000 0.02720150000 0.03616550000 0.04682820000 0.05921420000 0.07219620000 0.08354090000 0.09167860000 0.09996580000 0.11197600000 0.12417500000 0.13198700000 0.13452300000 0.13133600000 0.12325500000 0.11265000000 0.10182900000 0.09172890000 0.08182720000 0.07163240000 0.06110240000 0.04976240000 0.03776570000 0.02697890000 0.01943770000 0.01558500000 0.01474950000 0.01622670000 0.01879930000 0.02192040000 0.02542770000 0.02948750000 0.03747950000 0.05612150000 0.08353760000 0.09738980000 0.08551290000 0.06939250000 0.07977390000 0.13179100000 0.20345800000 0.21438900000 0.15105300000 0.08029940000 0.04790870000 0.04444990000 0.03965470000 0.02905840000 0.02072790000 0.01617780000 0.01370360000 0.01248540000 0.01190690000 0.01094330000 0.00960662000 0.00858313000 0.00790699000 0.00745315000 0.00697224000 0.00647727000 0.00598198000 0.00546215000 0.00495437000 0.00440109000 0.00389666000 0.00354164000 0.00316073000 0.00284533000 0.00259100000 0.00233963000 0.00196241000
10 29.4120000000 29.4120000000 29.4120000000 6.29906300000 6.59616000000 7.30915900000 0.00035409700 0.00035409700 0.00035409700 0.00035409700 0.00035409700 0.00035409700 0.00035409800 0.00039540400 0.00065885400 0.00080046700 0.00161439000 0.00329258000 0.00639878000 0.01182470000 0.02099830000 0.03563790000 0.05966850000 0.09705070000 0.14712200000 0.19839100000 0.22829600000 0.22452200000 0.19530300000 0.15931400000 0.12839100000 0.10135800000 0.07701950000 0.05675870000 0.04233220000 0.03335610000 0.02773980000 0.02376180000 0.02094140000 0.01988550000 0.02141540000 0.02624940000 0.03465300000 0.04601220000 0.05946530000 0.07517810000 0.09167120000 0.10600600000 0.11628900000 0.12675700000 0.14182700000 0.15733400000 0.16725000000 0.17040700000 0.16634900000 0.15604600000 0.14253900000 0.12888100000 0.11608700000 0.10356800000 0.09070590000 0.07741640000 0.06310170000 0.04789850000 0.03420750000 0.02467550000 0.01977800000 0.01875230000 0.02070320000 0.02413080000 0.02822750000 0.03283470000 0.03821670000 0.04876520000 0.07317040000 0.10879200000 0.12687300000 0.11142300000 0.09046530000 0.10410500000 0.17204700000 0.26551800000 0.27967700000 0.19710300000 0.10468000000 0.06245450000 0.05793110000 0.05166170000 0.03790550000 0.02708980000 0.02116550000 0.01789040000 0.01631790000 0.01553350000 0.01422530000 0.01245380000 0.01118740000 0.01025670000 0.00965505000 0.00912656000 0.00848582000 0.00774082000 0.00704058000 0.00642463000 0.00573107000 0.00504399000 0.00455345000 0.00413865000 0.00367347000 0.00326579000 0.00292148000 0.00253610000
11 33.3330000000 33.3330000000 33.3330000000 8.23451100000 8.67235200000 9.46902300000 0.00069438200 0.00069438200 0.00069438200 0.00069438200 0.00069438200 0.00069438200 0.00069438000 0.00064415200 0.00077773200 0.00121119000 0.00240908000 0.00437676000 0.00830144000 0.01536480000 0.02712790000 0.04604670000 0.07723620000 0.12556900000 0.19034600000 0.25675600000 0.29548400000 0.29065100000 0.25282500000 0.20624200000 0.16630300000 0.13128300000 0.09964990000 0.07345820000 0.05496090000 0.04333850000 0.03604280000 0.03089940000 0.02725930000 0.02585820000 0.02794420000 0.03439580000 0.04540050000 0.06030030000 0.07814120000 0.09881860000 0.12052700000 0.13939500000 0.15293200000 0.16683600000 0.18695800000 0.20742100000 0.22053000000 0.22467800000 0.21932500000 0.20577600000 0.18807300000 0.17016700000 0.15330000000 0.13672500000 0.11967500000 0.10213200000 0.08329970000 0.06325160000 0.04512520000 0.03249040000 0.02604240000 0.02469160000 0.02726920000 0.03174080000 0.03703770000 0.04302210000 0.04999220000 0.06366050000 0.09547730000 0.14208600000 0.16572600000 0.14547100000 0.11805600000 0.13591900000 0.22478500000 0.34666700000 0.36493200000 0.25718400000 0.13660600000 0.08153920000 0.07573880000 0.06744920000 0.04942430000 0.03538580000 0.02768620000 0.02335150000 0.02122870000 0.02019910000 0.01843670000 0.01619920000 0.01461410000 0.01346890000 0.01264710000 0.01192700000 0.01112530000 0.01018070000 0.00929171000 0.00842725000 0.00749828000 0.00663796000 0.00596987000 0.00536913000 0.00479818000 0.00429876000 0.00383099000 0.00332181000
12 37.2550000000 37.2550000000 37.2550000000 10.3148000000 10.7912600000 11.8555800000 0.00082988800 0.00082988800 0.00082988800 0.00082988800 0.00082988800 0.00082988800 0.00082988800 0.00081083500 0.00118054000 0.00166705000 0.00293252000 0.00542820000 0.01036290000 0.01910020000 0.03398420000 0.05764620000 0.09648530000 0.15705300000 0.23836600000 0.32160600000 0.37042800000 0.36430400000 0.31663200000 0.25835500000 0.20828500000 0.16451000000 0.12497400000 0.09213960000 0.06884170000 0.05429090000 0.04507840000 0.03851230000 0.03394830000 0.03222310000 0.03473070000 0.04267240000 0.05637350000 0.07481510000 0.09683160000 0.12247900000 0.14954800000 0.17301300000 0.18972700000 0.20682300000 0.23168000000 0.25695800000 0.27320900000 0.27844300000 0.27184800000 0.25499900000 0.23294400000 0.21073100000 0.18993100000 0.16942800000 0.14826800000 0.12654100000 0.10318000000 0.07829440000 0.05586710000 0.04032710000 0.03235350000 0.03076420000 0.03408060000 0.03969450000 0.04641010000 0.05398960000 0.06278630000 0.08006980000 0.12014400000 0.17896900000 0.20885900000 0.18327600000 0.14877700000 0.17130400000 0.28335500000 0.43700100000 0.46008100000 0.32430000000 0.17225900000 0.10283000000 0.09554740000 0.08516440000 0.06239030000 0.04457200000 0.03479550000 0.02940920000 0.02688820000 0.02555700000 0.02333050000 0.02047830000 0.01843800000 0.01700090000 0.01598710000 0.01504640000 0.01400900000 0.01282570000 0.01175490000 0.01066970000 0.00948583000 0.00835869000 0.00745429000 0.00671685000 0.00598211000 0.00538248000 0.00486301000 0.00423472000
13 41.1760000000 41.1760000000 41.1760000000 12.7020100000 13.3442200000 14.5383900000 0.00081661500 0.00081661500 0.00081661500 0.00081661500 0.00081661500 0.00081661500 0.00081661800 0.00090220100 0.00118162000 0.00182820000 0.00356577000 0.00657863000 0.01269740000 0.02345470000 0.04155030000 0.07067380000 0.11833100000 0.19253800000 0.29198500000 0.39388700000 0.45421900000 0.44684600000 0.38804500000 0.31658200000 0.25527200000 0.20171800000 0.15330400000 0.11296100000 0.08433630000 0.06648630000 0.05528500000 0.04742860000 0.04183910000 0.03979320000 0.04292950000 0.05279440000 0.06978590000 0.09261100000 0.11983700000 0.15163300000 0.18497000000 0.21402000000 0.23493100000 0.25614700000 0.28703000000 0.31838400000 0.33848800000 0.34493200000 0.33693700000 0.31612100000 0.28877500000 0.26131200000 0.23555000000 0.21006900000 0.18385900000 0.15697400000 0.12802400000 0.09714880000 0.06935980000 0.05003690000 0.04005950000 0.03795430000 0.04194710000 0.04898390000 0.05729630000 0.06650400000 0.07728610000 0.09859000000 0.14785400000 0.22000000000 0.25670100000 0.22530100000 0.18280100000 0.21050300000 0.34813400000 0.53693700000 0.56542800000 0.39855300000 0.21170700000 0.12636900000 0.11742500000 0.10463900000 0.07670150000 0.05481390000 0.04289420000 0.03622640000 0.03286070000 0.03128220000 0.02871430000 0.02524200000 0.02261790000 0.02083500000 0.01956540000 0.01852310000 0.01720950000 0.01572730000 0.01437190000 0.01304780000 0.01162650000 0.01032420000 0.00924104000 0.00826297000 0.00741911000 0.00668015000 0.00594402000 0.00516448000
14 45.0980000000 45.0980000000 45.0980000000 15.5783400000 16.2718400000 17.8006400000 0.00047916500 0.00047916500 0.00047916500 0.00047916500 0.00047916500 0.00047916500 0.00047917100 0.00062574100 0.00108808000 0.00205437000 0.00427541000 0.00800315000 0.01554240000 0.02878830000 0.05080150000 0.08621880000 0.14488300000 0.23589200000 0.35773700000 0.48255000000 0.55674900000 0.54799700000 0.47545200000 0.38767800000 0.31255500000 0.24676400000 0.18759200000 0.13838000000 0.10335700000 0.08126500000 0.06741820000 0.05766750000 0.05089400000 0.04835820000 0.05228860000 0.06416490000 0.08461860000 0.11246900000 0.14565100000 0.18427400000 0.22484200000 0.26014400000 0.28553400000 0.31142600000 0.34873700000 0.38700700000 0.41156100000 0.41925800000 0.40939300000 0.38392900000 0.35091000000 0.31739400000 0.28601600000 0.25519000000 0.22339300000 0.19060300000 0.15541800000 0.11791500000 0.08410280000 0.06068460000 0.04864390000 0.04633700000 0.05131040000 0.05982740000 0.07012520000 0.08169560000 0.09509550000 0.12135500000 0.18223400000 0.27140300000 0.31680400000 0.27789500000 0.22554000000 0.25973400000 0.42976200000 0.66299400000 0.69802700000 0.49172700000 0.26100300000 0.15577100000 0.14480100000 0.12904000000 0.09460760000 0.06762280000 0.05273850000 0.04447190000 0.04056900000 0.03873200000 0.03556250000 0.03114580000 0.02780170000 0.02556520000 0.02415970000 0.02280660000 0.02108840000 0.01930170000 0.01757000000 0.01590310000 0.01424730000 0.01267750000 0.01129380000 0.01010130000 0.00904991000 0.00824001000 0.00717343000 0.00610729000
