Apple/MacBook Pro 13' (2013 Late)/Color LCD #1 2018-06-03 14-59 0.3127x 0.329y sRGB F-S XYZLUT+MTX/Color LCD #1 2018-06-03 14-59 0.3127x 0.329y sRGB F-S XYZLUT+MTX.cal
CAL    

DESCRIPTOR "Argyll Device Calibration Curves"
ORIGINATOR "Argyll dispcal"
CREATED "Sun Jun  3 15:05:09 2018"
DEVICE_CLASS "DISPLAY"
COLOR_REP "RGB"
VIDEO_LUT_CALIBRATION_POSSIBLE "YES"
TV_OUTPUT_ENCODING "NO"
DEVICE_TYPE "n"
TARGET_WHITE_XYZ "58.205566 61.239627 66.693490"
TARGET_GAMMA "sRGB"
DEGREE_OF_BLACK_OUTPUT_OFFSET "1.0"
BLACK_POINT_CORRECTION "0.0"
BLACK_NEUTRAL_BLEND_RATE "4.0"
BLACK_POINT_HACK "YES"
QUALITY "low"

BEGIN_ARGYLL_DISPCAL_ARGS
-v2 -d1 -c1 -yn -P0.501639344262,0.176923076923,1.49553571429 -ql -w0.3127,0.329 -gs -f1.0 -k0 -A4.0 -b
END_ARGYLL_DISPCAL_ARGS


NUMBER_OF_FIELDS 4
BEGIN_DATA_FORMAT
RGB_I RGB_R RGB_G RGB_B
END_DATA_FORMAT

NUMBER_OF_SETS 256
BEGIN_DATA
0.00000000 0.00000000 0.00000000 0.00000000
0.00392157 0.00429920 0.00444094 0.00424517
0.00784314 0.00853804 0.00880925 0.00843898
0.01176470 0.01271780 0.01310670 0.01258230
0.01568630 0.01683970 0.01733490 0.01667620
0.01960780 0.02090490 0.02149570 0.02072140
0.02352940 0.02491450 0.02559060 0.02471870
0.02745100 0.02886990 0.02962110 0.02866920
0.03137250 0.03277190 0.03358870 0.03257350
0.03529410 0.03662220 0.03749680 0.03643230
0.03921570 0.04042260 0.04135500 0.04025190
0.04313730 0.04416560 0.04516580 0.04403750
0.04705880 0.04785130 0.04893180 0.04779300
0.05098040 0.05148210 0.05264700 0.05151360
0.05490200 0.05505930 0.05631280 0.05519410
0.05882350 0.05858780 0.05993900 0.05884090
0.06274510 0.06207180 0.06353170 0.06246540
0.06666670 0.06551150 0.06709440 0.06607190
0.07058820 0.06890950 0.07062930 0.06966350
0.07450980 0.07227050 0.07413760 0.07324330
0.07843140 0.07560110 0.07762220 0.07681170
0.08235290 0.07890940 0.08109340 0.08037620
0.08627450 0.08220910 0.08455670 0.08394430
0.09019610 0.08551150 0.08802240 0.08752190
0.09411760 0.08883140 0.09148930 0.09110850
0.09803920 0.09216890 0.09496040 0.09470780
0.10196100 0.09552920 0.09843990 0.09832410
0.10588200 0.09891310 0.10193200 0.10195800
0.10980400 0.10232600 0.10543900 0.10561000
0.11372500 0.10577200 0.10896300 0.10928100
0.11764700 0.10925400 0.11250700 0.11297600
0.12156900 0.11277600 0.11607000 0.11669700
0.12549000 0.11633900 0.11964800 0.12044100
0.12941200 0.11993900 0.12323800 0.12420000
0.13333300 0.12357400 0.12684700 0.12797400
0.13725500 0.12724500 0.13047800 0.13176800
0.14117600 0.13095200 0.13413500 0.13558100
0.14509800 0.13469700 0.13781700 0.13941100
0.14902000 0.13847700 0.14152000 0.14325500
0.15294100 0.14228700 0.14523800 0.14710700
0.15686300 0.14612600 0.14895800 0.15096100
0.16078400 0.14998800 0.15267500 0.15480900
0.16470600 0.15387400 0.15638500 0.15863600
0.16862700 0.15778000 0.16008200 0.16244300
0.17254900 0.16170200 0.16376900 0.16622900
0.17647100 0.16564600 0.16744800 0.16999600
0.18039200 0.16961000 0.17111700 0.17374000
0.18431400 0.17358000 0.17477100 0.17746100
0.18823500 0.17755700 0.17841500 0.18117000
0.19215700 0.18153800 0.18205200 0.18487100
0.19607800 0.18552000 0.18568700 0.18856300
0.20000000 0.18949400 0.18932200 0.19224900
0.20392200 0.19345800 0.19296400 0.19593600
0.20784300 0.19740900 0.19661100 0.19962400
0.21176500 0.20134500 0.20026600 0.20332700
0.21568600 0.20526500 0.20393700 0.20705000
0.21960800 0.20916500 0.20762200 0.21079500
0.22352900 0.21304000 0.21131900 0.21456200
0.22745100 0.21688900 0.21502600 0.21835400
0.23137300 0.22072400 0.21874800 0.22217000
0.23529400 0.22454700 0.22248800 0.22599300
0.23921600 0.22834400 0.22623300 0.22981800
0.24313700 0.23211500 0.22997800 0.23365300
0.24705900 0.23587400 0.23373300 0.23749800
0.25098000 0.23962700 0.23750000 0.24134300
0.25490200 0.24337500 0.24127200 0.24518700
0.25882400 0.24712700 0.24505100 0.24903200
0.26274500 0.25088400 0.24883800 0.25288000
0.26666700 0.25466500 0.25263800 0.25673500
0.27058800 0.25847400 0.25645000 0.26059700
0.27451000 0.26230900 0.26027500 0.26446700
0.27843100 0.26616700 0.26411300 0.26834600
0.28235300 0.27004500 0.26797000 0.27223200
0.28627500 0.27393700 0.27184200 0.27613000
0.29019600 0.27784700 0.27573200 0.28004600
0.29411800 0.28177600 0.27964100 0.28398400
0.29803900 0.28572200 0.28357600 0.28793500
0.30196100 0.28967600 0.28752900 0.29188900
0.30588200 0.29363000 0.29148600 0.29585600
0.30980400 0.29758300 0.29544900 0.29983900
0.31372500 0.30153800 0.29942200 0.30383700
0.31764700 0.30550300 0.30340600 0.30784700
0.32156900 0.30948200 0.30740400 0.31185600
0.32549000 0.31346800 0.31141200 0.31586000
0.32941200 0.31746300 0.31543200 0.31985700
0.33333300 0.32146400 0.31946100 0.32385100
0.33725500 0.32547500 0.32349600 0.32784600
0.34117600 0.32949600 0.32754000 0.33184100
0.34509800 0.33352700 0.33159400 0.33582800
0.34902000 0.33756300 0.33564400 0.33980200
0.35294100 0.34159000 0.33967100 0.34376300
0.35686300 0.34560700 0.34367500 0.34771100
0.36078400 0.34960800 0.34765100 0.35164100
0.36470600 0.35358600 0.35158900 0.35554400
0.36862700 0.35754000 0.35548400 0.35941500
0.37254900 0.36147900 0.35933800 0.36325500
0.37647100 0.36540500 0.36315800 0.36706100
0.38039200 0.36931000 0.36694500 0.37083200
0.38431400 0.37319300 0.37070000 0.37456800
0.38823500 0.37705900 0.37442400 0.37827100
0.39215700 0.38091000 0.37812500 0.38194700
0.39607800 0.38475000 0.38181200 0.38560500
0.40000000 0.38859400 0.38549600 0.38925800
0.40392200 0.39245300 0.38919000 0.39291500
0.40784300 0.39633500 0.39290400 0.39658200
0.41176500 0.40023900 0.39664500 0.40026100
0.41568600 0.40415700 0.40041100 0.40395900
0.41960800 0.40808400 0.40419800 0.40767500
0.42352900 0.41201700 0.40800700 0.41141400
0.42745100 0.41595400 0.41184100 0.41518400
0.43137300 0.41990500 0.41570200 0.41899100
0.43529400 0.42388500 0.41960000 0.42283500
0.43921600 0.42788800 0.42353400 0.42671800
0.44313700 0.43191200 0.42749900 0.43063500
0.44705900 0.43595000 0.43148200 0.43458000
0.45098000 0.43999900 0.43547400 0.43854900
0.45490200 0.44405400 0.43947400 0.44254100
0.45882400 0.44810600 0.44348300 0.44653600
0.46274500 0.45214400 0.44748600 0.45052600
0.46666700 0.45617200 0.45148100 0.45450900
0.47058800 0.46019800 0.45547000 0.45849100
0.47451000 0.46422100 0.45945800 0.46246700
0.47843100 0.46823000 0.46344000 0.46643100
0.48235300 0.47223400 0.46741800 0.47038600
0.48627500 0.47623400 0.47139200 0.47432700
0.49019600 0.48023500 0.47536300 0.47826000
0.49411800 0.48424100 0.47934100 0.48219300
0.49803900 0.48824900 0.48333100 0.48612600
0.50196100 0.49225900 0.48733100 0.49006100
0.50588200 0.49627000 0.49134100 0.49399700
0.50980400 0.50028100 0.49536100 0.49793400
0.51372500 0.50429500 0.49939000 0.50187100
0.51764700 0.50830300 0.50341300 0.50580600
0.52156900 0.51230700 0.50742600 0.50973900
0.52549000 0.51630600 0.51142900 0.51367000
0.52941200 0.52030200 0.51542200 0.51759800
0.53333300 0.52429800 0.51940700 0.52152100
0.53725500 0.52828800 0.52338000 0.52542900
0.54117600 0.53226800 0.52733000 0.52932000
0.54509800 0.53623600 0.53125700 0.53320300
0.54902000 0.54018700 0.53516400 0.53707900
0.55294100 0.54413800 0.53906300 0.54096400
0.55686300 0.54809000 0.54296600 0.54486300
0.56078400 0.55203500 0.54687500 0.54877400
0.56470600 0.55596800 0.55078700 0.55269100
0.56862700 0.55989100 0.55469600 0.55661400
0.57254900 0.56380900 0.55860300 0.56054700
0.57647100 0.56772400 0.56250700 0.56449100
0.58039200 0.57164000 0.56641500 0.56844700
0.58431400 0.57554700 0.57032400 0.57240500
0.58823500 0.57943700 0.57421800 0.57635800
0.59215700 0.58330800 0.57809400 0.58030900
0.59607800 0.58717800 0.58195700 0.58426400
0.60000000 0.59106300 0.58582100 0.58822200
0.60392200 0.59496700 0.58968900 0.59217600
0.60784300 0.59889300 0.59355300 0.59612000
0.61176500 0.60283900 0.59741200 0.60006500
0.61568600 0.60680200 0.60127300 0.60402300
0.61960800 0.61078100 0.60513900 0.60799700
0.62352900 0.61477600 0.60901400 0.61199600
0.62745100 0.61878500 0.61290200 0.61601300
0.63137300 0.62280200 0.61679800 0.62003100
0.63529400 0.62682200 0.62069200 0.62404800
0.63921600 0.63084600 0.62458400 0.62806600
0.64313700 0.63487100 0.62848100 0.63208800
0.64705900 0.63889700 0.63238300 0.63611300
0.65098000 0.64293200 0.63628900 0.64014700
0.65490200 0.64699000 0.64020300 0.64419400
0.65882400 0.65107400 0.64413000 0.64826100
0.66274500 0.65518600 0.64807800 0.65235000
0.66666700 0.65932800 0.65204600 0.65646500
0.67058800 0.66350000 0.65603700 0.66060600
0.67451000 0.66770100 0.66005300 0.66476800
0.67843100 0.67188800 0.66409300 0.66891500
0.68235300 0.67604200 0.66812600 0.67303900
0.68627500 0.68016500 0.67214100 0.67714100
0.69019600 0.68425100 0.67613700 0.68122500
0.69411800 0.68830100 0.68012000 0.68529100
0.69803900 0.69231500 0.68409000 0.68933900
0.70196100 0.69630200 0.68805300 0.69338200
0.70588200 0.70027100 0.69201400 0.69742100
0.70980400 0.70422600 0.69598200 0.70145500
0.71372500 0.70817000 0.69995600 0.70547900
0.71764700 0.71210400 0.70394100 0.70949100
0.72156900 0.71602500 0.70793600 0.71348700
0.72549000 0.71992800 0.71193900 0.71746100
0.72941200 0.72381600 0.71593600 0.72141900
0.73333300 0.72770000 0.71992400 0.72536900
0.73725500 0.73157700 0.72391200 0.72931100
0.74117600 0.73544200 0.72790700 0.73325000
0.74509800 0.73930000 0.73190500 0.73718700
0.74902000 0.74315200 0.73590600 0.74112300
0.75294100 0.74700300 0.73990800 0.74505500
0.75686300 0.75085300 0.74390900 0.74898700
0.76078400 0.75472200 0.74791000 0.75292200
0.76470600 0.75861300 0.75191500 0.75686000
0.76862700 0.76252500 0.75592300 0.76080100
0.77254900 0.76644900 0.75993200 0.76475500
0.77647100 0.77038400 0.76394900 0.76871600
0.78039200 0.77432200 0.76797300 0.77267200
0.78431400 0.77826000 0.77199600 0.77662300
0.78823500 0.78220200 0.77601400 0.78057000
0.79215700 0.78614600 0.78002800 0.78451400
0.79607800 0.79009900 0.78403600 0.78845700
0.80000000 0.79406900 0.78804500 0.79240300
0.80392200 0.79805800 0.79206500 0.79635500
0.80784300 0.80206600 0.79609900 0.80031800
0.81176500 0.80608200 0.80014400 0.80429700
0.81568600 0.81010300 0.80419700 0.80829000
0.81960800 0.81412600 0.80825300 0.81229200
0.82352900 0.81815100 0.81230700 0.81630200
0.82745100 0.82218600 0.81635900 0.82032600
0.83137300 0.82623500 0.82041600 0.82436100
0.83529400 0.83030000 0.82447700 0.82840300
0.83921600 0.83437800 0.82854200 0.83245300
0.84313700 0.83845700 0.83260500 0.83650600
0.84705900 0.84252800 0.83666300 0.84055800
0.85098000 0.84658600 0.84071500 0.84461200
0.85490200 0.85064600 0.84476400 0.84867900
0.85882400 0.85471300 0.84882000 0.85275800
0.86274500 0.85878600 0.85288600 0.85683600
0.86666700 0.86284900 0.85694800 0.86090800
0.87058800 0.86690400 0.86099900 0.86497600
0.87451000 0.87096000 0.86504100 0.86904300
0.87843100 0.87501600 0.86907200 0.87311100
0.88235300 0.87907400 0.87309400 0.87718200
0.88627500 0.88313600 0.87711600 0.88126500
0.89019600 0.88720500 0.88113900 0.88536700
0.89411800 0.89127200 0.88516400 0.88946700
0.89803900 0.89532100 0.88917600 0.89356800
0.90196100 0.89935200 0.89317500 0.89766900
0.90588200 0.90336400 0.89716400 0.90176600
0.90980400 0.90736500 0.90114400 0.90585400
0.91372500 0.91135500 0.90511200 0.90992800
0.91764700 0.91532500 0.90906700 0.91399200
0.92156900 0.91928700 0.91301400 0.91805300
0.92549000 0.92326100 0.91696600 0.92209500
0.92941200 0.92723800 0.92092500 0.92611300
0.93333300 0.93121400 0.92488700 0.93011000
0.93725500 0.93520000 0.92886100 0.93408200
0.94117600 0.93919200 0.93285200 0.93802700
0.94509800 0.94318900 0.93686200 0.94194100
0.94902000 0.94719500 0.94089000 0.94582700
0.95294100 0.95121300 0.94494000 0.94968400
0.95686300 0.95524100 0.94900700 0.95351400
0.96078400 0.95927800 0.95309400 0.95731900
0.96470600 0.96332300 0.95719500 0.96110400
0.96862700 0.96737300 0.96130700 0.96486800
0.97254900 0.97142500 0.96542700 0.96861300
0.97647100 0.97547900 0.96955100 0.97233900
0.98039200 0.97953300 0.97368000 0.97604500
0.98431400 0.98358700 0.97781500 0.97973100
0.98823500 0.98764300 0.98195500 0.98339900
0.99215700 0.99170000 0.98609900 0.98704700
0.99607800 0.99575700 0.99025000 0.99067700
1.00000000 0.99981500 0.99440500 0.99428800
END_DATA
CAL    

DESCRIPTOR "Argyll Calibration options and model"
ORIGINATOR "Argyll dispcal"
CREATED "Sun Jun  3 15:05:09 201"

NUMBER_OF_FIELDS 3
BEGIN_DATA_FORMAT
R_P G_P B_P
END_DATA_FORMAT

NUMBER_OF_SETS 32
BEGIN_DATA
0.00111584 0.00142584 0.00234695
0.99888400 0.99857400 0.99765300
1.64329400 1.68796500 1.72034800
0.46564600 0.48090100 0.48238400
0.10259300 0.08000450 0.11564000
0.11869200 0.10962500 0.10613000
0.10269400 0.09372670 0.06503200
0.08712550 0.07704120 0.05477960
0.05072940 0.05059180 0.06631780
0.04472180 0.04648750 0.07067190
0.04110800 0.04581260 0.04592900
0.03753630 0.04656830 0.03988950
0.03573310 0.04173200 0.03959920
0.03446270 0.03731540 0.03665900
0.03088130 0.03359990 0.03282950
0.03060330 0.02431150 0.02978480
0.02731620 0.03270080 0.03277610
0.02571920 0.02986850 0.03333660
0.02456250 0.03394020 0.03764760
0.02313690 0.02799570 0.02854890
0.02205770 0.03069880 0.02612490
0.02090510 0.02472450 0.02704830
0.01940700 0.02102970 0.02086670
0.01778950 0.02429850 0.02382390
0.01640220 0.02367370 0.02206420
0.01559120 0.02244880 0.01982220
0.01502140 0.02400910 0.02283460
0.01420440 0.02229280 0.02036140
0.01344520 0.02150870 0.01668910
0.01300590 0.02159480 0.01690990
0.01236230 0.01954480 0.01773110
0.01196060 0.01956200 0.01659830
END_DATA