Apple/MacBook Pro 13' (2013 Late)/Color LCD #1 2018-06-03 14-59 0.3127x 0.329y sRGB F-S XYZLUT+MTX/Color LCD #1 2018-06-03 14-59 0.3127x 0.329y sRGB F-S XYZLUT+MTX.ti3
CTI3   

DESCRIPTOR "Argyll Calibration Target chart information 3"
ORIGINATOR "Argyll dispread"
CREATED "Sun Jun  3 15:05:10 2018"
DEVICE_CLASS "DISPLAY"
SINGLE_DIM_STEPS "5"
COMP_GREY_STEPS "52"
MULTI_DIM_STEPS "5"
COLOR_REP "RGB_XYZ"
TARGET_INSTRUMENT "X-Rite i1 DisplayPro, ColorMunki Display"
DISPLAY_TYPE_REFRESH "NO"
DISPLAY_TYPE_BASE_ID "1"
INSTRUMENT_TYPE_SPECTRAL "NO"
LUMINANCE_XYZ_CDM2 "58.213763 61.256536 66.750069"
NORMALIZED_TO_Y_100 "YES"
VIDEO_LUT_CALIBRATION_POSSIBLE "YES"

BEGIN_ARGYLL_COLPROF_ARGS
-v -qh -aX -bn -C "No copyright. Created with DisplayCAL 3.5.3.0 and ArgyllCMS 2.0.0" -M "Color LCD" -A "Apple Computer Inc"
END_ARGYLL_COLPROF_ARGS

OBSERVER "1931_2"
USE_BLACK_POINT_COMPENSATION "NO"
BLACK_POINT_CORRECTION "0.0"
HIRES_B2A "YES"
HIRES_B2A_SIZE "-1"
SMOOTH_B2A "YES"
PATCH_SEQUENCE "OPTIMIZE_DISPLAY_RESPONSE_DELAY"

NUMBER_OF_FIELDS 7
BEGIN_DATA_FORMAT
SAMPLE_ID RGB_R RGB_G RGB_B XYZ_X XYZ_Y XYZ_Z
END_DATA_FORMAT

NUMBER_OF_SETS 175
BEGIN_DATA
1 100.0000 100.0000 100.0000 95.03274 100.0000 108.9681
2 100.0000 100.0000 75.00000 86.05991 96.49776 64.37104
3 100.0000 100.0000 100.0000 95.03274 100.0000 108.9681
4 100.0000 100.0000 100.0000 95.03274 100.0000 108.9681
5 0.000000 0.000000 0.000000 0.184559 0.186280 0.288270
6 25.00000 0.000000 0.000000 2.074283 1.190418 0.342937
7 50.00000 0.000000 0.000000 8.343293 4.517961 0.525675
8 75.00000 0.000000 0.000000 20.10949 10.76459 0.866180
9 100.0000 0.000000 0.000000 38.96842 20.77918 1.461883
10 100.0000 0.000000 25.00000 39.97620 21.19369 6.627830
11 100.0000 25.00000 25.00000 41.93944 24.97830 7.294049
12 100.0000 50.00000 25.00000 48.14574 36.87528 9.133361
13 100.0000 75.00000 25.00000 59.38571 58.43348 12.45763
14 0.000000 0.000000 25.00000 1.114210 0.561392 5.093819
15 25.00000 0.000000 25.00000 3.058829 1.591713 5.260319
16 75.00000 0.000000 100.0000 39.11367 18.17567 96.65906
17 100.0000 0.000000 100.0000 57.78128 28.08064 97.47073
18 1.960800 1.960800 1.960800 0.259412 0.264720 0.377002
19 3.921600 3.921600 3.921600 0.387715 0.399968 0.512600
20 5.882400 5.882400 5.882400 0.548816 0.579347 0.711114
21 7.843100 7.843100 7.843100 0.719150 0.759830 0.914046
22 9.803900 9.803900 9.803900 1.004663 1.048444 1.277218
23 11.76500 11.76500 11.76500 1.337768 1.426541 1.625692
24 13.72600 13.72600 13.72600 1.775098 1.868327 2.150005
25 15.68600 15.68600 15.68600 2.417757 2.545266 2.825989
26 17.64700 17.64700 17.64700 3.121386 3.282159 3.692533
27 19.60800 19.60800 19.60800 3.942163 4.119677 4.623128
28 21.56900 21.56900 21.56900 4.689345 4.935194 5.572959
29 23.52900 23.52900 23.52900 5.508052 5.732123 6.567908
30 27.45100 27.45100 27.45100 7.577418 7.938598 8.822621
31 29.41200 29.41200 29.41200 8.772489 9.192626 10.20766
32 31.37300 31.37300 31.37300 9.949129 10.47324 11.71613
33 33.33300 33.33300 33.33300 11.29263 11.89737 13.18400
34 35.29400 35.29400 35.29400 12.54011 13.16139 14.55649
35 37.25500 37.25500 37.25500 14.22032 14.89701 16.50960
36 39.21600 39.21600 39.21600 15.49565 16.27135 18.01972
37 41.17600 41.17600 41.17600 17.20390 18.07604 19.93697
38 43.13700 43.13700 43.13700 19.11945 20.08229 22.10947
39 45.09800 45.09800 45.09800 20.86206 22.04596 24.01255
40 47.05900 47.05900 47.05900 22.86363 23.98786 26.22500
41 49.02000 49.02000 49.02000 24.82192 26.11621 28.42227
42 50.98000 50.98000 50.98000 27.16642 28.54610 31.25261
43 52.94100 52.94100 52.94100 29.35769 30.91554 34.01744
44 54.90200 54.90200 54.90200 31.87802 33.63745 36.47225
45 56.86300 56.86300 56.86300 34.39401 36.11856 39.39140
46 58.82400 58.82400 58.82400 36.79556 38.73546 42.66223
47 60.78400 60.78400 60.78400 39.79363 41.88440 45.95297
48 62.74500 62.74500 62.74500 42.59613 44.59628 48.60405
49 64.70600 64.70600 64.70600 45.52994 48.00297 52.24050
50 66.66700 66.66700 66.66700 48.66836 51.08671 55.74716
51 68.62700 68.62700 68.62700 52.17791 54.78411 59.79051
52 70.58800 70.58800 70.58800 55.43556 58.30245 63.57712
53 72.54900 72.54900 72.54900 58.65335 61.88924 67.62138
54 76.47100 76.47100 76.47100 65.84529 69.09954 76.31942
55 78.43100 78.43100 78.43100 69.73540 73.27142 80.05298
56 80.39200 80.39200 80.39200 73.92585 77.69367 84.71689
57 82.35300 82.35300 82.35300 77.69311 81.83014 89.69271
58 84.31400 84.31400 84.31400 82.05263 86.49853 94.66842
59 86.27500 86.27500 86.27500 86.62348 91.22433 99.95210
60 88.23500 88.23500 88.23500 91.36341 96.19626 105.5476
61 90.19600 90.19600 90.19600 95.99046 100.6135 111.1355
62 92.15700 92.15700 92.15700 100.9233 106.1933 116.4280
63 94.11800 94.11800 94.11800 105.8895 111.4446 120.7837
64 96.07800 96.07800 96.07800 110.9447 116.8889 125.7618
65 98.03900 98.03900 98.03900 115.5762 121.8765 131.9797
66 25.00000 25.00000 0.000000 4.925802 5.890777 1.069241
67 50.00000 25.00000 0.000000 12.92549 10.16723 1.307839
68 75.00000 25.00000 0.000000 28.05970 18.23208 1.756077
69 100.0000 25.00000 0.000000 52.03721 31.03762 2.525858
70 100.0000 50.00000 0.000000 59.72780 45.90632 4.758457
71 50.00000 50.00000 0.000000 20.49614 24.78933 3.491359
72 75.00000 50.00000 0.000000 35.71135 32.96453 3.953998
73 25.00000 50.00000 0.000000 12.42428 20.40951 3.246533
74 25.00000 75.00000 0.000000 26.62310 47.82844 7.389973
75 50.00000 75.00000 0.000000 34.69776 52.30354 7.651208
76 75.00000 75.00000 0.000000 49.89986 60.48884 8.119313
77 100.0000 75.00000 0.000000 73.92290 73.42631 8.925828
78 25.00000 100.0000 0.000000 49.22195 91.85813 14.34136
79 50.00000 100.0000 0.000000 57.38696 96.26640 14.58288
80 75.00000 100.0000 0.000000 72.58751 104.4517 15.04371
81 100.0000 100.0000 0.000000 96.41096 117.2117 15.84000
82 100.0000 100.0000 25.00000 97.96127 118.0030 22.82371
83 50.00000 0.000000 25.00000 11.86826 6.259974 6.933792
84 50.00000 25.00000 50.00000 18.23861 12.42228 27.40686
85 0.000000 25.00000 0.000000 2.433166 4.509520 0.984883
86 0.000000 25.00000 25.00000 3.672958 5.076138 7.205354
87 25.49000 25.49000 25.49000 6.528244 6.798553 7.782292
88 50.00000 25.00000 25.00000 14.34749 10.81857 7.732895
89 75.00000 25.00000 25.00000 29.47241 18.88726 8.261563
90 0.000000 50.00000 0.000000 9.830240 18.86491 3.137841
91 0.000000 50.00000 25.00000 11.16719 19.59844 9.445524
92 25.00000 50.00000 25.00000 13.83192 21.18345 9.687402
93 50.00000 50.00000 25.00000 21.93807 25.58550 10.01798
94 75.00000 50.00000 25.00000 37.16157 33.76567 10.54976
95 0.000000 75.00000 0.000000 23.95429 46.21076 7.274734
96 0.000000 75.00000 25.00000 25.28377 47.06464 13.66331
97 25.00000 75.00000 25.00000 27.98444 48.68335 13.92871
98 50.00000 75.00000 25.00000 36.31208 53.14747 14.24865
99 75.00000 75.00000 25.00000 51.43699 61.40002 14.79848
100 0.000000 100.0000 0.000000 46.60820 90.36256 14.24313
101 0.000000 100.0000 25.00000 47.77067 91.04012 20.77504
102 25.00000 100.0000 25.00000 50.56291 92.59205 21.02647
103 50.00000 100.0000 25.00000 58.88894 97.05611 21.33888
104 75.00000 100.0000 25.00000 74.19931 105.1752 21.87172
105 0.000000 0.000000 50.00000 5.109199 2.181810 25.62632
106 25.00000 0.000000 50.00000 7.653753 3.526000 26.02541
107 50.00000 0.000000 50.00000 15.71194 7.797840 26.43909
108 75.00000 0.000000 50.00000 30.82276 15.81640 27.08286
109 100.0000 0.000000 50.00000 54.77837 28.53285 28.19593
110 100.0000 0.000000 75.00000 62.23610 31.47525 66.43504
111 100.0000 25.00000 75.00000 64.82071 36.29402 67.40722
112 75.00000 0.000000 25.00000 26.89657 14.24685 7.457109
113 75.00000 25.00000 50.00000 33.38132 20.50040 28.08795
114 100.0000 25.00000 50.00000 57.43332 33.31576 29.25599
115 25.00000 25.00000 50.00000 10.07801 8.063849 27.00790
116 25.00000 50.00000 50.00000 17.73364 22.84697 29.38345
117 75.00000 50.00000 50.00000 41.20604 35.45907 30.48851
118 100.0000 50.00000 50.00000 65.21982 48.46598 31.69679
119 100.0000 50.00000 75.00000 72.85359 51.61451 70.02377
120 25.00000 75.00000 50.00000 31.99419 50.38419 33.75851
121 50.00000 75.00000 50.00000 40.25370 54.91585 34.20288
122 75.00000 75.00000 50.00000 55.49876 63.10254 34.87343
123 100.0000 75.00000 50.00000 79.51453 76.10951 36.09112
124 100.0000 75.00000 75.00000 87.12393 79.25726 74.30319
125 25.00000 100.0000 50.00000 54.57048 94.17248 41.08843
126 50.00000 100.0000 50.00000 62.83149 98.70419 41.53986
127 75.00000 100.0000 50.00000 78.16600 106.8240 42.18648
128 100.0000 100.0000 50.00000 101.9832 119.6537 43.39892
129 25.00000 0.000000 75.00000 15.07628 6.441277 64.25369
130 50.00000 0.000000 75.00000 23.12539 10.73108 64.51292
131 75.00000 0.000000 75.00000 38.27770 18.76466 65.34690
132 75.00000 25.00000 75.00000 40.93587 23.53123 66.31708
133 75.00000 50.00000 100.0000 60.48602 43.38732 126.5394
134 25.00000 25.00000 75.00000 17.51053 11.03663 65.22441
135 25.00000 50.00000 100.0000 36.75985 30.56063 125.7560
136 0.000000 25.00000 50.00000 7.448247 6.617569 26.59730
137 0.000000 25.00000 75.00000 14.81778 9.573997 64.62053
138 0.000000 50.00000 75.00000 22.37730 24.31314 66.92430
139 25.00000 50.00000 75.00000 25.20433 25.95476 67.52914
140 50.00000 50.00000 75.00000 33.58448 30.42058 68.09650
141 75.00000 50.00000 75.00000 48.79873 38.60628 68.62185
142 74.51000 74.51000 74.51000 62.16702 65.15603 71.96597
143 0.000000 75.00000 75.00000 36.57007 51.80129 71.51256
144 25.00000 75.00000 75.00000 39.48859 53.47763 72.11658
145 50.00000 75.00000 75.00000 47.85481 58.06333 72.37593
146 0.000000 75.00000 50.00000 29.53294 49.13421 33.89404
147 0.000000 100.0000 50.00000 53.80915 96.22644 42.68862
148 0.000000 100.0000 75.00000 63.72584 102.8181 84.98480
149 25.00000 100.0000 75.00000 67.88004 106.5103 86.84479
150 50.00000 100.0000 75.00000 79.05135 114.0486 89.28257
151 75.00000 100.0000 75.00000 98.31139 125.9422 92.29031
152 75.00000 100.0000 100.0000 114.2840 134.4526 161.9944
153 25.00000 0.000000 100.0000 31.67074 12.93846 146.9447
154 50.00000 0.000000 100.0000 42.11521 18.33815 149.3577
155 0.000000 0.000000 75.00000 15.17939 6.172346 77.58817
156 0.000000 0.000000 100.0000 28.98040 11.20899 149.1285
157 0.000000 25.00000 100.0000 30.24761 15.75383 142.6704
158 25.00000 25.00000 100.0000 31.41317 16.46329 135.2186
159 50.00000 25.00000 100.0000 38.32902 20.17225 128.3497
160 75.00000 25.00000 100.0000 51.99777 27.40165 122.6777
161 100.0000 25.00000 100.0000 71.80343 37.95900 117.5882
162 100.0000 50.00000 100.0000 75.50008 50.30426 114.0162
163 50.00000 25.00000 75.00000 22.79556 13.69076 57.94930
164 50.00000 50.00000 100.0000 40.23555 31.34681 112.0653
165 0.000000 50.00000 50.00000 13.33729 18.88373 25.74984
166 0.000000 50.00000 100.0000 30.16607 25.72796 111.5044
167 0.000000 75.00000 100.0000 42.74630 50.31779 115.1379
168 25.00000 75.00000 100.0000 45.25606 51.75941 115.4339
169 50.00000 75.00000 100.0000 52.84205 55.94661 115.6985
170 75.00000 75.00000 100.0000 66.58983 63.26861 116.2318
171 100.0000 75.00000 100.0000 87.68390 74.78922 117.0335
172 0.000000 100.0000 100.0000 62.66150 89.05499 121.6891
173 25.00000 100.0000 100.0000 65.10563 90.49449 121.6759
174 50.00000 100.0000 100.0000 72.85124 94.61710 122.2472
175 100.0000 100.0000 100.0000 107.4440 113.1604 123.5810
END_DATA
CAL    

DESCRIPTOR "Argyll Device Calibration State"
ORIGINATOR "Argyll dispread"
CREATED "Sun Jun  3 15:05:10 2018"
DEVICE_CLASS "DISPLAY"
COLOR_REP "RGB"

BEGIN_ARGYLL_DISPCAL_ARGS
-v2 -ql -w0.3127,0.329 -gs -f1.0 -k0 -A4.0 -d1 -c1 -yn -P0.501639344262,0.176923076923,1.49553571429
END_ARGYLL_DISPCAL_ARGS


NUMBER_OF_FIELDS 4
BEGIN_DATA_FORMAT
RGB_I RGB_R RGB_G RGB_B
END_DATA_FORMAT

NUMBER_OF_SETS 256
BEGIN_DATA
0.00000000 0.00000000 0.00000000 0.00000000
0.00392157 0.00429920 0.00444094 0.00424517
0.00784314 0.00853804 0.00880925 0.00843898
0.01176470 0.01271780 0.01310670 0.01258230
0.01568630 0.01683970 0.01733490 0.01667620
0.01960780 0.02090490 0.02149570 0.02072140
0.02352940 0.02491450 0.02559060 0.02471870
0.02745100 0.02886990 0.02962110 0.02866920
0.03137250 0.03277190 0.03358870 0.03257350
0.03529410 0.03662220 0.03749680 0.03643230
0.03921570 0.04042260 0.04135500 0.04025190
0.04313730 0.04416560 0.04516580 0.04403750
0.04705880 0.04785130 0.04893180 0.04779300
0.05098040 0.05148210 0.05264700 0.05151360
0.05490200 0.05505930 0.05631280 0.05519410
0.05882350 0.05858780 0.05993900 0.05884090
0.06274510 0.06207180 0.06353170 0.06246540
0.06666670 0.06551150 0.06709440 0.06607190
0.07058820 0.06890950 0.07062930 0.06966350
0.07450980 0.07227050 0.07413760 0.07324330
0.07843140 0.07560110 0.07762220 0.07681170
0.08235290 0.07890940 0.08109340 0.08037620
0.08627450 0.08220910 0.08455670 0.08394430
0.09019610 0.08551150 0.08802240 0.08752190
0.09411760 0.08883140 0.09148930 0.09110850
0.09803920 0.09216890 0.09496040 0.09470780
0.10196100 0.09552920 0.09843990 0.09832410
0.10588200 0.09891310 0.10193200 0.10195800
0.10980400 0.10232600 0.10543900 0.10561000
0.11372500 0.10577200 0.10896300 0.10928100
0.11764700 0.10925400 0.11250700 0.11297600
0.12156900 0.11277600 0.11607000 0.11669700
0.12549000 0.11633900 0.11964800 0.12044100
0.12941200 0.11993900 0.12323800 0.12420000
0.13333300 0.12357400 0.12684700 0.12797400
0.13725500 0.12724500 0.13047800 0.13176800
0.14117600 0.13095200 0.13413500 0.13558100
0.14509800 0.13469700 0.13781700 0.13941100
0.14902000 0.13847700 0.14152000 0.14325500
0.15294100 0.14228700 0.14523800 0.14710700
0.15686300 0.14612600 0.14895800 0.15096100
0.16078400 0.14998800 0.15267500 0.15480900
0.16470600 0.15387400 0.15638500 0.15863600
0.16862700 0.15778000 0.16008200 0.16244300
0.17254900 0.16170200 0.16376900 0.16622900
0.17647100 0.16564600 0.16744800 0.16999600
0.18039200 0.16961000 0.17111700 0.17374000
0.18431400 0.17358000 0.17477100 0.17746100
0.18823500 0.17755700 0.17841500 0.18117000
0.19215700 0.18153800 0.18205200 0.18487100
0.19607800 0.18552000 0.18568700 0.18856300
0.20000000 0.18949400 0.18932200 0.19224900
0.20392200 0.19345800 0.19296400 0.19593600
0.20784300 0.19740900 0.19661100 0.19962400
0.21176500 0.20134500 0.20026600 0.20332700
0.21568600 0.20526500 0.20393700 0.20705000
0.21960800 0.20916500 0.20762200 0.21079500
0.22352900 0.21304000 0.21131900 0.21456200
0.22745100 0.21688900 0.21502600 0.21835400
0.23137300 0.22072400 0.21874800 0.22217000
0.23529400 0.22454700 0.22248800 0.22599300
0.23921600 0.22834400 0.22623300 0.22981800
0.24313700 0.23211500 0.22997800 0.23365300
0.24705900 0.23587400 0.23373300 0.23749800
0.25098000 0.23962700 0.23750000 0.24134300
0.25490200 0.24337500 0.24127200 0.24518700
0.25882400 0.24712700 0.24505100 0.24903200
0.26274500 0.25088400 0.24883800 0.25288000
0.26666700 0.25466500 0.25263800 0.25673500
0.27058800 0.25847400 0.25645000 0.26059700
0.27451000 0.26230900 0.26027500 0.26446700
0.27843100 0.26616700 0.26411300 0.26834600
0.28235300 0.27004500 0.26797000 0.27223200
0.28627500 0.27393700 0.27184200 0.27613000
0.29019600 0.27784700 0.27573200 0.28004600
0.29411800 0.28177600 0.27964100 0.28398400
0.29803900 0.28572200 0.28357600 0.28793500
0.30196100 0.28967600 0.28752900 0.29188900
0.30588200 0.29363000 0.29148600 0.29585600
0.30980400 0.29758300 0.29544900 0.29983900
0.31372500 0.30153800 0.29942200 0.30383700
0.31764700 0.30550300 0.30340600 0.30784700
0.32156900 0.30948200 0.30740400 0.31185600
0.32549000 0.31346800 0.31141200 0.31586000
0.32941200 0.31746300 0.31543200 0.31985700
0.33333300 0.32146400 0.31946100 0.32385100
0.33725500 0.32547500 0.32349600 0.32784600
0.34117600 0.32949600 0.32754000 0.33184100
0.34509800 0.33352700 0.33159400 0.33582800
0.34902000 0.33756300 0.33564400 0.33980200
0.35294100 0.34159000 0.33967100 0.34376300
0.35686300 0.34560700 0.34367500 0.34771100
0.36078400 0.34960800 0.34765100 0.35164100
0.36470600 0.35358600 0.35158900 0.35554400
0.36862700 0.35754000 0.35548400 0.35941500
0.37254900 0.36147900 0.35933800 0.36325500
0.37647100 0.36540500 0.36315800 0.36706100
0.38039200 0.36931000 0.36694500 0.37083200
0.38431400 0.37319300 0.37070000 0.37456800
0.38823500 0.37705900 0.37442400 0.37827100
0.39215700 0.38091000 0.37812500 0.38194700
0.39607800 0.38475000 0.38181200 0.38560500
0.40000000 0.38859400 0.38549600 0.38925800
0.40392200 0.39245300 0.38919000 0.39291500
0.40784300 0.39633500 0.39290400 0.39658200
0.41176500 0.40023900 0.39664500 0.40026100
0.41568600 0.40415700 0.40041100 0.40395900
0.41960800 0.40808400 0.40419800 0.40767500
0.42352900 0.41201700 0.40800700 0.41141400
0.42745100 0.41595400 0.41184100 0.41518400
0.43137300 0.41990500 0.41570200 0.41899100
0.43529400 0.42388500 0.41960000 0.42283500
0.43921600 0.42788800 0.42353400 0.42671800
0.44313700 0.43191200 0.42749900 0.43063500
0.44705900 0.43595000 0.43148200 0.43458000
0.45098000 0.43999900 0.43547400 0.43854900
0.45490200 0.44405400 0.43947400 0.44254100
0.45882400 0.44810600 0.44348300 0.44653600
0.46274500 0.45214400 0.44748600 0.45052600
0.46666700 0.45617200 0.45148100 0.45450900
0.47058800 0.46019800 0.45547000 0.45849100
0.47451000 0.46422100 0.45945800 0.46246700
0.47843100 0.46823000 0.46344000 0.46643100
0.48235300 0.47223400 0.46741800 0.47038600
0.48627500 0.47623400 0.47139200 0.47432700
0.49019600 0.48023500 0.47536300 0.47826000
0.49411800 0.48424100 0.47934100 0.48219300
0.49803900 0.48824900 0.48333100 0.48612600
0.50196100 0.49225900 0.48733100 0.49006100
0.50588200 0.49627000 0.49134100 0.49399700
0.50980400 0.50028100 0.49536100 0.49793400
0.51372500 0.50429500 0.49939000 0.50187100
0.51764700 0.50830300 0.50341300 0.50580600
0.52156900 0.51230700 0.50742600 0.50973900
0.52549000 0.51630600 0.51142900 0.51367000
0.52941200 0.52030200 0.51542200 0.51759800
0.53333300 0.52429800 0.51940700 0.52152100
0.53725500 0.52828800 0.52338000 0.52542900
0.54117600 0.53226800 0.52733000 0.52932000
0.54509800 0.53623600 0.53125700 0.53320300
0.54902000 0.54018700 0.53516400 0.53707900
0.55294100 0.54413800 0.53906300 0.54096400
0.55686300 0.54809000 0.54296600 0.54486300
0.56078400 0.55203500 0.54687500 0.54877400
0.56470600 0.55596800 0.55078700 0.55269100
0.56862700 0.55989100 0.55469600 0.55661400
0.57254900 0.56380900 0.55860300 0.56054700
0.57647100 0.56772400 0.56250700 0.56449100
0.58039200 0.57164000 0.56641500 0.56844700
0.58431400 0.57554700 0.57032400 0.57240500
0.58823500 0.57943700 0.57421800 0.57635800
0.59215700 0.58330800 0.57809400 0.58030900
0.59607800 0.58717800 0.58195700 0.58426400
0.60000000 0.59106300 0.58582100 0.58822200
0.60392200 0.59496700 0.58968900 0.59217600
0.60784300 0.59889300 0.59355300 0.59612000
0.61176500 0.60283900 0.59741200 0.60006500
0.61568600 0.60680200 0.60127300 0.60402300
0.61960800 0.61078100 0.60513900 0.60799700
0.62352900 0.61477600 0.60901400 0.61199600
0.62745100 0.61878500 0.61290200 0.61601300
0.63137300 0.62280200 0.61679800 0.62003100
0.63529400 0.62682200 0.62069200 0.62404800
0.63921600 0.63084600 0.62458400 0.62806600
0.64313700 0.63487100 0.62848100 0.63208800
0.64705900 0.63889700 0.63238300 0.63611300
0.65098000 0.64293200 0.63628900 0.64014700
0.65490200 0.64699000 0.64020300 0.64419400
0.65882400 0.65107400 0.64413000 0.64826100
0.66274500 0.65518600 0.64807800 0.65235000
0.66666700 0.65932800 0.65204600 0.65646500
0.67058800 0.66350000 0.65603700 0.66060600
0.67451000 0.66770100 0.66005300 0.66476800
0.67843100 0.67188800 0.66409300 0.66891500
0.68235300 0.67604200 0.66812600 0.67303900
0.68627500 0.68016500 0.67214100 0.67714100
0.69019600 0.68425100 0.67613700 0.68122500
0.69411800 0.68830100 0.68012000 0.68529100
0.69803900 0.69231500 0.68409000 0.68933900
0.70196100 0.69630200 0.68805300 0.69338200
0.70588200 0.70027100 0.69201400 0.69742100
0.70980400 0.70422600 0.69598200 0.70145500
0.71372500 0.70817000 0.69995600 0.70547900
0.71764700 0.71210400 0.70394100 0.70949100
0.72156900 0.71602500 0.70793600 0.71348700
0.72549000 0.71992800 0.71193900 0.71746100
0.72941200 0.72381600 0.71593600 0.72141900
0.73333300 0.72770000 0.71992400 0.72536900
0.73725500 0.73157700 0.72391200 0.72931100
0.74117600 0.73544200 0.72790700 0.73325000
0.74509800 0.73930000 0.73190500 0.73718700
0.74902000 0.74315200 0.73590600 0.74112300
0.75294100 0.74700300 0.73990800 0.74505500
0.75686300 0.75085300 0.74390900 0.74898700
0.76078400 0.75472200 0.74791000 0.75292200
0.76470600 0.75861300 0.75191500 0.75686000
0.76862700 0.76252500 0.75592300 0.76080100
0.77254900 0.76644900 0.75993200 0.76475500
0.77647100 0.77038400 0.76394900 0.76871600
0.78039200 0.77432200 0.76797300 0.77267200
0.78431400 0.77826000 0.77199600 0.77662300
0.78823500 0.78220200 0.77601400 0.78057000
0.79215700 0.78614600 0.78002800 0.78451400
0.79607800 0.79009900 0.78403600 0.78845700
0.80000000 0.79406900 0.78804500 0.79240300
0.80392200 0.79805800 0.79206500 0.79635500
0.80784300 0.80206600 0.79609900 0.80031800
0.81176500 0.80608200 0.80014400 0.80429700
0.81568600 0.81010300 0.80419700 0.80829000
0.81960800 0.81412600 0.80825300 0.81229200
0.82352900 0.81815100 0.81230700 0.81630200
0.82745100 0.82218600 0.81635900 0.82032600
0.83137300 0.82623500 0.82041600 0.82436100
0.83529400 0.83030000 0.82447700 0.82840300
0.83921600 0.83437800 0.82854200 0.83245300
0.84313700 0.83845700 0.83260500 0.83650600
0.84705900 0.84252800 0.83666300 0.84055800
0.85098000 0.84658600 0.84071500 0.84461200
0.85490200 0.85064600 0.84476400 0.84867900
0.85882400 0.85471300 0.84882000 0.85275800
0.86274500 0.85878600 0.85288600 0.85683600
0.86666700 0.86284900 0.85694800 0.86090800
0.87058800 0.86690400 0.86099900 0.86497600
0.87451000 0.87096000 0.86504100 0.86904300
0.87843100 0.87501600 0.86907200 0.87311100
0.88235300 0.87907400 0.87309400 0.87718200
0.88627500 0.88313600 0.87711600 0.88126500
0.89019600 0.88720500 0.88113900 0.88536700
0.89411800 0.89127200 0.88516400 0.88946700
0.89803900 0.89532100 0.88917600 0.89356800
0.90196100 0.89935200 0.89317500 0.89766900
0.90588200 0.90336400 0.89716400 0.90176600
0.90980400 0.90736500 0.90114400 0.90585400
0.91372500 0.91135500 0.90511200 0.90992800
0.91764700 0.91532500 0.90906700 0.91399200
0.92156900 0.91928700 0.91301400 0.91805300
0.92549000 0.92326100 0.91696600 0.92209500
0.92941200 0.92723800 0.92092500 0.92611300
0.93333300 0.93121400 0.92488700 0.93011000
0.93725500 0.93520000 0.92886100 0.93408200
0.94117600 0.93919200 0.93285200 0.93802700
0.94509800 0.94318900 0.93686200 0.94194100
0.94902000 0.94719500 0.94089000 0.94582700
0.95294100 0.95121300 0.94494000 0.94968400
0.95686300 0.95524100 0.94900700 0.95351400
0.96078400 0.95927800 0.95309400 0.95731900
0.96470600 0.96332300 0.95719500 0.96110400
0.96862700 0.96737300 0.96130700 0.96486800
0.97254900 0.97142500 0.96542700 0.96861300
0.97647100 0.97547900 0.96955100 0.97233900
0.98039200 0.97953300 0.97368000 0.97604500
0.98431400 0.98358700 0.97781500 0.97973100
0.98823500 0.98764300 0.98195500 0.98339900
0.99215700 0.99170000 0.98609900 0.98704700
0.99607800 0.99575700 0.99025000 0.99067700
1.00000000 0.99981500 0.99440500 0.99428800
END_DATA