Lenovo/ThinkPad X61/N121X5-L06 #1 2017-04-19 10-25 2.2 F-S XYZLUT+MTX/N121X5-L06 #1 2017-04-19 10-25 2.2 F-S XYZLUT+MTX.cal
CAL    

DESCRIPTOR "Argyll Device Calibration Curves"
ORIGINATOR "Argyll dispcal"
CREATED "Wed Apr 19 10:42:45 2017"
DEVICE_CLASS "DISPLAY"
COLOR_REP "RGB"
VIDEO_LUT_CALIBRATION_POSSIBLE "YES"
TV_OUTPUT_ENCODING "NO"
DEVICE_TYPE "n"
NATIVE_TARGET_WHITE ""
TARGET_WHITE_XYZ "12.371359 13.402836 10.672971"
TARGET_GAMMA 2.2
DEGREE_OF_BLACK_OUTPUT_OFFSET 1.0
BLACK_POINT_CORRECTION 0.0
BLACK_NEUTRAL_BLEND_RATE 4.0
BLACK_POINT_HACK "YES"
QUALITY "low"

BEGIN_ARGYLL_DISPCAL_ARGS
-v2 -d1 -c1 -yn -P0.5,0.5,1.49868073879 -ql -t -g2.2 -f1.0 -k0.0 -A4.0 -b
END_ARGYLL_DISPCAL_ARGS


NUMBER_OF_FIELDS 4
BEGIN_DATA_FORMAT
RGB_I RGB_R RGB_G RGB_B
END_DATA_FORMAT

NUMBER_OF_SETS 256
BEGIN_DATA
0.00000000 0.00000000 0.00000000 0.00000000
0.00392157 0.00647684 0.00480124 0.00193898
0.00784314 0.01262290 0.00953555 0.00392937
0.01176470 0.01846290 0.01420430 0.00597324
0.01568630 0.02401910 0.01880890 0.00807276
0.01960780 0.02931180 0.02335060 0.01023030
0.02352940 0.03435950 0.02783070 0.01244820
0.02745100 0.03919810 0.03225050 0.01472900
0.03137250 0.04388570 0.03660970 0.01707560
0.03529410 0.04846310 0.04090690 0.01949080
0.03921570 0.05294650 0.04514340 0.02197750
0.04313730 0.05734100 0.04932150 0.02453920
0.04705880 0.06165380 0.05343010 0.02717910
0.05098040 0.06589930 0.05746720 0.02990100
0.05490200 0.07008610 0.06143500 0.03270860
0.05882350 0.07420580 0.06533990 0.03560540
0.06274510 0.07825700 0.06918280 0.03858750
0.06666670 0.08223260 0.07296050 0.04164590
0.07058820 0.08613260 0.07666350 0.04477590
0.07450980 0.08996850 0.08029420 0.04797060
0.07843140 0.09373990 0.08386370 0.05122000
0.08235290 0.09744950 0.08737420 0.05450930
0.08627450 0.10110200 0.09082490 0.05781990
0.09019610 0.10472700 0.09422520 0.06113730
0.09411760 0.10833500 0.09758850 0.06445080
0.09803920 0.11192700 0.10092000 0.06775340
0.10196100 0.11551200 0.10422600 0.07103930
0.10588200 0.11910100 0.10750700 0.07430560
0.10980400 0.12269700 0.11076500 0.07754540
0.11372500 0.12633000 0.11402000 0.08075790
0.11764700 0.13001500 0.11728600 0.08393050
0.12156900 0.13375500 0.12055800 0.08706490
0.12549000 0.13754800 0.12383400 0.09015390
0.12941200 0.14139600 0.12712500 0.09320140
0.13333300 0.14530200 0.13044000 0.09620970
0.13725500 0.14926500 0.13378300 0.09918300
0.14117600 0.15327400 0.13716200 0.10212700
0.14509800 0.15731700 0.14057700 0.10504700
0.14902000 0.16137800 0.14405000 0.10795000
0.15294100 0.16545600 0.14758800 0.11083600
0.15686300 0.16955500 0.15119100 0.11370900
0.16078400 0.17366000 0.15486000 0.11657300
0.16470600 0.17777000 0.15859100 0.11943400
0.16862700 0.18189000 0.16238300 0.12229500
0.17254900 0.18601700 0.16623300 0.12515500
0.17647100 0.19015000 0.17013600 0.12801800
0.18039200 0.19430700 0.17408300 0.13088000
0.18431400 0.19849800 0.17806800 0.13374200
0.18823500 0.20272600 0.18209400 0.13661100
0.19215700 0.20697200 0.18616400 0.13948700
0.19607800 0.21122500 0.19028100 0.14236900
0.20000000 0.21548100 0.19445100 0.14526800
0.20392200 0.21974900 0.19867700 0.14818400
0.20784300 0.22403600 0.20295400 0.15111800
0.21176500 0.22833000 0.20726100 0.15407000
0.21568600 0.23262900 0.21160200 0.15705400
0.21960800 0.23693900 0.21598800 0.16007400
0.22352900 0.24125900 0.22040400 0.16311900
0.22745100 0.24558500 0.22485000 0.16618900
0.23137300 0.24992200 0.22928500 0.16929300
0.23529400 0.25426300 0.23369100 0.17242500
0.23921600 0.25856800 0.23807600 0.17558600
0.24313700 0.26283900 0.24243200 0.17877600
0.24705900 0.26708100 0.24675100 0.18198400
0.25098000 0.27129000 0.25103400 0.18521600
0.25490200 0.27547400 0.25527400 0.18847200
0.25882400 0.27963300 0.25945000 0.19174500
0.26274500 0.28376700 0.26356100 0.19503700
0.26666700 0.28788100 0.26760600 0.19834600
0.27058800 0.29195900 0.27159300 0.20167200
0.27451000 0.29599600 0.27553100 0.20500200
0.27843100 0.29999500 0.27944300 0.20833200
0.28235300 0.30397900 0.28333400 0.21166500
0.28627500 0.30796700 0.28720300 0.21501400
0.29019600 0.31195100 0.29105300 0.21837000
0.29411800 0.31593300 0.29487100 0.22172300
0.29803900 0.31992100 0.29866100 0.22507500
0.30196100 0.32391200 0.30243100 0.22843300
0.30588200 0.32790100 0.30618600 0.23179300
0.30980400 0.33188800 0.30992700 0.23514200
0.31372500 0.33587200 0.31365000 0.23847700
0.31764700 0.33983400 0.31735200 0.24179700
0.32156900 0.34376800 0.32103100 0.24509600
0.32549000 0.34767100 0.32468500 0.24837300
0.32941200 0.35154400 0.32831800 0.25162800
0.33333300 0.35538200 0.33192900 0.25484300
0.33725500 0.35918000 0.33552900 0.25801100
0.34117600 0.36294900 0.33912600 0.26114400
0.34509800 0.36669200 0.34272700 0.26424500
0.34902000 0.37040600 0.34633300 0.26730600
0.35294100 0.37409000 0.34994600 0.27033200
0.35686300 0.37775500 0.35356200 0.27332500
0.36078400 0.38142300 0.35717600 0.27628600
0.36470600 0.38510200 0.36078000 0.27921500
0.36862700 0.38878800 0.36436500 0.28210500
0.37254900 0.39248300 0.36792900 0.28495200
0.37647100 0.39619100 0.37146800 0.28776800
0.38039200 0.39991300 0.37497900 0.29057900
0.38431400 0.40363300 0.37848100 0.29338800
0.38823500 0.40732200 0.38197700 0.29619200
0.39215700 0.41098600 0.38546800 0.29898600
0.39607800 0.41463600 0.38896400 0.30177400
0.40000000 0.41827400 0.39246800 0.30456200
0.40392200 0.42191000 0.39598500 0.30734800
0.40784300 0.42554600 0.39951900 0.31014400
0.41176500 0.42919400 0.40307200 0.31295800
0.41568600 0.43285800 0.40664300 0.31578400
0.41960800 0.43653900 0.41023200 0.31862900
0.42352900 0.44024100 0.41383500 0.32149600
0.42745100 0.44397700 0.41745700 0.32438100
0.43137300 0.44774700 0.42110100 0.32728100
0.43529400 0.45154400 0.42476800 0.33019400
0.43921600 0.45537300 0.42846000 0.33311400
0.44313700 0.45923800 0.43220000 0.33605900
0.44705900 0.46314100 0.43599000 0.33902800
0.45098000 0.46706600 0.43982600 0.34202300
0.45490200 0.47100500 0.44370700 0.34504300
0.45882400 0.47495200 0.44761900 0.34809000
0.46274500 0.47890600 0.45153200 0.35116400
0.46666700 0.48287100 0.45544300 0.35426100
0.47058800 0.48684300 0.45936900 0.35738500
0.47451000 0.49082100 0.46332300 0.36053200
0.47843100 0.49480400 0.46730100 0.36369300
0.48235300 0.49879300 0.47130000 0.36687800
0.48627500 0.50279400 0.47531200 0.37008700
0.49019600 0.50679300 0.47933600 0.37331000
0.49411800 0.51079000 0.48338200 0.37654900
0.49803900 0.51478300 0.48746100 0.37980500
0.50196100 0.51877400 0.49157800 0.38307900
0.50588200 0.52276500 0.49573100 0.38637500
0.50980400 0.52675700 0.49992200 0.38968200
0.51372500 0.53074700 0.50412700 0.39298500
0.51764700 0.53473900 0.50830200 0.39626900
0.52156900 0.53872400 0.51244400 0.39953300
0.52549000 0.54269900 0.51655300 0.40280400
0.52941200 0.54666700 0.52062800 0.40610400
0.53333300 0.55061800 0.52465700 0.40943200
0.53725500 0.55454400 0.52863200 0.41277900
0.54117600 0.55844100 0.53255500 0.41613200
0.54509800 0.56231900 0.53643400 0.41949000
0.54902000 0.56617700 0.54028500 0.42284600
0.55294100 0.57002800 0.54412100 0.42620900
0.55686300 0.57388000 0.54795100 0.42957900
0.56078400 0.57771500 0.55177200 0.43296700
0.56470600 0.58153700 0.55558700 0.43637300
0.56862700 0.58535700 0.55942600 0.43980000
0.57254900 0.58919300 0.56330800 0.44324200
0.57647100 0.59304700 0.56723600 0.44670000
0.58039200 0.59691600 0.57121600 0.45018500
0.58431400 0.60079400 0.57524100 0.45368200
0.58823500 0.60466600 0.57930400 0.45718500
0.59215700 0.60852700 0.58339800 0.46069100
0.59607800 0.61237400 0.58752400 0.46421000
0.60000000 0.61620400 0.59167300 0.46775700
0.60392200 0.62000000 0.59583000 0.47131600
0.60784300 0.62375600 0.59998600 0.47489300
0.61176500 0.62747100 0.60412900 0.47847900
0.61568600 0.63117500 0.60824500 0.48207400
0.61960800 0.63488000 0.61233700 0.48567200
0.62352900 0.63859200 0.61640200 0.48927400
0.62745100 0.64231300 0.62043400 0.49287900
0.63137300 0.64603800 0.62443000 0.49648800
0.63529400 0.64977500 0.62841100 0.50009400
0.63921600 0.65352700 0.63239000 0.50368900
0.64313700 0.65730500 0.63637000 0.50725900
0.64705900 0.66112400 0.64036600 0.51080600
0.65098000 0.66498700 0.64439400 0.51435600
0.65490200 0.66888100 0.64844100 0.51791200
0.65882400 0.67274600 0.65250700 0.52147600
0.66274500 0.67657600 0.65659800 0.52505200
0.66666700 0.68037200 0.66070600 0.52864000
0.67058800 0.68414100 0.66483000 0.53225100
0.67451000 0.68789400 0.66896500 0.53588100
0.67843100 0.69163900 0.67308200 0.53953900
0.68235300 0.69537500 0.67717600 0.54320600
0.68627500 0.69909600 0.68124800 0.54686900
0.69019600 0.70280800 0.68529600 0.55054100
0.69411800 0.70654300 0.68930700 0.55421500
0.69803900 0.71030500 0.69328700 0.55789400
0.70196100 0.71410000 0.69725000 0.56159400
0.70588200 0.71793500 0.70119700 0.56531500
0.70980400 0.72180800 0.70513700 0.56904600
0.71372500 0.72571000 0.70907200 0.57278700
0.71764700 0.72964600 0.71300400 0.57659100
0.72156900 0.73361000 0.71694100 0.58046900
0.72549000 0.73760500 0.72090800 0.58439500
0.72941200 0.74162800 0.72490800 0.58835300
0.73333300 0.74567600 0.72893700 0.59233900
0.73725500 0.74974300 0.73299200 0.59635900
0.74117600 0.75380400 0.73706500 0.60041800
0.74509800 0.75784300 0.74115000 0.60449700
0.74902000 0.76185800 0.74525300 0.60858700
0.75294100 0.76585000 0.74937200 0.61268200
0.75686300 0.76982700 0.75350000 0.61677200
0.76078400 0.77378400 0.75761500 0.62088700
0.76470600 0.77771500 0.76171800 0.62502700
0.76862700 0.78163100 0.76581500 0.62919200
0.77254900 0.78553700 0.76991400 0.63338400
0.77647100 0.78943200 0.77400800 0.63761400
0.78039200 0.79332400 0.77808600 0.64188700
0.78431400 0.79722500 0.78217200 0.64619700
0.78823500 0.80113700 0.78628400 0.65051900
0.79215700 0.80502400 0.79040600 0.65482200
0.79607800 0.80887500 0.79452900 0.65907800
0.80000000 0.81270200 0.79865400 0.66327900
0.80392200 0.81651500 0.80277800 0.66742900
0.80784300 0.82031200 0.80690500 0.67161100
0.81176500 0.82409500 0.81103100 0.67586200
0.81568600 0.82786000 0.81514900 0.68019500
0.81960800 0.83160500 0.81925600 0.68461400
0.82352900 0.83532500 0.82337300 0.68908700
0.82745100 0.83900800 0.82750900 0.69359100
0.83137300 0.84266400 0.83167100 0.69810600
0.83529400 0.84629800 0.83585500 0.70263400
0.83921600 0.84990800 0.84004600 0.70718700
0.84313700 0.85349400 0.84423900 0.71177000
0.84705900 0.85706100 0.84843900 0.71638500
0.85098000 0.86060600 0.85265800 0.72104900
0.85490200 0.86411700 0.85689900 0.72576000
0.85882400 0.86760100 0.86115200 0.73049800
0.86274500 0.87105700 0.86541000 0.73527800
0.86666700 0.87447700 0.86965500 0.74008200
0.87058800 0.87786600 0.87387200 0.74493300
0.87451000 0.88124700 0.87807400 0.74984200
0.87843100 0.88462100 0.88228000 0.75478200
0.88235300 0.88799400 0.88649600 0.75975300
0.88627500 0.89137000 0.89071800 0.76477900
0.89019600 0.89473800 0.89490800 0.76986600
0.89411800 0.89810000 0.89906500 0.77504500
0.89803900 0.90145400 0.90320000 0.78033900
0.90196100 0.90482100 0.90731900 0.78578500
0.90588200 0.90821000 0.91141600 0.79138600
0.90980400 0.91162000 0.91549000 0.79707000
0.91372500 0.91504200 0.91954500 0.80282500
0.91764700 0.91848300 0.92358000 0.80878200
0.92156900 0.92195600 0.92758900 0.81494600
0.92549000 0.92546600 0.93156400 0.82129100
0.92941200 0.92900500 0.93549400 0.82782500
0.93333300 0.93258300 0.93938500 0.83456500
0.93725500 0.93620600 0.94323900 0.84153500
0.94117600 0.93987300 0.94705300 0.84877900
0.94509800 0.94359100 0.95082800 0.85625900
0.94902000 0.94735800 0.95456700 0.86401400
0.95294100 0.95117200 0.95826800 0.87217800
0.95686300 0.95502800 0.96192800 0.88073100
0.96078400 0.95892800 0.96554900 0.88968600
0.96470600 0.96286800 0.96913500 0.89900400
0.96862700 0.96684900 0.97268900 0.90862600
0.97254900 0.97086200 0.97621000 0.91858600
0.97647100 0.97491200 0.97970000 0.92886900
0.98039200 0.97899900 0.98315900 0.93953500
0.98431400 0.98312200 0.98658700 0.95062100
0.98823500 0.98728400 0.98998500 0.96220500
0.99215700 0.99148400 0.99335300 0.97429300
0.99607800 0.99572200 0.99669100 0.98688100
1.00000000 1.00000000 1.00000000 1.00000000
END_DATA
CAL    

DESCRIPTOR "Argyll Calibration options and model"
ORIGINATOR "Argyll dispcal"
CREATED "Wed Apr 19 10:42:45 201"

NUMBER_OF_FIELDS 3
BEGIN_DATA_FORMAT
R_P G_P B_P
END_DATA_FORMAT

NUMBER_OF_SETS 32
BEGIN_DATA
0.00134515 0.00195762 0.00754165
0.99865500 0.99804200 0.99245800
1.96378200 1.55257100 0.66353200
0.37051200 0.50304100 0.77666700
0.21773300 0.20371400 0.16615400
0.16089200 0.16315800 0.15442400
0.10034000 0.10413400 0.07514110
0.07973330 0.09270630 0.05791490
0.06961730 0.04755520 0.04837200
0.05523710 0.04868320 0.03606190
0.05035510 0.04956430 0.03801800
0.04687030 0.03864080 0.03142400
0.04478840 0.04172750 0.03506580
0.04133890 0.04186380 0.03347640
0.03662290 0.04243890 0.02811000
0.03264690 0.03827140 0.02564690
0.03113300 0.02980460 0.02382360
0.02987740 0.02972900 0.02615290
0.02840910 0.02757660 0.02403630
0.02741380 0.02590470 0.02656380
0.02633070 0.03040590 0.02482300
0.02420140 0.02571840 0.02330900
0.02294620 0.02162320 0.02229530
0.02121510 0.02195460 0.01897950
0.02006160 0.02148810 0.01864390
0.01948740 0.02070240 0.01798520
0.01789810 0.01974860 0.01879190
0.01548240 0.01905870 0.01775130
0.01548230 0.01934610 0.01612070
0.01467520 0.01849380 0.01732320
0.01498630 0.01787930 0.01592590
0.01406640 0.01773930 0.01737250
END_DATA