Lenovo/ThinkPad X61/N121X5-L06 #1 2017-04-19 10-25 2.2 F-S XYZLUT+MTX/N121X5-L06 #1 2017-04-19 10-25 2.2 F-S XYZLUT+MTX.ti1
CTI1   

DESCRIPTOR "Argyll Calibration Target chart information 1"
ORIGINATOR "Argyll targen"
CREATED "Wed Apr 19 10:44:36 2017"
APPROX_WHITE_POINT "93.049622 100.000000 76.411438"
COLOR_REP "RGB"
ACCURATE_EXPECTED_VALUES "true"
DARK_REGION_EMPHASIS "1.600000"
WHITE_COLOR_PATCHES "4"
BLACK_COLOR_PATCHES "4"
SINGLE_DIM_STEPS "17"
COMP_GREY_STEPS "49"
OFPS_PATCHES "288"

NUMBER_OF_FIELDS 7
BEGIN_DATA_FORMAT
SAMPLE_ID RGB_R RGB_G RGB_B XYZ_X XYZ_Y XYZ_Z 
END_DATA_FORMAT

NUMBER_OF_SETS 391
BEGIN_DATA
1 100.0000 100.0000 100.0000 93.04962 100.0000 76.41144 
2 0.00000 21.42857 0.00000 1.584744 2.368684 0.973490 
3 19.10896 26.23541 0.00000 3.229536 4.050018 1.297701 
4 40.48454 30.47879 0.00000 8.083406 7.664795 1.908921 
5 55.21745 79.25693 0.00000 33.31120 43.16225 9.372473 
6 69.37234 87.97723 44.35233 47.79192 58.24320 21.87910 
7 90.81589 87.68952 59.52602 63.65730 68.30431 32.53458 
8 34.78307 63.97983 11.13873 18.09710 25.17861 6.129294 
9 33.04060 74.77948 0.00000 23.74771 34.71825 7.829084 
10 79.15393 79.98465 0.00000 46.13138 51.14012 10.58418 
11 82.60910 44.15724 0.00000 31.12948 24.60566 4.754022 
12 100.0000 58.12970 0.00000 51.93623 42.12013 7.892118 
13 17.12329 0.00000 0.00000 1.077795 0.795755 0.602985 
14 21.42857 0.00000 0.00000 1.548057 1.071153 0.643009 
15 26.11940 0.00000 0.00000 2.221751 1.465686 0.700347 
16 31.25000 0.00000 0.00000 3.161198 2.015850 0.780303 
17 36.88525 0.00000 0.00000 4.437315 2.763178 0.888913 
18 43.10345 0.00000 0.00000 6.117107 3.746908 1.031880 
19 46.50106 0.00000 0.00000 7.157563 4.356226 1.120433 
20 50.00000 0.00000 0.00000 8.347560 5.053119 1.221713 
21 57.69231 0.00000 0.00000 11.33171 6.800714 1.475693 
22 66.32653 0.00000 0.00000 15.38573 9.174857 1.820731 
23 76.08696 0.00000 0.00000 20.75631 12.32001 2.277819 
24 87.20930 0.00000 0.00000 28.19612 16.67696 2.911020 
25 88.31664 50.17552 64.70757 42.48691 35.68143 28.67179 
26 0.00000 6.097561 0.00000 0.413673 0.486370 0.566867 
27 0.00000 9.493671 0.00000 0.540602 0.690389 0.610940 
28 0.00000 13.15789 0.00000 0.758481 1.040595 0.686593 
29 0.00000 17.12329 0.00000 1.095092 1.581645 0.803472 
30 0.00000 0.00000 0.00000 0.335822 0.361236 0.539836 
31 0.00000 26.11940 0.00000 2.268722 3.468070 1.210983 
32 0.00000 31.25000 0.00000 3.194225 4.955672 1.532339 
33 0.00000 36.88525 0.00000 4.420995 6.927513 1.958302 
34 0.00000 43.10345 0.00000 6.090782 9.611435 2.538091 
35 0.00000 50.00000 0.00000 8.432163 13.37484 3.351073 
36 0.00000 53.95774 0.00000 9.941270 15.80049 3.875070 
37 0.00000 57.69231 0.00000 11.44597 18.21906 4.397535 
38 0.00000 66.32653 0.00000 15.58250 24.86790 5.833837 
39 0.00000 73.36384 27.22494 20.43721 32.20567 10.59688 
40 0.00000 82.82647 100.0000 39.38167 54.91786 68.34126 
41 35.28199 85.38227 100.0000 44.69317 59.66017 69.21193 
42 67.51772 85.49270 100.0000 56.71207 66.76941 70.25299 
43 0.00000 0.00000 9.493671 0.398076 0.424384 0.805550 
44 0.00000 0.00000 13.15789 0.476960 0.504400 1.142246 
45 0.00000 0.00000 17.12329 0.603343 0.632597 1.681682 
46 0.00000 0.00000 21.42857 0.788953 0.820871 2.473911 
47 0.00000 0.00000 26.11940 1.049920 1.085584 3.587785 
48 0.00000 0.00000 31.25000 1.409087 1.449906 5.120797 
49 0.00000 0.00000 36.88525 1.895146 1.942941 7.195417 
50 0.00000 0.00000 43.10345 2.533329 2.590284 9.919341 
51 0.00000 0.00000 50.00000 3.436114 3.506026 13.77265 
52 0.00000 0.00000 57.69231 4.651955 4.739319 18.96217 
53 0.00000 0.00000 66.32653 5.981477 6.087922 24.63689 
54 0.00000 0.00000 76.08696 8.753066 8.899292 36.46673 
55 0.00000 0.00000 87.20930 11.08342 11.26309 46.41324 
56 36.18850 0.00000 100.0000 18.10085 16.69594 59.92171 
57 0.957854 0.957854 0.957854 0.347806 0.371935 0.554506 
58 1.937984 1.937984 1.937984 0.366069 0.389357 0.570787 
59 2.941176 2.941176 2.941176 0.391516 0.415149 0.589053 
60 3.968254 3.968254 3.968254 0.426210 0.451332 0.609700 
61 5.020080 5.020080 5.020080 0.472124 0.500552 0.633289 
62 6.097561 6.097561 6.097561 0.531963 0.565147 0.669655 
63 7.201646 7.201646 7.201646 0.609438 0.649285 0.725022 
64 8.333333 8.333333 8.333333 0.705686 0.754387 0.799756 
65 9.493671 9.493671 9.493671 0.822553 0.882196 0.895353 
66 10.68376 10.68376 10.68376 0.963608 1.036867 1.013877 
67 11.90476 11.90476 11.90476 1.129886 1.219076 1.156729 
68 13.15789 13.15789 13.15789 1.324356 1.432495 1.325152 
69 14.44444 14.44444 14.44444 1.549243 1.678910 1.521762 
70 15.76577 15.76577 15.76577 1.808536 1.963226 1.748553 
71 17.12329 17.12329 17.12329 2.104586 2.287524 2.008468 
72 18.51852 18.51852 18.51852 2.440954 2.655066 2.302837 
73 19.95305 19.95305 19.95305 2.821490 3.070979 2.635564 
74 21.42857 21.42857 21.42857 3.250110 3.538235 3.010739 
75 22.94686 22.94686 22.94686 3.731251 4.062084 3.429861 
76 24.50980 24.50980 24.50980 4.269060 4.646537 3.898133 
77 26.11940 26.11940 26.11940 4.868749 5.296867 4.419444 
78 27.77778 27.77778 27.77778 5.535225 6.018237 4.998567 
79 29.48718 29.48718 29.48718 6.274860 6.817456 5.642037 
80 31.25000 31.25000 31.25000 7.092865 7.698955 6.353768 
81 33.06878 33.06878 33.06878 7.995841 8.669783 7.142057 
82 34.94624 34.94624 34.94624 8.990944 9.738526 8.012511 
83 36.88525 36.88525 36.88525 10.08181 10.91116 8.962961 
84 38.88889 38.88889 38.88889 11.27843 12.20056 9.988115 
85 40.96045 40.96045 40.96045 12.59645 13.62431 11.11584 
86 43.10345 43.10345 43.10345 14.06957 15.22615 12.40964 
87 45.32164 45.32164 45.32164 15.70986 17.01493 13.89214 
88 47.61905 47.61905 47.61905 17.52162 18.99693 15.49316 
89 50.00000 50.00000 50.00000 19.54419 21.21151 17.26577 
90 52.46914 52.46914 52.46914 21.76378 23.62676 19.27677 
91 55.03145 55.03145 55.03145 24.16196 26.22584 21.46115 
92 57.69231 57.69231 57.69231 26.75798 29.03662 23.75572 
93 60.45752 60.45752 60.45752 29.60256 32.12869 26.00404 
94 63.33333 63.33333 63.33333 32.78392 35.61549 28.39742 
95 66.32653 66.32653 66.32653 36.27807 39.40820 31.21179 
96 69.44444 69.44444 69.44444 40.34758 43.84366 35.11720 
97 72.69504 72.69504 72.69504 45.22542 49.18466 40.84136 
98 76.08696 76.08696 76.08696 50.19747 54.65073 45.50470 
99 79.62963 79.62963 79.62963 55.30471 60.17654 49.29133 
100 83.33333 83.33333 83.33333 60.88103 66.10374 53.38581 
101 87.20930 87.20930 87.20930 66.91489 72.53809 58.49666 
102 91.26984 91.26984 91.26984 73.60982 79.62588 64.47799 
103 95.52846 95.52846 95.52846 81.43872 87.72302 70.49743 
104 35.37139 16.01389 0.00000 4.725474 3.600295 1.084901 
105 54.28126 24.57181 0.00000 11.64241 8.709371 1.945108 
106 53.65028 33.86219 25.68588 13.79395 12.00981 5.451489 
107 62.85761 49.45508 60.15429 26.23740 25.59977 24.37665 
108 75.43912 57.94222 61.67498 36.47985 35.08398 27.01459 
109 39.58166 91.70548 19.84020 36.39667 53.19917 13.28841 
110 37.07226 100.0000 37.09957 44.63747 66.39464 21.02776 
111 63.64144 100.0000 41.22316 54.60400 72.40520 23.57283 
112 100.0000 100.0000 46.99722 81.90669 88.69713 28.85061 
113 100.0000 100.0000 73.55036 87.01217 93.87590 50.64210 
114 26.58299 21.21925 0.00000 3.519945 3.474622 1.131175 
115 36.10412 29.98249 14.30197 7.032442 7.026978 2.519332 
116 61.26153 72.18204 20.71253 31.90713 38.00629 9.846767 
117 69.36325 89.28623 20.66367 46.69076 57.62608 13.90795 
118 85.46922 91.20849 48.29705 60.42699 67.99933 25.63580 
119 9.640673 21.73662 20.33459 2.252674 2.972860 2.718825 
120 26.23325 44.53228 80.53398 17.67853 20.81079 42.30049 
121 36.13337 55.71950 100.0000 28.38845 33.24539 63.49732 
122 20.13744 30.59544 36.89673 5.683048 6.950886 8.237833 
123 19.78484 40.43506 48.71199 9.258905 11.93449 14.81463 
124 20.19551 71.70608 45.77470 22.21292 32.93644 17.78915 
125 21.71019 71.87243 59.04110 24.48448 35.22209 26.31428 
126 19.50945 87.89603 70.31239 36.40811 53.37651 38.97927 
127 51.64801 89.22674 75.64673 46.53830 60.88827 46.96525 
128 0.00000 29.69852 37.17789 4.481933 6.084596 8.200732 
129 11.65600 30.73066 55.46454 7.382046 9.001115 18.42179 
130 27.87018 40.61713 60.80244 12.32264 14.57185 22.82072 
131 51.93920 71.89327 63.35502 32.59356 40.25106 29.61261 
132 17.14961 42.38323 27.90998 7.450434 10.54384 6.071233 
133 27.77974 43.78084 41.80021 10.51179 13.28987 11.53405 
134 34.74430 60.33270 45.53395 18.70488 24.73624 15.78832 
135 48.44400 56.32402 45.94470 20.90292 24.27588 15.74164 
136 50.58630 71.15175 51.15647 29.77585 37.33933 21.43709 
137 35.05736 47.03634 33.56893 12.28239 15.07363 8.677583 
138 43.75659 59.26282 35.67241 19.54611 24.27616 11.32115 
139 88.32494 75.30733 73.66218 57.34183 58.08600 43.52437 
140 89.81382 75.81827 87.00684 61.59656 62.13160 55.95736 
141 100.0000 83.89196 89.24708 77.81361 77.01715 61.15868 
142 29.09702 38.37110 0.00000 7.190687 8.922448 2.289703 
143 46.12337 45.16852 0.00000 13.43676 14.57200 3.332256 
144 59.46111 48.11697 16.16986 19.73513 19.38558 5.107080 
145 88.09711 58.54291 14.93033 40.47948 35.67445 7.768603 
146 88.60980 73.07515 21.71414 48.77642 48.47836 11.63220 
147 0.00000 47.47515 100.0000 21.34499 25.92671 62.07850 
148 0.00000 66.82841 100.0000 29.67670 39.31863 64.97146 
149 0.00000 100.0000 100.0000 52.74426 76.39613 72.98106 
150 100.0000 33.87861 0.00000 44.04337 29.43360 5.151536 
151 100.0000 78.04569 0.00000 62.87691 59.70557 11.69098 
152 100.0000 89.07959 26.89646 70.57566 71.62739 17.35764 
153 90.45002 91.00816 16.76983 61.19414 67.19507 14.75830 
154 0.00000 100.0000 0.00000 38.91018 62.36349 13.93375 
155 0.00000 100.0000 29.75340 39.87051 63.33760 18.03268 
156 84.72348 100.0000 32.88423 66.28035 78.90867 21.30275 
157 0.00000 45.35280 22.53439 7.304009 11.25966 4.955222 
158 0.00000 48.53728 76.24560 16.33995 21.07498 39.22701 
159 38.68847 100.0000 81.32404 52.85864 74.55727 54.39522 
160 100.0000 100.0000 100.0000 93.04962 100.0000 76.41144 
161 100.0000 0.00000 38.06215 42.31105 25.65894 11.09764 
162 100.0000 0.00000 51.92253 44.03185 27.40444 18.44242 
163 100.0000 30.83631 55.15326 47.32631 32.39294 21.61515 
164 100.0000 30.40913 85.50209 53.64070 38.74887 48.89115 
165 20.33792 11.10575 27.00169 2.476254 2.241186 4.020018 
166 20.64696 13.66473 39.95560 3.766118 3.634360 8.706775 
167 33.34860 32.06373 70.49589 13.37040 13.97215 30.63976 
168 23.87209 15.46278 67.92317 8.466616 8.306695 26.42389 
169 34.44855 20.59778 91.78559 17.01983 16.45393 52.54017 
170 37.39567 36.58752 100.0000 22.41337 23.32336 61.34105 
171 0.00000 20.59499 43.24408 3.694044 4.445866 10.38905 
172 0.00000 27.45932 68.27880 8.562922 9.985339 27.19856 
173 15.16686 32.19485 84.40794 13.99917 15.78299 44.50990 
174 37.05925 100.0000 0.00000 43.05491 64.79075 14.28650 
175 61.79170 100.0000 0.00000 51.73655 69.87495 15.02540 
176 83.29960 100.0000 0.00000 64.10159 77.11624 16.07778 
177 100.0000 100.0000 0.00000 79.21554 85.96736 17.36413 
178 26.51383 51.41919 0.00000 10.91637 15.37488 3.702377 
179 25.13050 52.81744 27.05319 12.00243 16.88795 7.170657 
180 39.24790 68.23061 28.34105 22.16019 30.12194 10.25613 
181 81.41201 88.41089 64.79513 58.33282 65.99526 35.47733 
182 100.0000 91.40199 81.69324 80.78619 82.88208 55.00344 
183 81.92464 62.60318 0.00000 37.96505 36.07786 7.251935 
184 100.0000 70.81365 31.42542 59.47047 53.58568 14.77020 
185 100.0000 86.20241 52.75297 71.49036 71.46143 28.49426 
186 0.00000 76.08696 0.00000 21.35974 34.15391 7.839829 
187 0.00000 87.20930 0.00000 28.30699 45.32052 10.25207 
188 17.69891 86.68036 44.04644 31.07855 47.58905 20.07807 
189 12.72053 60.68991 22.38052 13.68028 21.10883 7.034017 
190 23.82329 80.97240 25.62996 26.61778 40.63209 11.94514 
191 54.79486 86.60835 26.69280 38.48978 51.21184 14.15630 
192 14.65423 23.68166 12.82230 2.558473 3.311515 1.691257 
193 26.36147 24.75652 15.36787 4.185500 4.459425 2.180820 
194 52.33783 90.15435 48.76029 41.99556 56.52437 24.14886 
195 65.42406 90.86334 65.22952 50.70124 63.17810 35.55551 
196 67.38537 100.0000 80.72450 63.78218 80.90627 54.85555 
197 89.15148 100.0000 84.09594 78.10883 89.59394 58.97866 
198 0.00000 0.00000 100.0000 14.16991 14.39388 59.58715 
199 0.00000 27.66457 100.0000 16.36217 17.91759 60.34835 
200 41.33970 72.09666 100.0000 37.96725 47.25292 66.46700 
201 0.00000 41.96904 56.45700 9.874589 13.25013 20.00694 
202 13.57212 51.26773 60.80325 14.12855 19.24119 23.90144 
203 27.20112 53.32148 71.03606 18.70800 23.66051 33.62072 
204 44.98065 60.12938 84.56101 28.94188 33.88236 48.32582 
205 100.0000 59.66667 85.99710 63.04288 53.78639 52.65184 
206 0.00000 0.00000 0.00000 0.335822 0.361236 0.539836 
207 11.37513 13.67264 25.52077 1.788438 1.972374 3.617111 
208 30.70579 21.38529 31.74378 5.406813 5.078156 5.949798 
209 72.93423 25.52560 64.02896 26.01318 19.52549 25.15106 
210 78.42435 35.46536 82.91905 35.67120 29.05444 45.15903 
211 100.0000 45.71320 100.0000 61.05208 48.56896 65.30115 
212 40.64474 27.44136 44.62964 9.960429 9.221497 11.90910 
213 40.11877 41.60754 51.77239 13.95791 15.21234 17.17703 
214 47.44011 45.62439 74.74535 22.12831 23.29319 38.06390 
215 48.96102 72.09183 83.91774 36.42839 44.67497 50.00465 
216 15.37245 58.87158 85.97319 22.96578 29.95114 49.12203 
217 21.52142 71.00156 87.50212 30.23825 40.75557 53.04479 
218 0.00000 43.81105 41.27587 8.297747 11.97836 11.10971 
219 35.27605 76.29977 40.85697 27.15171 38.51578 16.50921 
220 45.50960 82.98939 61.97670 37.09212 49.86555 30.94505 
221 0.00000 80.03012 74.34168 31.82903 46.22930 42.89884 
222 21.11500 90.75524 87.93766 42.70574 60.77828 57.83807 
223 62.33246 92.25912 95.75016 57.69325 71.46887 68.07675 
224 42.04697 40.99936 30.07618 11.93974 12.83360 6.992184 
225 79.80752 78.24080 31.87102 46.59579 50.77513 15.03174 
226 89.91769 81.59250 68.46471 60.68545 63.30279 37.67567 
227 34.11325 0.00000 75.84533 12.14608 10.86460 36.54346 
228 60.07521 0.00000 100.0000 26.20789 21.44364 60.61170 
229 61.51674 35.66222 100.0000 30.66687 27.93664 61.98702 
230 100.0000 0.00000 0.00000 40.64118 23.96511 3.970217 
231 100.0000 0.00000 22.95415 41.17230 24.50385 6.237155 
232 100.0000 52.69565 64.55938 55.08971 44.02723 29.89274 
233 100.0000 71.32033 73.02728 66.32878 60.72260 42.85182 
234 18.70545 0.00000 17.95916 1.534548 1.191665 1.894903 
235 34.98754 0.00000 22.95112 4.512214 3.034675 3.116348 
236 41.37213 0.00000 45.66137 8.140239 6.011440 11.73915 
237 82.25565 0.00000 73.46174 32.57658 22.57392 35.79119 
238 89.65768 21.69061 87.50405 42.03946 30.73579 49.70779 
239 24.19122 34.14875 26.18642 6.102795 7.582461 4.942314 
240 47.76681 36.31341 33.75685 12.80134 12.24536 7.983511 
241 56.01154 56.33706 38.26180 22.87787 25.06660 12.28856 
242 82.85957 59.77696 44.70203 39.64076 36.68818 17.05956 
243 100.0000 67.73562 53.00625 60.19277 53.27836 24.72996 
244 82.78907 51.58303 26.60973 34.61243 29.63481 8.851805 
245 82.33141 56.69071 74.07807 43.49786 39.97168 40.24935 
246 50.30935 0.00000 21.65027 8.922878 5.588991 3.211862 
247 59.92573 14.79617 21.98660 13.33596 8.741043 3.801602 
248 86.86051 40.09086 21.26315 33.29636 24.85618 6.489923 
249 100.0000 52.31954 26.62730 50.35988 39.14397 10.27025 
250 62.14923 42.54575 0.00000 18.91829 16.95293 3.586064 
251 64.53546 50.15119 35.39260 24.05872 23.19368 10.64625 
252 73.96788 63.56664 74.49508 41.43785 42.05171 41.36545 
253 92.27078 65.18149 74.36840 54.61439 50.57161 42.55745 
254 53.98631 25.59614 29.85910 12.65501 9.879995 6.122607 
255 67.08493 34.49005 32.07918 20.45067 16.24195 7.942961 
256 85.90178 40.36410 50.13779 35.39146 27.30529 17.87831 
257 88.54198 39.96032 68.40115 40.09008 31.22420 30.72132 
258 53.76173 0.00000 41.71367 11.78900 7.942293 10.04015 
259 65.85006 15.78761 51.41412 19.08822 13.41038 16.15480 
260 65.07093 62.93659 100.0000 42.13824 44.62153 65.52029 
261 0.00000 61.73036 53.80863 16.98412 24.93182 20.79454 
262 0.00000 61.51247 70.60871 19.96707 27.89364 33.94931 
263 15.35152 71.58131 74.46220 27.17367 38.12757 41.25256 
264 56.63803 67.66192 69.82019 33.34913 38.77986 34.75146 
265 57.28149 79.42275 77.72862 42.98908 52.68195 46.76142 
266 100.0000 100.0000 100.0000 93.04962 100.0000 76.41144 
267 79.84276 0.00000 100.0000 36.97511 27.74920 61.52809 
268 83.90181 33.78499 100.0000 43.15646 34.82450 62.94063 
269 15.42847 36.11074 14.61802 5.014907 7.167116 2.725589 
270 31.25903 47.61549 15.92964 10.61256 13.85745 4.249357 
271 71.03392 61.07661 17.64361 30.79722 31.23239 7.645581 
272 81.70701 62.50521 34.18074 39.07970 37.24472 12.83393 
273 85.00030 67.56364 60.88695 47.36452 46.19253 28.69893 
274 87.97977 84.93018 100.0000 69.09242 73.66001 71.21441 
275 14.61687 22.10089 35.70607 3.653618 4.292875 7.242121 
276 29.70710 29.19512 43.14531 7.524396 8.034704 11.01136 
277 36.10455 29.58123 56.74936 10.95127 10.95728 19.54122 
278 51.36616 41.31221 63.35283 19.21574 18.96631 25.02207 
279 83.29993 43.52733 75.16896 39.62894 32.90700 39.80217 
280 86.44712 60.53655 100.0000 53.88205 50.29374 66.21060 
281 100.0000 78.03559 100.0000 76.70477 73.72820 70.73613 
282 0.00000 0.00000 0.00000 0.335822 0.361236 0.539836 
283 0.00000 0.00000 2.941176 0.345400 0.370952 0.580718 
284 0.00000 0.00000 6.097561 0.357987 0.383720 0.634442 
285 35.56444 13.01342 30.63513 5.555394 4.279266 5.384510 
286 61.34332 12.76631 37.96549 15.00909 10.07009 8.839331 
287 100.0000 30.37752 39.59133 45.14680 30.12947 12.66078 
288 100.0000 34.55081 70.19422 50.82292 36.39767 33.51167 
289 0.00000 2.941176 0.00000 0.352646 0.388279 0.545678 
290 0.00000 15.67203 22.10514 1.446065 1.857039 2.834563 
291 36.08101 24.13272 24.55764 6.484976 5.887697 4.083436 
292 51.99262 27.86360 39.41863 13.10449 10.88594 9.741741 
293 60.26178 35.27320 58.29632 20.57702 17.89632 21.67538 
294 69.86259 47.79378 72.06596 31.85506 29.40709 35.78726 
295 72.38106 78.87070 87.47697 52.18520 58.60527 56.16761 
296 0.00000 78.50725 55.33011 26.79368 40.55362 25.16293 
297 0.00000 100.0000 66.76894 44.64341 68.17901 38.40459 
298 0.00000 100.0000 50.62183 42.10181 65.60093 27.55644 
299 0.00000 100.0000 82.12580 48.45675 72.04708 54.68088 
300 46.68277 100.0000 100.0000 59.62411 80.42515 73.56660 
301 17.98721 8.802905 15.52041 1.546143 1.337924 1.572153 
302 26.32547 11.15569 15.96003 2.774125 2.185235 1.769678 
303 34.27873 13.87238 40.52808 6.204757 5.103658 9.163033 
304 51.89640 0.00000 73.89405 16.93495 13.46635 34.97295 
305 61.46013 17.56918 86.63816 24.40951 19.82451 47.13375 
306 33.06253 60.58533 65.88510 21.50515 27.81038 28.85920 
307 63.22002 67.52143 87.39141 40.50992 44.73461 53.27806 
308 66.96068 25.14388 16.27617 17.72634 12.46341 3.477125 
309 81.79431 31.33596 34.59563 28.71159 20.49591 9.360651 
310 80.84518 69.42878 92.01838 52.84280 53.59231 59.98890 
311 26.55975 91.14098 60.28987 37.50130 55.31384 31.34269 
312 47.69359 100.0000 63.56917 51.29681 71.83565 36.63153 
313 81.04696 100.0000 64.08977 67.79621 81.53309 38.37689 
314 85.53128 15.64736 25.21553 28.33076 17.67299 5.841899 
315 100.0000 30.94421 24.51585 44.05717 29.08940 7.578857 
316 100.0000 50.96364 46.48965 51.72421 40.22261 18.11206 
317 71.73949 26.62643 41.21960 22.26419 16.11408 11.23646 
318 71.62416 37.20141 54.11967 26.10208 21.30627 19.47347 
319 73.17495 0.00000 38.56215 20.78311 13.07205 9.464668 
320 75.02732 0.00000 54.68457 23.96427 15.84167 18.58172 
321 86.56507 14.28005 58.88375 32.75608 21.79253 22.23710 
322 30.52197 35.30441 17.23117 7.003970 8.181306 3.217840 
323 41.86659 43.82387 17.66607 12.02446 13.43494 4.305979 
324 45.50139 59.14890 0.00000 18.57900 23.03737 5.169076 
325 63.66642 63.44926 0.00000 27.86458 30.59040 6.501995 
326 68.96090 66.90112 37.10494 33.88138 36.56607 14.07805 
327 74.89219 68.03009 51.18391 39.47783 41.18764 21.80952 
328 46.22905 22.15230 14.54042 8.595634 6.649380 2.349785 
329 46.26052 22.64792 81.53940 17.92264 16.14587 41.85410 
330 52.17166 47.16869 93.27615 28.62902 29.47558 56.73960 
331 0.00000 0.00000 0.00000 0.335822 0.361236 0.539836 
332 9.493671 0.00000 0.00000 0.555519 0.489897 0.558534 
333 13.15789 0.00000 0.00000 0.760560 0.609974 0.575985 
334 16.87905 18.25394 53.30477 5.540923 5.851559 16.31639 
335 51.30609 28.60285 66.00603 16.76522 14.78647 25.91923 
336 58.55123 56.91189 71.24748 29.51562 31.48399 35.25763 
337 70.17501 84.39344 72.89220 51.19955 60.16657 43.52503 
338 82.81705 86.97167 74.36199 61.03293 67.76817 46.54420 
339 24.96915 0.00000 34.32390 3.367638 2.705785 6.350046 
340 28.40510 0.00000 54.16063 6.361462 5.496790 16.73024 
341 39.72097 14.61242 55.96545 9.742554 8.147176 18.38183 
342 65.97306 23.98117 70.47048 23.53890 18.47205 31.09467 
343 65.89008 38.91472 84.69320 29.86052 26.67364 46.54260 
344 63.62275 0.00000 68.09780 20.06183 14.49692 27.42742 
345 77.11999 5.957152 82.96254 31.17777 22.66664 43.85092 
346 100.0000 0.00000 100.0000 54.47526 37.99775 63.01753 
347 62.36301 36.81653 15.38774 17.70702 14.78019 3.950537 
348 83.93159 47.02385 37.23702 34.57123 28.26361 11.95342 
349 48.57510 19.48027 44.42586 11.21963 8.780253 11.60937 
350 48.91702 36.79266 45.18333 14.48609 13.85298 13.08881 
351 61.49550 42.09258 45.15378 20.93211 19.04810 13.98641 
352 74.46550 48.10151 45.88587 29.74938 26.23658 15.63754 
353 91.89488 59.27161 57.18070 47.65389 41.93625 25.37822 
354 72.87790 0.00000 22.79942 19.42063 11.76197 4.351446 
355 89.00759 19.52160 71.31146 37.53007 26.20529 33.48244 
356 100.0000 100.0000 100.0000 93.04962 100.0000 76.41144 
357 61.92839 52.83399 46.19970 24.98418 25.27472 15.86626 
358 62.24933 70.34059 58.82488 35.32698 40.61840 26.86440 
359 75.30693 70.88795 63.52818 43.24978 45.88106 30.47126 
360 75.94752 26.18147 0.00000 22.61679 15.39474 2.945448 
361 86.50820 26.16377 14.29708 29.82818 19.68918 4.282486 
362 16.39900 13.24332 0.00000 1.440872 1.446396 0.746255 
363 27.55780 17.02050 11.42493 3.311972 2.912200 1.404859 
364 36.03981 71.98920 67.19586 28.50688 38.21005 32.12851 
365 37.28881 81.41963 82.02512 38.40273 51.60585 50.00817 
366 68.43691 91.56094 84.43879 57.31995 69.50030 55.49865 
367 80.47600 100.0000 100.0000 75.98068 90.00398 74.95870 
368 0.00000 28.01932 21.04431 3.024529 4.425256 3.177116 
369 11.46127 37.18194 31.53561 5.908291 8.341279 6.687075 
370 12.80950 53.73078 40.36741 12.15007 17.81635 11.96979 
371 19.08751 55.83100 54.10497 15.36035 21.33365 20.17049 
372 40.04742 56.16986 54.52493 19.54630 23.95402 20.84579 
373 42.36054 52.92535 63.91531 20.33530 23.72001 26.52316 
374 69.97649 54.02032 87.95435 37.87494 36.87606 52.03881 
375 90.70101 55.96511 89.80550 52.55545 46.47814 55.61508 
376 37.45935 12.39849 14.75913 5.137944 3.631960 1.828443 
377 45.02311 13.45557 26.97460 7.906076 5.577779 4.515234 
378 55.73969 12.12083 56.19802 14.95876 11.03281 18.93636 
379 100.0000 0.00000 65.20141 46.08186 29.48387 27.19238 
380 100.0000 0.00000 78.99919 49.60823 33.06086 42.24382 
381 84.51091 13.46101 36.90295 28.36169 17.89729 9.571401 
382 87.34255 21.15233 49.74672 32.56564 21.78932 16.41694 
383 49.90710 40.79891 22.32873 13.89996 13.71625 5.112320 
384 52.07508 58.43131 23.87774 21.11355 24.45058 7.734790 
385 88.97316 73.18168 48.78663 51.56477 51.23571 22.18367 
386 100.0000 81.45524 66.86292 70.75453 68.95645 36.98181 
387 6.097561 0.00000 0.00000 0.431947 0.417530 0.548017 
388 2.941176 0.00000 0.00000 0.365114 0.378390 0.542329 
389 0.00000 61.80072 34.94434 14.70980 22.64552 10.95055 
390 55.70367 74.38750 41.33172 32.47247 40.43253 16.85939 
391 67.88319 74.82098 51.76017 39.78893 45.58168 23.27794 
END_DATA
CTI1   

DESCRIPTOR "Argyll Calibration Target chart information 1"
ORIGINATOR "Argyll targen"
DENSITY_EXTREME_VALUES "8"
CREATED "April 19, 2017"

NUMBER_OF_FIELDS 7
BEGIN_DATA_FORMAT
INDEX RGB_R RGB_G RGB_B XYZ_X XYZ_Y XYZ_Z 
END_DATA_FORMAT

NUMBER_OF_SETS 8
BEGIN_DATA
0 100.0000 100.0000 100.0000 93.04962 100.0000 76.41144 
1 0.00000 0.00000 100.0000 14.16991 14.39388 59.58715 
2 100.0000 0.00000 69.67570 47.10328 30.51996 31.55209 
3 0.00000 0.00000 49.68460 3.390665 3.459925 13.57867 
4 100.0000 66.72559 0.00000 56.09427 48.80353 9.335886 
5 0.00000 35.14501 0.00000 4.017674 6.279238 1.818260 
6 62.98782 0.00000 0.00000 13.72969 8.205038 1.679786 
