Lenovo/ThinkPad X61/N121X5-L06 #1 2017-04-19 10-25 2.2 F-S XYZLUT+MTX/N121X5-L06 #1 2017-04-19 10-25 2.2 F-S XYZLUT+MTX.ti3
CTI3   

DESCRIPTOR "Argyll Calibration Target chart information 3"
ORIGINATOR "Argyll dispread"
CREATED "Wed Apr 19 10:44:51 2017"
DEVICE_CLASS "DISPLAY"
SINGLE_DIM_STEPS 17
COMP_GREY_STEPS 49
DARK_REGION_EMPHASIS 1.6
COLOR_REP "RGB_XYZ"
TARGET_INSTRUMENT "X-Rite i1 DisplayPro, ColorMunki Display"
DISPLAY_TYPE_REFRESH "NO"
DISPLAY_TYPE_BASE_ID 1
INSTRUMENT_TYPE_SPECTRAL "NO"
LUMINANCE_XYZ_CDM2 "12.372765 13.384677 10.563340"
NORMALIZED_TO_Y_100 "YES"
VIDEO_LUT_CALIBRATION_POSSIBLE "YES"

BEGIN_ARGYLL_COLPROF_ARGS
-v -qh -aX -bn -C "No copyright. Created with DisplayCAL 3.2.4.0 and Argyll CMS 1.9.2" -M "N121X5-L06" -A "Lenovo Group Limited"
END_ARGYLL_COLPROF_ARGS

KEYWORD "OBSERVER"
OBSERVER "1931_2"
KEYWORD "USE_BLACK_POINT_COMPENSATION"
USE_BLACK_POINT_COMPENSATION "NO"
KEYWORD "HIRES_B2A"
HIRES_B2A "YES"
KEYWORD "HIRES_B2A_SIZE"
HIRES_B2A_SIZE "-1"
KEYWORD "SMOOTH_B2A"
SMOOTH_B2A "YES"

NUMBER_OF_FIELDS 7
BEGIN_DATA_FORMAT
SAMPLE_ID RGB_R RGB_G RGB_B XYZ_X XYZ_Y XYZ_Z
END_DATA_FORMAT

NUMBER_OF_SETS 413
BEGIN_DATA
1 100.0000 100.0000 100.0000 92.43977 100.0000 78.92114
2 4.166700 4.166700 4.166700 0.421168 0.449517 0.581814
3 8.333300 8.333300 8.333300 0.657912 0.705076 0.760759
4 12.50000 12.50000 12.50000 1.251189 1.364071 1.233323
5 16.66700 16.66700 16.66700 2.136623 2.313708 2.037501
6 20.83300 20.83300 20.83300 3.065277 3.336385 3.042231
7 25.00000 25.00000 25.00000 4.363830 4.740244 4.181931
8 29.16700 29.16700 29.16700 6.125387 6.666609 5.623280
9 33.33300 33.33300 33.33300 8.119055 8.818755 7.199778
10 37.50000 37.50000 37.50000 10.45189 11.33119 9.378687
11 41.66700 41.66700 41.66700 12.88392 13.90828 11.36487
12 45.83300 45.83300 45.83300 15.96744 17.26242 13.93321
13 54.16700 54.16700 54.16700 22.86270 24.74765 20.15546
14 58.33300 58.33300 58.33300 27.16786 29.39610 23.67003
15 62.50000 62.50000 62.50000 31.38565 34.16397 27.39501
16 66.66700 66.66700 66.66700 36.73202 39.75716 31.62955
17 70.83300 70.83300 70.83300 42.23319 45.96055 36.70097
18 75.00000 75.00000 75.00000 47.80388 51.78908 41.16436
19 79.16700 79.16700 79.16700 54.26387 58.57905 46.91103
20 83.33300 83.33300 83.33300 60.67065 65.41303 52.11795
21 87.50000 87.50000 87.50000 67.66121 72.99737 58.53162
22 91.66700 91.66700 91.66700 74.57577 80.75472 64.35451
23 95.83300 95.83300 95.83300 82.26716 88.92451 71.27572
24 0.000000 21.42857 0.000000 1.482977 2.401741 1.144058
25 19.10896 26.23541 0.000000 3.196959 4.085681 1.609500
26 40.48454 30.47879 0.000000 8.550576 8.159623 2.659840
27 55.21745 79.25693 0.000000 33.51276 44.18247 11.37375
28 69.37234 87.97723 44.35233 49.24587 60.44081 22.88788
29 90.81589 87.68952 59.52602 65.41919 70.47326 32.93608
30 34.78307 63.97983 11.13873 18.09075 26.10792 7.581560
31 33.04060 74.77948 0.000000 23.43338 35.56738 9.512732
32 79.15393 79.98465 0.000000 47.71381 52.96492 12.82842
33 82.60910 44.15724 0.000000 33.36793 26.36921 6.364546
34 100.0000 58.12970 0.000000 52.59168 42.92747 8.970837
35 17.12329 0.000000 0.000000 1.273346 0.920718 0.701487
36 21.42857 0.000000 0.000000 1.771112 1.215947 0.777738
37 26.11940 0.000000 0.000000 2.543093 1.671399 0.894910
38 31.25000 0.000000 0.000000 3.588447 2.291132 1.050763
39 36.88525 0.000000 0.000000 5.001419 3.120677 1.240123
40 43.10345 0.000000 0.000000 6.776172 4.162154 1.481838
41 46.50106 0.000000 0.000000 7.925933 4.846775 1.638548
42 50.00000 0.000000 0.000000 9.197506 5.596164 1.801634
43 57.69231 0.000000 0.000000 12.44490 7.498395 2.190277
44 66.32653 0.000000 0.000000 16.72328 10.00077 2.664367
45 76.08696 0.000000 0.000000 22.68770 13.48880 3.209371
46 87.20930 0.000000 0.000000 30.36387 17.95302 3.748068
47 88.31664 50.17552 64.70757 43.79997 35.97167 28.92960
48 0.000000 6.097561 0.000000 0.417422 0.496221 0.587968
49 0.000000 9.493671 0.000000 0.523788 0.690879 0.648435
50 0.000000 13.15789 0.000000 0.734569 1.083151 0.764556
51 0.000000 17.12329 0.000000 1.076256 1.682660 0.939344
52 0.000000 0.000000 0.000000 0.340898 0.365995 0.547644
53 0.000000 26.11940 0.000000 2.061871 3.421558 1.429216
54 0.000000 31.25000 0.000000 3.001787 5.075234 1.893128
55 0.000000 36.88525 0.000000 4.139348 7.056167 2.441489
56 0.000000 43.10345 0.000000 5.724082 9.784761 3.183263
57 0.000000 50.00000 0.000000 7.909902 13.55258 4.174620
58 0.000000 53.95774 0.000000 9.290428 15.95026 4.785085
59 0.000000 57.69231 0.000000 10.73208 18.39401 5.406719
60 0.000000 66.32653 0.000000 14.86579 25.41645 7.134451
61 0.000000 73.36384 27.22494 19.75969 33.02527 11.73856
62 0.000000 82.82647 100.0000 39.54976 57.05703 73.99366
63 35.28199 85.38227 100.0000 45.43347 62.51905 74.68336
64 67.51772 85.49270 100.0000 58.74082 70.44990 76.77909
65 0.000000 0.000000 9.493671 0.388588 0.397598 0.739521
66 0.000000 0.000000 13.15789 0.449403 0.449355 1.083230
67 0.000000 0.000000 17.12329 0.558230 0.536367 1.622196
68 0.000000 0.000000 21.42857 0.710454 0.659969 2.360401
69 0.000000 0.000000 26.11940 0.922083 0.829796 3.356039
70 0.000000 0.000000 31.25000 1.173339 1.035251 4.569206
71 0.000000 0.000000 36.88525 1.517626 1.318127 6.227756
72 0.000000 0.000000 43.10345 1.994875 1.724798 8.598305
73 0.000000 0.000000 50.00000 2.673049 2.301061 11.86986
74 0.000000 0.000000 57.69231 3.600851 3.083509 16.20489
75 0.000000 0.000000 66.32653 4.825118 4.186448 22.17292
76 0.000000 0.000000 76.08696 6.737911 5.913026 31.08283
77 0.000000 0.000000 87.20930 9.397450 8.497613 43.52109
78 36.18850 0.000000 100.0000 18.58763 17.13133 64.10101
79 0.957854 0.957854 0.957854 0.341047 0.366197 0.547974
80 1.937984 1.937984 1.937984 0.357497 0.381857 0.553125
81 2.941176 2.941176 2.941176 0.370362 0.396603 0.563903
82 3.968254 3.968254 3.968254 0.414927 0.443331 0.586861
83 5.020080 5.020080 5.020080 0.459789 0.490418 0.619464
84 6.097561 6.097561 6.097561 0.517355 0.559868 0.662037
85 7.201646 7.201646 7.201646 0.571762 0.621969 0.694063
86 8.333333 8.333333 8.333333 0.665969 0.716478 0.770940
87 9.493671 9.493671 9.493671 0.817963 0.877469 0.887663
88 10.68376 10.68376 10.68376 0.949889 1.046977 0.991091
89 11.90476 11.90476 11.90476 1.119573 1.219391 1.122070
90 13.15789 13.15789 13.15789 1.404732 1.511752 1.400552
91 14.44444 14.44444 14.44444 1.636864 1.775216 1.596353
92 15.76577 15.76577 15.76577 1.879201 2.046987 1.831821
93 17.12329 17.12329 17.12329 2.270277 2.454227 2.194255
94 18.51852 18.51852 18.51852 2.538303 2.754118 2.460673
95 19.95305 19.95305 19.95305 2.910944 3.165494 2.858000
96 21.42857 21.42857 21.42857 3.355411 3.630895 3.263650
97 22.94686 22.94686 22.94686 3.833273 4.174725 3.695216
98 24.50980 24.50980 24.50980 4.180897 4.554996 4.090379
99 26.11940 26.11940 26.11940 4.951609 5.307768 4.698677
100 27.77778 27.77778 27.77778 5.695422 6.187818 5.238831
101 29.48718 29.48718 29.48718 6.343224 6.848809 5.843999
102 31.25000 31.25000 31.25000 7.253973 7.865338 6.574699
103 33.06878 33.06878 33.06878 8.061918 8.739112 7.181577
104 34.94624 34.94624 34.94624 9.155095 9.933852 8.031889
105 36.88525 36.88525 36.88525 10.22991 11.05129 9.100878
106 38.88889 38.88889 38.88889 11.38679 12.34805 10.14234
107 40.96045 40.96045 40.96045 12.50673 13.53240 11.01815
108 43.10345 43.10345 43.10345 14.22284 15.37652 12.48286
109 45.32164 45.32164 45.32164 15.88965 17.21333 13.89650
110 47.61905 47.61905 47.61905 17.40533 18.88503 15.12609
111 50.00000 50.00000 50.00000 19.66474 21.29906 17.20832
112 52.46914 52.46914 52.46914 21.73718 23.54598 19.08930
113 55.03145 55.03145 55.03145 24.06847 26.00481 21.08357
114 57.69231 57.69231 57.69231 26.85312 29.03778 23.29237
115 60.45752 60.45752 60.45752 30.03559 32.52576 26.10320
116 63.33333 63.33333 63.33333 33.03011 35.81236 28.56586
117 66.32653 66.32653 66.32653 36.74803 39.89728 31.64961
118 69.44444 69.44444 69.44444 41.07350 44.29828 35.43774
119 72.69504 72.69504 72.69504 45.17515 49.08801 39.15284
120 76.08696 76.08696 76.08696 50.48468 54.58245 43.50026
121 79.62963 79.62963 79.62963 55.92336 60.25931 48.42098
122 83.33333 83.33333 83.33333 61.60547 66.56918 53.31649
123 87.20930 87.20930 87.20930 67.88299 73.61724 58.86859
124 91.26984 91.26984 91.26984 75.18585 81.50818 65.57873
125 95.52846 95.52846 95.52846 83.77826 90.54900 73.16578
126 35.37139 16.01389 0.000000 5.278069 4.052411 1.535896
127 54.28126 24.57181 0.000000 12.62222 9.425573 2.834936
128 53.65028 33.86219 25.68588 14.74341 12.75437 6.313081
129 62.85761 49.45508 60.15429 26.44649 25.32519 24.01827
130 75.43912 57.94222 61.67498 37.46339 35.54954 27.11730
131 39.58166 91.70548 19.84020 37.24468 56.03718 14.91471
132 37.07226 100.0000 37.09957 43.89282 66.28620 20.41332
133 63.64144 100.0000 41.22316 54.69668 72.74366 23.04049
134 100.0000 100.0000 46.99722 81.96787 88.56001 27.35401
135 100.0000 100.0000 73.55036 85.97123 92.24652 46.52578
136 26.58299 21.21925 0.000000 3.782504 3.730208 1.488040
137 36.10412 29.98249 14.30197 7.430306 7.406248 3.068093
138 61.26153 72.18204 20.71253 33.04126 40.01200 12.10040
139 69.36325 89.28623 20.66367 48.62874 61.02131 16.20937
140 85.46922 91.20849 48.29705 62.94803 71.24728 26.26568
141 9.640673 21.73662 20.33459 2.123777 2.887521 2.867617
142 26.23325 44.53228 80.53398 16.05646 18.83449 39.37648
143 36.13337 55.71950 100.0000 28.80697 34.67460 68.35150
144 20.13744 30.59544 36.89673 5.346239 6.640043 7.886530
145 19.78484 40.43506 48.71199 8.523606 11.24410 13.91538
146 20.19551 71.70608 45.77470 21.39909 33.43095 17.93860
147 21.71019 71.87243 59.04110 23.33818 35.02410 25.76863
148 19.50945 87.89603 70.31239 35.21212 53.55319 37.72536
149 51.64801 89.22674 75.64673 46.01830 61.29328 44.33483
150 0.000000 29.69852 37.17789 3.980926 5.644595 7.632388
151 11.65600 30.73066 55.46454 6.344632 7.682387 16.42450
152 27.87018 40.61713 60.80244 11.58387 13.62027 21.76938
153 51.93920 71.89327 63.35502 32.42443 40.54552 30.11886
154 17.14961 42.38323 27.90998 7.216520 10.67764 6.450958
155 27.77974 43.78084 41.80021 10.26195 13.25106 11.56051
156 34.74430 60.33270 45.53395 18.49611 25.21774 15.90906
157 48.44400 56.32402 45.94470 21.02697 24.59909 15.97666
158 50.58630 71.15175 51.15647 29.68030 38.04779 21.89102
159 35.05736 47.03634 33.56893 12.33104 15.40215 9.183268
160 43.75659 59.26282 35.67241 19.62008 24.86423 12.25620
161 88.32494 75.30733 73.66218 57.60620 58.09715 41.65285
162 89.81382 75.81827 87.00684 62.41627 62.35298 56.43615
163 100.0000 83.89196 89.24708 78.23782 77.31973 61.28644
164 29.09702 38.37110 0.000000 7.343302 9.388407 3.069777
165 46.12337 45.16852 0.000000 13.97269 15.28690 4.535633
166 59.46111 48.11697 16.16986 20.97791 20.67858 6.663568
167 88.09711 58.54291 14.93033 42.48499 37.50544 9.630730
168 88.60980 73.07515 21.71414 50.83479 50.84972 13.82540
169 0.000000 47.47515 100.0000 21.08140 26.79949 66.61813
170 0.000000 66.82841 100.0000 29.45039 41.07690 70.02737
171 0.000000 100.0000 100.0000 51.33994 76.30198 76.53139
172 100.0000 33.87861 0.000000 45.50360 30.42436 5.649146
173 100.0000 78.04569 0.000000 63.49033 60.98323 13.11405
174 100.0000 89.07959 26.89646 72.25324 74.50148 18.75564
175 90.45002 91.00816 16.76983 64.02436 71.02274 16.68040
176 0.000000 100.0000 0.000000 37.93765 62.32196 13.62191
177 0.000000 100.0000 29.75340 38.65602 62.93731 17.28253
178 84.72348 100.0000 32.88423 67.97734 80.05640 21.34742
179 0.000000 45.35280 22.53439 6.930982 11.50420 5.543607
180 0.000000 48.53728 76.24560 13.96331 18.58271 34.64263
181 38.68847 100.0000 81.32404 50.70026 72.23541 51.03536
182 100.0000 100.0000 100.0000 93.31332 100.8645 79.12471
183 100.0000 0.000000 38.06215 43.66456 25.90845 10.47052
184 100.0000 0.000000 51.92253 44.90459 27.02578 16.78762
185 100.0000 30.83631 55.15326 48.10437 32.11460 20.47976
186 100.0000 30.40913 85.50209 53.67722 37.33460 47.57319
187 20.33792 11.10575 27.00169 2.502945 2.089026 3.977676
188 20.64696 13.66473 39.95560 3.528780 3.113149 7.977182
189 33.34860 32.06373 70.49589 12.47398 12.41230 28.48471
190 23.87209 15.46278 67.92317 7.498305 6.583503 24.50283
191 34.44855 20.59778 91.78559 16.13620 14.43843 51.29421
192 37.39567 36.58752 100.0000 22.76208 24.18127 65.96136
193 0.000000 20.59499 43.24408 3.099264 3.677095 9.140213
194 0.000000 27.45932 68.27880 7.245694 8.141771 24.83197
195 15.16686 32.19485 84.40794 12.34849 13.41698 42.01978
196 37.05925 100.0000 0.000000 42.59773 65.11690 14.38911
197 61.79170 100.0000 0.000000 52.69495 71.04127 15.55447
198 83.29960 100.0000 0.000000 65.85713 78.75763 16.67951
199 100.0000 100.0000 0.000000 79.51293 86.68257 17.15828
200 26.51383 51.41919 0.000000 10.62561 15.56212 4.684506
201 25.13050 52.81744 27.05319 11.61023 17.12212 8.056870
202 39.24790 68.23061 28.34105 22.19469 31.24706 11.68013
203 81.41201 88.41089 64.79513 60.26412 68.05019 36.07580
204 100.0000 91.40199 81.69324 80.74845 83.49028 53.32604
205 81.92464 62.60318 0.000000 40.06552 38.22332 9.404097
206 100.0000 70.81365 31.42542 60.79754 55.54449 15.99078
207 100.0000 86.20241 52.75297 72.60643 73.28718 28.56627
208 0.000000 76.08696 0.000000 20.37387 34.50596 9.179952
209 0.000000 87.20930 0.000000 27.78438 46.63694 11.54115
210 17.69891 86.68036 44.04644 30.55001 48.75804 20.17459
211 12.72053 60.68991 22.38052 13.34007 21.89322 8.216197
212 23.82329 80.97240 25.62996 25.89703 41.44612 13.26278
213 54.79486 86.60835 26.69280 39.53846 53.70528 16.07784
214 14.65423 23.68166 12.82230 2.487033 3.339947 1.862026
215 26.36147 24.75652 15.36787 4.289711 4.576973 2.446943
216 52.33783 90.15435 48.76029 42.65617 58.48470 24.48561
217 65.42406 90.86334 65.22952 51.73796 65.12657 35.98583
218 67.38537 100.0000 80.72450 63.23390 79.42336 52.11560
219 89.15148 100.0000 84.09594 78.20850 88.46768 56.75081
220 0.000000 0.000000 100.0000 14.11740 14.46453 63.29313
221 0.000000 27.66457 100.0000 16.30044 18.34584 64.42719
222 41.33970 72.09666 100.0000 38.76869 49.79643 71.97453
223 0.000000 41.96904 56.45700 8.589816 12.01223 18.07233
224 13.57212 51.26773 60.80325 12.83994 18.05269 22.73921
225 27.20112 53.32148 71.03606 17.09971 21.97084 31.31562
226 44.98065 60.12938 84.56101 27.71045 32.50640 47.12244
227 100.0000 59.66667 85.99710 62.78346 52.88039 51.74905
228 0.000000 0.000000 0.000000 0.341240 0.365611 0.547529
229 11.37513 13.67264 25.52077 1.677474 1.801579 3.489506
230 30.70579 21.38529 31.74378 5.523435 5.015772 5.887890
231 72.93423 25.52560 64.02896 26.92412 19.07506 24.50532
232 78.42435 35.46536 82.91905 36.54156 28.20368 44.21987
233 100.0000 45.71320 100.0000 62.46227 50.29033 69.61600
234 40.64474 27.44136 44.62964 10.05408 8.943401 11.38298
235 40.11877 41.60754 51.77239 13.58978 14.65914 16.25236
236 47.44011 45.62439 74.74535 20.95055 21.48839 34.93117
237 48.96102 72.09183 83.91774 35.77161 44.09663 49.39335
238 15.37245 58.87158 85.97319 21.02809 28.02753 47.75528
239 21.52142 71.00156 87.50212 28.61630 39.78042 52.03918
240 0.000000 43.81105 41.27587 7.529179 11.58555 10.53125
241 35.27605 76.29977 40.85697 26.68261 39.23328 17.15242
242 45.50960 82.98939 61.97670 36.71112 50.29622 30.84779
243 0.000000 80.03012 74.34168 29.21463 44.30678 39.06982
244 21.11500 90.75524 87.93766 41.23306 60.44646 56.40647
245 62.33246 92.25912 95.75016 58.65213 73.05377 70.55658
246 42.04697 40.99936 30.07618 12.22147 13.26345 7.635703
247 79.80752 78.24080 31.87102 48.18030 52.89960 16.96351
248 89.91769 81.59250 68.46471 61.64238 64.35264 38.35981
249 34.11325 0.000000 75.84533 10.66478 8.239095 31.86982
250 60.07521 0.000000 100.0000 27.26596 22.23518 64.80284
251 61.51674 35.66222 100.0000 32.08038 29.55609 66.74869
252 100.0000 0.000000 0.000000 42.24766 24.78892 4.062396
253 100.0000 0.000000 22.95415 42.67736 25.14324 6.280544
254 100.0000 52.69565 64.55938 55.35961 43.54954 29.80143
255 100.0000 71.32033 73.02728 66.17296 60.45227 40.67891
256 18.70545 0.000000 17.95916 1.678566 1.215000 1.990953
257 34.98754 0.000000 22.95112 4.872138 3.138020 3.314114
258 41.37213 0.000000 45.66137 8.013628 5.328399 10.57599
259 82.25565 0.000000 73.46174 32.81710 21.11875 32.07946
260 89.65768 21.69061 87.50405 43.11390 29.69340 48.45515
261 24.19122 34.14875 26.18642 6.024639 7.713505 5.332619
262 47.76681 36.31341 33.75685 13.30632 12.63569 8.338382
263 56.01154 56.33706 38.26180 23.38765 25.80077 13.30512
264 82.85957 59.77696 44.70203 41.09430 37.77565 17.86409
265 100.0000 67.73562 53.00625 60.75035 54.04415 24.53865
266 82.78907 51.58303 26.60973 36.48920 31.16725 10.48867
267 82.33141 56.69071 74.07807 43.99578 39.52306 37.83370
268 50.30935 0.000000 21.65027 9.537602 5.872522 3.661403
269 59.92573 14.79617 21.98660 14.67903 9.546147 4.588333
270 86.86051 40.09086 21.26315 35.27538 26.23776 7.742604
271 100.0000 52.31954 26.62730 51.13384 39.79761 11.09888
272 62.14923 42.54575 0.000000 19.97771 17.87704 4.969277
273 64.53546 50.15119 35.39260 24.90198 23.94095 11.51372
274 73.96788 63.56664 74.49508 41.48033 41.56721 39.08253
275 92.27078 65.18149 74.36840 54.88415 50.28702 40.25591
276 53.98631 25.59614 29.85910 13.46624 10.22774 6.656508
277 67.08493 34.49005 32.07918 21.69538 17.11056 8.815596
278 85.90178 40.36410 50.13779 36.87052 27.83295 17.71856
279 88.54198 39.96032 68.40115 41.18505 31.01684 30.12519
280 53.76173 0.000000 41.71367 12.16347 7.700826 9.603065
281 65.85006 15.78761 51.41412 19.89724 13.22326 15.40182
282 65.07093 62.93659 100.0000 43.69033 47.03864 70.84611
283 0.000000 61.73036 53.80863 15.55768 24.23544 19.58278
284 0.000000 61.51247 70.60871 18.12578 26.54945 31.41823
285 15.35152 71.58131 74.46220 25.19515 36.80477 38.01558
286 56.63803 67.66192 69.82019 33.19128 38.75441 34.36749
287 57.28149 79.42275 77.72862 41.92810 51.75717 44.24716
288 100.0000 100.0000 100.0000 92.94602 100.5239 79.92126
289 79.84276 0.000000 100.0000 38.93591 29.03207 66.11278
290 83.90181 33.78499 100.0000 45.60640 36.79925 67.58190
291 15.42847 36.11074 14.61802 4.827534 7.297862 3.144478
292 31.25903 47.61549 15.92964 10.57745 14.23866 5.210891
293 71.03392 61.07661 17.64361 32.29264 33.05252 9.760330
294 81.70701 62.50521 34.18074 40.61504 38.82184 14.31341
295 85.00030 67.56364 60.88695 48.39068 46.91496 29.04810
296 87.97977 84.93018 100.0000 71.38034 77.17848 77.13477
297 14.61687 22.10089 35.70607 3.299231 3.805762 6.648332
298 29.70710 29.19512 43.14531 7.302800 7.627523 10.35492
299 36.10455 29.58123 56.74936 10.41286 9.881643 18.01511
300 51.36616 41.31221 63.35283 18.95767 18.13248 24.41253
301 83.29993 43.52733 75.16896 39.82037 31.87742 36.90687
302 86.44712 60.53655 100.0000 56.12295 52.97387 71.71793
303 100.0000 78.03559 100.0000 77.77820 76.11114 75.90270
304 0.000000 0.000000 0.000000 0.340164 0.364332 0.545165
305 0.000000 0.000000 2.941176 0.340384 0.364625 0.550354
306 0.000000 0.000000 6.097561 0.356051 0.374424 0.599315
307 35.56444 13.01342 30.63513 5.911754 4.321572 5.286993
308 61.34332 12.76631 37.96549 15.95872 10.34195 8.846861
309 100.0000 30.37752 39.59133 45.95994 30.27771 12.24963
310 100.0000 34.55081 70.19422 51.04066 35.46320 31.68980
311 0.000000 2.941176 0.000000 0.349875 0.382718 0.550473
312 0.000000 15.67203 22.10514 1.320125 1.753703 2.753412
313 36.08101 24.13272 24.55764 6.875066 6.124223 4.534840
314 51.99262 27.86360 39.41863 13.65636 11.03413 9.799862
315 60.26178 35.27320 58.29632 21.10540 17.64980 20.82747
316 69.86259 47.79378 72.06596 31.80609 28.49750 33.86121
317 72.38106 78.87070 87.47697 52.25623 58.24329 55.96439
318 0.000000 78.50725 55.33011 25.03034 39.77517 23.83597
319 0.000000 100.0000 66.76894 42.43381 65.89840 35.40680
320 0.000000 100.0000 50.62183 39.99907 64.10142 25.10365
321 0.000000 100.0000 82.12580 45.53510 68.96849 49.79028
322 46.68277 100.0000 100.0000 59.43419 81.19204 76.90917
323 17.98721 8.802905 15.52041 1.656600 1.348435 1.611505
324 26.32547 11.15569 15.96003 2.990801 2.280630 1.942447
325 34.27873 13.87238 40.52808 6.227551 4.715389 8.580904
326 51.89640 0.000000 73.89405 15.86768 11.15732 30.64440
327 61.46013 17.56918 86.63816 24.33662 18.26455 45.30731
328 33.06253 60.58533 65.88510 20.56404 27.15602 28.43478
329 63.22002 67.52143 87.39141 40.15132 44.23511 53.46235
330 66.96068 25.14388 16.27617 19.26029 13.42821 4.567329
331 81.79431 31.33596 34.59563 30.79501 21.68570 10.00253
332 80.84518 69.42878 92.01838 53.62953 54.01846 61.43562
333 26.55975 91.14098 60.28987 36.97676 56.10567 30.66643
334 47.69359 100.0000 63.56917 50.56854 70.75693 34.99555
335 81.04696 100.0000 64.08977 68.65048 81.51316 37.30657
336 85.53128 15.64736 25.21553 30.47392 18.88057 6.571101
337 100.0000 30.94421 24.51585 45.39019 29.87490 8.007906
338 100.0000 50.96364 46.48965 52.23834 40.40238 18.00933
339 71.73949 26.62643 41.21960 23.62057 16.67373 11.40814
340 71.62416 37.20141 54.11967 27.15265 21.53715 19.18521
341 73.17495 0.000000 38.56215 22.17257 13.50109 9.510960
342 75.02732 0.000000 54.68457 24.80299 15.44093 17.28038
343 86.56507 14.28005 58.88375 34.23509 21.68985 21.06318
344 30.52197 35.30441 17.23117 7.271933 8.678011 3.911139
345 41.86659 43.82387 17.66607 12.45324 14.16240 5.408186
346 45.50139 59.14890 0.000000 18.76832 23.80233 6.748476
347 63.66642 63.44926 0.000000 28.74541 32.00612 8.552050
348 68.96090 66.90112 37.10494 35.16577 38.33950 15.77079
349 74.89219 68.03009 51.18391 40.60121 42.36164 22.74687
350 46.22905 22.15230 14.54042 9.298072 7.112858 2.952393
351 46.26052 22.64792 81.53940 17.07347 14.11021 39.30431
352 52.17166 47.16869 93.27615 28.39281 28.28077 57.55451
353 0.000000 0.000000 0.000000 0.341458 0.366136 0.549292
354 9.493671 0.000000 0.000000 0.594711 0.517145 0.591886
355 13.15789 0.000000 0.000000 0.883038 0.687399 0.640168
356 16.87905 18.25394 53.30477 4.872087 4.756954 14.57625
357 51.30609 28.60285 66.00603 16.78121 13.91080 24.99951
358 58.55123 56.91189 71.24748 29.01491 30.66398 33.74487
359 70.17501 84.39344 72.89220 51.10384 60.43966 41.65798
360 82.81705 86.97167 74.36199 61.95757 69.02503 44.66400
361 24.96915 0.000000 34.32390 3.275099 2.336889 5.915551
362 28.40510 0.000000 54.16063 5.831441 4.313892 14.97844
363 39.72097 14.61242 55.96545 9.400278 7.114201 16.77048
364 65.97306 23.98117 70.47048 23.84394 17.40346 29.54352
365 65.89008 38.91472 84.69320 29.83357 25.52515 45.15819
366 63.62275 0.000000 68.09780 20.16358 13.37539 26.40865
367 77.11999 5.957152 82.96254 31.96193 21.48080 42.50247
368 100.0000 0.000000 100.0000 56.39002 39.07412 67.09816
369 62.36301 36.81653 15.38774 18.94519 15.86365 5.163216
370 83.93159 47.02385 37.23702 36.65242 29.72478 13.00172
371 48.57510 19.48027 44.42586 11.53439 8.576619 11.02673
372 48.91702 36.79266 45.18333 14.84423 13.91183 12.91341
373 61.49550 42.09258 45.15378 21.84581 19.49420 14.26748
374 74.46550 48.10151 45.88587 31.30992 27.36291 16.21413
375 91.89488 59.27161 57.18070 48.96654 42.66013 25.22795
376 72.87790 0.000000 22.79942 21.11920 12.67630 5.241027
377 89.00759 19.52160 71.31146 38.57146 25.47155 31.35623
378 100.0000 100.0000 100.0000 93.12987 101.1459 80.09554
379 61.92839 52.83399 46.19970 25.79872 25.85569 16.37949
380 62.24933 70.34059 58.82488 35.33390 41.03461 26.99213
381 75.30693 70.88795 63.52818 44.42844 47.10661 31.38703
382 75.94752 26.18147 0.000000 24.75315 16.75050 4.131851
383 86.50820 26.16377 14.29708 32.23835 21.15860 5.269581
384 16.39900 13.24332 0.000000 1.619167 1.612105 0.912008
385 27.55780 17.02050 11.42493 3.603660 3.167716 1.644720
386 36.03981 71.98920 67.19586 28.00660 38.30381 32.04561
387 37.28881 81.41963 82.02512 37.06358 50.88066 48.34915
388 68.43691 91.56094 84.43879 57.93971 70.43627 55.29561
389 80.47600 100.0000 100.0000 77.56306 91.60872 79.28896
390 0.000000 28.01932 21.04431 2.801143 4.393895 3.355008
391 11.46127 37.18194 31.53561 5.532589 8.283836 6.678690
392 12.80950 53.73078 40.36741 11.32727 17.53497 12.04037
393 19.08751 55.83100 54.10497 14.23339 20.51137 19.36757
394 40.04742 56.16986 54.52493 18.84536 23.42794 20.14247
395 42.36054 52.92535 63.91531 19.70673 22.94539 26.09433
396 69.97649 54.02032 87.95435 37.91381 35.95101 51.73646
397 90.70101 55.96511 89.80550 53.47440 46.23354 55.98030
