Dell/S2317HWi/S2317HWi #2 2018-12-06 13-19 0.3127x 0.329y sRGB F-S XYZLUT+MTX/S2317HWi #2 2018-12-06 13-19 0.3127x 0.329y sRGB F-S XYZLUT+MTX.cal
CAL    

DESCRIPTOR "Argyll Device Calibration Curves"
ORIGINATOR "Argyll dispcal"
CREATED "Thu Dec 06 13:30:38 2018"
DEVICE_CLASS "DISPLAY"
COLOR_REP "RGB"
VIDEO_LUT_CALIBRATION_POSSIBLE "YES"
TV_OUTPUT_ENCODING "NO"
DEVICE_TYPE "n"
TARGET_WHITE_XYZ "32.569346 34.267076 37.318825"
TARGET_GAMMA "sRGB"
DEGREE_OF_BLACK_OUTPUT_OFFSET "1.0"
BLACK_POINT_CORRECTION "0.0"
BLACK_NEUTRAL_BLEND_RATE "4.0"
BLACK_POINT_HACK "YES"
QUALITY "low"

BEGIN_ARGYLL_DISPCAL_ARGS
-v2 -d2 -c1 -yn -P0.474907749077,0.297087378641,1.49668874172 -ql -m -w0.3127,0.329 -gs -f1.0 -k0 -A4.0 -b
END_ARGYLL_DISPCAL_ARGS


NUMBER_OF_FIELDS 4
BEGIN_DATA_FORMAT
RGB_I RGB_R RGB_G RGB_B
END_DATA_FORMAT

NUMBER_OF_SETS 256
BEGIN_DATA
0.00000000 0.00000000 0.00000000 0.00000000
0.00392157 0.00737464 0.00669101 0.00675559
0.00784314 0.01446610 0.01313870 0.01327960
0.01176470 0.02129040 0.01935620 0.01958370
0.01568630 0.02786230 0.02535560 0.02567880
0.01960780 0.03419520 0.03114810 0.03157350
0.02352940 0.04024620 0.03672190 0.03721310
0.02745100 0.04593890 0.04202410 0.04253370
0.03137250 0.05126490 0.04704850 0.04750470
0.03529410 0.05626120 0.05179860 0.05212820
0.03921570 0.06098250 0.05629130 0.05644020
0.04313730 0.06546750 0.06054550 0.06047400
0.04705880 0.06974950 0.06458430 0.06427000
0.05098040 0.07387800 0.06844330 0.06787470
0.05490200 0.07789470 0.07216100 0.07131940
0.05882350 0.08181970 0.07576210 0.07463080
0.06274510 0.08566670 0.07926460 0.07782910
0.06666670 0.08946010 0.08267760 0.08093200
0.07058820 0.09322160 0.08600850 0.08396130
0.07450980 0.09696560 0.08927470 0.08693500
0.07843140 0.10070100 0.09248780 0.08986700
0.08235290 0.10444000 0.09565680 0.09278130
0.08627450 0.10816600 0.09879490 0.09567260
0.09019610 0.11186000 0.10189500 0.09853620
0.09411760 0.11551400 0.10495500 0.10139900
0.09803920 0.11911800 0.10799400 0.10426200
0.10196100 0.12266300 0.11101700 0.10712200
0.10588200 0.12616600 0.11401900 0.10998100
0.10980400 0.12962900 0.11700300 0.11285000
0.11372500 0.13304600 0.11998700 0.11572400
0.11764700 0.13641800 0.12296900 0.11860100
0.12156900 0.13975100 0.12595000 0.12147700
0.12549000 0.14307400 0.12892900 0.12436500
0.12941200 0.14640100 0.13191200 0.12729900
0.13333300 0.14973000 0.13492300 0.13028400
0.13725500 0.15307000 0.13796600 0.13331200
0.14117600 0.15642500 0.14103500 0.13638700
0.14509800 0.15980400 0.14413300 0.13950600
0.14902000 0.16322000 0.14726000 0.14266600
0.15294100 0.16668400 0.15041500 0.14587300
0.15686300 0.17019400 0.15360200 0.14913300
0.16078400 0.17374200 0.15683600 0.15244300
0.16470600 0.17732700 0.16011800 0.15579500
0.16862700 0.18095300 0.16343900 0.15918300
0.17254900 0.18460700 0.16679400 0.16260900
0.17647100 0.18826800 0.17017900 0.16606600
0.18039200 0.19193500 0.17359200 0.16953600
0.18431400 0.19560800 0.17702200 0.17301900
0.18823500 0.19929000 0.18045600 0.17653700
0.19215700 0.20298200 0.18390200 0.18009400
0.19607800 0.20667300 0.18737200 0.18368400
0.20000000 0.21036600 0.19086800 0.18729300
0.20392200 0.21405100 0.19438800 0.19093000
0.20784300 0.21773400 0.19792500 0.19459400
0.21176500 0.22142000 0.20148700 0.19828900
0.21568600 0.22510600 0.20507600 0.20200900
0.21960800 0.22878800 0.20870400 0.20572400
0.22352900 0.23246800 0.21237300 0.20941900
0.22745100 0.23614800 0.21606900 0.21309800
0.23137300 0.23981300 0.21977400 0.21674900
0.23529400 0.24345700 0.22349800 0.22035500
0.23921600 0.24707300 0.22723500 0.22391600
0.24313700 0.25067900 0.23097600 0.22745400
0.24705900 0.25428200 0.23471400 0.23096400
0.25098000 0.25786200 0.23845900 0.23442900
0.25490200 0.26141700 0.24220200 0.23785000
0.25882400 0.26494900 0.24591400 0.24123500
0.26274500 0.26847200 0.24959000 0.24459000
0.26666700 0.27198900 0.25323000 0.24793600
0.27058800 0.27550500 0.25684100 0.25129500
0.27451000 0.27903900 0.26042500 0.25467100
0.27843100 0.28260200 0.26400300 0.25806400
0.28235300 0.28619700 0.26758800 0.26147400
0.28627500 0.28981700 0.27117500 0.26486400
0.29019600 0.29343900 0.27476700 0.26823300
0.29411800 0.29705800 0.27834600 0.27161300
0.29803900 0.30069000 0.28189700 0.27501100
0.30196100 0.30434800 0.28542700 0.27841800
0.30588200 0.30802400 0.28895200 0.28181600
0.30980400 0.31172300 0.29247300 0.28519900
0.31372500 0.31544000 0.29598400 0.28856300
0.31764700 0.31917000 0.29947600 0.29190600
0.32156900 0.32290500 0.30294600 0.29522600
0.32549000 0.32663300 0.30639500 0.29852600
0.32941200 0.33035500 0.30981800 0.30183800
0.33333300 0.33408000 0.31321700 0.30515500
0.33725500 0.33781000 0.31660000 0.30847500
0.34117600 0.34153000 0.32000000 0.31180500
0.34509800 0.34524000 0.32340800 0.31515700
0.34902000 0.34894500 0.32681800 0.31852800
0.35294100 0.35264900 0.33023500 0.32191700
0.35686300 0.35635200 0.33366600 0.32532900
0.36078400 0.36006000 0.33710800 0.32875800
0.36470600 0.36379000 0.34056200 0.33218400
0.36862700 0.36752500 0.34404100 0.33561500
0.37254900 0.37125200 0.34753800 0.33906800
0.37647100 0.37498400 0.35103600 0.34253400
0.38039200 0.37873300 0.35453600 0.34601000
0.38431400 0.38249200 0.35806400 0.34951500
0.38823500 0.38625700 0.36161900 0.35304900
0.39215700 0.39003700 0.36519500 0.35660100
0.39607800 0.39383500 0.36880400 0.36017000
0.40000000 0.39763500 0.37244900 0.36373300
0.40392200 0.40143300 0.37612600 0.36727700
0.40784300 0.40520700 0.37983000 0.37079100
0.41176500 0.40893600 0.38355100 0.37428600
0.41568600 0.41261600 0.38726600 0.37778500
0.41960800 0.41625600 0.39097000 0.38128900
0.42352900 0.41988100 0.39466100 0.38480300
0.42745100 0.42349700 0.39835400 0.38835100
0.43137300 0.42709000 0.40205200 0.39192900
0.43529400 0.43066900 0.40575400 0.39553800
0.43921600 0.43425600 0.40947600 0.39917600
0.44313700 0.43784400 0.41321500 0.40283100
0.44705900 0.44144100 0.41696300 0.40645200
0.45098000 0.44504800 0.42072400 0.41003700
0.45490200 0.44866700 0.42449500 0.41360800
0.45882400 0.45228400 0.42825000 0.41715700
0.46274500 0.45590400 0.43196700 0.42067700
0.46666700 0.45954100 0.43566400 0.42417500
0.47058800 0.46319300 0.43934800 0.42765400
0.47451000 0.46686100 0.44301200 0.43112200
0.47843100 0.47055200 0.44666200 0.43458000
0.48235300 0.47426800 0.45030100 0.43803800
0.48627500 0.47801500 0.45393400 0.44149700
0.49019600 0.48179200 0.45756300 0.44495700
0.49411800 0.48559300 0.46119200 0.44842300
0.49803900 0.48942200 0.46482600 0.45190900
0.50196100 0.49328000 0.46846600 0.45539500
0.50588200 0.49717500 0.47211200 0.45888300
0.50980400 0.50111800 0.47578000 0.46237200
0.51372500 0.50509100 0.47947600 0.46585900
0.51764700 0.50909300 0.48317500 0.46933500
0.52156900 0.51312300 0.48687800 0.47280000
0.52549000 0.51718100 0.49058500 0.47624400
0.52941200 0.52126300 0.49429000 0.47967000
0.53333300 0.52537900 0.49799000 0.48308500
0.53725500 0.52952600 0.50168100 0.48649900
0.54117600 0.53370200 0.50536100 0.48991000
0.54509800 0.53791600 0.50903100 0.49330400
0.54902000 0.54216600 0.51269800 0.49667500
0.55294100 0.54644500 0.51636900 0.50005600
0.55686300 0.55072600 0.52003900 0.50346700
0.56078400 0.55501200 0.52369300 0.50691100
0.56470600 0.55930900 0.52734000 0.51038100
0.56862700 0.56360900 0.53101300 0.51385700
0.57254900 0.56791000 0.53472000 0.51731600
0.57647100 0.57218900 0.53846500 0.52075400
0.58039200 0.57643000 0.54223900 0.52417500
0.58431400 0.58060400 0.54602500 0.52758700
0.58823500 0.58472300 0.54980200 0.53097900
0.59215700 0.58880800 0.55356800 0.53434800
0.59607800 0.59284900 0.55732500 0.53769900
0.60000000 0.59684900 0.56106600 0.54103000
0.60392200 0.60081400 0.56478600 0.54433900
0.60784300 0.60474300 0.56848900 0.54762600
0.61176500 0.60863200 0.57218500 0.55089600
0.61568600 0.61248000 0.57587400 0.55414900
0.61960800 0.61629500 0.57955200 0.55737500
0.62352900 0.62008900 0.58321800 0.56058100
0.62745100 0.62386800 0.58686800 0.56378000
0.63137300 0.62764000 0.59049800 0.56696800
0.63529400 0.63141300 0.59411900 0.57013600
0.63921600 0.63517000 0.59775400 0.57328900
0.64313700 0.63890700 0.60140000 0.57644600
0.64705900 0.64263600 0.60504800 0.57961100
0.65098000 0.64637000 0.60871200 0.58279000
0.65490200 0.65012300 0.61240500 0.58597700
0.65882400 0.65389900 0.61614000 0.58915700
0.66274500 0.65767800 0.61991900 0.59231600
0.66666700 0.66144700 0.62373200 0.59545100
0.67058800 0.66520700 0.62756400 0.59856700
0.67451000 0.66895900 0.63141300 0.60165900
0.67843100 0.67268800 0.63527500 0.60471400
0.68235300 0.67638700 0.63911200 0.60773400
0.68627500 0.68004900 0.64291700 0.61071900
0.69019600 0.68366800 0.64668800 0.61366300
0.69411800 0.68725300 0.65041800 0.61656400
0.69803900 0.69081500 0.65410900 0.61942700
0.70196100 0.69436700 0.65777000 0.62226500
0.70588200 0.69792200 0.66142400 0.62509000
0.70980400 0.70149300 0.66508100 0.62791300
0.71372500 0.70508500 0.66875500 0.63075200
0.71764700 0.70868800 0.67244300 0.63360500
0.72156900 0.71229000 0.67613900 0.63646900
0.72549000 0.71591300 0.67985400 0.63933800
0.72941200 0.71956700 0.68359700 0.64221900
0.73333300 0.72325200 0.68736900 0.64512800
0.73725500 0.72696600 0.69115800 0.64806700
0.74117600 0.73068900 0.69494300 0.65103700
0.74509800 0.73440500 0.69871900 0.65402200
0.74902000 0.73812300 0.70249600 0.65701200
0.75294100 0.74183200 0.70627300 0.66000700
0.75686300 0.74553200 0.71005500 0.66301200
0.76078400 0.74923000 0.71384300 0.66602100
0.76470600 0.75293200 0.71761700 0.66903700
0.76862700 0.75663600 0.72137000 0.67207600
0.77254900 0.76034500 0.72511300 0.67514200
0.77647100 0.76407100 0.72885100 0.67822200
0.78039200 0.76781800 0.73257700 0.68131800
0.78431400 0.77158400 0.73628200 0.68444100
0.78823500 0.77537400 0.73997100 0.68760100
0.79215700 0.77919000 0.74367200 0.69079500
0.79607800 0.78302500 0.74739400 0.69401400
0.80000000 0.78689000 0.75115200 0.69725400
0.80392200 0.79081100 0.75494300 0.70053900
0.80784300 0.79479300 0.75875600 0.70388500
0.81176500 0.79882000 0.76257700 0.70730400
0.81568600 0.80286900 0.76638400 0.71080600
0.81960800 0.80691400 0.77017000 0.71437500
0.82352900 0.81094700 0.77393000 0.71799000
0.82745100 0.81496500 0.77767300 0.72163900
0.83137300 0.81898300 0.78142100 0.72531300
0.83529400 0.82302100 0.78517500 0.72900100
0.83921600 0.82706400 0.78893700 0.73269500
0.84313700 0.83110800 0.79272200 0.73642000
0.84705900 0.83515500 0.79653200 0.74019600
0.85098000 0.83921300 0.80036400 0.74402100
0.85490200 0.84328200 0.80421800 0.74790800
0.85882400 0.84735400 0.80810500 0.75185300
0.86274500 0.85143800 0.81202300 0.75585000
0.86666700 0.85553000 0.81595700 0.75989700
0.87058800 0.85962600 0.81988200 0.76400700
0.87451000 0.86369400 0.82378200 0.76816900
0.87843100 0.86772100 0.82766900 0.77234500
0.88235300 0.87172700 0.83155600 0.77650900
0.88627500 0.87572300 0.83546500 0.78064800
0.89019600 0.87971900 0.83940100 0.78478000
0.89411800 0.88371900 0.84336200 0.78892600
0.89803900 0.88772300 0.84732700 0.79309100
0.90196100 0.89172400 0.85127800 0.79727600
0.90588200 0.89571200 0.85522600 0.80143800
0.90980400 0.89969900 0.85919400 0.80556100
0.91372500 0.90370400 0.86318000 0.80968500
0.91764700 0.90773400 0.86716500 0.81384000
0.92156900 0.91177600 0.87113900 0.81800000
0.92549000 0.91580800 0.87510500 0.82214000
0.92941200 0.91983900 0.87906200 0.82627000
0.93333300 0.92388900 0.88300100 0.83038600
0.93725500 0.92796700 0.88692900 0.83447500
0.94117600 0.93208600 0.89084500 0.83852900
0.94509800 0.93624900 0.89475500 0.84254800
0.94902000 0.94046700 0.89865800 0.84653600
0.95294100 0.94473900 0.90255000 0.85049000
0.95686300 0.94906200 0.90643100 0.85440600
0.96078400 0.95343000 0.91030300 0.85828700
0.96470600 0.95784800 0.91416800 0.86214000
0.96862700 0.96231400 0.91802500 0.86596700
0.97254900 0.96681100 0.92187800 0.86978000
0.97647100 0.97132700 0.92572300 0.87357900
0.98039200 0.97585800 0.92956000 0.87736300
0.98431400 0.98040400 0.93339100 0.88113300
0.98823500 0.98496500 0.93721400 0.88488900
0.99215700 0.98954200 0.94103000 0.88863200
0.99607800 0.99413400 0.94483800 0.89236000
1.00000000 0.99874100 0.94864000 0.89607500
END_DATA
CAL    

DESCRIPTOR "Argyll Calibration options and model"
ORIGINATOR "Argyll dispcal"
CREATED "Thu Dec 06 13:30:38 201"

NUMBER_OF_FIELDS 3
BEGIN_DATA_FORMAT
R_P G_P B_P
END_DATA_FORMAT

NUMBER_OF_SETS 32
BEGIN_DATA
-0.000507511 0.000267876 0.000959727
1.000508000 0.999732000 0.999040000
1.706971000 1.533305000 1.411873000
0.473289000 0.521546000 0.684766000
0.127058000 0.097260000 0.128513000
0.100113000 0.118001000 0.103611000
0.103255000 0.110638000 0.098172100
0.102184000 0.100531000 0.094685000
0.056579900 0.058425600 0.057296900
0.040195000 0.054096700 0.046290500
0.048790000 0.046130000 0.046340500
0.053650500 0.041458100 0.045435000
0.040097400 0.039091300 0.043788900
0.031695600 0.040528600 0.037497900
0.030422600 0.031651700 0.034755600
0.023205200 0.037802000 0.036386100
0.029705100 0.030433100 0.033841800
0.025948200 0.030368200 0.034083500
0.026836500 0.028201500 0.032665800
0.024136900 0.027766500 0.030621100
0.022111600 0.025363000 0.023950600
0.020210500 0.026421400 0.024447200
0.017978700 0.026471400 0.025529600
0.015955400 0.024055000 0.022932900
0.019023200 0.024667600 0.021468500
0.017294300 0.025949600 0.021490200
0.014131700 0.024780100 0.020157500
0.015070800 0.024102200 0.019131200
0.014204000 0.024763800 0.019006800
0.013047600 0.025570900 0.019459800
0.008922160 0.025661400 0.019367000
0.011281100 0.022161400 0.016570900
END_DATA
