Dell/S2317HWi/S2317HWi #2 2018-12-06 13-19 0.3127x 0.329y sRGB F-S XYZLUT+MTX/S2317HWi #2 2018-12-06 13-19 0.3127x 0.329y sRGB F-S XYZLUT+MTX.ti3
CTI3   

DESCRIPTOR "Argyll Calibration Target chart information 3"
ORIGINATOR "Argyll dispread"
CREATED "Thu Dec 06 13:30:38 2018"
DEVICE_CLASS "DISPLAY"
SINGLE_DIM_STEPS "17"
COMP_GREY_STEPS "49"
DARK_REGION_EMPHASIS "1.6"
COLOR_REP "RGB_XYZ"
TARGET_INSTRUMENT "X-Rite i1 DisplayPro, ColorMunki Display"
DISPLAY_TYPE_REFRESH "NO"
DISPLAY_TYPE_BASE_ID "1"
INSTRUMENT_TYPE_SPECTRAL "NO"
LUMINANCE_XYZ_CDM2 "32.503475 34.037865 37.168656"
NORMALIZED_TO_Y_100 "YES"
VIDEO_LUT_CALIBRATION_POSSIBLE "YES"

BEGIN_ARGYLL_COLPROF_ARGS
-v -qh -aX -bn -C "No copyright. Created with DisplayCAL 3.7.1.3 and ArgyllCMS 2.0.1" -M "DELL S2317HWi" -A "Dell, Inc."
END_ARGYLL_COLPROF_ARGS

OBSERVER "1931_2"
USE_BLACK_POINT_COMPENSATION "NO"
BLACK_POINT_CORRECTION "0.0"
HIRES_B2A "YES"
HIRES_B2A_SIZE "-1"
SMOOTH_B2A "YES"
PATCH_SEQUENCE "OPTIMIZE_DISPLAY_RESPONSE_DELAY"

NUMBER_OF_FIELDS 7
BEGIN_DATA_FORMAT
SAMPLE_ID RGB_R RGB_G RGB_B XYZ_X XYZ_Y XYZ_Z
END_DATA_FORMAT

NUMBER_OF_SETS 417
BEGIN_DATA
1 100.00000 100.00000 100.00000 95.492110 100.00000 109.19800
2 1.9608000 1.9608000 1.9608000 0.2052720 0.2103020 0.3242990
3 3.9216000 3.9216000 3.9216000 0.3036320 0.3136540 0.4233590
4 5.8824000 5.8824000 5.8824000 0.5099250 0.5403150 0.6710700
5 9.8039000 9.8039000 9.8039000 1.0249890 1.0729880 1.2506370
6 13.726000 13.726000 13.726000 1.7942130 1.8806040 2.1076850
7 17.647000 17.647000 17.647000 2.6640410 2.7797660 3.1439630
8 21.569000 21.569000 21.569000 3.7478620 3.9558470 4.3956990
9 25.490000 25.490000 25.490000 5.0542020 5.3842690 5.8369680
10 29.412000 29.412000 29.412000 6.6537580 6.9989720 7.6863240
11 33.333000 33.333000 33.333000 8.6147520 9.1023810 9.9868690
12 37.255000 37.255000 37.255000 10.848050 11.278850 12.379290
13 41.176000 41.176000 41.176000 13.568140 14.252190 15.442240
14 45.098000 45.098000 45.098000 16.355470 17.178490 18.805450
15 49.020000 49.020000 49.020000 19.791830 20.792180 22.761850
16 52.941000 52.941000 52.941000 23.354650 24.530110 26.843570
17 56.863000 56.863000 56.863000 27.338240 28.510440 31.514300
18 60.784000 60.784000 60.784000 31.850250 33.329140 36.935310
19 64.706000 64.706000 64.706000 36.396230 38.053470 42.237900
20 68.627000 68.627000 68.627000 41.578300 43.524120 47.763720
21 72.549000 72.549000 72.549000 46.927400 49.472160 53.452300
22 76.471000 76.471000 76.471000 52.047950 54.871290 60.063520
23 80.392000 80.392000 80.392000 58.474450 61.745480 67.424560
24 84.314000 84.314000 84.314000 64.953540 68.404810 75.469670
25 88.235000 88.235000 88.235000 72.217960 75.795760 82.629000
26 92.157000 92.157000 92.157000 79.681600 84.093870 91.021460
27 96.078000 96.078000 96.078000 87.522180 92.153120 99.586840
28 0.0000000 33.699200 36.296400 5.5561200 7.6274920 11.458980
29 10.628300 38.281000 46.872700 8.6195980 10.443930 20.006770
30 56.292500 38.472400 64.894400 23.267750 17.575010 40.428810
31 69.793100 51.678800 70.549400 35.224020 29.508610 49.405940
32 44.947000 13.524200 14.268400 7.6650330 4.8541110 2.2406310
33 61.164200 13.556200 17.492700 14.431130 8.3866880 3.3670250
34 70.533300 15.800300 40.293600 21.430760 11.976960 14.702420
35 88.397000 23.778700 85.277800 45.674540 24.521880 73.031430
36 100.00000 41.582100 84.696700 58.729720 36.552150 73.234500
37 70.044200 0.0000000 62.849600 24.717920 11.954600 37.366760
38 69.869100 83.716700 75.790000 52.563480 61.773620 59.165920
39 0.0000000 75.901400 66.298600 27.478440 42.149880 43.838670
40 35.187300 77.953800 81.309300 37.620790 48.634820 68.030900
41 67.701500 96.374800 86.433200 64.750830 81.259170 80.239790
42 85.268600 100.00000 86.668600 77.499520 91.536570 81.421050
43 58.330200 66.627900 0.0000000 26.256140 34.683350 2.9860040
44 76.424300 82.834200 0.0000000 44.737290 57.641980 4.7959330
45 85.776200 89.088800 23.034200 56.289360 69.728970 10.323550
46 14.919800 10.930200 28.940200 2.6088750 1.8642850 7.0073440
47 17.555000 13.189900 43.944100 5.0372140 3.1671010 16.842320
48 91.682900 18.280800 49.683100 37.828460 20.654620 23.260140
49 100.00000 32.031100 51.598400 47.341500 28.374120 26.095200
50 31.250000 0.0000000 0.0000000 3.0060190 1.5995120 0.2502700
51 36.885200 0.0000000 0.0000000 4.3579970 2.2979260 0.2750740
52 57.823700 0.0000000 75.666100 22.176420 10.227380 54.589050
53 64.579900 36.558900 85.479200 33.295830 21.403230 73.713170
54 85.867000 41.229000 84.991700 47.203310 30.397910 73.613640
55 100.00000 68.191600 84.473900 68.967510 56.872990 74.485590
56 0.0000000 2.9412000 0.0000000 0.1649860 0.2238980 0.2114840
57 0.0000000 13.157900 0.0000000 0.6826490 1.2623040 0.3066320
58 0.0000000 18.406700 16.363500 1.6057040 2.3869570 2.6818100
59 62.393400 100.00000 21.932900 50.627490 78.966690 11.063600
60 84.691800 100.00000 36.654800 64.964960 86.251260 18.482350
61 100.00000 100.00000 100.00000 95.353890 100.12100 109.34830
62 0.0000000 31.250000 0.0000000 2.7967790 5.4935890 0.6877430
63 0.0000000 36.885200 0.0000000 3.9293890 7.7557460 0.8925750
64 0.0000000 81.675600 0.0000000 22.484960 45.057710 4.2817290
65 0.0000000 87.209300 0.0000000 26.061460 52.033640 4.9099990
66 52.558100 86.893500 69.463700 44.925760 61.199700 50.198220
67 0.0000000 0.0000000 2.9412000 0.1306240 0.1098800 0.3510010
68 0.0000000 0.0000000 6.0976000 0.1855770 0.1316540 0.6292610
69 0.0000000 0.0000000 9.4937000 0.2704060 0.1654290 1.0599720
70 0.0000000 0.0000000 13.157900 0.4188500 0.2246570 1.8069520
71 0.0000000 0.0000000 17.123300 0.6005390 0.2981390 2.7307860
72 0.0000000 0.0000000 21.428600 0.8525620 0.3972340 3.9815220
73 0.0000000 0.0000000 26.119400 1.1723340 0.5247920 5.5963690
74 0.0000000 0.0000000 31.250000 1.6137510 0.7008200 7.8229070
75 0.0000000 0.0000000 36.885200 2.2132890 0.9416050 10.879030
76 0.0000000 0.0000000 43.103500 3.1542760 1.3148260 15.600000
77 0.0000000 0.0000000 50.000000 4.3864730 1.8082430 21.829360
78 0.0000000 0.0000000 57.692300 5.9783080 2.4432590 29.899620
79 0.0000000 0.0000000 66.326500 8.0674380 3.2723230 40.435230
80 0.0000000 0.0000000 76.087000 10.848640 4.3772450 54.440880
81 0.0000000 0.0000000 87.209300 14.785360 5.9298290 74.319270
82 29.582800 21.589100 100.00000 24.331700 12.310120 102.08650
83 32.011800 75.308800 100.00000 42.552260 48.134870 105.24950
84 1.9380000 1.9380000 1.9380000 0.2055050 0.2108160 0.3258090
85 2.9412000 2.9412000 2.9412000 0.2635610 0.2738810 0.3707520
86 3.9683000 3.9683000 3.9683000 0.3039550 0.3144350 0.4242510
87 5.0201000 5.0201000 5.0201000 0.4116760 0.4341590 0.5519760
88 6.0976000 6.0976000 6.0976000 0.5476360 0.5878300 0.6777070
89 7.2016000 7.2016000 7.2016000 0.6504660 0.6979370 0.8316750
90 8.3333000 8.3333000 8.3333000 0.7947570 0.8403580 0.9884130
91 9.4937000 9.4937000 9.4937000 0.9483120 0.9936060 1.1559440
92 10.683800 10.683800 10.683800 1.1793360 1.2474780 1.4423930
93 11.904800 11.904800 11.904800 1.3655560 1.4443900 1.6526380
94 13.157900 13.157900 13.157900 1.6900690 1.7719260 1.9818650
95 14.444400 14.444400 14.444400 1.8827160 1.9783310 2.2347550
96 15.765800 15.765800 15.765800 2.1829490 2.2969730 2.6119700
97 17.123300 17.123300 17.123300 2.5591860 2.6670480 3.0044290
98 18.518500 18.518500 18.518500 2.8998680 3.0417400 3.4295590
99 19.953100 19.953100 19.953100 3.2675390 3.4431680 3.8128180
100 21.428600 21.428600 21.428600 3.7529430 3.9617230 4.4051140
101 22.946900 22.946900 22.946900 4.2846480 4.5099010 5.0278030
102 24.509800 24.509800 24.509800 4.7090990 4.9531630 5.5159760
103 26.119400 26.119400 26.119400 5.3102450 5.5964730 6.2051560
104 27.777800 27.777800 27.777800 5.9446360 6.2595700 6.9925480
105 29.487200 29.487200 29.487200 6.6633360 7.0088040 7.7081490
106 31.250000 31.250000 31.250000 7.4995670 7.8895380 8.6904750
107 33.068800 33.068800 33.068800 8.3999730 8.8665340 9.7429070
108 34.946200 34.946200 34.946200 9.4576190 9.9133750 10.867410
109 36.885200 36.885200 36.885200 10.695200 11.211760 12.113500
110 38.888900 38.888900 38.888900 11.882800 12.438970 13.735590
111 40.960500 40.960500 40.960500 13.296060 13.978600 15.150050
112 43.103500 43.103500 43.103500 14.974930 15.603100 17.285620
113 45.321600 45.321600 45.321600 16.717180 17.571400 19.244140
114 47.619100 47.619100 47.619100 18.477690 19.399970 21.514870
115 50.000000 50.000000 50.000000 20.824900 21.718190 24.140670
116 52.469100 52.469100 52.469100 23.016440 24.154760 26.459550
117 55.031400 55.031400 55.031400 25.445250 26.687250 29.553160
118 57.692300 57.692300 57.692300 28.274270 29.489220 32.914960
119 60.457500 60.457500 60.457500 31.479980 32.976570 36.521600
120 63.333300 63.333300 63.333300 34.673330 36.329210 40.251580
121 66.326500 66.326500 66.326500 38.498190 40.326670 44.394180
122 69.444400 69.444400 69.444400 42.333210 44.559990 48.683940
123 72.695000 72.695000 72.695000 46.902330 49.518990 53.638470
124 76.087000 76.087000 76.087000 51.740090 54.428230 59.485420
125 79.629600 79.629600 79.629600 57.391840 60.536650 65.742580
126 83.333300 83.333300 83.333300 63.410430 66.873490 73.292000
127 87.209300 87.209300 87.209300 70.286700 73.727740 80.732830
128 91.269800 91.269800 91.269800 78.163440 82.130240 89.833910
129 100.00000 34.207700 0.0000000 42.698430 26.876780 1.5304410
130 100.00000 35.103300 22.005700 43.881110 27.932880 5.8673380
131 66.326500 0.0000000 0.0000000 15.526200 8.0674460 0.4782580
132 75.027800 0.0000000 19.483100 20.768590 10.692520 4.0139390
133 83.424100 17.376400 33.645400 28.768720 16.056940 10.194230
134 89.936400 20.537300 71.856800 41.884510 22.421500 50.318050
135 84.189700 0.0000000 83.217200 39.838820 19.017410 68.983240
136 41.636700 48.311600 37.035700 15.166200 18.225780 12.721440
137 58.023500 48.758700 38.468700 21.660540 21.741200 14.147180
138 74.594800 88.326800 41.719600 50.313490 65.812800 20.245580
139 100.00000 100.00000 52.016800 80.208730 93.941680 32.576400
140 0.0000000 66.326500 0.0000000 14.133480 28.157380 2.7474670
141 0.0000000 76.087000 0.0000000 19.192380 38.285520 3.6601400
142 24.531800 85.313000 17.912900 27.862750 51.771890 7.7152890
143 43.295500 86.689600 38.252600 34.715150 56.425320 17.366840
144 58.746600 87.394300 55.834600 44.452500 61.718260 33.184650
145 100.00000 0.0000000 55.753200 45.028190 22.635710 29.487640
146 100.00000 25.927500 68.439200 50.362030 27.912370 46.460450
147 100.00000 50.925400 68.938400 56.578320 40.137520 48.234010
148 67.653100 26.849400 31.628200 20.306030 13.378100 9.1486260
149 86.990000 34.580100 37.725600 34.734770 22.796810 13.319080
150 77.865800 43.709900 36.113800 30.177660 23.718070 12.616580
151 76.867800 43.641800 46.254500 30.959750 23.973080 20.370560
152 92.822500 53.729100 58.360400 48.848070 38.027790 34.498930
153 60.764300 19.432400 87.061700 29.118230 15.083670 75.678430
154 82.116800 27.587500 100.00000 47.385530 25.380860 102.92340
155 85.337800 72.656600 100.00000 65.663870 58.136430 105.87580
156 100.00000 84.698000 100.00000 84.673550 78.314470 107.53060
157 15.245500 63.602800 29.258500 15.383920 27.245820 9.5404890
158 37.564300 69.576900 40.229200 23.356880 35.381410 17.093730
159 19.667100 66.161900 47.958800 19.702840 31.057570 22.987710
160 37.716900 82.788600 55.001200 33.863880 51.896950 31.913080
161 44.795800 82.946700 76.908000 42.163340 56.028820 61.127120
162 69.808400 82.717000 87.392200 56.540010 62.620800 80.673140
163 0.0000000 53.421900 44.531800 12.341700 19.262320 18.646580
164 0.0000000 64.995200 100.00000 34.094800 35.948820 103.98680
165 0.0000000 81.998300 100.00000 43.589180 54.586470 105.64170
166 0.0000000 100.00000 100.00000 56.027320 79.789280 107.96020
167 83.921100 42.897500 0.0000000 31.546630 24.065970 1.6219470
168 91.578900 43.023900 32.058600 39.673060 28.500450 10.462770
169 100.00000 67.565500 66.540700 63.012990 53.821710 46.363980
170 34.676700 0.0000000 76.894800 14.920940 6.4268230 56.738020
171 43.193000 0.0000000 100.00000 26.195410 11.101990 102.04410
172 56.607600 32.130600 100.00000 34.415190 19.937110 102.71820
173 31.454000 20.696100 81.311900 17.146450 9.3785130 64.682130
174 47.747400 41.402100 87.145200 27.860530 20.516030 76.242800
175 0.0000000 52.716100 56.872900 14.368070 19.621590 30.285060
176 13.977200 61.523000 58.091400 19.179420 27.404570 33.229400
177 22.750400 62.947300 68.128400 23.392790 30.388710 46.209840
178 0.0000000 57.650200 74.544000 20.886200 25.241900 53.818620
179 0.0000000 73.986800 77.966800 29.977810 41.545090 61.123250
180 16.832600 82.263600 78.596600 36.111760 52.097820 63.336080
181 17.777000 86.233400 42.634700 29.907930 53.457340 20.416630
182 17.372500 88.266400 60.322300 34.757490 57.455590 38.691920
183 15.663000 37.063200 14.984700 5.2940250 8.5771990 2.9391040
184 41.168500 39.529900 64.391900 17.965860 15.361940 39.636260
185 80.356200 47.953000 61.151700 38.037790 29.362820 37.101570
186 0.0000000 0.0000000 0.0000000 0.1010230 0.0983128 0.2009320
187 0.9579000 0.9579000 0.9579000 0.1575140 0.1623800 0.2628520
188 18.929200 12.152600 20.656000 2.5327180 2.0524100 3.9589570
189 29.272900 23.056600 38.512000 6.8013490 5.6421210 12.820280
190 31.569200 36.629000 47.433000 11.042280 11.059400 20.816150
191 0.0000000 100.00000 68.973800 44.599900 75.223910 50.968930
192 0.0000000 100.00000 85.817800 50.070820 77.453230 78.939520
193 49.039800 100.00000 86.404600 58.842800 81.767390 80.518350
194 61.758100 24.233000 0.0000000 15.070190 10.330980 0.7454320
195 75.414700 27.137600 16.112400 23.144670 15.045930 3.4002760
196 88.933300 77.055200 15.400600 50.394910 55.350870 6.5571890
197 0.0000000 19.185600 74.317900 11.531970 6.5467930 52.135010
198 0.0000000 27.634200 100.00000 22.378540 12.490620 101.85150
199 0.0000000 48.377200 100.00000 27.470390 22.670990 102.76730
200 18.807900 15.785300 60.642900 8.8693400 5.0259340 34.538720
201 21.149800 49.302900 61.047400 16.019790 18.775290 36.298840
202 49.572900 50.687400 63.786000 23.738590 23.105680 39.762430
203 56.760300 64.168200 73.294200 34.940620 36.784620 53.906400
204 88.443400 73.797100 77.188900 59.579010 56.546650 61.030410
205 88.872300 79.130800 88.803500 67.428370 64.938560 82.675730
206 100.00000 84.510800 84.727200 78.338250 75.749610 77.161220
207 100.00000 100.00000 86.567600 90.062360 97.897530 82.223010
208 100.00000 100.00000 100.00000 95.400600 100.12260 109.56840
209 74.909700 52.399900 46.674300 32.773350 29.292290 21.262830
210 76.303900 57.413800 59.863300 38.337800 34.352850 36.041350
211 89.271200 72.838800 65.781400 56.746150 55.177810 44.982960
212 57.918400 83.491100 18.753200 36.670750 54.718920 8.0024850
213 57.114200 88.728500 89.948400 55.179870 67.252740 85.933910
214 60.636500 88.507200 100.00000 60.713670 69.813780 107.20980
215 81.417600 100.00000 100.00000 80.869680 92.627570 109.03070
216 0.0000000 34.411000 22.976600 4.3696570 7.2618390 5.1706960
217 0.0000000 51.674400 25.724300 9.3859730 17.007080 6.9325560
218 12.564500 51.650400 34.666800 10.859570 17.697020 11.292250
219 30.769100 54.128600 28.590100 13.447240 20.446200 8.4976230
220 36.490100 57.934000 42.400000 18.069230 24.779360 17.497100
221 38.273500 57.480200 52.606700 20.195280 25.428870 26.645560
222 53.975800 61.019000 52.051100 27.095040 31.346980 27.112230
223 34.160100 43.284800 21.729700 10.024860 13.263050 5.2127750
224 45.179900 56.161800 25.200200 17.759000 23.790410 7.4468440
225 57.201500 56.093000 35.618800 23.609340 26.724410 12.831840
226 70.572400 62.061000 56.319400 36.138720 36.444560 31.798990
227 15.841000 11.014200 0.0000000 1.3500890 1.3453240 0.2907150
228 28.233800 17.223400 0.0000000 3.4135400 3.1233300 0.4036440
229 48.748300 33.207200 9.7614000 11.436710 10.692570 1.9286720
230 100.00000 100.00000 0.0000000 74.980390 91.412610 7.4229860
231 100.00000 100.00000 29.746600 76.789030 92.462820 15.001690
232 0.0000000 0.0000000 0.0000000 0.1012030 0.0984237 0.2009650
233 9.4937000 0.0000000 0.0000000 0.4401020 0.2734670 0.2073340
234 13.157900 0.0000000 0.0000000 0.7425870 0.4302200 0.2126230
235 17.123300 0.0000000 0.0000000 1.0942420 0.6119480 0.2190610
236 34.974300 0.0000000 15.411900 4.2503200 2.1932040 2.4143750
237 52.208400 15.460900 27.657700 11.377330 6.8994660 6.9281480
238 0.0000000 100.00000 0.0000000 35.620480 71.205280 6.6793900
239 0.0000000 100.00000 29.381200 37.167580 72.030480 13.462000
240 38.699600 100.00000 32.731300 42.524010 74.834130 15.475740
241 35.270700 56.979700 0.0000000 13.939080 21.823910 2.0568340
242 56.394600 67.804500 45.549200 29.901160 37.496640 21.023720
243 39.641900 35.994400 0.0000000 8.8430920 10.019390 0.9526220
244 60.531200 37.730400 0.0000000 16.864870 14.578110 1.1482690
245 67.501600 40.193700 17.545200 21.701080 18.177130 4.1790830
246 87.177000 42.425400 17.476400 34.843810 25.926140 4.5637350
247 24.906100 11.667400 14.263600 2.9164200 2.2362360 2.1281960
248 26.254200 22.458100 14.177900 4.0460630 4.2918290 2.3121430
249 43.732600 29.188900 18.560200 9.5012240 8.4382340 3.8152090
250 58.527300 37.564200 31.170300 17.622780 14.992780 9.1659060
251 85.954500 67.650900 44.333600 46.264440 45.970780 20.826510
252 100.00000 80.156100 49.848800 65.811020 65.985780 27.497590
253 47.852100 46.726200 14.875400 14.755140 17.397620 3.5819950
254 59.891800 47.142700 25.347300 20.580480 20.575950 7.0119230
255 73.135300 66.047900 50.306400 38.149940 40.209240 25.701360
256 25.284300 70.117900 21.578600 19.179150 34.004460 7.1198130
257 32.065400 70.685400 61.029100 26.840080 37.764450 38.112990
258 0.0000000 0.0000000 100.00000 20.165920 8.0004090 101.54890
259 71.974700 0.0000000 100.00000 38.815690 17.620650 102.46860
260 100.00000 100.00000 100.00000 95.413690 100.12300 109.63010
261 12.981000 22.003600 11.971200 2.4483930 3.4031020 1.9327600
262 23.948500 31.133300 17.274300 5.1383840 6.6425690 3.3558100
263 25.497400 38.784300 29.405800 7.8695660 10.472980 8.0304480
264 29.059900 41.309600 41.751200 10.683590 12.765920 15.716470
265 0.0000000 17.123300 0.0000000 0.9894670 1.8698440 0.3600710
266 0.0000000 21.428600 0.0000000 1.4453710 2.7897790 0.4437940
267 20.672500 23.981500 0.0000000 3.1191150 4.0767250 0.5208640
268 34.270100 32.289600 11.131700 6.9393590 7.9743560 1.9727970
269 39.381200 68.881000 13.856000 21.088450 34.037590 4.9352590
270 53.372300 73.964500 34.573700 30.110560 42.541140 13.469730
271 0.0000000 16.234000 37.808700 3.1706540 2.6699870 11.648280
272 16.770700 25.064200 40.787000 5.6917860 5.4452720 14.402380
273 17.947500 46.738300 39.349500 10.418560 14.992050 14.306130
274 16.666000 46.564500 47.319500 11.618980 15.483040 21.201770
275 41.018300 53.232700 60.242100 21.326280 23.558180 35.790950
276 41.611600 53.316700 76.598200 25.870140 25.438310 57.859590
277 47.188500 65.539100 86.050800 36.074290 37.831660 76.004430
278 29.134600 61.776400 75.254800 25.774630 30.608240 55.851240
279 46.357500 69.042800 76.866700 34.225320 39.849170 59.819240
280 87.787800 56.679400 10.280600 39.712240 35.373780 3.6778250
281 100.00000 57.033600 25.822600 50.588980 40.988210 8.4892210
282 100.00000 62.747600 45.942600 55.848580 47.377130 22.048170
283 78.874300 53.743000 33.988100 33.895660 30.748170 11.876770
284 89.650700 63.615700 52.647100 49.034220 44.295360 28.063430
285 0.0000000 50.000000 0.0000000 7.5434980 14.989450 1.5552710
286 0.0000000 57.692300 0.0000000 10.251950 20.409270 2.0441450
287 41.376700 77.053300 0.0000000 25.321900 42.135350 3.8576390
288 39.659600 100.00000 55.203600 46.387390 76.543890 34.704780
289 65.857000 100.00000 74.038700 61.864880 83.946650 58.930580
290 0.0000000 26.119400 0.0000000 2.0088950 3.9190650 0.5465550
291 16.632700 26.533500 32.928700 4.8304390 5.3734150 9.4361750
292 0.0000000 0.0000000 0.0000000 0.1015190 0.0990137 0.2015290
293 17.599500 0.0000000 14.965300 1.5259350 0.7881190 2.2346250
294 23.668000 0.0000000 33.052800 3.5470290 1.6718000 9.1202830
295 27.588000 31.789400 78.282200 17.053160 11.835220 59.880500
296 32.077800 41.440700 100.00000 28.811870 20.386210 103.04570
297 31.815900 58.808600 100.00000 34.580060 32.088390 104.10390
298 82.025500 50.811100 100.00000 53.309650 37.241620 104.15880
299 100.00000 62.449300 100.00000 72.365070 53.928700 105.55630
300 95.528500 95.528500 95.528500 86.640600 91.292870 99.217480
301 54.963300 49.452200 0.0000000 17.793280 20.085830 1.7165200
302 71.731600 59.113000 19.621600 30.486330 32.191100 6.0059880
303 95.643200 19.358300 12.020100 36.759800 20.699060 2.5970210
304 100.00000 0.0000000 0.0000000 39.360140 20.384240 0.9528110
305 100.00000 0.0000000 20.126700 40.050470 20.658610 4.4988770
306 100.00000 26.109100 33.356600 43.322400 25.155550 10.874780
307 100.00000 49.257900 47.168200 51.009770 37.149180 22.253270
308 2.9412000 0.0000000 0.0000000 0.1682730 0.1332210 0.2026810
309 6.0976000 0.0000000 0.0000000 0.2718860 0.1877240 0.2047650
310 12.356600 32.712300 59.100500 10.138620 9.1367510 32.872010
311 18.940200 44.093500 64.928900 14.969270 15.447840 41.069190
312 17.009600 86.554700 70.740100 36.562910 56.591160 52.221330
313 36.256000 100.00000 72.772000 50.172880 77.978000 57.280420
314 43.676900 100.00000 0.0000000 42.154320 74.593240 6.8137070
315 75.131500 100.00000 0.0000000 56.362690 81.986760 7.0694620
316 26.881800 39.217800 0.0000000 6.7118760 9.9808640 1.0329390
317 53.566100 42.624700 43.278200 18.580670 17.300210 17.457880
318 43.103500 0.0000000 0.0000000 6.0728750 3.1841480 0.3109710
319 57.692300 0.0000000 0.0000000 11.448930 5.9632900 0.4064820
320 50.000000 0.0000000 0.0000000 8.4065340 4.3909600 0.3533900
321 53.860800 0.0000000 0.0000000 9.7036630 5.0610640 0.3768920
322 55.664600 0.0000000 21.679900 11.216900 5.7481800 4.3869720
323 60.861300 0.0000000 39.072900 15.461500 7.7238390 13.540610
324 86.036200 0.0000000 57.211300 33.626070 16.700770 31.206920
325 100.00000 0.0000000 77.461800 50.898350 24.970800 59.364010
326 100.00000 0.0000000 100.00000 59.615710 28.351230 103.32980
327 100.00000 34.957800 100.00000 63.221100 35.630970 103.96080
328 43.971400 20.904100 0.0000000 7.7457590 5.9151770 0.5442860
329 55.869300 24.471100 14.248700 12.754180 9.1705520 2.5393700
330 57.617400 34.409500 40.118600 17.867220 14.053780 14.751500
331 35.769000 13.975300 38.717900 7.3508490 4.5656360 13.083900
332 43.095900 22.630100 54.363500 13.135030 8.5175640 27.602740
333 83.216200 25.276000 56.227600 33.333080 19.396010 29.788610
334 91.014800 41.596200 68.402500 45.761540 30.414190 46.188350
335 80.568700 0.0000000 37.808600 26.099010 13.245090 12.586880
336 100.00000 0.0000000 38.825900 41.964640 21.416960 14.110910
337 76.087000 0.0000000 0.0000000 20.845530 10.817200 0.5781260
338 83.845600 24.669800 0.0000000 28.032590 17.112830 0.9995660
339 100.00000 58.398400 0.0000000 49.895980 41.451250 2.8662000
340 100.00000 79.307300 0.0000000 60.729150 62.595220 4.7794020
341 41.201300 37.347300 26.350400 10.755580 11.353000 6.6855210
342 45.231900 37.202800 51.933900 15.547620 13.454800 25.192910
343 60.861600 45.212100 54.737500 24.792930 21.347670 29.156590
344 68.055700 75.588400 62.879400 43.495080 50.244690 41.102610
345 0.0000000 73.367600 28.468600 19.276220 36.454440 9.8056350
346 0.0000000 74.086800 48.878000 22.527210 38.474000 24.054690
347 0.0000000 100.00000 50.433000 40.294810 73.374360 28.856980
348 66.981400 100.00000 50.585200 56.719590 81.909940 30.018560
349 85.450400 100.00000 66.406100 71.664070 89.135480 48.891780
350 87.209300 0.0000000 0.0000000 28.697170 14.876670 0.7253490
351 86.805100 15.164900 20.821300 30.094380 16.626520 4.6313120
352 87.123600 36.323500 51.581700 37.663730 24.727930 25.929330
353 90.736100 55.498500 80.656700 54.012160 41.149140 66.784130
354 67.111200 59.682000 68.676100 36.591870 34.867830 47.322260
355 68.056000 62.348800 84.117400 43.336430 39.643040 72.742480
