KOIOS/K2418U/K2418U #1 2019-04-01 15-18 0.3127x 0.329y sRGB F-S XYZLUT+MTX/K2418U #1 2019-04-01 15-18 0.3127x 0.329y sRGB F-S XYZLUT+MTX.cal
CAL    

DESCRIPTOR "Argyll Device Calibration Curves"
ORIGINATOR "Argyll dispcal"
CREATED "Mon Apr  1 15:27:30 2019"
DEVICE_CLASS "DISPLAY"
COLOR_REP "RGB"
VIDEO_LUT_CALIBRATION_POSSIBLE "YES"
TV_OUTPUT_ENCODING "NO"
DEVICE_TYPE "n"
TARGET_WHITE_XYZ "65.542105 68.958595 75.099892"
TARGET_GAMMA "sRGB"
DEGREE_OF_BLACK_OUTPUT_OFFSET "1.0"
BLACK_POINT_CORRECTION "0.0"
BLACK_NEUTRAL_BLEND_RATE "4.0"
BLACK_POINT_HACK "YES"
QUALITY "low"

BEGIN_ARGYLL_DISPCAL_ARGS
-v2 -d1 -c1 -yn -P0.483057525611,0.461538461538,3.44444444444 -ql -m -w0.3127,0.329 -gs -f1.0 -k0 -A4.0 -b
END_ARGYLL_DISPCAL_ARGS


NUMBER_OF_FIELDS 4
BEGIN_DATA_FORMAT
RGB_I RGB_R RGB_G RGB_B
END_DATA_FORMAT

NUMBER_OF_SETS 256
BEGIN_DATA
0.00000000 0.00000000 0.00000000 0.00000000
0.00392157 0.00937249 0.00982594 0.01010680
0.00784314 0.01785040 0.01867750 0.01918680
0.01176470 0.02555600 0.02669280 0.02738890
0.01568630 0.03259030 0.03398490 0.03483480
0.01960780 0.03903950 0.04065670 0.04163960
0.02352940 0.04499860 0.04679830 0.04789840
0.02745100 0.05056990 0.05248720 0.05368840
0.03137250 0.05584300 0.05779490 0.05908620
0.03529410 0.06086530 0.06277890 0.06415420
0.03921570 0.06566980 0.06749680 0.06894370
0.04313730 0.07028760 0.07199280 0.07350790
0.04705880 0.07475240 0.07630830 0.07788930
0.05098040 0.07908900 0.08047790 0.08213210
0.05490200 0.08331570 0.08453040 0.08626870
0.05882350 0.08746460 0.08849130 0.09031860
0.06274510 0.09153880 0.09237670 0.09431170
0.06666670 0.09553000 0.09619250 0.09825080
0.07058820 0.09943050 0.09995600 0.10214000
0.07450980 0.10325100 0.10367800 0.10598300
0.07843140 0.10699300 0.10736000 0.10978200
0.08235290 0.11066100 0.11101800 0.11357000
0.08627450 0.11427500 0.11465400 0.11735200
0.09019610 0.11783800 0.11826500 0.12112200
0.09411760 0.12134600 0.12186100 0.12488400
0.09803920 0.12481800 0.12546000 0.12864300
0.10196100 0.12827500 0.12905000 0.13239700
0.10588200 0.13171400 0.13263200 0.13613400
0.10980400 0.13514400 0.13620100 0.13984800
0.11372500 0.13856600 0.13976800 0.14356900
0.11764700 0.14200100 0.14333700 0.14728500
0.12156900 0.14545900 0.14689200 0.15098800
0.12549000 0.14892800 0.15043000 0.15467700
0.12941200 0.15240300 0.15395200 0.15833300
0.13333300 0.15588500 0.15744500 0.16195500
0.13725500 0.15936900 0.16091900 0.16556200
0.14117600 0.16286400 0.16439300 0.16915800
0.14509800 0.16638500 0.16786400 0.17273000
0.14902000 0.16992900 0.17132200 0.17627500
0.15294100 0.17347700 0.17476500 0.17980500
0.15686300 0.17702600 0.17820000 0.18332400
0.16078400 0.18057200 0.18162500 0.18681600
0.16470600 0.18411400 0.18503000 0.19027400
0.16862700 0.18764600 0.18842000 0.19369900
0.17254900 0.19117800 0.19180000 0.19710600
0.17647100 0.19470600 0.19518300 0.20050700
0.18039200 0.19823800 0.19857600 0.20390900
0.18431400 0.20177500 0.20197100 0.20730900
0.18823500 0.20531400 0.20535700 0.21070800
0.19215700 0.20884700 0.20873000 0.21410000
0.19607800 0.21237100 0.21208800 0.21749600
0.20000000 0.21588400 0.21544500 0.22089600
0.20392200 0.21940900 0.21880600 0.22429700
0.20784300 0.22295400 0.22216500 0.22767100
0.21176500 0.22650300 0.22550800 0.23102400
0.21568600 0.23004500 0.22884300 0.23437600
0.21960800 0.23359400 0.23218100 0.23772400
0.22352900 0.23715800 0.23551700 0.24106600
0.22745100 0.24073600 0.23885400 0.24441400
0.23137300 0.24433800 0.24220500 0.24777400
0.23529400 0.24797200 0.24557600 0.25115600
0.23921600 0.25164900 0.24897500 0.25455800
0.24313700 0.25536000 0.25238400 0.25797600
0.24705900 0.25909700 0.25580000 0.26141200
0.25098000 0.26286200 0.25922200 0.26487200
0.25490200 0.26665500 0.26265400 0.26835600
0.25882400 0.27047400 0.26608900 0.27185400
0.26274500 0.27431200 0.26952900 0.27538400
0.26666700 0.27816300 0.27298400 0.27894600
0.27058800 0.28202700 0.27645300 0.28254100
0.27451000 0.28591000 0.27994000 0.28616500
0.27843100 0.28978400 0.28343600 0.28977900
0.28235300 0.29360600 0.28691000 0.29336300
0.28627500 0.29737200 0.29035100 0.29692600
0.29019600 0.30108100 0.29376100 0.30047300
0.29411800 0.30474300 0.29715400 0.30400800
0.29803900 0.30836600 0.30053900 0.30753000
0.30196100 0.31195200 0.30391700 0.31102000
0.30588200 0.31550500 0.30727900 0.31446900
0.30980400 0.31902700 0.31063000 0.31787400
0.31372500 0.32252100 0.31397300 0.32123600
0.31764700 0.32598700 0.31730600 0.32456100
0.32156900 0.32942600 0.32063100 0.32785300
0.32549000 0.33284200 0.32395600 0.33113200
0.32941200 0.33626500 0.32729400 0.33441800
0.33333300 0.33969100 0.33066200 0.33772700
0.33725500 0.34310200 0.33403800 0.34104300
0.34117600 0.34649600 0.33741200 0.34436500
0.34509800 0.34986500 0.34078500 0.34769500
0.34902000 0.35320200 0.34415200 0.35103500
0.35294100 0.35650600 0.34751000 0.35438200
0.35686300 0.35979000 0.35085700 0.35773300
0.36078400 0.36306400 0.35420400 0.36109900
0.36470600 0.36632600 0.35755800 0.36447400
0.36862700 0.36956800 0.36091300 0.36783800
0.37254900 0.37279100 0.36425800 0.37119600
0.37647100 0.37600000 0.36759600 0.37455400
0.38039200 0.37921200 0.37094100 0.37791800
0.38431400 0.38242700 0.37429200 0.38128900
0.38823500 0.38564100 0.37765000 0.38467100
0.39215700 0.38886400 0.38102400 0.38808200
0.39607800 0.39210000 0.38442500 0.39152300
0.40000000 0.39536100 0.38785600 0.39499500
0.40392200 0.39864800 0.39132300 0.39850000
0.40784300 0.40195500 0.39482100 0.40202100
0.41176500 0.40525000 0.39831300 0.40552500
0.41568600 0.40852900 0.40177700 0.40901200
0.41960800 0.41180200 0.40521700 0.41248900
0.42352900 0.41507700 0.40863800 0.41596900
0.42745100 0.41836300 0.41205300 0.41946700
0.43137300 0.42167500 0.41547500 0.42297700
0.43529400 0.42500900 0.41889900 0.42650300
0.43921600 0.42837900 0.42233400 0.43006300
0.44313700 0.43178800 0.42577600 0.43364800
0.44705900 0.43522700 0.42921900 0.43726200
0.45098000 0.43869100 0.43266500 0.44090800
0.45490200 0.44218100 0.43612400 0.44458000
0.45882400 0.44570000 0.43959000 0.44824700
0.46274500 0.44922400 0.44304900 0.45190600
0.46666700 0.45275300 0.44650300 0.45557200
0.47058800 0.45628900 0.44996600 0.45925500
0.47451000 0.45982900 0.45343900 0.46294600
0.47843100 0.46336900 0.45691300 0.46663000
0.48235300 0.46690700 0.46038200 0.47031800
0.48627500 0.47044700 0.46385400 0.47400600
0.49019600 0.47398900 0.46732600 0.47769600
0.49411800 0.47753600 0.47079700 0.48138800
0.49803900 0.48108500 0.47427000 0.48508700
0.50196100 0.48464200 0.47774300 0.48879900
0.50588200 0.48820900 0.48121600 0.49252800
0.50980400 0.49179300 0.48469900 0.49627300
0.51372500 0.49540000 0.48819500 0.50005400
0.51764700 0.49903300 0.49171200 0.50386300
0.52156900 0.50271100 0.49526800 0.50768000
0.52549000 0.50640000 0.49883300 0.51150400
0.52941200 0.51009700 0.50240500 0.51533700
0.53333300 0.51380000 0.50598400 0.51917700
0.53725500 0.51751100 0.50957000 0.52302000
0.54117600 0.52122800 0.51316500 0.52686800
0.54509800 0.52494500 0.51676900 0.53071900
0.54902000 0.52866400 0.52038100 0.53457000
0.55294100 0.53238400 0.52400200 0.53841700
0.55686300 0.53610400 0.52763000 0.54228600
0.56078400 0.53982800 0.53126800 0.54616600
0.56470600 0.54356900 0.53493000 0.55003400
0.56862700 0.54732300 0.53860800 0.55389100
0.57254900 0.55108100 0.54228700 0.55776800
0.57647100 0.55484300 0.54596800 0.56168300
0.58039200 0.55862500 0.54966100 0.56564000
0.58431400 0.56243500 0.55337200 0.56964100
0.58823500 0.56627800 0.55711000 0.57364100
0.59215700 0.57016800 0.56088400 0.57760900
0.59607800 0.57408500 0.56467500 0.58155800
0.60000000 0.57797300 0.56844600 0.58550800
0.60392200 0.58182500 0.57219500 0.58945600
0.60784300 0.58565700 0.57594000 0.59339800
0.61176500 0.58949400 0.57969900 0.59733300
0.61568600 0.59333900 0.58347100 0.60129200
0.61960800 0.59718900 0.58725400 0.60528400
0.62352900 0.60104800 0.59105800 0.60931400
0.62745100 0.60492200 0.59488500 0.61338500
0.63137300 0.60881100 0.59873200 0.61747200
0.63529400 0.61270500 0.60259900 0.62156300
0.63921600 0.61660600 0.60648400 0.62567500
0.64313700 0.62050900 0.61037400 0.62981100
0.64705900 0.62442300 0.61426500 0.63396700
0.65098000 0.62837700 0.61816900 0.63816200
0.65490200 0.63238200 0.62209300 0.64241600
0.65882400 0.63643900 0.62603300 0.64675400
0.66274500 0.64054100 0.63000500 0.65119500
0.66666700 0.64468700 0.63401600 0.65574600
0.67058800 0.64890400 0.63809000 0.66041000
0.67451000 0.65320400 0.64224000 0.66518400
0.67843100 0.65760800 0.64647600 0.66991800
0.68235300 0.66212200 0.65080600 0.67454100
0.68627500 0.66674600 0.65523200 0.67906000
0.69019600 0.67135100 0.65966500 0.68348400
0.69411800 0.67586300 0.66402300 0.68783300
0.69803900 0.68028600 0.66830900 0.69212600
0.70196100 0.68463600 0.67253000 0.69639500
0.70588200 0.68893500 0.67669700 0.70064800
0.70980400 0.69319600 0.68083000 0.70488900
0.71372500 0.69743200 0.68494900 0.70910700
0.71764700 0.70163400 0.68906000 0.71330000
0.72156900 0.70581800 0.69318600 0.71748400
0.72549000 0.70999000 0.69732700 0.72166400
0.72941200 0.71415300 0.70147700 0.72583600
0.73333300 0.71832400 0.70564400 0.72997100
0.73725500 0.72249900 0.70981800 0.73407400
0.74117600 0.72668000 0.71400000 0.73814900
0.74509800 0.73086200 0.71818600 0.74218800
0.74902000 0.73503400 0.72235900 0.74619100
0.75294100 0.73920000 0.72652800 0.75018400
0.75686300 0.74336400 0.73069300 0.75416900
0.76078400 0.74752200 0.73485400 0.75814500
0.76470600 0.75167900 0.73901600 0.76210600
0.76862700 0.75583600 0.74318100 0.76606100
0.77254900 0.75999000 0.74734800 0.76999500
0.77647100 0.76413800 0.75151100 0.77389500
0.78039200 0.76827400 0.75567500 0.77777900
0.78431400 0.77239400 0.75983000 0.78167900
0.78823500 0.77650200 0.76396400 0.78560700
0.79215700 0.78062200 0.76809400 0.78958100
0.79607800 0.78475900 0.77222500 0.79361000
0.80000000 0.78892200 0.77637300 0.79768500
0.80392200 0.79313100 0.78055400 0.80175400
0.80784300 0.79739200 0.78476900 0.80580800
0.81176500 0.80169100 0.78899800 0.80985200
0.81568600 0.80597600 0.79317900 0.81389200
0.81960800 0.81024200 0.79730300 0.81793800
0.82352900 0.81450200 0.80138200 0.82200600
0.82745100 0.81875600 0.80543000 0.82608800
0.83137300 0.82299400 0.80946300 0.83018900
0.83529400 0.82721600 0.81348100 0.83431400
0.83921600 0.83142900 0.81748100 0.83845100
0.84313700 0.83562900 0.82146300 0.84259000
0.84705900 0.83981800 0.82544000 0.84674300
0.85098000 0.84400100 0.82941400 0.85093300
0.85490200 0.84818100 0.83338900 0.85514800
0.85882400 0.85237700 0.83738300 0.85932700
0.86274500 0.85660300 0.84140400 0.86346300
0.86666700 0.86081300 0.84543100 0.86757600
0.87058800 0.86496700 0.84942300 0.87167900
0.87451000 0.86908300 0.85338500 0.87578800
0.87843100 0.87315700 0.85732800 0.87990700
0.88235300 0.87719000 0.86125000 0.88405000
0.88627500 0.88121100 0.86516500 0.88819900
0.89019600 0.88522100 0.86907600 0.89233000
0.89411800 0.88921800 0.87299000 0.89646000
0.89803900 0.89317500 0.87689400 0.90059600
0.90196100 0.89708200 0.88077300 0.90474400
0.90588200 0.90094100 0.88462900 0.90888200
0.90980400 0.90476200 0.88847800 0.91299200
0.91372500 0.90856000 0.89233400 0.91709200
0.91764700 0.91232900 0.89619200 0.92117500
0.92156900 0.91607200 0.90003600 0.92521600
0.92549000 0.91981600 0.90388400 0.92922900
0.92941200 0.92357900 0.90775800 0.93320300
0.93333300 0.92735800 0.91164400 0.93712800
0.93725500 0.93117700 0.91554900 0.94099900
0.94117600 0.93505000 0.91949000 0.94481100
0.94509800 0.93897700 0.92346300 0.94855500
0.94902000 0.94296500 0.92747700 0.95223100
0.95294100 0.94701500 0.93153000 0.95584400
0.95686300 0.95112700 0.93562100 0.95940000
0.96078400 0.95529800 0.93974800 0.96290200
0.96470600 0.95952500 0.94390700 0.96635400
0.96862700 0.96379100 0.94808700 0.96976000
0.97254900 0.96807900 0.95228400 0.97311900
0.97647100 0.97238400 0.95649500 0.97643300
0.98039200 0.97670500 0.96071900 0.97970200
0.98431400 0.98104300 0.96495600 0.98292800
0.98823500 0.98539800 0.96920800 0.98611100
0.99215700 0.98976900 0.97347300 0.98925200
0.99607800 0.99415700 0.97775100 0.99235300
1.00000000 0.99856200 0.98204400 0.99541300
END_DATA
CAL    

DESCRIPTOR "Argyll Calibration options and model"
ORIGINATOR "Argyll dispcal"
CREATED "Mon Apr  1 15:27:30 201"

NUMBER_OF_FIELDS 3
BEGIN_DATA_FORMAT
R_P G_P B_P
END_DATA_FORMAT

NUMBER_OF_SETS 32
BEGIN_DATA
0.000227641 0.000912348 0.001599390
0.999772000 0.999088000 0.998401000
1.413652000 1.545706000 1.565548000
0.588797000 0.530728000 0.642201000
0.159462000 0.130317000 0.066559100
0.144305000 0.129329000 0.100118000
0.130399000 0.130658000 0.099177400
0.122351000 0.120531000 0.130363000
0.068134100 0.068705300 0.084411500
0.068706800 0.048374800 0.084210600
0.046615700 0.061607900 0.072158500
0.040039300 0.052449100 0.058936900
0.040487600 0.056652100 0.052610100
0.037199700 0.052362600 0.047818200
0.033047800 0.044222100 0.049802300
0.032857800 0.047135100 0.034138200
0.028203100 0.047539500 0.039418000
0.026639900 0.045044900 0.039494800
0.026933700 0.045212300 0.041179500
0.025308600 0.039457300 0.034348300
0.025713000 0.029823000 0.031089300
0.022242500 0.031005400 0.030222700
0.019873500 0.027388300 0.027105900
0.018418400 0.027345500 0.024045200
0.016993700 0.030719100 0.023538900
0.015847500 0.029587100 0.024880100
0.014539600 0.025811500 0.021833800
0.014706400 0.027761500 0.020470700
0.014766800 0.028543600 0.021350700
0.013680700 0.026089300 0.023184500
0.013794200 0.024827400 0.024147100
0.013252500 0.022796800 0.021130400
END_DATA
