KOIOS/K2418U/K2418U #1 2019-04-01 15-18 0.3127x 0.329y sRGB F-S XYZLUT+MTX/K2418U #1 2019-04-01 15-18 0.3127x 0.329y sRGB F-S XYZLUT+MTX.ti3
CTI3   

DESCRIPTOR "Argyll Calibration Target chart information 3"
ORIGINATOR "Argyll dispread"
CREATED "Mon Apr  1 15:28:32 2019"
DEVICE_CLASS "DISPLAY"
SINGLE_DIM_STEPS "17"
COMP_GREY_STEPS "49"
DARK_REGION_EMPHASIS "1.6"
COLOR_REP "RGB_XYZ"
TARGET_INSTRUMENT "X-Rite i1 DisplayPro, ColorMunki Display"
DISPLAY_TYPE_REFRESH "NO"
DISPLAY_TYPE_BASE_ID "1"
INSTRUMENT_TYPE_SPECTRAL "NO"
LUMINANCE_XYZ_CDM2 "65.649215 68.913188 76.077257"
NORMALIZED_TO_Y_100 "YES"
VIDEO_LUT_CALIBRATION_POSSIBLE "YES"

BEGIN_ARGYLL_COLPROF_ARGS
-v -qh -aX -bn -C "No copyright. Created with DisplayCAL 3.7.2.0 and ArgyllCMS 2.0.1" -M "KOIOS K2418U"
END_ARGYLL_COLPROF_ARGS

OBSERVER "1931_2"
USE_BLACK_POINT_COMPENSATION "NO"
BLACK_POINT_CORRECTION "0.0"
HIRES_B2A "YES"
HIRES_B2A_SIZE "-1"
SMOOTH_B2A "YES"
PATCH_SEQUENCE "OPTIMIZE_DISPLAY_RESPONSE_DELAY"

NUMBER_OF_FIELDS 7
BEGIN_DATA_FORMAT
SAMPLE_ID RGB_R RGB_G RGB_B XYZ_X XYZ_Y XYZ_Z
END_DATA_FORMAT

NUMBER_OF_SETS 417
BEGIN_DATA
1 100.0000 100.0000 100.0000 95.26365 100.0000 110.3958
2 1.960800 1.960800 1.960800 0.218438 0.228681 0.301018
3 3.921600 3.921600 3.921600 0.367396 0.389486 0.472156
4 5.882400 5.882400 5.882400 0.546107 0.582478 0.675461
5 9.803900 9.803900 9.803900 1.046031 1.113850 1.273235
6 13.72600 13.72600 13.72600 1.689734 1.800122 2.043652
7 17.64700 17.64700 17.64700 2.549079 2.710035 3.042052
8 21.56900 21.56900 21.56900 3.627876 3.840730 4.291750
9 25.49000 25.49000 25.49000 5.003672 5.292014 5.832942
10 29.41200 29.41200 29.41200 6.715490 7.070607 7.757986
11 33.33300 33.33300 33.33300 8.676156 9.127318 10.00386
12 37.25500 37.25500 37.25500 10.90340 11.49081 12.56190
13 41.17600 41.17600 41.17600 13.40085 14.17372 15.43951
14 45.09800 45.09800 45.09800 16.23898 17.18605 18.75185
15 49.02000 49.02000 49.02000 19.41972 20.57849 22.36156
16 52.94100 52.94100 52.94100 22.83804 24.15473 26.41832
17 56.86300 56.86300 56.86300 26.68415 28.21607 31.00271
18 60.78400 60.78400 60.78400 31.05035 32.79728 35.85305
19 64.70600 64.70600 64.70600 35.66315 37.64564 40.82186
20 68.62700 68.62700 68.62700 40.86199 43.09336 46.86133
21 72.54900 72.54900 72.54900 46.19517 48.69751 52.70602
22 76.47100 76.47100 76.47100 51.62507 54.41187 58.79072
23 80.39200 80.39200 80.39200 57.64876 60.72584 65.98264
24 84.31400 84.31400 84.31400 64.51275 67.84449 74.00346
25 88.23500 88.23500 88.23500 71.85331 75.55897 82.57915
26 92.15700 92.15700 92.15700 79.47442 83.69378 90.60547
27 96.07800 96.07800 96.07800 87.04950 91.72003 98.63066
28 10.41500 22.52720 16.26740 2.311415 3.214226 2.738243
29 17.50990 32.09610 30.16130 5.382429 6.893540 8.304938
30 39.94160 41.85720 100.0000 32.25884 21.90344 108.1167
31 42.56850 57.71080 100.0000 38.01265 32.39637 109.0323
32 0.000000 65.81390 73.84550 22.37383 29.41014 55.44505
33 0.000000 77.47410 74.39310 27.87197 40.52605 57.75395
34 22.46820 81.90560 85.25460 36.52741 48.74296 77.33972
35 100.0000 33.21020 0.000000 39.76596 25.78400 1.016430
36 100.0000 54.80160 0.000000 45.59894 37.30763 2.046204
37 100.0000 74.22060 0.000000 53.58904 53.71123 3.523679
38 100.0000 82.17290 27.32990 60.58127 64.54844 9.885526
39 100.0000 81.70360 55.00440 65.67566 66.80743 30.19159
40 26.11940 0.000000 0.000000 2.029318 1.105051 0.199956
41 28.70550 0.000000 0.000000 2.412868 1.301421 0.203055
42 31.25000 0.000000 0.000000 2.896538 1.549119 0.205467
43 36.88520 0.000000 0.000000 3.979830 2.102964 0.210994
44 43.10350 0.000000 0.000000 5.424880 2.840958 0.216542
45 46.82770 0.000000 0.000000 6.394690 3.336923 0.221209
46 50.00000 0.000000 0.000000 7.513960 3.908747 0.226502
47 57.69230 0.000000 0.000000 10.18895 5.275581 0.239370
48 66.32650 0.000000 0.000000 14.07633 7.261232 0.258118
49 69.99050 0.000000 17.70070 17.01151 8.689423 2.639453
50 87.84740 13.55600 19.43250 28.84645 16.11025 3.261555
51 89.92490 16.71960 37.21730 32.76766 18.41497 11.38516
52 40.15990 0.000000 15.84190 5.344158 2.736063 2.263306
53 42.71240 20.88260 33.84510 9.184954 6.642057 9.787142
54 2.941200 0.000000 0.000000 0.177011 0.153590 0.193171
55 18.48340 20.75260 10.17370 2.532460 3.143822 1.455195
56 30.87080 52.22780 16.24360 10.89153 17.09726 3.793187
57 57.82620 85.49740 21.02710 33.59943 51.46768 7.864031
58 73.16810 86.77140 13.34420 41.96201 57.23414 5.987541
59 78.63980 100.0000 32.33500 56.15533 79.21304 14.40807
60 0.000000 43.10350 0.000000 4.349460 9.026438 1.000316
61 0.000000 50.00000 0.000000 6.005409 12.51700 1.319223
62 0.000000 57.69230 0.000000 8.118329 16.96436 1.721232
63 0.000000 66.32650 0.000000 11.11629 23.40378 2.309248
64 0.000000 76.08700 0.000000 15.46453 32.28126 3.113586
65 0.000000 87.20930 0.000000 20.36591 42.90506 4.083921
66 26.55400 89.85300 21.14800 26.52677 50.48335 8.352002
67 71.84910 100.0000 51.46250 55.85829 79.03101 28.98067
68 51.16700 7.130900 15.28240 8.896617 5.032742 2.203361
69 73.48060 21.22110 22.66040 21.11646 13.19040 4.429278
70 86.72970 36.10800 28.54480 32.55518 23.12044 7.231175
71 100.0000 49.93970 47.53110 50.14746 37.95544 20.38629
72 100.0000 82.18740 73.74040 71.83814 70.69448 54.92435
73 100.0000 100.0000 86.31830 88.74943 97.13715 79.83619
74 100.0000 100.0000 100.0000 95.49747 100.1595 110.6707
75 0.000000 0.000000 36.88520 2.323384 0.814083 12.01268
76 0.000000 0.000000 43.10350 3.172533 1.076583 16.61671
77 0.000000 0.000000 50.00000 4.313999 1.428075 22.77692
78 0.000000 0.000000 57.69230 5.853410 1.902094 31.06766
79 0.000000 0.000000 66.32650 7.847825 2.512998 41.82474
80 0.000000 0.000000 76.08700 10.62609 3.360073 56.84165
81 25.28460 13.14040 84.14440 16.75035 7.321868 71.70646
82 56.00660 40.46890 89.81120 32.69469 22.60567 82.75045
83 67.19510 73.60200 100.0000 55.51093 52.87983 110.2120
84 1.938000 1.938000 1.938000 0.218652 0.228750 0.301360
85 2.941200 2.941200 2.941200 0.273673 0.289029 0.365729
86 3.968300 3.968300 3.968300 0.367382 0.389503 0.472698
87 5.020100 5.020100 5.020100 0.468030 0.497863 0.593098
88 6.097600 6.097600 6.097600 0.590465 0.627958 0.734217
89 7.201600 7.201600 7.201600 0.679723 0.719201 0.834555
90 8.333300 8.333300 8.333300 0.826793 0.880944 1.011054
91 9.493700 9.493700 9.493700 0.985984 1.048783 1.205402
92 10.68380 10.68380 10.68380 1.167021 1.244879 1.408442
93 11.90480 11.90480 11.90480 1.349100 1.434837 1.624723
94 13.15790 13.15790 13.15790 1.619714 1.728454 1.953546
95 14.44440 14.44440 14.44440 1.847448 1.962849 2.222739
96 15.76580 15.76580 15.76580 2.090501 2.221829 2.509458
97 17.12330 17.12330 17.12330 2.443340 2.599677 2.924262
98 18.51850 18.51850 18.51850 2.727412 2.893020 3.257033
99 19.95310 19.95310 19.95310 3.168508 3.362408 3.754371
100 21.42860 21.42860 21.42860 3.617837 3.831148 4.284599
101 22.94690 22.94690 22.94690 4.134122 4.371803 4.876645
102 24.50980 24.50980 24.50980 4.550725 4.816707 5.335666
103 26.11940 26.11940 26.11940 5.309561 5.618044 6.184803
104 27.77780 27.77780 27.77780 5.996029 6.320655 6.956130
105 29.48720 29.48720 29.48720 6.720868 7.076929 7.770331
106 31.25000 31.25000 31.25000 7.640471 8.033632 8.831715
107 33.06880 33.06880 33.06880 8.443054 8.869989 9.738756
108 34.94620 34.94620 34.94620 9.539723 10.03529 10.96936
109 36.88520 36.88520 36.88520 10.65436 11.24556 12.27550
110 38.88890 38.88890 38.88890 11.82735 12.49280 13.62926
111 40.96050 40.96050 40.96050 13.09623 13.84297 15.10940
112 43.10350 43.10350 43.10350 14.76482 15.62651 17.05746
113 45.32160 45.32160 45.32160 16.51504 17.48837 19.08675
114 47.61910 47.61910 47.61910 18.09695 19.13431 20.87081
115 0.000000 0.000000 0.000000 0.120502 0.123583 0.191000
116 0.000000 0.000000 2.941200 0.154850 0.136082 0.360388
117 46.99210 14.39450 43.59420 11.30528 6.629251 16.42094
118 48.20530 13.28330 62.86100 15.74118 8.130982 36.38637
119 32.90100 13.42860 42.87940 7.393060 4.415691 15.90896
120 42.21580 26.54430 69.63460 17.50747 11.15124 46.60827
121 44.66620 41.97840 78.13040 24.04016 19.14871 59.93533
122 53.36030 77.44570 80.95490 41.37049 48.78247 67.06261
123 34.92620 100.0000 67.73570 44.62774 71.61633 49.64361
124 63.55780 100.0000 69.64600 56.38111 78.89863 52.05723
125 14.77600 82.88630 48.64090 24.86302 43.70925 24.98832
126 25.93180 87.51680 68.15290 34.26515 52.90205 48.77924
127 53.96780 87.68160 71.20640 44.23079 59.46907 52.94787
128 57.82980 89.80620 86.38560 52.84642 65.76547 79.85815
129 91.26980 91.26980 91.26980 77.79299 81.93609 88.84894
130 38.52980 13.69510 17.12100 5.817879 4.036639 2.786138
131 68.48010 15.51120 39.23000 19.93116 11.44804 12.87519
132 74.21870 46.55300 43.55600 29.57681 25.36555 17.13671
133 84.14620 68.03220 55.66770 46.27589 45.98791 29.98037
134 92.72860 79.17630 79.36090 65.73465 64.31910 63.09019
135 13.15790 0.000000 0.000000 0.665463 0.405553 0.195141
136 17.12330 0.000000 0.000000 0.954779 0.554645 0.195455
137 31.86920 34.03410 42.60460 9.853958 9.858144 16.44985
138 35.10530 49.10040 59.41770 17.84034 19.28259 34.04858
139 38.88430 65.09770 63.49900 25.39822 31.88028 39.91672
140 84.68680 100.0000 68.85430 69.25370 86.61570 50.60825
141 100.0000 100.0000 70.73670 82.46468 94.20881 52.58800
142 28.31680 15.18240 65.74550 11.54346 5.973517 40.86710
143 46.60850 48.18680 70.54820 24.05748 22.10620 48.73355
144 72.60240 67.03090 83.92160 47.90556 45.34691 71.86890
145 83.33330 83.33330 83.33330 62.22961 65.56623 71.43803
146 87.20930 87.20930 87.20930 69.57458 73.16577 80.27821
147 31.07790 69.63190 77.70660 29.85808 36.90111 61.52352
148 36.94910 71.28880 100.0000 41.99066 43.28939 110.2576
149 0.000000 0.000000 87.20930 14.61010 4.562465 78.31144
150 0.000000 0.000000 100.0000 19.08791 5.916226 102.5340
151 0.000000 25.26240 100.0000 22.12070 10.59166 107.8059
152 39.91730 24.49030 100.0000 28.57213 14.26908 107.4932
153 39.47770 0.000000 100.0000 25.99966 9.300459 107.1733
154 100.0000 0.000000 100.0000 59.24015 26.52438 103.3693
155 0.000000 0.000000 21.42860 0.871650 0.364137 4.190165
156 0.000000 0.000000 26.11940 1.214267 0.470468 6.046727
157 27.39300 0.000000 26.02150 3.485044 1.662390 5.609830
158 50.85120 12.34480 29.86870 10.48586 6.200972 7.442225
159 64.26830 0.000000 27.66470 14.95736 7.512042 6.239247
160 80.74290 3.713500 37.72840 25.58879 13.08413 11.49224
161 100.0000 0.000000 58.25360 43.82206 21.41829 30.04914
162 100.0000 0.000000 75.54610 48.91961 23.15916 53.35073
163 76.17140 0.000000 69.23850 29.63577 13.59973 44.91871
164 82.91580 29.52190 71.41970 37.81466 22.86565 48.17085
165 46.15630 0.000000 32.89680 8.569887 4.139315 9.013994
166 53.28770 0.000000 52.96610 14.25360 6.467507 24.75136
167 65.25690 17.68320 64.38370 23.66939 12.92792 38.16999
168 77.20000 32.17130 84.28770 39.64722 23.94862 70.53255
169 87.03070 47.79130 89.45300 52.69112 36.87862 81.58135
170 14.57990 7.752400 35.76350 3.249824 1.827182 11.08756
171 15.93710 8.704800 51.86250 5.969767 2.859852 24.20930
172 18.04450 41.42550 85.71460 20.95122 16.43930 76.48360
173 23.33900 51.33570 86.47530 24.79956 22.71400 78.46060
174 0.000000 100.0000 63.25800 37.45562 66.32580 43.74829
175 0.000000 100.0000 83.35230 44.30093 69.66126 77.02077
176 0.000000 100.0000 100.0000 51.61426 72.58400 113.3604
177 46.20370 100.0000 100.0000 61.61246 80.01869 113.3325
178 77.79950 100.0000 100.0000 77.78185 89.85629 112.4231
179 41.43450 100.0000 0.000000 35.26115 65.18125 5.883730
180 73.39860 100.0000 0.000000 49.42719 74.08267 6.144380
181 100.0000 100.0000 0.000000 68.91547 85.27574 6.379830
182 19.75450 60.66040 26.60710 12.51984 22.16997 7.941945
183 17.30480 60.20580 41.30210 14.07329 22.73361 16.74335
184 15.96840 61.99790 61.76330 18.84580 26.01297 37.62286
185 18.91900 61.73440 77.25480 23.67868 27.99370 60.36526
186 53.36160 82.88650 100.0000 53.29705 58.53102 111.1681
187 0.000000 33.55980 67.05070 11.26630 9.292206 43.71333
188 0.000000 46.68710 72.84980 15.89559 16.06064 53.13120
189 0.000000 55.97000 100.0000 29.28042 25.89717 109.0567
190 0.000000 42.21980 100.0000 25.47400 17.66836 108.1493
191 0.000000 69.75080 100.0000 34.81261 37.38003 110.2681
192 0.000000 82.19520 100.0000 40.60823 49.62016 111.2125
193 46.49440 61.37820 65.80780 27.01227 30.74363 42.62530
194 46.72700 65.79760 78.98570 32.98636 36.16704 62.84222
195 44.49920 42.53880 55.64690 17.54213 16.59312 29.10515
196 62.99230 52.03320 65.16520 30.30398 27.67736 40.56891
197 76.69820 64.73520 71.53640 44.91219 42.69261 50.41680
198 0.000000 72.06410 30.42660 16.02874 30.72911 11.01902
199 20.28110 81.53130 30.62200 22.11459 41.45799 11.70680
200 49.22900 100.0000 29.50270 40.86466 69.96049 13.12816
201 100.0000 100.0000 29.11490 72.25223 88.43445 12.83128
202 100.0000 100.0000 51.76600 76.81067 91.14893 29.13871
203 58.28400 69.65890 0.000000 24.81147 34.65540 2.877635
204 85.09040 76.64290 44.76390 48.43108 53.35288 20.23046
205 89.62330 18.32650 53.40190 36.16784 20.08913 24.81613
206 100.0000 34.83310 58.64170 49.00905 31.05748 31.40967
207 100.0000 60.88630 65.15740 58.69420 48.17930 40.61799
208 100.0000 60.60750 80.45610 63.99870 50.58610 63.71331
209 100.0000 77.56640 82.57870 72.80440 66.97110 69.64525
210 0.000000 2.941200 0.000000 0.171415 0.228224 0.202062
211 0.000000 6.097600 0.000000 0.265596 0.426687 0.220271
212 0.000000 9.493700 0.000000 0.386224 0.678324 0.243072
213 0.000000 26.11940 0.000000 1.626425 3.288186 0.478542
214 16.29590 30.34340 13.54950 3.637191 5.508830 2.351673
215 32.68800 37.26680 27.80510 8.588717 10.27688 7.201878
216 48.36570 45.43900 27.59310 14.71752 16.66096 7.325176
217 100.0000 0.000000 15.15120 36.50394 18.67707 2.035986
218 100.0000 0.000000 28.62370 38.46052 19.52076 6.354863
219 76.08700 0.000000 0.000000 19.41443 9.985569 0.283717
220 75.44400 26.43350 0.000000 21.26030 14.16218 0.672685
221 87.20930 0.000000 0.000000 25.83176 13.27335 0.316354
222 86.92410 21.61820 8.996600 28.37902 17.11524 1.283696
223 100.0000 30.49190 22.09310 41.28934 26.08000 4.378728
224 100.0000 50.25030 27.78840 46.96116 36.50688 7.562607
225 100.0000 66.02300 28.32340 52.80984 48.47280 8.791985
226 100.0000 66.94140 53.87400 58.26565 52.07199 27.60385
227 69.93980 24.52830 12.72080 18.89893 12.69727 1.911904
228 88.44100 42.47570 11.55180 33.61816 25.83026 2.368577
229 90.26830 76.96240 10.78300 47.54999 52.79917 4.637066
230 89.52580 82.70610 62.85630 59.68424 64.37760 39.79842
231 36.80650 28.07980 0.000000 6.160522 6.433312 0.597872
232 44.51300 34.85590 24.57560 10.87776 10.91083 5.694650
233 55.98760 42.82120 39.13240 18.44934 17.65277 13.89516
234 67.81200 50.76740 40.20940 26.59181 25.46058 15.07810
235 90.59200 61.04710 57.06940 48.81564 43.12349 31.21685
236 100.0000 0.000000 0.000000 34.27596 17.59449 0.360328
237 100.0000 0.000000 41.68300 40.23100 20.17014 13.98590
238 100.0000 30.75880 41.02040 44.01568 27.41206 14.38607
239 58.61010 41.32540 18.37980 16.61767 16.13049 3.827048
240 59.52820 59.37430 41.55800 25.55095 29.10020 16.55963
241 78.76410 86.64880 47.09560 50.24072 62.55565 23.35657
242 32.59160 57.05600 0.000000 11.68994 19.32191 1.803076
243 68.00230 63.89700 13.25010 28.13153 33.18970 3.982180
244 76.08700 76.08700 76.08700 51.19735 53.86802 58.44872
245 79.62960 79.62960 79.62960 56.36274 59.47789 64.53105
246 81.82420 87.13050 100.0000 72.01552 73.61319 110.3080
247 17.39730 25.14700 38.22520 5.292374 5.148151 12.89651
248 27.91510 29.41880 50.90640 9.715916 8.264510 23.67672
249 27.95870 36.34790 66.96830 14.99614 12.58254 43.33253
250 7.886400 32.76430 55.13850 8.792090 8.309134 28.89909
251 23.57060 44.41040 63.74120 15.06326 15.49891 39.31433
252 22.00880 73.36450 92.02150 35.29105 41.34569 91.02313
253 33.73080 86.92390 100.0000 49.09415 59.62548 111.8024
254 0.000000 22.39980 22.07180 2.144135 2.981612 4.580374
255 13.21430 24.04620 29.83300 3.756433 4.189070 7.932641
256 51.61170 30.77290 33.46260 13.45115 11.06182 9.742952
257 0.000000 0.000000 0.000000 0.120439 0.123517 0.191362
258 0.000000 19.07310 50.16320 5.407904 3.716901 23.02710
259 0.000000 22.09440 72.29800 10.99230 6.166631 50.95860
260 86.65530 78.56600 88.42570 64.59267 62.52846 81.55455
261 95.52850 95.52850 95.52850 86.19925 90.75745 97.69343
262 100.0000 100.0000 100.0000 95.36796 100.1103 110.6718
263 0.000000 33.12680 22.11360 3.500712 5.852651 4.825488
264 0.000000 40.03060 43.06530 7.296848 9.728402 17.43170
265 15.38710 50.12900 56.38970 13.67363 17.25272 30.76969
266 22.52780 66.71810 56.10600 20.21633 29.82280 31.28660
267 49.78310 73.81150 65.12300 33.09034 42.17603 42.37947
268 26.82670 37.55880 0.000000 5.650620 8.431980 0.859599
269 79.57910 45.81250 0.000000 27.72424 23.64952 1.425024
270 78.36860 60.19010 0.000000 31.41925 32.28570 2.238238
271 0.000000 100.0000 0.000000 28.18171 59.15109 5.566971
272 0.000000 100.0000 27.19520 30.48412 61.91663 12.03603
273 0.000000 100.0000 47.14330 33.63879 64.10200 25.82848
274 30.97940 14.21610 0.000000 3.501092 2.813307 0.318825
275 51.26450 20.26450 0.000000 9.232488 6.648700 0.452504
276 51.26440 49.44470 0.000000 14.67557 17.79547 1.457197
277 50.00000 50.00000 50.00000 20.28262 21.51546 23.46038
278 62.13630 50.79440 54.71380 26.69191 25.34621 28.27771
279 61.78840 70.30460 62.09100 35.90786 41.47076 37.98901
280 72.69500 72.69500 72.69500 46.09872 48.53624 52.64594
281 74.83470 86.58850 79.92610 57.62455 66.13468 66.00249
282 78.41850 100.0000 85.14330 70.77261 86.83642 77.73184
283 0.000000 21.42860 0.000000 1.145521 2.277975 0.386900
284 0.000000 31.45670 44.84070 5.954604 6.497259 18.39255
285 19.25420 38.08340 45.76180 8.934565 10.30874 19.43609
286 87.60290 48.27740 75.83120 47.41982 34.91165 55.15444
287 0.000000 0.000000 0.000000 0.120411 0.123544 0.191289
288 0.957900 0.957900 0.957900 0.145792 0.150737 0.218147
289 74.11110 0.000000 45.87560 22.82588 11.11513 17.76401
290 86.74370 12.24200 62.05870 35.20009 18.23352 34.66451
291 100.0000 34.70710 76.26130 54.19863 33.20420 55.02207
292 18.60760 0.000000 12.89400 1.443532 0.753767 1.731101
293 23.28410 8.728100 12.99240 2.336329 1.716285 1.792376
294 65.79790 51.89380 16.06020 22.78801 23.83904 3.759154
295 83.98570 54.61140 17.52980 34.36363 31.51774 4.309148
296 88.03800 67.04400 21.12930 42.48674 43.38691 6.181930
297 16.45400 10.19980 0.000000 1.254928 1.251229 0.259968
298 27.31810 15.88710 10.67200 3.397168 3.011980 1.431306
299 36.31490 26.57370 40.36350 9.305508 7.704454 14.40431
300 48.88270 37.35410 43.88270 15.44097 13.92284 17.34272
301 85.71290 37.88240 60.56550 38.69432 26.58525 33.65505
302 0.000000 0.000000 0.000000 0.120554 0.123628 0.191519
303 33.02020 20.00150 24.99760 5.782621 4.769808 5.501610
304 38.79680 57.90400 34.59110 16.48662 23.21785 11.83844
305 0.000000 31.25000 0.000000 2.264938 4.634897 0.603638
306 0.000000 36.88520 0.000000 3.127141 6.451639 0.769139
307 48.09360 53.98480 17.32760 16.17557 21.11329 4.185022
308 69.70660 61.08170 34.41290 30.53451 33.15430 11.88684
309 97.14370 68.39410 42.23990 53.76691 50.56530 17.48177
310 57.45980 37.16460 0.000000 14.18011 13.15732 0.942170
311 70.88680 37.48810 15.02400 21.92626 17.82468 2.801487
312 41.28780 18.87010 12.77440 6.672953 5.143378 1.891291
313 53.75290 20.62640 85.84560 26.23177 13.55505 74.42394
314 93.78080 19.64630 85.23060 49.64733 25.86887 71.23920
315 100.0000 37.13090 100.0000 65.39174 38.50068 105.1311
316 13.23050 9.881900 17.83460 1.645756 1.410889 2.962093
317 20.65500 39.68900 28.53360 6.997277 9.998972 7.788347
318 47.94790 50.13500 40.43320 17.71973 20.21097 15.26418
319 57.69230 57.69230 57.69230 27.59088 29.09936 32.03528
320 60.45750 60.45750 60.45750 30.53511 32.33532 35.41438
321 60.31200 5.302600 46.30490 16.20467 8.169705 18.42972
322 66.78230 24.07930 52.01950 22.30068 13.86543 24.10148
323 66.10380 36.28730 63.12790 27.18929 19.65477 37.30303
324 53.05900 36.98840 52.52610 18.51394 15.32161 25.19593
325 71.85520 45.75990 52.21380 29.91891 25.06974 24.87628
326 74.79860 48.42200 63.18910 35.19290 28.69988 37.67495
327 88.66820 52.25940 63.48210 45.61182 36.20354 38.18586
328 68.25000 60.76270 53.62890 33.17225 34.18042 27.62853
329 72.82860 73.86720 56.86740 42.32775 47.70443 32.14093
330 66.18590 74.03750 84.25370 47.75909 50.08393 73.60539
331 67.81050 88.09690 96.45990 61.72653 69.11298 99.91023
332 100.0000 100.0000 100.0000 95.36796 100.1103 110.6718
333 15.45030 42.75250 19.73740 6.252503 10.60007 4.333612
334 32.88280 42.32220 21.16300 9.182652 12.32693 4.773944
335 41.28390 57.54600 46.02970 18.95995 24.33054 20.20352
336 0.000000 51.87110 28.91010 8.325831 14.97619 8.727572
337 0.000000 55.58600 50.44320 12.74534 18.97009 24.90217
338 0.000000 73.61690 52.13240 20.24858 34.08054 28.07156
339 0.220000 81.84180 67.36180 27.87683 44.00490 47.64388
340 29.18840 86.88900 80.14460 38.84365 54.99243 67.48138
341 51.96820 15.92730 9.656400 9.652434 6.363373 1.286750
342 56.69730 32.87090 21.17060 14.44542 12.30370 4.315625
343 41.67240 26.67030 10.94460 7.598380 7.019419 1.703875
344 41.47120 39.84200 12.01720 10.03883 11.94823 2.351711
345 39.55090 100.0000 48.39700 40.82522 69.69074 26.50392
346 44.60620 100.0000 84.35170 53.65553 76.46742 77.26785
347 14.35840 42.96530 40.08800 8.566499 11.92845 14.93768
348 20.71860 50.70360 40.67630 11.38494 16.55754 15.86712
349 52.46910 52.46910 52.46910 22.47424 23.74132 25.98363
350 55.03140 55.03140 55.03140 24.75878 26.08095 28.75356
351 80.61350 63.68370 62.77170 44.04249 41.80747 38.14960
352 90.17260 66.20640 79.35850 57.73287 50.58441 62.43023
353 0.000000 0.000000 6.097600 0.222833 0.158221 0.717125
354 0.000000 0.000000 31.25000 1.702322 0.622306 8.666570
355 28.43530 0.000000 43.67980 5.875572 2.479057 16.51026
356 57.35330 0.000000 77.35190 22.34995 9.412001 57.03982
357 78.49780 15.70750 86.96720 38.78511 19.21912 75.98178
358 72.71500 0.000000 100.0000 39.96244 16.50172 106.5292
359 74.77040 30.46990 100.0000 45.23201 25.13560 106.8695
360 80.61330 67.67640 100.0000 60.90910 51.93577 108.7347
361 100.0000 83.52320 100.0000 84.26600 77.31235 108.2523
362 6.097600 0.000000 0.000000 0.291447 0.212479 0.193054
363 9.493700 0.000000 0.000000 0.434426 0.286764 0.194012
364 21.42860 0.000000 0.000000 1.379813 0.772582 0.196915
365 32.00480 9.083100 23.87720 4.648180 2.906561 4.887942
366 58.60510 29.68970 45.24410 17.79756 13.02159 17.95362
367 72.46090 32.68850 45.26810 25.70542 18.07164 17.81111
368 89.49790 42.28180 48.61620 39.52003 28.97597 21.19258
369 81.06010 78.77710 0.000000 41.26515 50.20660 3.795140
370 81.01890 79.74750 30.28270 44.77174 53.64673 11.01180
371 23.29170 23.25100 58.93810 9.726846 6.575806 32.40968
372 23.24040 29.97930 83.21510 18.06277 11.32727 69.82325
373 32.38750 0.000000 68.68930 12.22815 4.673366 44.75491
374 62.67040 35.14630 74.88040 28.64773 19.55334 54.00939
375 62.16950 56.66090 91.95410 41.24107 34.58495 87.23344
376 63.15110 47.73460 74.47810 31.93070 26.24239 54.00983
377 73.44580 50.51630 100.0000 49.60672 35.42162 107.8027
378 0.000000 12.91240 19.69970 1.247959 1.382196 3.628665
379 0.000000 17.38940 35.73770 3.035035 2.563347 11.40678
380 20.19710 17.71090 37.43090 4.738537 3.628458 12.20845
381 45.71670 28.54010 56.13670 15.28206 11.00426 29.02655
382 54.50670 56.92420 66.40050 28.26996 28.75067 42.75251
383 69.44440 69.44440 69.44440 42.01889 44.22799 48.08549
384 86.40720 83.22480 74.42660 61.42267 65.35283 56.55489
385 41.84650 77.85250 0.000000 22.65404 38.80482 3.482992
386 50.74300 78.05830 33.41240 28.58359 43.10475 12.72968
387 31.29040 67.67870 17.66930 16.73500 29.05012 5.275325
388 57.50160 68.79380 21.54590 25.71693 35.00556 6.497601
389 58.97700 69.78400 39.27050 29.15459 37.81871 15.68973
390 59.04720 76.14340 57.60000 36.18568 45.91631 33.48538
391 40.94450 82.89860 46.40040 29.84155 47.13843 22.59206
392 61.02760 86.98230 54.53240 42.13297 57.92426 30.93450
393 80.01060 89.49390 72.85520 59.99535 70.48240 55.02767
394 63.33330 63.33330 63.33330 33.76353 35.67040 38.90968
395 66.32650 66.32650 66.32650 37.69826 39.76003 43.21738
396 35.13180 50.10590 48.17740 15.56585 18.79762 21.88143
397 38.80580 72.55670 50.27440 25.34935 37.22073 25.27892
398 0.000000 52.13030 66.90910 15.66356 18.49755 44.63785
