KOIOS/K2418U/K2418U #1 2019-04-01 15-18 0.3127x 0.329y sRGB F-S XYZLUT+MTX/K2418U #1 2019-04-01 15-18 0.3127x 0.329y sRGB F-S XYZLUT+MTX.ti1
CTI1   

DESCRIPTOR "Argyll Calibration Target chart information 1"
ORIGINATOR "Argyll targen"
CREATED "Mon Apr  1 15:28:28 2019"
APPROX_WHITE_POINT "96.101379 100.000000 107.795715"
COLOR_REP "RGB"
ACCURATE_EXPECTED_VALUES "true"
DARK_REGION_EMPHASIS "1.6"
WHITE_COLOR_PATCHES "4"
BLACK_COLOR_PATCHES "4"
SINGLE_DIM_STEPS "17"
COMP_GREY_STEPS "49"
OFPS_PATCHES "288"

NUMBER_OF_FIELDS 7
BEGIN_DATA_FORMAT
SAMPLE_ID RGB_R RGB_G RGB_B XYZ_X XYZ_Y XYZ_Z
END_DATA_FORMAT

NUMBER_OF_SETS 417
BEGIN_DATA
1 100.0000 100.0000 100.0000 96.10138 100.0000 107.7957
2 1.960800 1.960800 1.960800 1.142800 1.150200 1.163700
3 3.921600 3.921600 3.921600 1.285600 1.300500 1.327300
4 5.882400 5.882400 5.882400 1.449500 1.472900 1.515200
5 9.803900 9.803900 9.803900 1.914800 1.962400 2.048400
6 13.72600 13.72600 13.72600 2.581700 2.663900 2.812600
7 17.64700 17.64700 17.64700 3.469500 3.597900 3.830000
8 21.56900 21.56900 21.56900 4.595300 4.782200 5.120100
9 25.49000 25.49000 25.49000 5.974500 6.233200 6.700700
10 29.41200 29.41200 29.41200 7.621300 7.965600 8.587900
11 33.33300 33.33300 33.33300 9.548800 9.993300 10.79700
12 37.25500 37.25500 37.25500 11.76900 12.32900 13.34100
13 41.17600 41.17600 41.17600 14.29400 14.98500 16.23400
14 45.09800 45.09800 45.09800 17.13400 17.97300 19.48900
15 49.02000 49.02000 49.02000 20.29900 21.30300 23.11700
16 52.94100 52.94100 52.94100 23.80000 24.98600 27.12900
17 56.86300 56.86300 56.86300 27.64600 29.03200 31.53600
18 60.78400 60.78400 60.78400 31.84600 33.45000 36.34900
19 64.70600 64.70600 64.70600 36.40900 38.25000 41.57800
20 68.62700 68.62700 68.62700 41.34300 43.44000 47.23200
21 72.54900 72.54900 72.54900 46.65600 49.03000 53.32100
22 76.47100 76.47100 76.47100 52.35600 55.02700 59.85300
23 80.39200 80.39200 80.39200 58.45200 61.43900 66.83800
24 84.31400 84.31400 84.31400 64.94900 68.27500 74.28500
25 88.23500 88.23500 88.23500 71.85700 75.54100 82.20000
26 92.15700 92.15700 92.15700 79.18100 83.24600 90.59400
27 96.07800 96.07800 96.07800 86.92900 91.39700 99.47200
28 10.41500 22.52720 16.26740 2.659622 3.745385 3.029184
29 17.50990 32.09610 30.16130 5.892982 7.557250 8.678590
30 39.94160 41.85720 100.0000 30.83836 20.38523 100.9113
31 42.56850 57.71080 100.0000 37.42101 32.30915 102.1469
32 0.000000 65.81390 73.84550 26.69693 34.42412 58.19530
33 0.000000 77.47410 74.39310 33.92681 48.37214 60.60027
34 22.46820 81.90560 85.25460 42.23856 56.10250 80.79531
35 100.0000 33.21020 0.000000 42.67969 27.52659 1.294298
36 100.0000 54.80160 0.000000 49.49808 40.96910 2.725898
37 100.0000 74.22060 0.000000 59.78840 61.25655 4.886471
38 100.0000 82.17290 27.32990 66.22253 71.81640 12.40187
39 100.0000 81.70360 55.00440 70.20637 72.55895 33.86767
40 26.11940 0.000000 0.000000 2.205329 1.226987 0.232286
41 28.70550 0.000000 0.000000 2.656389 1.463744 0.236290
42 31.25000 0.000000 0.000000 3.159064 1.727594 0.240754
43 36.88520 0.000000 0.000000 4.473971 2.417777 0.252428
44 43.10350 0.000000 0.000000 6.158049 3.301735 0.267381
45 46.82770 0.000000 0.000000 7.257082 3.878608 0.277139
46 50.00000 0.000000 0.000000 8.285515 4.418423 0.286270
47 57.69230 0.000000 0.000000 11.29386 5.997478 0.312980
48 66.32650 0.000000 0.000000 15.23046 8.063763 0.347932
49 69.99050 0.000000 17.70070 17.64722 9.212614 3.234291
50 87.84740 13.55600 19.43250 29.83203 16.54750 4.006614
51 89.92490 16.71960 37.21730 33.51079 18.55124 12.48883
52 40.15990 0.000000 15.84190 5.805850 3.018805 2.611534
53 42.71240 20.88260 33.84510 9.419205 6.677116 10.30034
54 2.941200 0.000000 0.000000 0.208398 0.178815 0.214555
55 18.48340 20.75260 10.17370 2.813330 3.546350 1.612471
56 30.87080 52.22780 16.24360 12.86559 20.16556 4.651096
57 57.82620 85.49740 21.02710 40.09053 61.38755 10.11523
58 73.16810 86.77140 13.34420 47.88312 66.77727 8.161279
59 78.63980 100.0000 32.33500 60.65105 85.16895 17.08508
60 0.000000 43.10350 0.000000 6.253781 12.18665 1.496269
61 0.000000 50.00000 0.000000 8.610075 16.83211 1.991001
62 0.000000 57.69230 0.000000 11.71374 22.95101 2.642652
63 0.000000 66.32650 0.000000 16.05775 31.51527 3.554728
64 0.000000 76.08700 0.000000 21.94687 43.12572 4.791218
65 0.000000 87.20930 0.000000 29.22534 57.47529 6.319418
66 26.55400 89.85300 21.14800 33.96133 62.41769 10.69309
67 71.84910 100.0000 51.46250 59.93757 84.15939 32.27996
68 51.16700 7.130900 15.28240 9.368165 5.235386 2.544292
69 73.48060 21.22110 22.66040 21.28816 13.18696 5.208491
70 86.72970 36.10800 28.54480 33.14756 23.18838 8.321227
71 100.0000 49.93970 47.53110 51.65384 38.55154 22.52000
72 100.0000 82.18740 73.74040 75.82516 74.86534 60.49051
73 100.0000 100.0000 86.31830 91.63719 98.59001 85.41806
74 100.0000 100.0000 100.0000 96.10138 100.0000 107.7957
75 0.000000 0.000000 36.88520 2.458419 0.876564 11.80215
76 0.000000 0.000000 43.10350 3.378089 1.167036 16.41218
77 0.000000 0.000000 50.00000 4.659603 1.571794 22.83602
78 0.000000 0.000000 57.69230 6.358306 2.108319 31.35111
79 0.000000 0.000000 66.32650 8.694347 2.846143 43.06097
80 0.000000 0.000000 76.08700 11.82378 3.834555 58.74787
81 25.28460 13.14040 84.14440 17.31103 7.013130 73.59627
82 56.00660 40.46890 89.81120 32.49170 21.33940 84.64990
83 67.19510 73.60200 100.0000 55.70142 54.38990 104.0447
84 1.938000 1.938000 1.938000 0.243990 0.252455 0.320328
85 2.941200 2.941200 2.941200 0.310190 0.324000 0.396917
86 3.968300 3.968300 3.968300 0.388977 0.409709 0.489823
87 5.020100 5.020100 5.020100 0.482856 0.511715 0.602987
88 6.097600 6.097600 6.097600 0.592204 0.629893 0.735125
89 7.201600 7.201600 7.201600 0.719028 0.766863 0.888173
90 8.333300 8.333300 8.333300 0.864331 0.923692 1.065378
91 9.493700 9.493700 9.493700 1.030345 1.102381 1.267654
92 10.68380 10.68380 10.68380 1.218924 1.304553 1.497026
93 11.90480 11.90480 11.90480 1.432128 1.533383 1.756382
94 13.15790 13.15790 13.15790 1.672333 1.789966 2.047075
95 14.44440 14.44440 14.44440 1.941483 2.077166 2.371451
96 15.76580 15.76580 15.76580 2.243288 2.398438 2.733136
97 17.12330 17.12330 17.12330 2.580282 2.755913 3.134535
98 18.51850 18.51850 18.51850 2.955645 3.153354 3.579553
99 19.95310 19.95310 19.95310 3.373980 3.595512 4.071289
100 21.42860 21.42860 21.42860 3.838655 4.085478 4.614287
101 22.94690 22.94690 22.94690 4.354456 4.628669 5.211558
102 24.50980 24.50980 24.50980 4.927130 5.229741 5.870007
103 26.11940 26.11940 26.11940 5.562269 5.895455 6.592985
104 27.77780 27.77780 27.77780 6.266268 6.631767 7.386717
105 29.48720 29.48720 29.48720 7.046502 7.447159 8.257285
106 31.25000 31.25000 31.25000 7.912229 8.349487 9.213049
107 33.06880 33.06880 33.06880 8.873950 9.350822 10.26786
108 34.94620 34.94620 34.94620 9.944797 10.47024 11.44046
109 36.88520 36.88520 36.88520 11.13361 11.71981 12.75346
110 38.88890 38.88890 38.88890 12.45125 13.11463 14.23072
111 40.96050 40.96050 40.96050 13.89993 14.65335 15.88653
112 43.10350 43.10350 43.10350 15.49660 16.36260 17.74782
113 45.32160 45.32160 45.32160 17.25107 18.25218 19.83757
114 47.61910 47.61910 47.61910 19.16142 20.29549 22.14946
115 0.000000 0.000000 0.000000 0.146661 0.146410 0.214007
116 0.000000 0.000000 2.941200 0.180181 0.156997 0.382034
117 46.99210 14.39450 43.59420 11.35867 6.404198 17.04564
118 48.20530 13.28330 62.86100 15.90327 7.762601 38.36707
119 32.90100 13.42860 42.87940 7.365443 4.213655 16.39257
120 42.21580 26.54430 69.63460 17.69571 10.61507 48.56700
121 44.66620 41.97840 78.13040 24.77540 18.80916 63.67902
122 53.36030 77.44570 80.95490 45.62786 53.99418 72.50666
123 34.92620 100.0000 67.73570 50.02722 78.09009 52.95524
124 63.55780 100.0000 69.64600 60.54252 83.48748 55.96874
125 14.77600 82.88630 48.64090 31.30013 53.55365 26.99219
126 25.93180 87.51680 68.15290 40.54428 61.81264 51.92917
127 53.96780 87.68160 71.20640 49.17968 66.30541 56.80770
128 57.82980 89.80620 86.38560 57.61019 71.72847 83.98374
129 91.26980 91.26980 91.26980 80.35618 84.85759 92.94332
130 38.52980 13.69510 17.12100 6.114606 4.144454 3.100406
131 68.48010 15.51120 39.23000 19.76972 11.10960 13.72746
132 74.21870 46.55300 43.55600 29.85998 25.53639 18.48658
133 84.14620 68.03220 55.66770 48.17110 48.51656 32.70129
134 92.72860 79.17630 79.36090 69.19773 68.11097 69.96445
135 13.15790 0.000000 0.000000 0.702640 0.438238 0.218944
136 17.12330 0.000000 0.000000 1.042308 0.616527 0.221959
137 31.86920 34.03410 42.60460 10.11346 10.03432 16.79777
138 35.10530 49.10040 59.41770 18.81604 20.32696 35.27572
139 38.88430 65.09770 63.49900 28.00069 35.22124 42.30039
140 84.68680 100.0000 68.85430 72.38633 89.75545 54.84695
141 100.0000 100.0000 70.73670 86.15263 96.85775 57.92567
142 28.31680 15.18240 65.74550 11.77373 5.665933 42.41591
143 46.60850 48.18680 70.54820 24.83215 22.34927 51.19481
144 72.60240 67.03090 83.92160 49.26779 46.45786 76.63222
145 83.33330 83.33330 83.33330 65.83761 70.00427 77.78610
146 87.20930 87.20930 87.20930 72.74636 77.03936 85.21057
147 31.07790 69.63190 77.70660 33.12853 40.57568 65.39409
148 36.94910 71.28880 100.0000 43.08051 45.65954 103.6400
149 0.000000 0.000000 87.20930 15.83563 5.101672 78.85805
150 0.000000 0.000000 100.0000 19.98638 6.412660 99.66450
151 0.000000 25.26240 100.0000 22.03104 10.44374 100.0938
152 39.91730 24.49030 100.0000 27.03790 12.90211 100.1147
153 39.47770 0.000000 100.0000 24.99170 9.039914 99.70894
154 100.0000 0.000000 100.0000 59.02508 26.90374 100.0111
155 0.000000 0.000000 21.42860 0.959185 0.403040 4.286943
156 0.000000 0.000000 26.11940 1.324296 0.518359 6.117136
157 27.39300 0.000000 26.02150 3.589809 1.709264 6.095178
158 50.85120 12.34480 29.86870 10.66940 6.171554 8.035225
159 64.26830 0.000000 27.66470 15.56420 7.964307 6.924589
160 80.74290 3.713500 37.72840 25.67529 13.17378 12.58636
161 100.0000 0.000000 58.25360 45.53601 22.64330 32.39450
162 100.0000 0.000000 75.54610 50.67545 24.26656 58.15698
163 76.17140 0.000000 69.23850 29.77795 13.73070 47.60563
164 82.91580 29.52190 71.41970 37.55998 21.66928 51.69472
165 46.15630 0.000000 32.89680 8.887828 4.350854 9.476400
166 53.28770 0.000000 52.96610 14.60786 6.664707 26.00829
167 65.25690 17.68320 64.38370 23.76957 12.40446 40.64688
168 77.20000 32.17130 84.28770 38.88109 22.15388 74.57518
169 87.03070 47.79130 89.45300 51.98735 35.01269 84.66955
170 14.57990 7.752400 35.76350 3.250954 1.709654 11.15229
171 15.93710 8.704800 51.86250 6.147049 2.736504 24.82872
172 18.04450 41.42550 85.71460 21.89037 16.47935 77.40553
173 23.33900 51.33570 86.47530 26.17010 23.53880 79.45847
174 0.000000 100.0000 63.25800 44.90425 75.66876 46.50255
175 0.000000 100.0000 83.35230 51.54986 77.76774 79.81501
176 0.000000 100.0000 100.0000 57.06268 79.50892 107.4491
177 46.20370 100.0000 100.0000 63.98262 83.14114 107.5105
178 77.79950 100.0000 100.0000 78.21029 90.60912 107.6369
179 41.43450 100.0000 0.000000 42.76365 76.15093 8.047807
180 73.39860 100.0000 0.000000 55.94573 83.07009 8.164847
181 100.0000 100.0000 0.000000 76.26167 93.73375 8.345227
182 19.75450 60.66040 26.60710 15.49294 26.68108 9.057890
183 17.30480 60.20580 41.30210 16.73063 26.65076 17.63815
184 15.96840 61.99790 61.76330 21.83127 29.72382 39.52171
185 18.91900 61.73440 77.25480 26.81121 31.13243 63.66443
186 53.36160 82.88650 100.0000 55.57490 63.03480 105.2545
187 0.000000 33.55980 67.05070 12.47507 9.950538 44.86810
188 0.000000 46.68710 72.84980 18.01948 17.86723 54.77568
189 0.000000 55.97000 100.0000 30.79346 27.71893 101.9336
190 0.000000 42.21980 100.0000 25.81771 17.90918 100.8889
191 0.000000 69.75080 100.0000 37.80728 41.54673 103.4062
192 0.000000 82.19520 100.0000 45.75483 57.21539 105.0749
193 46.49440 61.37820 65.80780 28.86312 32.71762 45.17024
194 46.72700 65.79760 78.98570 35.57803 38.69474 67.33146
195 44.49920 42.53880 55.64690 18.21609 17.01187 30.21766
196 62.99230 52.03320 65.16520 31.09740 28.01318 43.45631
197 76.69820 64.73520 71.53640 45.87270 43.82376 54.43228
198 0.000000 72.06410 30.42660 20.95497 38.55959 12.15573
199 20.28110 81.53130 30.62200 28.30843 51.23481 13.54478
200 49.22900 100.0000 29.50270 46.58788 77.84762 15.51680
201 100.0000 100.0000 29.11490 77.71020 94.19126 15.60629
202 100.0000 100.0000 51.76600 81.13708 95.27362 32.78420
203 58.28400 69.65890 0.000000 29.31805 41.16021 4.045645
204 85.09040 76.64290 44.76390 51.98865 58.67000 22.72898
205 89.62330 18.32650 53.40190 36.29825 19.66169 26.89911
206 100.0000 34.83310 58.64170 49.48800 30.27330 33.69242
207 100.0000 60.88630 65.15740 60.46180 48.98423 44.47844
208 100.0000 60.60750 80.45610 65.37998 50.30978 69.79265
209 100.0000 77.56640 82.57870 75.97735 69.91272 75.75932
210 0.000000 2.941200 0.000000 0.214933 0.281008 0.228342
211 0.000000 6.097600 0.000000 0.333069 0.513915 0.253146
212 0.000000 9.493700 0.000000 0.514920 0.872437 0.291328
213 0.000000 26.11940 0.000000 2.325966 4.442929 0.671578
214 16.29590 30.34340 13.54950 4.237005 6.439621 2.618295
215 32.68800 37.26680 27.80510 9.240665 11.07187 7.825744
216 48.36570 45.43900 27.59310 15.92133 18.09393 8.277161
217 100.0000 0.000000 15.15120 39.61864 20.77433 2.732513
218 100.0000 0.000000 28.62370 40.58740 21.08031 7.588617
219 76.08700 0.000000 0.000000 20.31230 10.73118 0.393053
220 75.44400 26.43350 0.000000 22.18898 14.94207 0.858113
221 87.20930 0.000000 0.000000 27.97871 14.75521 0.461121
222 86.92410 21.61820 8.996600 29.45469 17.69962 1.669857
223 100.0000 30.49190 22.09310 42.99118 26.71697 5.489619
224 100.0000 50.25030 27.78840 49.06563 37.92287 8.998417
225 100.0000 66.02300 28.32340 56.30879 52.12171 10.75450
226 100.0000 66.94140 53.87400 60.75393 54.34089 30.67191
227 69.93980 24.52830 12.72080 19.30045 12.92982 2.368899
228 88.44100 42.47570 11.55180 35.15014 27.01253 3.065302
229 90.26830 76.96240 10.78300 53.08180 60.22242 6.382170
230 89.52580 82.70610 62.85630 63.54372 69.60915 43.90439
231 36.80650 28.07980 0.000000 6.960210 7.348248 0.778451
232 44.51300 34.85590 24.57560 11.47392 11.45612 6.342346
233 55.98760 42.82120 39.13240 19.20313 18.30716 14.69423
234 67.81200 50.76740 40.20940 27.48294 26.56752 16.10139
235 90.59200 61.04710 57.06940 49.95898 44.03789 33.62442
236 100.0000 0.000000 0.000000 39.18536 20.63748 0.560621
237 100.0000 0.000000 41.68300 42.18625 21.58530 15.60318
238 100.0000 30.75880 41.02040 45.08034 27.46193 15.71507
239 58.61010 41.32540 18.37980 17.86947 17.36762 4.557205
240 59.52820 59.37430 41.55800 27.41696 31.68270 17.85398
241 78.76410 86.64880 47.09560 54.52920 69.39667 26.20561
242 32.59160 57.05600 0.000000 14.73105 24.12356 2.612282
243 68.00230 63.89700 13.25010 31.02617 37.44238 5.142591
244 76.08700 76.08700 76.08700 53.78963 57.39864 63.50413
245 79.62960 79.62960 79.62960 59.46384 63.40635 70.43659
246 81.82420 87.13050 100.0000 72.76802 76.10740 105.9698
247 17.39730 25.14700 38.22520 5.587476 5.413488 13.13559
248 27.91510 29.41880 50.90640 9.955288 8.284124 24.35791
249 27.95870 36.34790 66.96830 15.46928 12.45954 44.90335
250 7.886400 32.76430 55.13850 9.396069 8.747242 29.04800
251 23.57060 44.41040 63.74120 16.16022 16.36403 40.77891
252 22.00880 73.36450 92.02150 39.01420 45.92888 91.45880
253 33.73080 86.92390 100.0000 52.43612 65.23777 105.7619
254 0.000000 22.39980 22.07180 2.634673 3.630390 4.858875
255 13.21430 24.04620 29.83300 4.086735 4.590477 8.219620
256 51.61170 30.77290 33.46260 13.75102 11.23027 10.43735
257 0.000000 0.000000 0.000000 0.146661 0.146410 0.214007
258 0.000000 19.07310 50.16320 5.904825 3.972434 23.25506
259 0.000000 22.09440 72.29800 12.13248 6.562056 52.66619
260 86.65530 78.56600 88.42570 67.04605 65.72950 86.15866
261 95.52850 95.52850 95.52850 88.30901 92.95047 100.4785
262 100.0000 100.0000 100.0000 96.10138 100.0000 107.7957
263 0.000000 33.12680 22.11360 4.484560 7.272427 5.261874
264 0.000000 40.03060 43.06530 8.560539 11.39479 17.46981
265 15.38710 50.12900 56.38970 15.29140 19.17442 31.57639
266 22.52780 66.71810 56.10600 23.62280 34.57077 32.84796
267 49.78310 73.81150 65.12300 36.75655 47.07264 45.68297
268 26.82670 37.55880 0.000000 6.843001 10.19985 1.182341
269 79.57910 45.81250 0.000000 29.38807 25.61754 1.880693
270 78.36860 60.19010 0.000000 34.35618 36.50609 3.075858
271 0.000000 100.0000 0.000000 37.22296 73.24267 7.998613
272 0.000000 100.0000 27.19520 38.49441 73.64425 14.37197
273 0.000000 100.0000 47.14330 41.17623 74.49129 27.81512
274 30.97940 14.21610 0.000000 3.823543 3.119172 0.391605
275 51.26450 20.26450 0.000000 10.08145 7.319677 0.574463
276 51.26440 49.44470 0.000000 16.98817 20.93641 2.024620
277 50.00000 50.00000 50.00000 21.26187 22.52950 24.68528
278 62.13630 50.79440 54.71380 27.53946 26.03923 29.80579
279 61.78840 70.30460 62.09100 38.62163 45.05993 41.02811
280 72.69500 72.69500 72.69500 48.65234 51.79955 57.27204
281 74.83470 86.58850 79.92610 61.37178 71.02301 71.92943
282 78.41850 100.0000 85.14330 73.70318 89.26299 83.19111
283 0.000000 21.42860 0.000000 1.647423 3.105175 0.529110
284 0.000000 31.45670 44.84070 6.811064 7.439324 18.57134
285 19.25420 38.08340 45.76180 9.618910 11.08252 19.73147
286 87.60290 48.27740 75.83120 47.72541 34.04436 60.20024
287 0.000000 0.000000 0.000000 0.146661 0.146410 0.214007
288 0.957900 0.957900 0.957900 0.189559 0.193098 0.260119
289 74.11110 0.000000 45.87560 22.96435 11.34613 19.01702
290 86.74370 12.24200 62.05870 35.51733 17.98420 37.41884
291 100.0000 34.70710 76.26130 54.74935 31.88745 60.20408
292 18.60760 0.000000 12.89400 1.521130 0.799607 1.859870
293 23.28410 8.728100 12.99240 2.426719 1.739997 1.954418
294 65.79790 51.89380 16.06020 24.62342 26.15585 4.680383
295 83.98570 54.61140 17.52980 36.27678 33.79848 5.407840
296 88.03800 67.04400 21.12930 45.73167 47.48408 7.856539
297 16.45400 10.19980 0.000000 1.391130 1.397473 0.308159
298 27.31810 15.88710 10.67200 3.518701 3.132724 1.601525
299 36.31490 26.57370 40.36350 9.381034 7.667470 14.75001
300 48.88270 37.35410 43.88270 15.74154 14.09090 18.08141
301 85.71290 37.88240 60.56550 38.35016 25.40740 36.24312
302 0.000000 0.000000 0.000000 0.146661 0.146410 0.214007
303 33.02020 20.00150 24.99760 5.950109 4.878422 5.954641
304 38.79680 57.90400 34.59110 18.66061 26.31144 12.87183
305 0.000000 31.25000 0.000000 3.239457 6.243885 0.863376
306 0.000000 36.88520 0.000000 4.494538 8.718288 1.126895
307 48.09360 53.98480 17.32760 18.18643 23.93854 5.137523
308 69.70660 61.08170 34.41290 32.09494 35.53359 13.18783
309 97.14370 68.39410 42.23990 56.60960 53.78979 19.60201
310 57.45980 37.16460 0.000000 15.61217 14.65602 1.239809
311 70.88680 37.48810 15.02400 22.47019 18.28675 3.453453
312 41.28780 18.87010 12.77440 7.156966 5.478835 2.123071
313 53.75290 20.62640 85.84560 26.26732 12.70057 76.83129
314 93.78080 19.64630 85.23060 49.71923 24.88317 75.93380
315 100.0000 37.13090 100.0000 63.43506 35.59806 100.9370
316 13.23050 9.881900 17.83460 1.681067 1.398423 3.210849
317 20.65500 39.68900 28.53360 7.915483 11.30047 8.280439
318 47.94790 50.13500 40.43320 18.92979 21.73341 16.14603
319 57.69230 57.69230 57.69230 29.07259 30.76399 33.87872
320 60.45750 60.45750 60.45750 32.28383 34.15935 37.70424
321 60.31200 5.302600 46.30490 16.39717 8.102703 19.38491
322 66.78230 24.07930 52.01950 22.24783 13.41713 25.44721
323 66.10380 36.28730 63.12790 26.96718 18.70103 39.55157
324 53.05900 36.98840 52.52610 18.80022 15.21231 26.45497
325 71.85520 45.75990 52.21380 30.00133 24.87498 26.74838
326 74.79860 48.42200 63.18910 35.16934 28.34834 40.45252
327 88.66820 52.25940 63.48210 46.20566 36.16674 41.24156
328 68.25000 60.76270 53.62890 34.45560 35.85962 29.51796
329 72.82860 73.86720 56.86740 44.95578 51.88630 34.79211
330 66.18590 74.03750 84.25370 50.29621 53.04206 78.07627
331 67.81050 88.09690 96.45990 64.40173 72.87486 100.6645
332 100.0000 100.0000 100.0000 96.10138 100.0000 107.7957
333 15.45030 42.75250 19.73740 7.581628 12.57701 4.979575
334 32.88280 42.32220 21.16300 10.16974 13.72236 5.454134
335 41.28390 57.54600 46.02970 20.89271 26.89100 21.45327
336 0.000000 51.87110 28.91010 10.73493 18.65523 9.300539
337 0.000000 55.58600 50.44320 15.39167 22.58162 25.52023
338 0.000000 73.61690 52.13240 25.31469 41.56618 29.28256
339 0.220000 81.84180 67.36180 34.53456 53.28352 49.94047
340 29.18840 86.88900 80.14460 44.76726 62.57691 72.23116
341 51.96820 15.92730 9.656400 10.06115 6.580041 1.478215
342 56.69730 32.87090 21.17060 15.08358 12.77120 5.009669
343 41.67240 26.67030 10.94460 8.268577 7.639760 1.975635
344 41.47120 39.84200 12.01720 11.12247 13.27670 2.790938
345 39.55090 100.0000 48.39700 46.44270 77.20514 29.06998
346 44.60620 100.0000 84.35170 58.35132 81.26329 81.65795
347 14.35840 42.96530 40.08800 9.615726 13.31174 15.31259
348 20.71860 50.70360 40.67630 13.00451 18.91896 16.31905
349 52.46910 52.46910 52.46910 23.57783 24.97442 27.44526
350 55.03140 55.03140 55.03140 26.16513 27.69259 30.48430
351 80.61350 63.68370 62.77170 45.13233 43.17786 41.29198
352 90.17260 66.20640 79.35850 59.11227 51.33313 68.27414
353 0.000000 0.000000 6.097600 0.242523 0.176687 0.694536
354 0.000000 0.000000 31.25000 1.807030 0.670827 8.536934
355 28.43530 0.000000 43.67980 5.935605 2.489081 16.92255
356 57.35330 0.000000 77.35190 23.27379 9.750733 61.09555
357 78.49780 15.70750 86.96720 38.17433 18.08548 78.80188
358 72.71500 0.000000 100.0000 38.34687 16.04992 99.82751
359 74.77040 30.46990 100.0000 42.37891 22.42186 100.4548
360 80.61330 67.67640 100.0000 59.55477 51.25812 103.3625
361 100.0000 83.52320 100.0000 85.67519 79.44468 105.6066
362 6.097600 0.000000 0.000000 0.309933 0.232110 0.215457
363 9.493700 0.000000 0.000000 0.467884 0.315017 0.216859
364 21.42860 0.000000 0.000000 1.525370 0.870082 0.226248
365 32.00480 9.083100 23.87720 4.657437 2.802747 5.298120
366 58.60510 29.68970 45.24410 18.08951 12.85444 18.96322
367 72.46090 32.68850 45.26810 25.36379 17.52430 19.16792
368 89.49790 42.28180 48.61620 39.93024 28.60570 22.94698
369 81.06010 78.77710 0.000000 46.90166 58.72278 5.360083
370 81.01890 79.74750 30.28270 49.06550 60.44250 13.32386
371 23.29170 23.25100 58.93810 10.04587 6.506721 33.29555
372 23.24040 29.97930 83.21510 18.89414 11.12318 72.39653
373 32.38750 0.000000 68.68930 12.65292 4.777235 46.60828
374 62.67040 35.14630 74.88040 28.70198 18.46149 57.61089
375 62.16950 56.66090 91.95410 41.73053 34.41831 89.57099
376 63.15110 47.73460 74.47810 32.51222 25.88085 57.70920
377 73.44580 50.51630 100.0000 47.38757 33.31340 101.6478
378 0.000000 12.91240 19.69970 1.453757 1.571375 3.830116
379 0.000000 17.38940 35.73770 3.339824 2.854731 11.28966
380 20.19710 17.71090 37.43090 4.818591 3.634828 12.39681
381 45.71670 28.54010 56.13670 15.34607 10.64590 30.08892
382 54.50670 56.92420 66.40050 29.75238 30.13219 45.61203
383 69.44440 69.44440 69.44440 43.91606 46.65837 51.59780
384 86.40720 83.22480 74.42660 64.90252 70.08104 61.68993
385 41.84650 77.85250 0.000000 28.72972 48.31671 5.078115
386 50.74300 78.05830 33.41240 33.49619 50.61527 14.61810
387 31.29040 67.67870 17.66930 20.38265 34.72699 6.596244
388 57.50160 68.79380 21.54590 29.29926 40.25531 8.051950
389 58.97700 69.78400 39.27050 32.33403 42.29799 17.28692
390 59.04720 76.14340 57.60000 39.91196 51.31357 35.92662
391 40.94450 82.89860 46.40040 35.60186 55.91290 24.88917
392 61.02760 86.98230 54.53240 47.17007 65.53282 33.83271
393 80.01060 89.49390 72.85520 63.88634 75.70751 59.88538
394 63.33330 63.33330 63.33330 35.84928 38.00584 41.95294
395 66.32650 66.32650 66.32650 39.68923 42.13235 46.53562
396 35.13180 50.10590 48.17740 16.69311 20.26308 22.84614
397 38.80580 72.55670 50.27440 29.08088 42.64595 27.25910
398 0.000000 52.13030 66.90910 18.12114 21.15056 45.85418
399 19.94870 58.42570 83.58240 27.65310 28.78510 74.95210
400 47.33190 60.57160 84.39800 35.02019 34.04993 76.67279
401 85.45310 62.79810 86.48890 56.08018 46.60033 80.77142
402 100.0000 62.60010 100.0000 72.96858 54.39349 102.9387
403 0.000000 13.15790 0.000000 0.778103 1.391303 0.346586
404 0.000000 17.12330 0.000000 1.145430 2.115491 0.423711
405 19.78670 21.63700 0.000000 2.854281 3.777985 0.545294
406 31.03920 27.30870 14.00810 5.866943 6.504975 2.630474
407 37.35410 27.34520 24.84250 8.045048 7.512048 6.122469
