KOIOS/K2418U/K2418U #1 2019-04-01 15-18 0.3127x 0.329y sRGB F-S XYZLUT+MTX/K2418U #1 2019-04-01 15-18 0.3127x 0.329y sRGB F-S XYZLUT+MTX.bpc.ti3
CTI3   

DESCRIPTOR "Argyll Calibration Target chart information 3"
ORIGINATOR "Argyll dispread"
CREATED "Mon Apr  1 15:28:32 2019"
DEVICE_CLASS "DISPLAY"
SINGLE_DIM_STEPS "17"
COMP_GREY_STEPS "49"
DARK_REGION_EMPHASIS "1.6"
COLOR_REP "RGB_XYZ"
TARGET_INSTRUMENT "X-Rite i1 DisplayPro, ColorMunki Display"
DISPLAY_TYPE_REFRESH "NO"
DISPLAY_TYPE_BASE_ID "1"
INSTRUMENT_TYPE_SPECTRAL "NO"
LUMINANCE_XYZ_CDM2 "65.649215 68.913188 76.077257"
NORMALIZED_TO_Y_100 "YES"
VIDEO_LUT_CALIBRATION_POSSIBLE "YES"

BEGIN_ARGYLL_COLPROF_ARGS
-v -qh -aX -bn -C "No copyright. Created with DisplayCAL 3.7.2.0 and ArgyllCMS 2.0.1" -M "KOIOS K2418U"
END_ARGYLL_COLPROF_ARGS

OBSERVER "1931_2"
USE_BLACK_POINT_COMPENSATION "NO"
BLACK_POINT_CORRECTION "0.0"
HIRES_B2A "YES"
HIRES_B2A_SIZE "-1"
SMOOTH_B2A "YES"
PATCH_SEQUENCE "OPTIMIZE_DISPLAY_RESPONSE_DELAY"

NUMBER_OF_FIELDS 7
BEGIN_DATA_FORMAT
SAMPLE_ID RGB_R RGB_G RGB_B XYZ_X XYZ_Y XYZ_Z
END_DATA_FORMAT

NUMBER_OF_SETS 417
BEGIN_DATA
1 100.0000 100.0000 100.0000 95.26365 100.0000 110.3958
2 1.960800 1.960800 1.960800 0.216673 0.228818 0.263800
3 3.921600 3.921600 3.921600 0.366480 0.389623 0.451792
4 5.882400 5.882400 5.882400 0.545731 0.582614 0.665735
5 9.803900 9.803900 9.803900 1.046083 1.113986 1.271427
6 13.72600 13.72600 13.72600 1.689849 1.800257 2.043422
7 17.64700 17.64700 17.64700 2.549204 2.710169 3.042128
8 21.56900 21.56900 21.56900 3.628001 3.840862 4.291875
9 25.49000 25.49000 25.49000 5.003796 5.292144 5.833071
10 29.41200 29.41200 29.41200 6.715612 7.070735 7.758113
11 33.33300 33.33300 33.33300 8.676275 9.127443 10.00398
12 37.25500 37.25500 37.25500 10.90352 11.49093 12.56202
13 41.17600 41.17600 41.17600 13.40096 14.17384 15.43963
14 45.09800 45.09800 45.09800 16.23909 17.18616 18.75196
15 49.02000 49.02000 49.02000 19.41982 20.57860 22.36167
16 52.94100 52.94100 52.94100 22.83814 24.15483 26.41842
17 56.86300 56.86300 56.86300 26.68424 28.21617 31.00281
18 60.78400 60.78400 60.78400 31.05044 32.79737 35.85314
19 64.70600 64.70600 64.70600 35.66323 37.64573 40.82194
20 68.62700 68.62700 68.62700 40.86206 43.09344 46.86141
21 72.54900 72.54900 72.54900 46.19524 48.69758 52.70609
22 76.47100 76.47100 76.47100 51.62513 54.41193 58.79078
23 80.39200 80.39200 80.39200 57.64881 60.72589 65.98269
24 84.31400 84.31400 84.31400 64.51279 67.84453 74.00350
25 88.23500 88.23500 88.23500 71.85334 75.55900 82.57918
26 92.15700 92.15700 92.15700 79.47444 83.69380 90.60549
27 96.07800 96.07800 96.07800 87.04951 91.72004 98.63067
28 10.41500 22.52720 16.26740 2.311520 3.214359 2.738335
29 17.50990 32.09610 30.16130 5.382536 6.893668 8.305074
30 39.94160 41.85720 100.0000 32.25898 21.90355 108.1170
31 42.56850 57.71080 100.0000 38.01275 32.39646 109.0325
32 0.000000 65.81390 73.84550 22.37391 29.41024 55.44519
33 0.000000 77.47410 74.39310 27.87203 40.52613 57.75405
34 22.46820 81.90560 85.25460 36.52747 48.74303 77.33981
35 100.0000 33.21020 0.000000 39.76609 25.78410 1.016441
36 100.0000 54.80160 0.000000 45.59904 37.30772 2.046216
37 100.0000 74.22060 0.000000 53.58910 53.71129 3.523689
38 100.0000 82.17290 27.32990 60.58132 64.54849 9.885539
39 100.0000 81.70360 55.00440 65.67570 66.80748 30.19162
40 26.11940 0.000000 0.000000 2.029396 1.105187 0.198666
41 28.70550 0.000000 0.000000 2.412999 1.301556 0.202397
42 31.25000 0.000000 0.000000 2.896703 1.549254 0.205182
43 36.88520 0.000000 0.000000 3.980023 2.103098 0.210969
44 43.10350 0.000000 0.000000 5.425080 2.841091 0.216575
45 46.82770 0.000000 0.000000 6.394891 3.337056 0.221248
46 50.00000 0.000000 0.000000 7.514161 3.908879 0.226540
47 57.69230 0.000000 0.000000 10.18915 5.275711 0.239402
48 66.32650 0.000000 0.000000 14.07653 7.261359 0.258144
49 69.99050 0.000000 17.70070 17.01170 8.689548 2.639506
50 87.84740 13.55600 19.43250 28.84662 16.11037 3.261592
51 89.92490 16.71960 37.21730 32.76782 18.41508 11.38524
52 40.15990 0.000000 15.84190 5.344361 2.736197 2.263371
53 42.71240 20.88260 33.84510 9.185111 6.642185 9.787297
54 2.941200 0.000000 0.000000 0.174647 0.153727 0.144019
55 18.48340 20.75260 10.17370 2.532573 3.143955 1.455255
56 30.87080 52.22780 16.24360 10.89161 17.09737 3.793226
57 57.82620 85.49740 21.02710 33.59948 51.46775 7.864049
58 73.16810 86.77140 13.34420 41.96206 57.23420 5.987553
59 78.63980 100.0000 32.33500 56.15535 79.21307 14.40808
60 0.000000 43.10350 0.000000 4.349536 9.026563 1.000343
61 0.000000 50.00000 0.000000 6.005482 12.51712 1.319248
62 0.000000 57.69230 0.000000 8.118398 16.96447 1.721255
63 0.000000 66.32650 0.000000 11.11635 23.40389 2.309269
64 0.000000 76.08700 0.000000 15.46459 32.28135 3.113604
65 0.000000 87.20930 0.000000 20.36596 42.90514 4.083936
66 26.55400 89.85300 21.14800 26.52681 50.48342 8.352021
67 71.84910 100.0000 51.46250 55.85831 79.03104 28.98068
68 51.16700 7.130900 15.28240 8.896805 5.032872 2.203431
69 73.48060 21.22110 22.66040 21.11662 13.19052 4.429332
70 86.72970 36.10800 28.54480 32.55531 23.12055 7.231221
71 100.0000 49.93970 47.53110 50.14756 37.95553 20.38634
72 100.0000 82.18740 73.74040 71.83818 70.69452 54.92438
73 100.0000 100.0000 86.31830 88.74943 97.13715 79.83619
74 100.0000 100.0000 100.0000 95.49747 100.1595 110.6707
75 0.000000 0.000000 36.88520 2.323232 0.814219 11.98753
76 0.000000 0.000000 43.10350 3.172625 1.076719 16.60528
77 0.000000 0.000000 50.00000 4.314208 1.428210 22.77267
78 0.000000 0.000000 57.69230 5.853669 1.902229 31.06673
79 0.000000 0.000000 66.32650 7.848101 2.513132 41.82504
80 0.000000 0.000000 76.08700 10.62637 3.360206 56.84235
81 25.28460 13.14040 84.14440 16.75057 7.321995 71.70701
82 56.00660 40.46890 89.81120 32.69482 22.60578 82.75069
83 67.19510 73.60200 100.0000 55.51100 52.87989 110.2121
84 1.938000 1.938000 1.938000 0.216887 0.228887 0.264151
85 2.941200 2.941200 2.941200 0.272285 0.289166 0.336012
86 3.968300 3.968300 3.968300 0.366466 0.389640 0.452336
87 5.020100 5.020100 5.020100 0.467463 0.498000 0.579621
88 6.097600 6.097600 6.097600 0.590169 0.628094 0.726065
89 7.201600 7.201600 7.201600 0.679553 0.719337 0.828356
90 8.333300 8.333300 8.333300 0.826763 0.881080 1.007374
91 9.493700 9.493700 9.493700 0.986019 1.048919 1.203209
92 10.68380 10.68380 10.68380 1.167097 1.245015 1.407210
93 11.90480 11.90480 11.90480 1.349197 1.434972 1.624008
94 13.15790 13.15790 13.15790 1.619826 1.728589 1.953254
95 14.44440 14.44440 14.44440 1.847567 1.962984 2.222618
96 15.76580 15.76580 15.76580 2.090623 2.221963 2.509444
97 17.12330 17.12330 17.12330 2.443464 2.599811 2.924325
98 18.51850 18.51850 18.51850 2.727537 2.893153 3.257126
99 19.95310 19.95310 19.95310 3.168633 3.362541 3.754486
100 21.42860 21.42860 21.42860 3.617962 3.831280 4.284724
101 22.94690 22.94690 22.94690 4.134247 4.371934 4.876774
102 24.50980 24.50980 24.50980 4.550849 4.816838 5.335795
103 26.11940 26.11940 26.11940 5.309684 5.618174 6.184932
104 27.77780 27.77780 27.77780 5.996152 6.320784 6.956258
105 29.48720 29.48720 29.48720 6.720990 7.077057 7.770458
106 31.25000 31.25000 31.25000 7.640592 8.033758 8.831841
107 33.06880 33.06880 33.06880 8.443174 8.870114 9.738881
108 34.94620 34.94620 34.94620 9.539841 10.03541 10.96948
109 36.88520 36.88520 36.88520 10.65448 11.24568 12.27562
110 38.88890 38.88890 38.88890 11.82746 12.49292 13.62938
111 40.96050 40.96050 40.96050 13.09634 13.84309 15.10952
112 43.10350 43.10350 43.10350 14.76493 15.62663 17.05758
113 45.32160 45.32160 45.32160 16.51515 17.48848 19.08686
114 47.61910 47.61910 47.61910 18.09706 19.13442 20.87092
115 0.000000 0.000000 0.000000 0.117851 0.123720 0.136112
116 0.000000 0.000000 2.941200 0.152322 0.136219 0.307960
117 46.99210 14.39450 43.59420 11.30546 6.629379 16.42116
118 48.20530 13.28330 62.86100 15.74137 8.131108 36.38669
119 32.90100 13.42860 42.87940 7.393243 4.415822 15.90924
120 42.21580 26.54430 69.63460 17.50763 11.15136 46.60857
121 44.66620 41.97840 78.13040 24.04029 19.14882 59.93555
122 53.36030 77.44570 80.95490 41.37055 48.78254 67.06269
123 34.92620 100.0000 67.73570 44.62777 71.61637 49.64364
124 63.55780 100.0000 69.64600 56.38113 78.89866 52.05725
125 14.77600 82.88630 48.64090 24.86307 43.70933 24.98837
126 25.93180 87.51680 68.15290 34.26520 52.90211 48.77930
127 53.96780 87.68160 71.20640 44.23084 59.46913 52.94792
128 57.82980 89.80620 86.38560 52.84646 65.76552 79.85820
129 91.26980 91.26980 91.26980 77.79301 81.93611 88.84896
130 38.52980 13.69510 17.12100 5.818045 4.036771 2.786230
131 68.48010 15.51120 39.23000 19.93133 11.44816 12.87531
132 74.21870 46.55300 43.55600 29.57692 25.36565 17.13678
133 84.14620 68.03220 55.66770 46.27596 45.98798 29.98042
134 92.72860 79.17630 79.36090 65.73470 64.31915 63.09024
135 13.15790 0.000000 0.000000 0.664608 0.405690 0.175980
136 17.12330 0.000000 0.000000 0.954313 0.554782 0.184623
137 31.86920 34.03410 42.60460 9.854080 9.858268 16.45001
138 35.10530 49.10040 59.41770 17.84044 19.28270 34.04873
139 38.88430 65.09770 63.49900 25.39830 31.88037 39.91682
140 84.68680 100.0000 68.85430 69.25372 86.61572 50.60826
141 100.0000 100.0000 70.73670 82.46469 94.20882 52.58801
142 28.31680 15.18240 65.74550 11.54366 5.973646 40.86753
143 46.60850 48.18680 70.54820 24.05759 22.10631 48.73372
144 72.60240 67.03090 83.92160 47.90564 45.34699 71.86900
145 83.33330 83.33330 83.33330 62.22966 65.56628 71.43808
146 87.20930 87.20930 87.20930 69.57462 73.16581 80.27825
147 31.07790 69.63190 77.70660 29.85815 36.90120 61.52363
148 36.94910 71.28880 100.0000 41.99074 43.28947 110.2577
149 0.000000 0.000000 87.20930 14.61038 4.562596 78.31224
150 0.000000 0.000000 100.0000 19.08819 5.916355 102.5348
151 0.000000 25.26240 100.0000 22.12090 10.59178 107.8064
152 39.91730 24.49030 100.0000 28.57231 14.26920 107.4936
153 39.47770 0.000000 100.0000 25.99990 9.300584 107.1739
154 100.0000 0.000000 100.0000 59.24032 26.52448 103.3695
155 0.000000 0.000000 21.42860 0.870618 0.364274 4.118844
156 0.000000 0.000000 26.11940 1.213455 0.470605 5.985757
157 27.39300 0.000000 26.02150 3.485232 1.662525 5.609081
158 50.85120 12.34480 29.86870 10.48604 6.201101 7.442361
159 64.26830 0.000000 27.66470 14.95756 7.512169 6.239352
160 80.74290 3.713500 37.72840 25.58897 13.08425 11.49234
161 100.0000 0.000000 58.25360 43.82223 21.41840 30.04927
162 100.0000 0.000000 75.54610 48.91978 23.15927 53.35090
163 76.17140 0.000000 69.23850 29.63597 13.59985 44.91896
164 82.91580 29.52190 71.41970 37.81481 22.86576 48.17101
165 46.15630 0.000000 32.89680 8.570098 4.139447 9.014193
166 53.28770 0.000000 52.96610 14.25381 6.467635 24.75165
167 65.25690 17.68320 64.38370 23.66957 12.92804 38.17022
168 77.20000 32.17130 84.28770 39.64736 23.94872 70.53275
169 87.03070 47.79130 89.45300 52.69123 36.87871 81.58149
170 14.57990 7.752400 35.76350 3.250001 1.827317 11.08692
171 15.93710 8.704800 51.86250 5.969980 2.859985 24.20965
172 18.04450 41.42550 85.71460 20.95135 16.43941 76.48390
173 23.33900 51.33570 86.47530 24.79967 22.71411 78.46083
174 0.000000 100.0000 63.25800 37.45565 66.32585 43.74832
175 0.000000 100.0000 83.35230 44.30096 69.66130 77.02081
176 0.000000 100.0000 100.0000 51.61429 72.58404 113.3604
177 46.20370 100.0000 100.0000 61.61248 80.01872 113.3325
178 77.79950 100.0000 100.0000 77.78186 89.85630 112.4231
179 41.43450 100.0000 0.000000 35.26118 65.18130 5.883739
180 73.39860 100.0000 0.000000 49.42722 74.08271 6.144386
181 100.0000 100.0000 0.000000 68.91549 85.27576 6.379833
182 19.75450 60.66040 26.60710 12.51991 22.17008 7.941996
183 17.30480 60.20580 41.30210 14.07337 22.73372 16.74343
184 15.96840 61.99790 61.76330 18.84588 26.01307 37.62298
185 18.91900 61.73440 77.25480 23.67877 27.99380 60.36541
186 53.36160 82.88650 100.0000 53.29710 58.53108 111.1682
187 0.000000 33.55980 67.05070 11.26644 9.292331 43.71366
188 0.000000 46.68710 72.84980 15.89570 16.06076 53.13144
189 0.000000 55.97000 100.0000 29.28053 25.89727 109.0569
190 0.000000 42.21980 100.0000 25.47414 17.66847 108.1497
191 0.000000 69.75080 100.0000 34.81269 37.38012 110.2683
192 0.000000 82.19520 100.0000 40.60829 49.62023 111.2126
193 46.49440 61.37820 65.80780 27.01236 30.74373 42.62541
194 46.72700 65.79760 78.98570 32.98644 36.16713 62.84234
195 44.49920 42.53880 55.64690 17.54225 16.59323 29.10531
196 62.99230 52.03320 65.16520 30.30408 27.67746 40.56903
197 76.69820 64.73520 71.53640 44.91227 42.69269 50.41688
198 0.000000 72.06410 30.42660 16.02880 30.72921 11.01907
199 20.28110 81.53130 30.62200 22.11464 41.45807 11.70683
200 49.22900 100.0000 29.50270 40.86469 69.96053 13.12817
201 100.0000 100.0000 29.11490 72.25224 88.43447 12.83128
202 100.0000 100.0000 51.76600 76.81068 91.14894 29.13872
203 58.28400 69.65890 0.000000 24.81154 34.65549 2.877651
204 85.09040 76.64290 44.76390 48.43114 53.35294 20.23049
205 89.62330 18.32650 53.40190 36.16800 20.08924 24.81625
206 100.0000 34.83310 58.64170 49.00918 31.05757 31.40976
207 100.0000 60.88630 65.15740 58.69428 48.17937 40.61805
208 100.0000 60.60750 80.45610 63.99878 50.58617 63.71338
209 100.0000 77.56640 82.57870 72.80445 66.97115 69.64529
210 0.000000 2.941200 0.000000 0.169647 0.228361 0.164780
211 0.000000 6.097600 0.000000 0.264815 0.426824 0.202587
212 0.000000 9.493700 0.000000 0.386003 0.678460 0.236382
213 0.000000 26.11940 0.000000 1.626507 3.288319 0.478580
214 16.29590 30.34340 13.54950 3.637288 5.508960 2.351742
215 32.68800 37.26680 27.80510 8.588825 10.27700 7.201969
216 48.36570 45.43900 27.59310 14.71762 16.66107 7.325238
217 100.0000 0.000000 15.15120 36.50411 18.67718 2.036010
218 100.0000 0.000000 28.62370 38.46069 19.52087 6.354912
219 76.08700 0.000000 0.000000 19.41462 9.985693 0.283737
220 75.44400 26.43350 0.000000 21.26045 14.16230 0.672700
221 87.20930 0.000000 0.000000 25.83194 13.27347 0.316370
222 86.92410 21.61820 8.996600 28.37918 17.11535 1.283715
223 100.0000 30.49190 22.09310 41.28948 26.08010 4.378757
224 100.0000 50.25030 27.78840 46.96126 36.50697 7.562636
225 100.0000 66.02300 28.32340 52.80991 48.47287 8.792006
226 100.0000 66.94140 53.87400 58.26572 52.07206 27.60389
227 69.93980 24.52830 12.72080 18.89908 12.69739 1.911936
228 88.44100 42.47570 11.55180 33.61828 25.83036 2.368596
229 90.26830 76.96240 10.78300 47.55005 52.79923 4.637078
230 89.52580 82.70610 62.85630 59.68429 64.37765 39.79845
231 36.80650 28.07980 0.000000 6.160645 6.433440 0.597900
232 44.51300 34.85590 24.57560 10.87788 10.91095 5.694724
233 55.98760 42.82120 39.13240 18.44946 17.65288 13.89525
234 67.81200 50.76740 40.20940 26.59191 25.46068 15.07817
235 90.59200 61.04710 57.06940 48.81572 43.12357 31.21691
236 100.0000 0.000000 0.000000 34.27613 17.59460 0.360341
237 100.0000 0.000000 41.68300 40.23117 20.17025 13.98598
238 100.0000 30.75880 41.02040 44.01582 27.41216 14.38613
239 58.61010 41.32540 18.37980 16.61779 16.13061 3.827089
240 59.52820 59.37430 41.55800 25.55104 29.10030 16.55969
241 78.76410 86.64880 47.09560 50.24076 62.55570 23.35660
242 32.59160 57.05600 0.000000 11.69002 19.32202 1.803097
243 68.00230 63.89700 13.25010 28.13161 33.18979 3.982201
244 76.08700 76.08700 76.08700 51.19741 53.86808 58.44878
245 79.62960 79.62960 79.62960 56.36279 59.47795 64.53111
246 81.82420 87.13050 100.0000 72.01556 73.61323 110.3080
247 17.39730 25.14700 38.22520 5.292505 5.148281 12.89673
248 27.91510 29.41880 50.90640 9.716055 8.264636 23.67696
249 27.95870 36.34790 66.96830 14.99627 12.58266 43.33279
250 7.886400 32.76430 55.13850 8.792219 8.309260 28.89936
251 23.57060 44.41040 63.74120 15.06337 15.49903 39.31453
252 22.00880 73.36450 92.02150 35.29112 41.34577 91.02326
253 33.73080 86.92390 100.0000 49.09420 59.62554 111.8025
254 0.000000 22.39980 22.07180 2.144240 2.981745 4.580496
255 13.21430 24.04620 29.83300 3.756554 4.189202 7.932823
256 51.61170 30.77290 33.46260 13.45129 11.06194 9.743057
257 0.000000 0.000000 0.000000 0.117788 0.123654 0.136474
258 0.000000 19.07310 50.16320 5.408071 3.717033 23.02749
259 0.000000 22.09440 72.29800 10.99249 6.166760 50.95909
260 86.65530 78.56600 88.42570 64.59272 62.52851 81.55461
261 95.52850 95.52850 95.52850 86.19926 90.75746 97.69344
262 100.0000 100.0000 100.0000 95.36796 100.1103 110.6718
263 0.000000 33.12680 22.11360 3.500803 5.852780 4.825594
264 0.000000 40.03060 43.06530 7.296949 9.728526 17.43187
265 15.38710 50.12900 56.38970 13.67373 17.25283 30.76985
266 22.52780 66.71810 56.10600 20.21640 29.82290 31.28669
267 49.78310 73.81150 65.12300 33.09041 42.17611 42.37954
268 26.82670 37.55880 0.000000 5.650715 8.432106 0.859625
269 79.57910 45.81250 0.000000 27.72436 23.64962 1.425039
270 78.36860 60.19010 0.000000 31.41934 32.28579 2.238253
271 0.000000 100.0000 0.000000 28.18174 59.15115 5.566982
272 0.000000 100.0000 27.19520 30.48415 61.91668 12.03605
273 0.000000 100.0000 47.14330 33.63882 64.10205 25.82851
274 30.97940 14.21610 0.000000 3.501243 2.813440 0.318858
275 51.26450 20.26450 0.000000 9.232646 6.648828 0.452532
276 51.26440 49.44470 0.000000 14.67567 17.79558 1.457217
277 50.00000 50.00000 50.00000 20.28272 21.51557 23.46049
278 62.13630 50.79440 54.71380 26.69201 25.34631 28.27781
279 61.78840 70.30460 62.09100 35.90793 41.47084 37.98908
280 72.69500 72.69500 72.69500 46.09879 48.53631 52.64601
281 74.83470 86.58850 79.92610 57.62459 66.13473 66.00253
282 78.41850 100.0000 85.14330 70.77263 86.83644 77.73186
283 0.000000 21.42860 0.000000 1.145602 2.278109 0.386901
284 0.000000 31.45670 44.84070 5.954724 6.497387 18.39279
285 19.25420 38.08340 45.76180 8.934676 10.30886 19.43627
286 87.60290 48.27740 75.83120 47.41993 34.91174 55.15455
287 0.000000 0.000000 0.000000 0.117760 0.123681 0.136401
288 0.957900 0.957900 0.957900 0.143402 0.150874 0.168475
289 74.11110 0.000000 45.87560 22.82607 11.11525 17.76417
290 86.74370 12.24200 62.05870 35.20026 18.23363 34.66467
291 100.0000 34.70710 76.26130 54.19876 33.20429 55.02219
292 18.60760 0.000000 12.89400 1.443344 0.753903 1.722305
293 23.28410 8.728100 12.99240 2.336473 1.716420 1.792088
294 65.79790 51.89380 16.06020 22.78811 23.83914 3.759183
295 83.98570 54.61140 17.52980 34.36373 31.51783 4.309171
296 88.03800 67.04400 21.12930 42.48682 43.38699 6.181950
297 16.45400 10.19980 0.000000 1.255008 1.251365 0.259189
298 27.31810 15.88710 10.67200 3.397309 3.012113 1.431363
299 36.31490 26.57370 40.36350 9.305650 7.704581 14.40449
300 48.88270 37.35410 43.88270 15.44110 13.92296 17.34285
301 85.71290 37.88240 60.56550 38.69445 26.58535 33.65516
302 0.000000 0.000000 0.000000 0.117903 0.123765 0.136631
303 33.02020 20.00150 24.99760 5.782768 4.769939 5.501743
304 38.79680 57.90400 34.59110 16.48670 23.21796 11.83850
305 0.000000 31.25000 0.000000 2.265018 4.635028 0.603673
306 0.000000 36.88520 0.000000 3.127219 6.451767 0.769168
307 48.09360 53.98480 17.32760 16.17566 21.11340 4.185057
308 69.70660 61.08170 34.41290 30.53460 33.15439 11.88688
309 97.14370 68.39410 42.23990 53.76698 50.56537 17.48180
310 57.45980 37.16460 0.000000 14.18023 13.15744 0.942189
311 70.88680 37.48810 15.02400 21.92639 17.82479 2.801518
312 41.28780 18.87010 12.77440 6.673106 5.143508 1.891353
313 53.75290 20.62640 85.84560 26.23195 13.55517 74.42429
314 93.78080 19.64630 85.23060 49.64749 25.86897 71.23939
315 100.0000 37.13090 100.0000 65.39186 38.50076 105.1313
316 13.23050 9.881900 17.83460 1.645865 1.411024 2.960937
317 20.65500 39.68900 28.53360 6.997373 9.999096 7.788445
318 47.94790 50.13500 40.43320 17.71983 20.21108 15.26427
319 57.69230 57.69230 57.69230 27.59097 29.09946 32.03538
320 60.45750 60.45750 60.45750 30.53520 32.33541 35.41447
321 60.31200 5.302600 46.30490 16.20487 8.169831 18.42992
322 66.78230 24.07930 52.01950 22.30084 13.86555 24.10164
323 66.10380 36.28730 63.12790 27.18943 19.65488 37.30319
324 53.05900 36.98840 52.52610 18.51407 15.32173 25.19608
325 71.85520 45.75990 52.21380 29.91902 25.06984 24.87638
326 74.79860 48.42200 63.18910 35.19301 28.69998 37.67506
327 88.66820 52.25940 63.48210 45.61192 36.20363 38.18595
328 68.25000 60.76270 53.62890 33.17234 34.18051 27.62860
329 72.82860 73.86720 56.86740 42.32782 47.70450 32.14098
330 66.18590 74.03750 84.25370 47.75916 50.08400 73.60547
331 67.81050 88.09690 96.45990 61.72657 69.11302 99.91028
332 100.0000 100.0000 100.0000 95.36796 100.1103 110.6718
333 15.45030 42.75250 19.73740 6.252588 10.60019 4.333675
334 32.88280 42.32220 21.16300 9.182750 12.32705 4.774004
335 41.28390 57.54600 46.02970 18.96004 24.33064 20.20361
336 0.000000 51.87110 28.91010 8.325909 14.97631 8.727648
337 0.000000 55.58600 50.44320 12.74542 18.97020 24.90230
338 0.000000 73.61690 52.13240 20.24864 34.08063 28.07163
339 0.220000 81.84180 67.36180 27.87689 44.00498 47.64396
340 29.18840 86.88900 80.14460 38.84370 54.99249 67.48145
341 51.96820 15.92730 9.656400 9.652602 6.363502 1.286791
342 56.69730 32.87090 21.17060 14.44555 12.30382 4.315681
343 41.67240 26.67030 10.94460 7.598513 7.019547 1.703922
344 41.47120 39.84200 12.01720 10.03894 11.94835 2.351749
345 39.55090 100.0000 48.39700 40.82525 69.69078 26.50394
346 44.60620 100.0000 84.35170 53.65556 76.46745 77.26788
347 14.35840 42.96530 40.08800 8.566595 11.92857 14.93781
348 20.71860 50.70360 40.67630 11.38503 16.55765 15.86722
349 52.46910 52.46910 52.46910 22.47434 23.74142 25.98373
350 55.03140 55.03140 55.03140 24.75888 26.08105 28.75366
351 80.61350 63.68370 62.77170 44.04257 41.80755 38.14967
352 90.17260 66.20640 79.35850 57.73294 50.58448 62.43030
353 0.000000 0.000000 6.097600 0.220511 0.158358 0.668806
354 0.000000 0.000000 31.25000 1.701839 0.622442 8.623356
355 28.43530 0.000000 43.67980 5.875801 2.479191 16.51041
356 57.35330 0.000000 77.35190 22.35017 9.412125 57.04021
357 78.49780 15.70750 86.96720 38.78528 19.21923 75.98204
358 72.71500 0.000000 100.0000 39.96264 16.50183 106.5296
359 74.77040 30.46990 100.0000 45.23216 25.13570 106.8698
360 80.61330 67.67640 100.0000 60.90917 51.93584 108.7348
361 100.0000 83.52320 100.0000 84.26603 77.31238 108.2523
362 6.097600 0.000000 0.000000 0.289566 0.212616 0.153527
363 9.493700 0.000000 0.000000 0.433025 0.286901 0.164042
364 21.42860 0.000000 0.000000 1.379656 0.772718 0.192311
365 32.00480 9.083100 23.87720 4.648358 2.906694 4.888065
366 58.60510 29.68970 45.24410 17.79771 13.02171 17.95376
367 72.46090 32.68850 45.26810 25.70556 18.07175 17.81121
368 89.49790 42.28180 48.61620 39.52015 28.97607 21.19265
369 81.06010 78.77710 0.000000 41.26521 50.20667 3.795151
370 81.01890 79.74750 30.28270 44.77180 53.64679 11.01182
371 23.29170 23.25100 58.93810 9.727010 6.575934 32.41003
372 23.24040 29.97930 83.21510 18.06293 11.32739 69.82363
373 32.38750 0.000000 68.68930 12.22840 4.673497 44.75545
374 62.67040 35.14630 74.88040 28.64787 19.55345 54.00959
375 62.16950 56.66090 91.95410 41.24117 34.58504 87.23360
376 63.15110 47.73460 74.47810 31.93081 26.24249 54.00998
377 73.44580 50.51630 100.0000 49.60683 35.42171 107.8029
378 0.000000 12.91240 19.69970 1.248049 1.382331 3.627208
379 0.000000 17.38940 35.73770 3.035180 2.563481 11.40693
380 20.19710 17.71090 37.43090 4.738693 3.628590 12.20870
381 45.71670 28.54010 56.13670 15.28221 11.00438 29.02677
382 54.50670 56.92420 66.40050 28.27006 28.75077 42.75263
383 69.44440 69.44440 69.44440 42.01896 44.22807 48.08557
384 86.40720 83.22480 74.42660 61.42272 65.35288 56.55493
385 41.84650 77.85250 0.000000 22.65410 38.80490 3.483008
386 50.74300 78.05830 33.41240 28.58365 43.10483 12.72971
387 31.29040 67.67870 17.66930 16.73507 29.05022 5.275354
388 57.50160 68.79380 21.54590 25.71700 35.00565 6.497628
389 58.97700 69.78400 39.27050 29.15466 37.81880 15.68977
390 59.04720 76.14340 57.60000 36.18574 45.91638 33.48544
391 40.94450 82.89860 46.40040 29.84160 47.13850 22.59210
392 61.02760 86.98230 54.53240 42.13302 57.92432 30.93454
393 80.01060 89.49390 72.85520 59.99539 70.48244 55.02770
394 63.33330 63.33330 63.33330 33.76361 35.67049 38.90977
395 66.32650 66.32650 66.32650 37.69834 39.76011 43.21746
396 35.13180 50.10590 48.17740 15.56595 18.79773 21.88155
397 38.80580 72.55670 50.27440 25.34942 37.22082 25.27898
398 0.000000 52.13030 66.90910 15.66366 18.49766 44.63804
