Dell/U2718Q/U2718Q #2 2017-12-05 17-15 80cdm² 0.3127x 0.329y sRGB F-S XYZLUT+MTX/U2718Q #2 2017-12-05 17-15 80cdm² 0.3127x 0.329y sRGB F-S XYZLUT+MTX.ti3
CTI3   

DESCRIPTOR "Argyll Calibration Target chart information 3"
ORIGINATOR "Argyll dispread"
CREATED "Tue Dec  5 17:23:39 2017"
DEVICE_CLASS "DISPLAY"
SINGLE_DIM_STEPS "5"
COMP_GREY_STEPS "52"
MULTI_DIM_STEPS "5"
COLOR_REP "RGB_XYZ"
TARGET_INSTRUMENT "X-Rite i1 DisplayPro, ColorMunki Display"
DISPLAY_TYPE_REFRESH "NO"
DISPLAY_TYPE_BASE_ID "1"
INSTRUMENT_TYPE_SPECTRAL "NO"
LUMINANCE_XYZ_CDM2 "73.597945 77.552204 84.082779"
NORMALIZED_TO_Y_100 "YES"
VIDEO_LUT_CALIBRATION_POSSIBLE "YES"

BEGIN_ARGYLL_COLPROF_ARGS
-v -qh -aX -bn -C "No copyright. Created with DisplayCAL 3.3.5.0 and ArgyllCMS 2.0.0" -M "DELL U2718Q" -A "Dell Inc."
END_ARGYLL_COLPROF_ARGS

OBSERVER "1931_2"
USE_BLACK_POINT_COMPENSATION "NO"
BLACK_POINT_CORRECTION "0.0"
HIRES_B2A "YES"
HIRES_B2A_SIZE "-1"
SMOOTH_B2A "YES"
PATCH_SEQUENCE "OPTIMIZE_DISPLAY_RESPONSE_DELAY"

NUMBER_OF_FIELDS 7
BEGIN_DATA_FORMAT
SAMPLE_ID RGB_R RGB_G RGB_B XYZ_X XYZ_Y XYZ_Z
END_DATA_FORMAT

NUMBER_OF_SETS 175
BEGIN_DATA
1 100.0000 100.0000 100.0000 94.90117 100.0000 108.4209
2 100.0000 100.0000 75.00000 87.05024 98.98463 64.16885
3 100.0000 100.0000 100.0000 94.90117 100.0000 108.4209
4 100.0000 100.0000 100.0000 94.90117 100.0000 108.4209
5 0.000000 0.000000 0.000000 0.110605 0.109248 0.201419
6 25.00000 0.000000 0.000000 1.953507 1.090609 0.284945
7 50.00000 0.000000 0.000000 7.951069 4.226719 0.466721
8 75.00000 0.000000 0.000000 18.81519 9.922796 0.812736
9 100.0000 0.000000 0.000000 33.58658 17.71143 1.330335
10 100.0000 0.000000 25.00000 36.41139 19.08256 6.844092
11 100.0000 25.00000 25.00000 39.10435 21.99601 7.240834
12 100.0000 50.00000 25.00000 45.56611 33.32766 8.910971
13 100.0000 75.00000 25.00000 58.71208 58.02860 12.69249
14 0.000000 0.000000 25.00000 1.012735 0.491553 4.862273
15 25.00000 0.000000 25.00000 2.837496 1.451052 5.007587
16 75.00000 0.000000 100.0000 37.25787 17.56272 95.17438
17 100.0000 0.000000 100.0000 54.47036 26.55088 96.77755
18 1.960800 1.960800 1.960800 0.225358 0.231550 0.322082
19 3.921600 3.921600 3.921600 0.352174 0.363240 0.462029
20 5.882400 5.882400 5.882400 0.516344 0.536885 0.644872
21 7.843100 7.843100 7.843100 0.709347 0.739423 0.866102
22 9.803900 9.803900 9.803900 0.951186 0.993690 1.157403
23 11.76500 11.76500 11.76500 1.297230 1.351676 1.578971
24 13.72600 13.72600 13.72600 1.643661 1.718230 1.910422
25 15.68600 15.68600 15.68600 2.047858 2.158316 2.384519
26 17.64700 17.64700 17.64700 2.520770 2.647117 2.952336
27 19.60800 19.60800 19.60800 3.088574 3.210539 3.582573
28 21.56900 21.56900 21.56900 3.665405 3.835026 4.285344
29 23.52900 23.52900 23.52900 4.333305 4.529735 4.964540
30 27.45100 27.45100 27.45100 5.874820 6.170035 6.770834
31 29.41200 29.41200 29.41200 6.662753 7.007077 7.662810
32 31.37300 31.37300 31.37300 7.612295 7.982247 8.797960
33 33.33300 33.33300 33.33300 8.499101 8.994738 9.838860
34 35.29400 35.29400 35.29400 9.675151 10.19749 11.14581
35 37.25500 37.25500 37.25500 10.84008 11.42272 12.56316
36 39.21600 39.21600 39.21600 12.06806 12.71978 14.01983
37 41.17600 41.17600 41.17600 13.33647 14.09696 15.38114
38 43.13700 43.13700 43.13700 14.79486 15.58791 17.08965
39 45.09800 45.09800 45.09800 16.39212 17.19788 18.79790
40 47.05900 47.05900 47.05900 17.81042 18.75040 20.73029
41 49.02000 49.02000 49.02000 19.53719 20.55129 22.44472
42 50.98000 50.98000 50.98000 21.21590 22.27769 24.26538
43 52.94100 52.94100 52.94100 22.86055 24.17866 26.24892
44 54.90200 54.90200 54.90200 24.83755 26.13808 28.50612
45 56.86300 56.86300 56.86300 26.68274 27.95822 30.87703
46 58.82400 58.82400 58.82400 28.76954 30.11128 33.26865
47 60.78400 60.78400 60.78400 31.08020 32.50164 35.78883
48 62.74500 62.74500 62.74500 33.18342 34.90041 38.22669
49 64.70600 64.70600 64.70600 35.46526 37.19479 40.80254
50 66.66700 66.66700 66.66700 38.15082 39.96232 43.42814
51 68.62700 68.62700 68.62700 40.73545 42.64667 46.66480
52 70.58800 70.58800 70.58800 43.33407 45.33148 49.96736
53 72.54900 72.54900 72.54900 45.82386 48.16291 52.91751
54 76.47100 76.47100 76.47100 52.02070 54.62007 59.79277
55 78.43100 78.43100 78.43100 54.98930 57.77695 62.98612
56 80.39200 80.39200 80.39200 58.19513 61.13159 66.91433
57 82.35300 82.35300 82.35300 61.05964 64.15010 70.35200
58 84.31400 84.31400 84.31400 64.22463 67.40837 74.27922
59 86.27500 86.27500 86.27500 67.76078 71.19384 78.45468
60 88.23500 88.23500 88.23500 71.05971 74.78155 81.89527
61 90.19600 90.19600 90.19600 74.64771 78.56869 86.31501
62 92.15700 92.15700 92.15700 78.36926 82.55025 90.98104
63 94.11800 94.11800 94.11800 82.26913 86.61749 95.40072
64 96.07800 96.07800 96.07800 86.33240 91.07021 99.82438
65 98.03900 98.03900 98.03900 90.35481 95.42655 104.2470
66 25.00000 25.00000 0.000000 4.264197 5.366684 0.798596
67 50.00000 25.00000 0.000000 10.22998 7.875455 0.927993
68 75.00000 25.00000 0.000000 21.30700 13.23343 1.253852
69 100.0000 25.00000 0.000000 38.22664 21.89427 1.843029
70 100.0000 50.00000 0.000000 44.86908 33.85970 3.584138
71 50.00000 50.00000 0.000000 17.51735 22.27060 2.770554
72 75.00000 50.00000 0.000000 28.22982 26.37708 3.000359
73 25.00000 50.00000 0.000000 11.76677 20.57081 2.736859
74 25.00000 75.00000 0.000000 26.57376 50.40838 6.882028
75 50.00000 75.00000 0.000000 31.80919 50.69942 6.776612
76 75.00000 75.00000 0.000000 42.49245 53.68512 6.903478
77 100.0000 75.00000 0.000000 58.54345 59.66316 7.205981
78 25.00000 100.0000 0.000000 42.05401 81.59839 11.51881
79 50.00000 100.0000 0.000000 49.35209 85.29248 12.09709
80 75.00000 100.0000 0.000000 61.67292 91.69775 12.69501
81 100.0000 100.0000 0.000000 79.32564 100.7540 13.52230
82 100.0000 100.0000 25.00000 80.07862 100.2232 19.11424
83 50.00000 0.000000 25.00000 8.860278 4.600240 5.361027
84 50.00000 25.00000 50.00000 13.78620 8.610799 21.66471
85 0.000000 25.00000 0.000000 2.646608 5.323458 0.843223
86 0.000000 25.00000 25.00000 3.316070 5.114641 5.789058
87 25.49000 25.49000 25.49000 5.146726 5.406987 5.917093
88 50.00000 25.00000 25.00000 11.02532 7.816076 5.924704
89 75.00000 25.00000 25.00000 22.16624 13.30635 6.389802
90 0.000000 50.00000 0.000000 10.63533 21.90612 2.972461
91 0.000000 50.00000 25.00000 10.95189 20.75096 8.200213
92 25.00000 50.00000 25.00000 12.27054 19.78291 7.958857
93 50.00000 50.00000 25.00000 18.04704 21.49396 8.180999
94 75.00000 50.00000 25.00000 28.69066 25.51410 8.347744
95 0.000000 75.00000 0.000000 25.92436 53.20013 7.411883
96 0.000000 75.00000 25.00000 25.83495 51.32656 12.61037
97 25.00000 75.00000 25.00000 26.59367 48.63349 12.40389
98 50.00000 75.00000 25.00000 32.06619 49.25729 12.29787
99 75.00000 75.00000 25.00000 42.44212 52.05809 12.25471
100 0.000000 100.0000 0.000000 39.07170 80.06785 11.46295
101 0.000000 100.0000 25.00000 40.21244 80.55514 17.31906
102 25.00000 100.0000 25.00000 43.26226 82.08797 17.69273
103 50.00000 100.0000 25.00000 50.59769 85.82323 17.90374
104 75.00000 100.0000 25.00000 63.02590 92.27192 18.46432
105 0.000000 0.000000 50.00000 4.010977 1.750705 20.39398
106 25.00000 0.000000 50.00000 5.815677 2.679963 20.59483
107 50.00000 0.000000 50.00000 11.92738 5.876659 21.20591
108 75.00000 0.000000 50.00000 23.07556 11.72886 21.52267
109 100.0000 0.000000 50.00000 39.84834 20.55024 22.12456
110 100.0000 0.000000 75.00000 45.76849 23.01464 51.76027
111 100.0000 25.00000 75.00000 47.89063 25.13398 52.49860
112 75.00000 0.000000 25.00000 19.92778 10.40943 5.805896
113 75.00000 25.00000 50.00000 25.15885 14.27478 22.06408
114 100.0000 25.00000 50.00000 42.07109 22.97965 22.90076
115 25.00000 25.00000 50.00000 7.785197 5.983429 21.53192
116 25.00000 50.00000 50.00000 14.69536 19.88996 23.55887
117 75.00000 50.00000 50.00000 31.34490 25.83617 23.95921
118 100.0000 50.00000 50.00000 48.33062 33.70717 24.59242
119 100.0000 50.00000 75.00000 53.73964 35.12853 54.04742
120 25.00000 75.00000 50.00000 28.65226 47.86527 27.95058
121 50.00000 75.00000 50.00000 34.10625 48.48847 27.75721
122 75.00000 75.00000 50.00000 44.74505 51.52782 28.02644
123 100.0000 75.00000 50.00000 60.94864 57.55076 28.50464
124 100.0000 75.00000 75.00000 66.01380 58.29567 57.67976
125 25.00000 100.0000 50.00000 46.19561 83.24898 33.53163
126 50.00000 100.0000 50.00000 53.73122 87.18080 34.30287
127 75.00000 100.0000 50.00000 66.30467 93.67415 35.00452
128 100.0000 100.0000 50.00000 82.25752 99.21374 35.25862
129 25.00000 0.000000 75.00000 11.22517 4.936782 49.04416
130 50.00000 0.000000 75.00000 17.39173 8.165975 49.24917
131 75.00000 0.000000 75.00000 28.76467 14.08079 50.64495
132 75.00000 25.00000 75.00000 30.72277 16.31656 51.38774
133 75.00000 50.00000 100.0000 44.73559 29.63014 98.93790
134 25.00000 25.00000 75.00000 13.02217 7.811568 50.04521
135 25.00000 50.00000 100.0000 27.81813 23.34438 98.35585
136 0.000000 25.00000 50.00000 6.101327 5.861695 21.50170
137 0.000000 25.00000 75.00000 11.31021 7.614373 49.82303
138 0.000000 50.00000 75.00000 18.37919 21.93319 52.40607
139 25.00000 50.00000 75.00000 19.69311 21.03915 52.61601
140 50.00000 50.00000 75.00000 25.67374 22.72490 52.79792
141 75.00000 50.00000 75.00000 36.62158 27.23023 53.44136
142 74.51000 74.51000 74.51000 48.80341 51.22497 56.35384
143 0.000000 75.00000 75.00000 32.18313 50.39798 56.83919
144 25.00000 75.00000 75.00000 33.09604 47.99503 56.78485
145 50.00000 75.00000 75.00000 38.40111 48.32827 56.46426
146 0.000000 75.00000 50.00000 27.80702 50.27046 28.32356
147 0.000000 100.0000 50.00000 43.30162 81.76119 33.34872
148 0.000000 100.0000 75.00000 48.80831 84.11136 62.78768
149 25.00000 100.0000 75.00000 51.82649 85.64317 63.01232
150 50.00000 100.0000 75.00000 59.36645 89.52003 63.45226
151 75.00000 100.0000 75.00000 71.07904 94.23474 64.08751
152 75.00000 100.0000 100.0000 78.11729 94.83395 107.6098
153 25.00000 0.000000 100.0000 19.68815 8.388776 94.06295
154 50.00000 0.000000 100.0000 26.08016 11.68858 95.00085
155 0.000000 0.000000 75.00000 9.490322 4.043751 48.81033
156 0.000000 0.000000 100.0000 18.11001 7.582324 93.58342
157 0.000000 25.00000 100.0000 19.85030 10.63457 95.56853
158 25.00000 25.00000 100.0000 21.38405 10.83642 96.03858
159 50.00000 25.00000 100.0000 27.69189 13.63949 96.23426
160 75.00000 25.00000 100.0000 39.10539 19.45180 96.40242
161 100.0000 25.00000 100.0000 56.76226 28.53912 98.24551
162 100.0000 50.00000 100.0000 62.43614 37.85734 100.2758
163 50.00000 25.00000 75.00000 19.17936 10.49473 50.48623
164 50.00000 50.00000 100.0000 34.00645 25.17189 98.78201
165 0.000000 50.00000 50.00000 13.34977 20.84923 23.62244
166 0.000000 50.00000 100.0000 26.46366 24.27711 97.41200
167 0.000000 75.00000 100.0000 39.98125 51.93229 102.5711
168 25.00000 75.00000 100.0000 41.05010 49.66939 102.5167
169 50.00000 75.00000 100.0000 46.52210 50.04799 102.4394
170 75.00000 75.00000 100.0000 57.12863 53.42653 102.3339
171 100.0000 75.00000 100.0000 74.09045 60.25918 103.4146
172 0.000000 100.0000 100.0000 57.09388 87.41225 106.8264
173 25.00000 100.0000 100.0000 60.08966 88.99842 107.2973
174 50.00000 100.0000 100.0000 67.27690 92.49882 107.7364
175 100.0000 100.0000 100.0000 94.91916 100.1504 108.6674
END_DATA
CAL    

DESCRIPTOR "Argyll Device Calibration State"
ORIGINATOR "Argyll dispread"
CREATED "Tue Dec  5 17:23:39 2017"
DEVICE_CLASS "DISPLAY"
COLOR_REP "RGB"

BEGIN_ARGYLL_DISPCAL_ARGS
-v2 -ql -w0.3127,0.329 -b80.0 -gs -f1.0 -k0 -A4.0 -d2 -c1 -yn -P0.502762430939,0.0542763157895,1.49841269841 -Ib
END_ARGYLL_DISPCAL_ARGS


NUMBER_OF_FIELDS 4
BEGIN_DATA_FORMAT
RGB_I RGB_R RGB_G RGB_B
END_DATA_FORMAT

NUMBER_OF_SETS 256
BEGIN_DATA
0.00000000 0.00000000 0.00000000 0.00000000
0.00392157 0.00531205 0.00483551 0.00477274
0.00784314 0.01059640 0.00965572 0.00951281
0.01176470 0.01585330 0.01446070 0.01422060
0.01568630 0.02108280 0.01925060 0.01889630
0.01960780 0.02628540 0.02402540 0.02354040
0.02352940 0.03146100 0.02878510 0.02815310
0.02745100 0.03660870 0.03352960 0.03273470
0.03137250 0.04171170 0.03824590 0.03727650
0.03529410 0.04674270 0.04290590 0.04175570
0.03921570 0.05168260 0.04748670 0.04615440
0.04313730 0.05652110 0.05197590 0.05046400
0.04705880 0.06125810 0.05636990 0.05468320
0.05098040 0.06589570 0.06066890 0.05881190
0.05490200 0.07044210 0.06487830 0.06285820
0.05882350 0.07491100 0.06901140 0.06683220
0.06274510 0.07931750 0.07308410 0.07074430
0.06666670 0.08367620 0.07711020 0.07460630
0.07058820 0.08800490 0.08110020 0.07843560
0.07450980 0.09231390 0.08506880 0.08224510
0.07843140 0.09661260 0.08902890 0.08604770
0.08235290 0.10090900 0.09299570 0.08985040
0.08627450 0.10520800 0.09697390 0.09365800
0.09019610 0.10950500 0.10096500 0.09747040
0.09411760 0.11379500 0.10496700 0.10128200
0.09803920 0.11807400 0.10896800 0.10509100
0.10196100 0.12233700 0.11295600 0.10889700
0.10588200 0.12657700 0.11692800 0.11270000
0.10980400 0.13078600 0.12087600 0.11649400
0.11372500 0.13496100 0.12479100 0.12027400
0.11764700 0.13909900 0.12866600 0.12404400
0.12156900 0.14319900 0.13249500 0.12779900
0.12549000 0.14726800 0.13627800 0.13153900
0.12941200 0.15130700 0.14002200 0.13526100
0.13333300 0.15531600 0.14373300 0.13896900
0.13725500 0.15929500 0.14741500 0.14266600
0.14117600 0.16324700 0.15107000 0.14635500
0.14509800 0.16717700 0.15470000 0.15003400
0.14902000 0.17108200 0.15830800 0.15369900
0.15294100 0.17496000 0.16189700 0.15735200
0.15686300 0.17881000 0.16547100 0.16099700
0.16078400 0.18262900 0.16903100 0.16463400
0.16470600 0.18641700 0.17257700 0.16826000
0.16862700 0.19017200 0.17610400 0.17188000
0.17254900 0.19389900 0.17960700 0.17549200
0.17647100 0.19759900 0.18308600 0.17909600
0.18039200 0.20127200 0.18654100 0.18269100
0.18431400 0.20493000 0.18997200 0.18628000
0.18823500 0.20857500 0.19338400 0.18986100
0.19215700 0.21220700 0.19678300 0.19343500
0.19607800 0.21582600 0.20017000 0.19700600
0.20000000 0.21943600 0.20354100 0.20057500
0.20392200 0.22303900 0.20690200 0.20414200
0.20784300 0.22663500 0.21025400 0.20771000
0.21176500 0.23022600 0.21359600 0.21128000
0.21568600 0.23381200 0.21694000 0.21484900
0.21960800 0.23739600 0.22028400 0.21841500
0.22352900 0.24097700 0.22363000 0.22198000
0.22745100 0.24455500 0.22697800 0.22555000
0.23137300 0.24813000 0.23032500 0.22912400
0.23529400 0.25170900 0.23367300 0.23269900
0.23921600 0.25529800 0.23702500 0.23627600
0.24313700 0.25889500 0.24038900 0.23985800
0.24705900 0.26250100 0.24377000 0.24344200
0.25098000 0.26611600 0.24716600 0.24702600
0.25490200 0.26974000 0.25057600 0.25060700
0.25882400 0.27337000 0.25400000 0.25418600
0.26274500 0.27701000 0.25743700 0.25776300
0.26666700 0.28066400 0.26088400 0.26133500
0.27058800 0.28432800 0.26435200 0.26490700
0.27451000 0.28799900 0.26784300 0.26848200
0.27843100 0.29167700 0.27135200 0.27205500
0.28235300 0.29535800 0.27487600 0.27562800
0.28627500 0.29904000 0.27841300 0.27920400
0.29019600 0.30272400 0.28196000 0.28278100
0.29411800 0.30641200 0.28551800 0.28636400
0.29803900 0.31010300 0.28909000 0.28995000
0.30196100 0.31379600 0.29267600 0.29353600
0.30588200 0.31748900 0.29627500 0.29711500
0.30980400 0.32118400 0.29988600 0.30068500
0.31372500 0.32488000 0.30351200 0.30424900
0.31764700 0.32857600 0.30715200 0.30780700
0.32156900 0.33227800 0.31080400 0.31135800
0.32549000 0.33599100 0.31446700 0.31490200
0.32941200 0.33971200 0.31814700 0.31843900
0.33333300 0.34344000 0.32182900 0.32197100
0.33725500 0.34717700 0.32550800 0.32549400
0.34117600 0.35092400 0.32918500 0.32900700
0.34509800 0.35467800 0.33286000 0.33251300
0.34902000 0.35844000 0.33653400 0.33601200
0.35294100 0.36221600 0.34020800 0.33950400
0.35686300 0.36600300 0.34388700 0.34298900
0.36078400 0.36980000 0.34756900 0.34646800
0.36470600 0.37360700 0.35125000 0.34993900
0.36862700 0.37742300 0.35492600 0.35340200
0.37254900 0.38124300 0.35860000 0.35685700
0.37647100 0.38506700 0.36226300 0.36030500
0.38039200 0.38890100 0.36591200 0.36375000
0.38431400 0.39274900 0.36955300 0.36718800
0.38823500 0.39660600 0.37318700 0.37063000
0.39215700 0.40046800 0.37680600 0.37407900
0.39607800 0.40433100 0.38040600 0.37752900
0.40000000 0.40819000 0.38398800 0.38097500
0.40392200 0.41204100 0.38754900 0.38442300
0.40784300 0.41588000 0.39108100 0.38787500
0.41176500 0.41971400 0.39457800 0.39132900
0.41568600 0.42355100 0.39804500 0.39478100
0.41960800 0.42739000 0.40149100 0.39823500
0.42352900 0.43123000 0.40491600 0.40170300
0.42745100 0.43507400 0.40831700 0.40518600
0.43137300 0.43892300 0.41170000 0.40868500
0.43529400 0.44277900 0.41506900 0.41219900
0.43921600 0.44663700 0.41842800 0.41573100
0.44313700 0.45050000 0.42177700 0.41928300
0.44705900 0.45436600 0.42512000 0.42285800
0.45098000 0.45823400 0.42846500 0.42645200
0.45490200 0.46210700 0.43181000 0.43006600
0.45882400 0.46598300 0.43516000 0.43369600
0.46274500 0.46985900 0.43852100 0.43734700
0.46666700 0.47373500 0.44189100 0.44101700
0.47058800 0.47761400 0.44527100 0.44469900
0.47451000 0.48149900 0.44866500 0.44839100
0.47843100 0.48539400 0.45207300 0.45209200
0.48235300 0.48930400 0.45549600 0.45579800
0.48627500 0.49322900 0.45893300 0.45951000
0.49019600 0.49716900 0.46238200 0.46322500
0.49411800 0.50112800 0.46584300 0.46694600
0.49803900 0.50510300 0.46931700 0.47067100
0.50196100 0.50908100 0.47280600 0.47440200
0.50588200 0.51306200 0.47631800 0.47814100
0.50980400 0.51704600 0.47985300 0.48186500
0.51372500 0.52103200 0.48340600 0.48556700
0.51764700 0.52501400 0.48697900 0.48924700
0.52156900 0.52898800 0.49057100 0.49290500
0.52549000 0.53295200 0.49418200 0.49654000
0.52941200 0.53690400 0.49781400 0.50015300
0.53333300 0.54084300 0.50146900 0.50374500
0.53725500 0.54477100 0.50514700 0.50732000
0.54117600 0.54868500 0.50884800 0.51088000
0.54509800 0.55258600 0.51256700 0.51442500
0.54902000 0.55647400 0.51630500 0.51796300
0.55294100 0.56034800 0.52005900 0.52149300
0.55686300 0.56421300 0.52382400 0.52501700
0.56078400 0.56807200 0.52759900 0.52853500
0.56470600 0.57192400 0.53137800 0.53205200
0.56862700 0.57576800 0.53515500 0.53557100
0.57254900 0.57960100 0.53893300 0.53909900
0.57647100 0.58342000 0.54270700 0.54263500
0.58039200 0.58722900 0.54647300 0.54617700
0.58431400 0.59103400 0.55022600 0.54972800
0.58823500 0.59483200 0.55396000 0.55328700
0.59215700 0.59862100 0.55767900 0.55685100
0.59607800 0.60240300 0.56139000 0.56042800
0.60000000 0.60619000 0.56508800 0.56401700
0.60392200 0.60998200 0.56877700 0.56761300
0.60784300 0.61377900 0.57246000 0.57121800
0.61176500 0.61758100 0.57614600 0.57483700
0.61568600 0.62138600 0.57983500 0.57847200
0.61960800 0.62519200 0.58352700 0.58212000
0.62352900 0.62899800 0.58722400 0.58578300
0.62745100 0.63279700 0.59092800 0.58945700
0.63137300 0.63659000 0.59463900 0.59313800
0.63529400 0.64037800 0.59834800 0.59683000
0.63921600 0.64417000 0.60204900 0.60053500
0.64313700 0.64797500 0.60573900 0.60425100
0.64705900 0.65179500 0.60943000 0.60797500
0.65098000 0.65562700 0.61313000 0.61171400
0.65490200 0.65946300 0.61684700 0.61547400
0.65882400 0.66330000 0.62057900 0.61926200
0.66274500 0.66713800 0.62431800 0.62307800
0.66666700 0.67097900 0.62805400 0.62691600
0.67058800 0.67482100 0.63178900 0.63077000
0.67451000 0.67866300 0.63552300 0.63463800
0.67843100 0.68250300 0.63926100 0.63851300
0.68235300 0.68632800 0.64299500 0.64238400
0.68627500 0.69013700 0.64672500 0.64624900
0.69019600 0.69393300 0.65044100 0.65010500
0.69411800 0.69772600 0.65413700 0.65394000
0.69803900 0.70151900 0.65781400 0.65775400
0.70196100 0.70531500 0.66147800 0.66155500
0.70588200 0.70911400 0.66513700 0.66536000
0.70980400 0.71291200 0.66879500 0.66917300
0.71372500 0.71670800 0.67244900 0.67298800
0.71764700 0.72050500 0.67609600 0.67679700
0.72156900 0.72430700 0.67973100 0.68059600
0.72549000 0.72811600 0.68336400 0.68438500
0.72941200 0.73192800 0.68699600 0.68816600
0.73333300 0.73574300 0.69063000 0.69194300
0.73725500 0.73956100 0.69426000 0.69571100
0.74117600 0.74338200 0.69788200 0.69947100
0.74509800 0.74720600 0.70149800 0.70322200
0.74902000 0.75104000 0.70511000 0.70696700
0.75294100 0.75489200 0.70871900 0.71070700
0.75686300 0.75876100 0.71232600 0.71444300
0.76078400 0.76264900 0.71594100 0.71817200
0.76470600 0.76655500 0.71957200 0.72189500
0.76862700 0.77048100 0.72321900 0.72561300
0.77254900 0.77442700 0.72688200 0.72932600
0.77647100 0.77838800 0.73056400 0.73303600
0.78039200 0.78236300 0.73426300 0.73673900
0.78431400 0.78635100 0.73798000 0.74043000
0.78823500 0.79036000 0.74170900 0.74410700
0.79215700 0.79439400 0.74543900 0.74777600
0.79607800 0.79844400 0.74917800 0.75144300
0.80000000 0.80250500 0.75293100 0.75511000
0.80392200 0.80657000 0.75669300 0.75877100
0.80784300 0.81063800 0.76045900 0.76242300
0.81176500 0.81470000 0.76422600 0.76607000
0.81568600 0.81875800 0.76799100 0.76971500
0.81960800 0.82281700 0.77174900 0.77335600
0.82352900 0.82687900 0.77549800 0.77699200
0.82745100 0.83094100 0.77924600 0.78063000
0.83137300 0.83500500 0.78300500 0.78427600
0.83529400 0.83906800 0.78677400 0.78792600
0.83921600 0.84312700 0.79054900 0.79157600
0.84313700 0.84717500 0.79433300 0.79522600
0.84705900 0.85121800 0.79813200 0.79887800
0.85098000 0.85525800 0.80194200 0.80253100
0.85490200 0.85929200 0.80576500 0.80618500
0.85882400 0.86331900 0.80960400 0.80984700
0.86274500 0.86733200 0.81345500 0.81352500
0.86666700 0.87133100 0.81731200 0.81721300
0.87058800 0.87531900 0.82117100 0.82091600
0.87451000 0.87929400 0.82502500 0.82463300
0.87843100 0.88325200 0.82888100 0.82835900
0.88235300 0.88719800 0.83274300 0.83210100
0.88627500 0.89112900 0.83660300 0.83586100
0.89019600 0.89504800 0.84046000 0.83964400
0.89411800 0.89895200 0.84431300 0.84345200
0.89803900 0.90284300 0.84816600 0.84728900
0.90196100 0.90672400 0.85202900 0.85115100
0.90588200 0.91059200 0.85589900 0.85503400
0.90980400 0.91444400 0.85977800 0.85893600
0.91372500 0.91828000 0.86366500 0.86285400
0.91764700 0.92210800 0.86755600 0.86678600
0.92156900 0.92592600 0.87144400 0.87073200
0.92549000 0.92973200 0.87533300 0.87469000
0.92941200 0.93353000 0.87922600 0.87866900
0.93333300 0.93732000 0.88312300 0.88266600
0.93725500 0.94110300 0.88702700 0.88667300
0.94117600 0.94488000 0.89093400 0.89069000
0.94509800 0.94865100 0.89484700 0.89471800
0.94902000 0.95241600 0.89876600 0.89876100
0.95294100 0.95617400 0.90269100 0.90281800
0.95686300 0.95992700 0.90662200 0.90688800
0.96078400 0.96367400 0.91056000 0.91097300
0.96470600 0.96741300 0.91450300 0.91507200
0.96862700 0.97114400 0.91845200 0.91918500
0.97254900 0.97486600 0.92240600 0.92331400
0.97647100 0.97858000 0.92636400 0.92745600
0.98039200 0.98228500 0.93032600 0.93161300
0.98431400 0.98598200 0.93429200 0.93578300
0.98823500 0.98967100 0.93826200 0.93996700
0.99215700 0.99335100 0.94223600 0.94416400
0.99607800 0.99702200 0.94621300 0.94837600
1.00000000 1.00000000 0.95019500 0.95260200
END_DATA