Dell/U2913WM/U2913WM #2 2020-05-26 13-36 0.3127x 0.329y sRGB F-S XYZLUT+MTX/U2913WM #2 2020-05-26 13-36 0.3127x 0.329y sRGB F-S XYZLUT+MTX.bpc.ti3
CTI3   

DESCRIPTOR "Argyll Calibration Target chart information 3"
ORIGINATOR "Argyll dispread"
CREATED "Tue May 26 13:42:26 2020"
DEVICE_CLASS "DISPLAY"
SINGLE_DIM_STEPS "21"
COMP_GREY_STEPS "61"
DARK_REGION_EMPHASIS "1.6"
COLOR_REP "RGB_XYZ"
TARGET_INSTRUMENT "X-Rite i1 DisplayPro, ColorMunki Display"
DISPLAY_TYPE_REFRESH "YES"
INSTRUMENT_TYPE_SPECTRAL "NO"
LUMINANCE_XYZ_CDM2 "300.683605 314.899068 347.602856"
NORMALIZED_TO_Y_100 "YES"
VIDEO_LUT_CALIBRATION_POSSIBLE "YES"

BEGIN_ARGYLL_COLPROF_ARGS
-v -qh -aX -bn -C "No copyright. Created with DisplayCAL 3.8.9.3 and ArgyllCMS 2.1.2" -M "DELL U2913WM" -A "Dell, Inc."
END_ARGYLL_COLPROF_ARGS

OBSERVER "1931_2"
USE_BLACK_POINT_COMPENSATION "NO"
BLACK_POINT_CORRECTION "0.0"
HIRES_B2A "YES"
HIRES_B2A_SIZE "-1"
SMOOTH_B2A "YES"
PATCH_SEQUENCE "OPTIMIZE_DISPLAY_RESPONSE_DELAY"

NUMBER_OF_FIELDS 7
BEGIN_DATA_FORMAT
SAMPLE_ID RGB_R RGB_G RGB_B XYZ_X XYZ_Y XYZ_Z
END_DATA_FORMAT

NUMBER_OF_SETS 588
BEGIN_DATA
1 100.00000 100.00000 100.00000 95.485710 100.00000 110.38550
2 1.9608000 1.9608000 1.9608000 0.1886955 0.1985026 0.2264578
3 3.9216000 3.9216000 3.9216000 0.3178834 0.3280887 0.3935276
4 5.8824000 5.8824000 5.8824000 0.4905594 0.5239628 0.6014638
5 9.8039000 9.8039000 9.8039000 0.9782252 1.0273561 1.2013271
6 13.726000 13.726000 13.726000 1.7044420 1.7703167 2.0142258
7 17.647000 17.647000 17.647000 2.6219416 2.7336953 3.0866389
8 21.569000 21.569000 21.569000 3.8337817 4.0684343 4.4350328
9 25.490000 25.490000 25.490000 5.1883732 5.4525483 6.0969309
10 29.412000 29.412000 29.412000 6.6784313 7.0277964 7.8216046
11 33.333000 33.333000 33.333000 8.5700747 9.0046738 9.9449271
12 37.255000 37.255000 37.255000 10.740560 11.276807 12.598411
13 41.176000 41.176000 41.176000 13.364162 14.050539 15.378573
14 45.098000 45.098000 45.098000 16.265114 17.160132 18.845215
15 49.020000 49.020000 49.020000 19.436086 20.442484 22.311008
16 52.941000 52.941000 52.941000 23.066369 24.282817 26.931311
17 56.863000 56.863000 56.863000 27.232962 28.622420 31.708194
18 60.784000 60.784000 60.784000 31.596925 33.190973 36.330618
19 64.706000 64.706000 64.706000 35.904998 37.586226 41.666611
20 68.627000 68.627000 68.627000 41.039212 43.008570 47.381986
21 72.549000 72.549000 72.549000 46.220875 48.346484 53.375320
22 76.471000 76.471000 76.471000 52.187719 54.928198 59.845704
23 80.392000 80.392000 80.392000 58.482864 61.635643 67.620630
24 84.314000 84.314000 84.314000 64.834488 68.236028 75.143965
25 88.235000 88.235000 88.235000 72.083263 75.862773 83.139011
26 92.157000 92.157000 92.157000 79.210099 83.373288 91.413867
27 96.078000 96.078000 96.078000 86.646894 90.614403 100.30209
28 23.208200 10.143800 0.0000000 2.1383555 1.6481186 0.2343463
29 36.792500 31.617200 0.0000000 7.2038937 7.8600300 0.7599626
30 61.720300 100.00000 20.112000 51.707839 79.094655 11.022110
31 61.157700 100.00000 58.974000 56.784433 81.443627 38.795769
32 0.0000000 78.302900 27.716200 23.495599 42.686260 10.515870
33 0.0000000 83.178000 69.244100 33.757616 51.707746 49.334347
34 0.0000000 85.566100 100.00000 46.468635 59.868212 107.46100
35 0.0000000 100.00000 100.00000 57.424673 80.895077 109.59980
36 0.0000000 19.825500 57.012000 6.8461482 5.0142770 29.306130
37 0.0000000 21.516300 76.276000 12.043361 7.7307059 55.401111
38 70.321800 44.960500 100.00000 43.252723 29.948381 104.12420
39 13.157900 0.0000000 0.0000000 0.6717951 0.3746757 0.1297979
40 16.304300 0.0000000 0.0000000 0.9587319 0.5179408 0.1413301
41 19.662900 0.0000000 0.0000000 1.2506118 0.6639009 0.1495890
42 23.255800 0.0000000 0.0000000 1.7177382 0.8976971 0.1599973
43 27.108400 0.0000000 0.0000000 2.3109085 1.1948773 0.1702963
44 31.250000 0.0000000 0.0000000 3.0014890 1.5405965 0.1813582
45 35.714300 0.0000000 0.0000000 3.8696260 1.9771568 0.1946749
46 40.540500 0.0000000 0.0000000 4.9740063 2.5300982 0.2108912
47 45.774700 0.0000000 0.0000000 6.4915237 3.2911477 0.2338672
48 51.470600 0.0000000 0.0000000 8.3951628 4.2459344 0.2621514
49 54.451600 0.0000000 0.0000000 9.4859520 4.7918838 0.2786149
50 57.692300 0.0000000 0.0000000 10.866070 5.4832903 0.2989432
51 64.516100 0.0000000 0.0000000 13.955852 7.0332554 0.3451543
52 72.033900 0.0000000 0.0000000 17.863145 8.9890578 0.4035864
53 80.357100 0.0000000 0.0000000 22.610939 11.367577 0.4748294
54 100.00000 0.0000000 100.00000 56.998473 27.475009 103.13829
55 100.00000 30.647900 100.00000 60.109655 33.151613 103.69050
56 100.00000 51.479700 100.00000 65.994719 44.238581 104.73280
57 22.273300 0.0000000 35.406600 3.4994714 1.6946376 10.374330
58 30.123700 0.0000000 55.993500 8.1075378 3.8379221 28.582185
59 100.00000 0.0000000 67.028400 45.618785 22.504785 42.803262
60 100.00000 0.0000000 82.140500 49.986688 24.459967 65.966759
61 0.0000000 19.662900 0.0000000 1.2842132 2.3515331 0.3611826
62 0.0000000 23.255800 0.0000000 1.7438802 3.2185177 0.4457046
63 0.0000000 27.108400 0.0000000 2.3518400 4.3505715 0.5569097
64 0.0000000 31.250000 0.0000000 3.0390587 5.6563074 0.6849885
65 0.0000000 35.714300 0.0000000 3.9104174 7.3085226 0.8467207
66 0.0000000 40.540500 0.0000000 5.0951362 9.5611132 1.0684048
67 0.0000000 45.774700 0.0000000 6.7202403 12.636478 1.3693091
68 0.0000000 51.470600 0.0000000 8.5469676 16.095561 1.7098063
69 0.0000000 57.692300 0.0000000 11.115920 20.952964 2.1861266
70 0.0000000 64.516100 0.0000000 14.137013 26.657978 2.7461380
71 0.0000000 72.033900 0.0000000 18.018105 33.990393 3.4652415
72 0.0000000 80.357100 0.0000000 23.459809 44.312251 4.4804783
73 100.00000 100.00000 0.0000000 75.959256 91.137544 7.8612426
74 100.00000 100.00000 28.160100 77.222807 91.727254 14.586572
75 100.00000 100.00000 51.008300 80.288599 93.168395 30.621354
76 0.0000000 0.0000000 4.8077000 0.1332092 0.1042715 0.3975196
77 0.0000000 0.0000000 7.4257000 0.1888786 0.1288675 0.6907801
78 0.0000000 0.0000000 10.204100 0.2763683 0.1677995 1.1528967
79 0.0000000 0.0000000 13.157900 0.3827637 0.2152206 1.7077414
80 0.0000000 0.0000000 16.304300 0.5389578 0.2850146 2.5256766
81 0.0000000 0.0000000 19.662900 0.6975936 0.3567527 3.3664076
82 0.0000000 0.0000000 23.255800 0.9288499 0.4603897 4.5963956
83 0.0000000 0.0000000 27.108400 1.1986126 0.5820538 6.0276055
84 0.0000000 0.0000000 31.250000 1.5746830 0.7521110 8.0315496
85 0.0000000 0.0000000 35.714300 2.0100764 0.9489041 10.343056
86 0.0000000 0.0000000 40.540500 2.6099136 1.2194293 13.523716
87 0.0000000 0.0000000 45.774700 3.4165305 1.5840325 17.791682
88 0.0000000 0.0000000 51.470600 4.3199189 1.9934898 22.587408
89 0.0000000 0.0000000 57.692300 5.7110944 2.6261643 29.966762
90 0.0000000 0.0000000 64.516100 7.2792963 3.3343938 38.279715
91 0.0000000 0.0000000 72.033900 9.2370093 4.2043104 48.615983
92 0.0000000 0.0000000 80.357100 11.841851 5.3766312 62.439494
93 0.0000000 0.0000000 89.622600 15.248283 6.8804233 80.465529
94 33.354100 0.0000000 29.919900 4.6983309 2.3234761 7.5322126
95 34.164200 26.637600 66.890900 13.740182 9.6897823 42.349692
96 35.540500 36.893800 100.00000 27.598342 18.714843 103.46740
97 41.630500 50.705400 100.00000 33.283766 27.407679 104.25320
98 3.1447000 3.1447000 3.1447000 0.2543207 0.2636496 0.3206862
99 3.9683000 3.9683000 3.9683000 0.3172882 0.3269017 0.3940988
100 4.8077000 4.8077000 4.8077000 0.3789510 0.3991017 0.4589489
101 5.6634000 5.6634000 5.6634000 0.4419684 0.4620887 0.5591508
102 6.5359000 6.5359000 6.5359000 0.5789916 0.6076528 0.6903228
103 7.4257000 7.4257000 7.4257000 0.6663160 0.6990379 0.7881719
104 8.3333000 8.3333000 8.3333000 0.7661164 0.8075520 0.8987088
105 9.2593000 9.2593000 9.2593000 0.9350300 1.0035881 1.1227104
106 10.204100 10.204100 10.204100 1.0518714 1.1019162 1.2938834
107 11.168400 11.168400 11.168400 1.2162659 1.2717473 1.4817255
108 12.152800 12.152800 12.152800 1.3981368 1.4537884 1.6783102
109 13.157900 13.157900 13.157900 1.6362638 1.7322206 1.9146418
110 14.184400 14.184400 14.184400 1.7628323 1.8515527 2.1370612
111 15.233000 15.233000 15.233000 2.0842634 2.1919290 2.3993495
112 16.304300 16.304300 16.304300 2.3532465 2.4598772 2.8075234
113 17.399300 17.399300 17.399300 2.5339311 2.6825183 2.9554140
114 18.518500 18.518500 18.518500 2.8342869 2.9838065 3.4038652
115 19.662900 19.662900 19.662900 3.1271297 3.2879647 3.7336812
116 20.833300 20.833300 20.833300 3.5341041 3.7362081 4.2461931
117 22.030700 22.030700 22.030700 3.9836379 4.1993064 4.6204385
118 23.255800 23.255800 23.255800 4.3242354 4.5229896 5.0753699
119 24.509800 24.509800 24.509800 4.7563528 4.9703239 5.5855551
120 25.793600 25.793600 25.793600 5.3048633 5.5838874 6.1190150
121 27.108400 27.108400 27.108400 5.8209387 6.1109807 6.6775886
122 28.455300 28.455300 28.455300 6.3887821 6.6649631 7.4271812
123 29.835400 29.835400 29.835400 6.8458154 7.1884685 8.0219627
124 31.250000 31.250000 31.250000 7.6236110 7.9696600 8.8659973
125 32.700400 32.700400 32.700400 8.1466974 8.5549335 9.5232478
126 34.188000 34.188000 34.188000 8.9704159 9.4111741 10.430269
127 35.714300 35.714300 35.714300 9.8493226 10.304397 11.399480
128 37.280700 37.280700 37.280700 10.721170 11.240197 12.618901
129 38.888900 38.888900 38.888900 11.809461 12.418418 13.745902
130 40.540500 40.540500 40.540500 12.817872 13.473589 14.871923
131 42.237400 42.237400 42.237400 14.168643 14.850330 16.341504
132 43.981500 43.981500 43.981500 15.411563 16.233091 17.594515
133 45.774700 45.774700 45.774700 16.855455 17.747322 19.532726
134 47.619100 47.619100 47.619100 18.103745 19.038393 20.939937
135 49.516900 49.516900 49.516900 19.738287 20.706714 22.722228
136 51.470600 51.470600 51.470600 21.551518 22.619345 24.786730
137 53.482600 53.482600 53.482600 23.437249 24.622167 27.444011
138 55.555600 55.555600 55.555600 25.878511 27.181639 30.290023
139 57.692300 57.692300 57.692300 28.083862 29.440440 32.760145
140 59.895800 59.895800 59.895800 30.582674 32.131732 35.358227
141 62.169300 62.169300 62.169300 33.060606 34.581854 38.482379
142 64.516100 64.516100 64.516100 35.837428 37.476866 41.734622
143 66.939900 66.939900 66.939900 39.095710 40.892798 45.144854
144 69.444400 69.444400 69.444400 42.022032 43.950780 48.647156
145 72.033900 72.033900 72.033900 45.598685 47.647393 52.868169
146 74.712600 74.712600 74.712600 49.974188 52.351506 57.625083
147 77.485400 77.485400 77.485400 54.043491 56.786569 62.225866
148 80.357100 80.357100 80.357100 58.383744 61.467943 67.731020
149 83.333300 83.333300 83.333300 62.508917 65.763246 72.702663
150 86.419700 86.419700 86.419700 68.048331 71.640110 78.772448
151 89.622600 89.622600 89.622600 74.806415 78.664985 86.964363
152 92.948700 92.948700 92.948700 80.663260 84.688119 93.375048
153 96.405200 96.405200 96.405200 87.396824 91.272304 101.49739
154 43.418700 46.659400 0.0000000 12.899192 16.029681 1.5013891
155 42.115900 100.00000 0.0000000 43.629823 74.821872 7.3850323
156 62.168800 100.00000 75.618800 61.555036 83.341318 61.640846
157 0.0000000 55.108800 54.076100 15.173883 21.605825 27.821182
158 32.635900 58.400500 75.279800 24.940290 28.171789 55.663131
159 80.756800 60.412800 73.506200 45.220955 39.574927 53.701000
160 23.557000 72.165500 15.166900 20.220007 35.199434 5.6190111
161 33.927100 100.00000 25.247100 42.632513 74.282102 12.751471
162 100.00000 100.00000 69.330000 84.434552 94.869866 53.253730
163 100.00000 100.00000 86.187000 89.662346 97.208448 81.087399
164 0.0000000 12.166200 36.068300 2.5829037 1.9726158 10.673115
165 27.866900 15.761800 37.204000 5.4300822 3.7873811 11.942380
166 47.189400 64.015100 0.0000000 20.742827 29.405720 2.7804421
167 64.358300 64.568100 0.0000000 28.050722 33.578353 2.9521802
168 53.301200 0.0000000 76.442000 19.446126 9.2556290 55.758631
169 73.299900 0.0000000 76.229000 28.893343 13.996429 55.269631
170 85.432800 100.00000 78.318400 75.686516 90.335633 66.953239
171 90.280700 100.00000 93.306000 84.293062 94.328136 95.297299
172 0.0000000 100.00000 49.402400 41.846132 73.744851 27.871772
173 0.0000000 100.00000 68.503300 46.174175 75.683673 50.755008
174 0.0000000 66.449200 54.589300 20.214577 31.017171 29.189553
175 0.0000000 67.698800 78.442600 27.134632 35.283074 61.708126
176 0.0000000 0.0000000 100.00000 19.374836 8.6277155 102.47549
177 0.0000000 21.801800 100.00000 21.033757 11.746118 102.78619
178 0.0000000 49.317400 100.00000 27.446232 23.873436 103.93240
179 31.353200 62.948000 100.00000 36.106908 36.038145 105.17200
180 56.730000 79.256300 100.00000 52.959360 57.226660 106.98050
181 82.492700 88.963000 100.00000 73.226524 76.763074 108.46270
182 0.0000000 37.309800 24.173500 5.2734493 8.5492995 5.8855882
183 0.0000000 61.410900 27.074700 13.936232 24.668497 8.4090060
184 46.155400 83.696300 82.702800 44.915114 57.299550 71.622363
185 48.036200 100.00000 100.00000 64.739858 84.307609 109.83520
186 59.529000 60.875900 84.709400 37.919319 36.004905 73.288044
187 65.164000 75.507800 90.452500 50.584268 53.077617 86.587603
188 0.0000000 0.0000000 0.0000000 0.0749347 0.0784774 0.0866276
189 41.199400 30.167100 11.263100 8.3155865 8.0520961 2.0009375
190 67.943800 36.208600 21.742200 20.709147 15.909731 5.1735637
191 100.00000 100.00000 100.00000 95.156120 99.514430 110.38180
192 41.000400 0.0000000 22.308700 5.9920240 2.9986385 4.5502812
193 54.045100 0.0000000 39.596500 11.792511 5.8226935 13.476821
194 50.916100 14.897900 32.388900 10.780570 6.4386600 9.1688964
195 57.974800 28.883100 64.866700 20.935967 13.798309 39.512720
196 100.00000 28.738300 83.496700 53.174800 29.580470 69.594341
197 24.782400 0.0000000 13.078500 2.2593412 1.1527992 1.8264700
198 28.821200 19.296900 21.253200 4.5674671 3.9930882 4.4200263
199 41.467000 27.297800 23.167900 8.6665047 7.6350838 5.2870708
200 65.416200 27.824600 24.006100 17.944675 12.380948 5.7813892
201 65.626300 55.306900 29.838100 26.190401 27.224809 9.6505399
202 70.172800 68.089800 35.355300 35.245827 39.943958 13.730752
203 69.707400 72.131400 62.891400 41.972852 45.913672 40.047010
204 79.470300 76.234600 100.00000 62.818267 59.323921 106.81420
205 0.0000000 0.0000000 2.3364000 0.1012932 0.0900883 0.2293046
206 14.146600 0.0000000 15.491600 1.1302160 0.5818208 2.3572815
207 29.314300 9.4785000 25.615900 4.0610874 2.5293132 5.8181722
208 46.315400 24.865700 30.770700 10.132250 7.7291479 8.3586600
209 13.106800 10.835200 0.0000000 1.0877430 1.2045723 0.2289739
210 29.412000 19.508800 0.0000000 3.8521780 3.6292390 0.3989597
211 37.635200 37.554100 46.099700 12.272081 12.204278 19.377766
212 40.769900 41.090900 67.516600 18.545526 16.388531 43.518883
213 56.284500 47.869900 76.722700 28.564113 24.164176 57.942963
214 100.00000 81.137500 0.0000000 61.663526 64.070445 5.1468837
215 100.00000 84.360900 30.450100 65.246839 68.696908 13.425302
216 100.00000 84.297300 53.286100 68.623721 70.266919 31.234684
217 100.00000 28.928200 0.0000000 40.211601 23.673126 1.1714449
218 100.00000 32.661100 18.492500 41.533202 25.310477 4.4430092
219 100.00000 71.063300 85.919200 69.027431 58.336101 76.409996
220 100.00000 73.524200 100.00000 76.235456 63.677964 106.76100
221 100.00000 87.365400 100.00000 85.565763 81.262687 108.48960
222 0.7645000 0.7645000 0.7645000 0.1281017 0.1317975 0.1551704
223 0.0000000 0.0000000 0.0000000 0.0749749 0.0784520 0.0866816
224 0.0000000 25.808900 48.778000 5.9719908 5.8058655 20.448176
225 0.0000000 38.483700 65.060500 12.051891 12.208228 39.673860
226 100.00000 0.0000000 0.0000000 37.563639 18.868923 0.7041856
227 100.00000 0.0000000 14.153500 37.934609 19.030063 2.6352879
228 100.00000 0.0000000 26.320200 38.677210 19.366673 6.5949297
229 100.00000 0.0000000 40.817200 40.247461 20.075674 14.907723
230 40.843900 16.016800 0.0000000 6.0115852 4.2163584 0.3703044
231 60.289800 22.431100 0.0000000 13.766862 9.0774528 0.6065715
232 59.531400 46.299000 0.0000000 18.602126 18.721093 1.5672622
233 68.520000 45.876100 60.003700 29.201763 23.816616 34.455496
234 0.0000000 2.3364000 0.0000000 0.1284274 0.1753395 0.1116906
235 0.0000000 16.007700 28.658600 2.1935680 2.2754410 6.9123350
236 0.0000000 51.301500 61.228100 15.086483 19.289003 35.388517
237 0.0000000 54.449500 79.610400 21.500198 24.038276 62.810406
238 64.069900 58.056700 100.00000 44.877274 37.442856 104.97810
239 31.015600 0.0000000 81.163800 14.885483 6.8861193 63.700297
240 45.061100 0.0000000 100.00000 25.530191 11.703078 102.72159
241 56.405700 26.992000 100.00000 32.155695 18.352242 103.24059
242 80.305900 100.00000 100.00000 80.257339 91.972904 110.12070
243 100.00000 100.00000 100.00000 95.066170 99.398020 110.38110
244 52.010600 30.611800 0.0000000 11.639351 9.7516693 0.7884316
245 76.307300 42.852800 0.0000000 26.100331 20.913934 1.4875941
246 100.00000 64.096400 0.0000000 51.390479 44.735121 3.2448044
247 100.00000 69.956300 43.630300 57.671913 52.199106 20.044536
248 0.0000000 13.157900 0.0000000 0.7110403 1.2641703 0.2541689
249 0.0000000 23.395900 23.350200 2.7263048 3.7926871 5.1174206
250 0.0000000 26.505000 34.684000 4.1443694 5.1502831 10.113778
251 6.7558000 45.458800 50.113600 10.994500 14.596210 22.897128
252 31.032300 74.433400 49.310000 26.630751 40.470098 24.803470
253 33.464900 100.00000 45.432900 44.693464 75.066412 25.048600
254 33.496400 100.00000 62.776400 48.150497 76.625664 43.448923
255 36.295700 100.00000 78.272500 53.244770 78.935935 66.421189
256 60.078300 100.00000 91.548400 65.871549 85.048769 90.723476
257 89.622600 0.0000000 0.0000000 28.967923 14.559040 0.5720875
258 100.00000 0.0000000 53.709400 42.454013 21.074524 26.832411
259 100.00000 29.344500 68.903500 48.796287 27.794349 46.028665
260 1.5432000 1.5432000 1.5432000 0.1669142 0.1733865 0.1983642
261 2.3364000 2.3364000 2.3364000 0.2111374 0.2157996 0.2603405
262 0.0000000 16.304300 0.0000000 0.9741609 1.7621787 0.3037414
263 17.918200 21.591700 0.0000000 2.5761409 3.4033838 0.4307863
264 23.692600 35.583000 0.0000000 5.5650765 8.1072711 0.8708477
265 24.943000 46.109600 42.731400 11.867991 15.402750 16.757744
266 22.053000 68.914100 53.755700 22.969369 34.194674 28.955713
267 100.00000 47.198700 0.0000000 44.668984 32.094662 2.0020725
268 100.00000 52.741900 21.546000 47.503476 36.337925 6.5121657
269 100.00000 61.356700 48.774000 54.194751 44.479931 23.670579
270 100.00000 63.216700 66.005000 58.900614 47.952543 43.800543
271 100.00000 77.572800 81.067500 71.528373 65.420296 68.578690
272 4.8077000 0.0000000 0.0000000 0.1875546 0.1341975 0.0978732
273 7.4257000 0.0000000 0.0000000 0.3028203 0.1911236 0.1074853
274 10.204100 0.0000000 0.0000000 0.4419366 0.2602176 0.1172435
275 0.0000000 4.8077000 0.0000000 0.2029060 0.3113726 0.1391350
276 0.0000000 7.4257000 0.0000000 0.3176328 0.5235888 0.1722224
277 0.0000000 10.204100 0.0000000 0.4695315 0.8085640 0.2071365
278 0.0000000 39.438000 79.411000 16.392054 14.592070 61.130675
279 0.0000000 62.568200 100.00000 32.864296 34.102113 104.96660
280 0.0000000 73.441800 100.00000 38.458790 44.688991 105.97320
281 32.727500 76.470100 100.00000 43.630223 49.974265 106.55180
282 71.092200 0.0000000 16.120300 17.787955 8.9223977 2.7907981
283 80.440100 0.0000000 32.102900 24.136340 12.058848 9.1071015
284 100.00000 25.987400 44.919100 43.111043 24.425617 18.776035
285 45.412000 0.0000000 13.673400 6.6705292 3.3627998 2.0056433
286 59.870700 0.0000000 25.701900 12.876862 6.4375660 5.9351912
287 74.719800 0.0000000 100.00000 38.765970 18.336942 102.83479
288 81.060800 30.473200 100.00000 45.518575 25.838478 103.42900
289 0.0000000 89.622600 0.0000000 29.977744 56.576049 5.7217871
290 0.0000000 100.00000 0.0000000 37.876499 71.760570 7.2893792
291 0.0000000 100.00000 27.928200 39.059390 72.300430 13.547422
292 82.625900 100.00000 47.296200 66.167869 85.780330 27.172351
293 32.713400 76.829100 0.0000000 24.215910 41.222209 4.0845550
294 57.123900 82.695800 0.0000000 35.910658 52.646427 4.9488456
295 74.052300 100.00000 0.0000000 57.351913 81.484587 7.5853444
296 82.620800 100.00000 25.454200 63.468377 84.504499 13.286071
297 0.0000000 42.728100 17.559700 6.3082441 11.105877 3.8908158
298 73.283000 48.039000 53.750300 31.076155 25.634988 27.758202
299 100.00000 52.726900 69.967300 55.475312 40.053758 48.357916
300 100.00000 87.146900 70.937300 74.761475 75.906793 53.563630
301 28.969000 21.395500 15.475300 4.5816895 4.4365736 2.5723156
302 81.844600 25.306400 21.327100 26.595071 16.174371 4.9515366
303 84.338700 27.213600 41.969000 30.374994 18.345562 15.859793
304 84.183700 73.989700 58.709000 50.723028 52.121446 35.603137
305 22.332000 38.870500 22.738400 7.1798857 10.124227 5.4965110
306 33.525600 49.562200 29.724300 12.660152 17.226062 8.9848824
307 41.483200 70.424400 32.910600 24.408720 36.091525 12.384461
308 71.335300 81.344400 61.165500 48.446487 57.340940 39.154160
309 51.087800 72.662600 50.569400 30.935744 40.698598 25.806120
310 71.810300 72.839500 50.355200 40.733951 45.899082 25.662930
311 83.718700 73.493200 70.583700 52.555170 52.259036 50.947228
312 94.467700 82.420700 74.789700 68.203261 68.244508 58.948854
313 100.00000 89.541000 86.385100 81.384660 81.477447 79.531598
314 8.7678000 7.4131000 18.410100 1.1859754 0.9375381 3.2123093
315 10.689300 11.774000 28.091100 2.2100135 1.7703507 6.7783414
316 16.247700 17.026400 40.682100 4.5120890 3.5088819 14.226162
317 29.109800 23.581200 52.907900 9.1318720 6.8328572 25.439650
318 42.444100 32.245400 54.919900 13.962612 11.203557 27.971162
319 45.687300 36.485100 82.943300 23.493269 16.909831 68.457450
320 13.619800 69.459800 64.524800 24.708040 35.219574 41.760312
321 37.184300 73.497500 67.638200 31.231205 41.583159 46.047695
322 27.500000 54.205200 0.0000000 11.897911 19.191923 1.9432795
323 70.714700 76.762000 13.276100 38.798620 48.647794 5.9966463
324 82.257700 90.629500 12.925000 55.103411 70.032829 7.8878567
325 20.132800 71.025400 33.626800 20.554627 34.431874 12.722351
326 18.203800 85.148500 77.309300 38.349150 55.541839 61.897386
327 60.472200 90.350400 100.00000 62.116226 72.240190 108.44910
328 16.809800 12.749000 69.341500 10.055710 5.5106933 45.197932
329 18.426200 29.718100 77.928600 14.904303 10.772667 58.935244
330 88.347500 34.862900 84.710400 45.280975 27.299529 72.005083
331 14.793400 84.622100 41.441100 29.761684 51.162736 19.425526
332 17.515000 87.307500 54.688300 34.379787 56.241609 32.009585
333 14.217000 87.701500 65.577300 36.754939 57.726560 45.031264
334 33.683000 23.306900 31.627700 6.7627733 5.7094914 8.8393409
335 37.420900 26.470800 42.479800 9.3422492 7.7027939 15.694823
336 41.650100 48.610300 54.573900 18.116765 19.482303 28.335132
337 42.002000 49.835700 67.144600 21.474848 21.577255 43.535373
338 43.040000 58.828100 67.625300 25.639701 28.783280 44.753554
339 46.420500 62.441200 84.786100 33.323936 34.371574 73.325194
340 47.942200 73.355900 87.547600 40.605051 45.998902 79.344488
341 65.541800 91.379000 93.313600 62.474817 73.798962 93.695378
342 0.0000000 0.0000000 0.0000000 0.0749442 0.0784649 0.0866576
343 21.045500 10.972900 8.5366000 2.0607832 1.6959096 1.0218118
344 32.494100 34.437600 11.406300 7.0807666 8.5937935 2.1229516
345 40.046600 50.531400 14.843200 13.629592 18.299652 3.8651678
346 46.716600 59.672100 36.167700 20.967877 27.143489 13.214551
347 58.333500 85.776600 42.815200 41.325392 58.153360 20.753137
348 65.252300 87.696700 58.063800 48.915737 63.893855 36.579428
349 100.00000 100.00000 100.00000 94.943630 99.207239 110.37950
350 14.090500 59.471700 17.574800 13.244002 23.285976 5.1265727
351 42.051700 69.644400 16.983300 22.867939 34.774994 5.9724103
352 49.658100 84.518400 17.656200 34.765577 53.721917 7.9272357
353 68.444500 90.385000 28.602700 47.888116 66.008636 12.877421
354 16.130600 15.848800 57.354400 7.3481374 4.5890807 30.039808
355 17.393900 20.390700 87.969200 16.796124 9.6203352 76.750056
