Dell/U2913WM/U2913WM #2 2020-05-26 13-36 0.3127x 0.329y sRGB F-S XYZLUT+MTX/U2913WM #2 2020-05-26 13-36 0.3127x 0.329y sRGB F-S XYZLUT+MTX.cal
CAL    

DESCRIPTOR "Argyll Device Calibration Curves"
ORIGINATOR "Argyll dispcal"
CREATED "Tue May 26 13:41:21 2020"
DEVICE_CLASS "DISPLAY"
COLOR_REP "RGB"
VIDEO_LUT_CALIBRATION_POSSIBLE "YES"
TV_OUTPUT_ENCODING "NO"
DEVICE_TYPE "n"
TARGET_WHITE_XYZ "302.851633 318.638270 347.015478"
TARGET_GAMMA "sRGB"
DEGREE_OF_BLACK_OUTPUT_OFFSET "1.0"
BLACK_POINT_CORRECTION "0.0"
BLACK_NEUTRAL_BLEND_RATE "4.0"
BLACK_POINT_HACK "YES"
QUALITY "low"

BEGIN_ARGYLL_DISPCAL_ARGS
-v2 -d2 -c1 -yn -P0.475424224693,0.648471615721,2.23653088042 -F -X "Xrite i1 DisplayPro, ColorMunki Display & Dell DELL U2913WM (GretagMacbeth i1 Pro).ccmx" -ql -m -w0.3127,0.329 -gs -f1.0 -k0 -A4.0 -b
END_ARGYLL_DISPCAL_ARGS


NUMBER_OF_FIELDS 4
BEGIN_DATA_FORMAT
RGB_I RGB_R RGB_G RGB_B
END_DATA_FORMAT

NUMBER_OF_SETS 256
BEGIN_DATA
0.00000000 0.00000000 0.00000000 0.00000000
0.00392157 0.00640559 0.00867820 0.00808495
0.00784314 0.01259000 0.01689600 0.01581320
0.01176470 0.01856450 0.02468900 0.02320800
0.01568630 0.02433950 0.03208940 0.03029030
0.01960780 0.02992490 0.03912560 0.03707880
0.02352940 0.03532970 0.04581010 0.04357450
0.02745100 0.04055200 0.05218220 0.04980060
0.03137250 0.04561030 0.05826880 0.05579140
0.03529410 0.05053560 0.06408540 0.06154820
0.03921570 0.05535410 0.06964940 0.06707790
0.04313730 0.06008020 0.07497910 0.07239730
0.04705880 0.06471470 0.08009300 0.07752900
0.05098040 0.06925780 0.08501660 0.08249740
0.05490200 0.07371690 0.08974260 0.08730210
0.05882350 0.07808740 0.09427920 0.09193750
0.06274510 0.08235570 0.09865000 0.09641320
0.06666670 0.08652450 0.10286500 0.10073300
0.07058820 0.09059290 0.10693600 0.10490800
0.07450980 0.09455780 0.11086600 0.10894200
0.07843140 0.09841400 0.11467100 0.11284600
0.08235290 0.10215900 0.11837300 0.11663900
0.08627450 0.10578900 0.12197500 0.12032700
0.09019610 0.10930500 0.12548200 0.12391400
0.09411760 0.11271300 0.12891800 0.12742100
0.09803920 0.11602300 0.13229400 0.13086200
0.10196100 0.11924700 0.13561100 0.13423800
0.10588200 0.12238900 0.13886900 0.13755500
0.10980400 0.12545600 0.14207400 0.14081700
0.11372500 0.12845400 0.14524900 0.14404900
0.11764700 0.13140000 0.14840300 0.14725800
0.12156900 0.13430200 0.15153800 0.15044400
0.12549000 0.13716500 0.15465300 0.15360600
0.12941200 0.13999100 0.15774500 0.15674300
0.13333300 0.14278300 0.16081200 0.15985500
0.13725500 0.14554400 0.16386200 0.16295400
0.14117600 0.14827700 0.16691600 0.16605800
0.14509800 0.15099900 0.16997900 0.16916700
0.14902000 0.15372500 0.17305300 0.17228100
0.15294100 0.15645400 0.17613600 0.17539900
0.15686300 0.15918400 0.17922700 0.17851800
0.16078400 0.16191400 0.18232500 0.18163600
0.16470600 0.16464200 0.18542200 0.18474400
0.16862700 0.16736400 0.18851300 0.18784200
0.17254900 0.17008100 0.19159500 0.19093000
0.17647100 0.17279200 0.19468300 0.19402700
0.18039200 0.17549900 0.19779700 0.19714000
0.18431400 0.17822000 0.20093800 0.20026900
0.18823500 0.18095800 0.20410600 0.20341600
0.19215700 0.18370800 0.20730100 0.20658100
0.19607800 0.18647000 0.21052700 0.20976600
0.20000000 0.18924700 0.21378800 0.21297400
0.20392200 0.19203500 0.21708100 0.21620600
0.20784300 0.19483400 0.22040500 0.21946500
0.21176500 0.19764500 0.22376300 0.22275100
0.21568600 0.20046800 0.22714300 0.22606100
0.21960800 0.20330200 0.23054300 0.22940100
0.22352900 0.20614700 0.23396700 0.23277200
0.22745100 0.20900600 0.23742200 0.23618200
0.23137300 0.21188000 0.24092100 0.23965400
0.23529400 0.21477200 0.24447700 0.24320100
0.23921600 0.21769800 0.24808900 0.24682400
0.24313700 0.22066500 0.25175500 0.25050400
0.24705900 0.22367500 0.25545100 0.25421400
0.25098000 0.22671700 0.25915800 0.25795300
0.25490200 0.22977900 0.26287400 0.26171800
0.25882400 0.23286100 0.26659800 0.26550900
0.26274500 0.23596200 0.27032800 0.26932600
0.26666700 0.23908100 0.27406200 0.27317000
0.27058800 0.24222100 0.27780500 0.27704200
0.27451000 0.24538000 0.28156700 0.28093500
0.27843100 0.24856000 0.28534500 0.28484500
0.28235300 0.25176700 0.28914100 0.28875600
0.28627500 0.25500500 0.29294700 0.29265300
0.29019600 0.25827200 0.29675000 0.29653900
0.29411800 0.26155700 0.30055300 0.30041800
0.29803900 0.26485900 0.30436200 0.30429300
0.30196100 0.26818000 0.30818200 0.30816100
0.30588200 0.27151900 0.31201000 0.31202200
0.30980400 0.27487400 0.31583800 0.31587700
0.31372500 0.27824900 0.31966400 0.31973100
0.31764700 0.28164500 0.32348900 0.32359800
0.32156900 0.28506300 0.32732600 0.32747900
0.32549000 0.28850500 0.33117900 0.33138100
0.32941200 0.29198100 0.33505300 0.33532100
0.33333300 0.29549200 0.33897100 0.33927300
0.33725500 0.29903900 0.34291200 0.34323300
0.34117600 0.30261900 0.34686800 0.34719900
0.34509800 0.30621100 0.35084200 0.35116800
0.34902000 0.30981100 0.35483200 0.35514100
0.35294100 0.31342200 0.35883400 0.35912000
0.35686300 0.31704100 0.36284500 0.36309800
0.36078400 0.32066900 0.36686000 0.36706700
0.36470600 0.32430600 0.37086300 0.37103300
0.36862700 0.32794800 0.37486200 0.37502300
0.37254900 0.33159200 0.37888000 0.37904300
0.37647100 0.33524300 0.38293300 0.38309200
0.38039200 0.33890900 0.38701700 0.38717300
0.38431400 0.34259800 0.39114000 0.39127800
0.38823500 0.34630300 0.39530100 0.39540700
0.39215700 0.35002700 0.39949900 0.39956500
0.39607800 0.35377800 0.40373400 0.40373000
0.40000000 0.35755800 0.40798200 0.40788200
0.40392200 0.36136600 0.41220500 0.41202200
0.40784300 0.36517900 0.41640300 0.41614000
0.41176500 0.36897400 0.42057700 0.42022600
0.41568600 0.37275500 0.42471400 0.42428800
0.41960800 0.37651900 0.42881300 0.42835900
0.42352900 0.38025400 0.43290600 0.43244100
0.42745100 0.38395600 0.43700800 0.43653400
0.43137300 0.38764600 0.44112200 0.44063600
0.43529400 0.39133500 0.44524500 0.44474200
0.43921600 0.39502400 0.44937200 0.44884800
0.44313700 0.39871600 0.45348200 0.45295200
0.44705900 0.40240800 0.45757400 0.45705800
0.45098000 0.40610000 0.46166000 0.46116700
0.45490200 0.40979400 0.46574100 0.46527400
0.45882400 0.41349200 0.46981200 0.46938000
0.46274500 0.41719800 0.47386800 0.47348600
0.46666700 0.42090700 0.47791100 0.47759000
0.47058800 0.42461400 0.48194100 0.48169500
0.47451000 0.42832000 0.48595800 0.48579800
0.47843100 0.43202600 0.48996400 0.48990000
0.48235300 0.43573100 0.49396000 0.49400900
0.48627500 0.43943700 0.49794600 0.49815400
0.49019600 0.44314400 0.50193700 0.50230400
0.49411800 0.44685500 0.50595600 0.50644000
0.49803900 0.45059000 0.50998500 0.51056100
0.50196100 0.45434500 0.51400100 0.51466900
0.50588200 0.45809500 0.51800600 0.51876300
0.50980400 0.46183700 0.52199600 0.52284400
0.51372500 0.46557100 0.52597100 0.52691000
0.51764700 0.46929500 0.52993000 0.53096200
0.52156900 0.47301000 0.53387400 0.53499700
0.52549000 0.47671400 0.53780000 0.53902200
0.52941200 0.48040800 0.54170400 0.54303400
0.53333300 0.48409200 0.54559400 0.54702400
0.53725500 0.48776900 0.54946900 0.55099300
0.54117600 0.49143500 0.55331500 0.55495700
0.54509800 0.49508700 0.55713400 0.55892300
0.54902000 0.49873000 0.56094400 0.56289500
0.55294100 0.50235900 0.56475500 0.56687200
0.55686300 0.50597100 0.56856900 0.57082900
0.56078400 0.50957300 0.57238900 0.57475400
0.56470600 0.51316900 0.57621300 0.57864600
0.56862700 0.51674800 0.58002200 0.58249200
0.57254900 0.52030200 0.58381500 0.58629500
0.57647100 0.52383300 0.58758700 0.59006100
0.58039200 0.52732800 0.59132500 0.59380500
0.58431400 0.53078500 0.59502800 0.59755300
0.58823500 0.53420700 0.59870000 0.60130900
0.59215700 0.53759800 0.60236600 0.60506600
0.59607800 0.54098400 0.60605000 0.60882000
0.60000000 0.54436400 0.60975100 0.61256400
0.60392200 0.54773800 0.61346700 0.61630100
0.60784300 0.55110500 0.61719400 0.62004200
0.61176500 0.55447100 0.62092600 0.62380700
0.61568600 0.55784000 0.62466200 0.62759600
0.61960800 0.56121600 0.62841700 0.63140700
0.62352900 0.56460800 0.63221400 0.63524300
0.62745100 0.56801800 0.63605200 0.63910900
0.63137300 0.57144400 0.63993500 0.64300900
0.63529400 0.57488600 0.64387300 0.64694000
0.63921600 0.57834600 0.64787000 0.65090000
0.64313700 0.58182200 0.65192400 0.65489100
0.64705900 0.58532000 0.65603500 0.65891200
0.65098000 0.58884200 0.66020200 0.66294200
0.65490200 0.59238600 0.66442400 0.66693900
0.65882400 0.59595100 0.66869700 0.67090200
0.66274500 0.59953000 0.67296100 0.67482700
0.66666700 0.60309500 0.67718200 0.67871600
0.67058800 0.60664100 0.68136300 0.68257000
0.67451000 0.61016700 0.68550000 0.68639500
0.67843100 0.61367400 0.68960000 0.69019400
0.68235300 0.61717100 0.69366400 0.69396600
0.68627500 0.62066200 0.69770300 0.69771500
0.69019600 0.62415200 0.70172300 0.70143800
0.69411800 0.62764000 0.70572700 0.70514300
0.69803900 0.63112000 0.70971700 0.70885100
0.70196100 0.63458900 0.71369400 0.71257900
0.70588200 0.63804600 0.71767100 0.71632600
0.70980400 0.64150300 0.72168100 0.72008700
0.71372500 0.64497600 0.72572400 0.72385200
0.71764700 0.64846600 0.72979400 0.72762000
0.72156900 0.65197500 0.73387100 0.73138900
0.72549000 0.65549600 0.73795000 0.73516200
0.72941200 0.65902200 0.74202800 0.73894100
0.73333300 0.66254500 0.74610800 0.74273800
0.73725500 0.66606600 0.75019300 0.74653400
0.74117600 0.66958600 0.75429600 0.75031400
0.74509800 0.67312500 0.75837900 0.75407700
0.74902000 0.67666600 0.76243800 0.75781900
0.75294100 0.68020600 0.76647400 0.76153500
0.75686300 0.68374600 0.77049000 0.76522300
0.76078400 0.68728500 0.77448500 0.76888600
0.76470600 0.69082600 0.77845600 0.77253300
0.76862700 0.69437500 0.78240900 0.77617300
0.77254900 0.69793200 0.78636700 0.77980900
0.77647100 0.70149000 0.79032900 0.78344300
0.78039200 0.70504600 0.79429300 0.78708100
0.78431400 0.70859700 0.79826300 0.79072300
0.78823500 0.71214800 0.80223700 0.79436900
0.79215700 0.71569700 0.80620200 0.79799500
0.79607800 0.71924100 0.81011800 0.80159800
0.80000000 0.72275200 0.81398200 0.80518100
0.80392200 0.72621900 0.81779600 0.80874900
0.80784300 0.72964600 0.82156300 0.81230400
0.81176500 0.73303800 0.82529400 0.81584600
0.81568600 0.73639700 0.82899100 0.81937600
0.81960800 0.73972300 0.83265700 0.82289500
0.82352900 0.74301800 0.83630400 0.82642500
0.82745100 0.74628500 0.83996600 0.82997500
0.83137300 0.74955400 0.84364600 0.83354600
0.83529400 0.75284300 0.84734500 0.83713500
0.83921600 0.75615200 0.85106400 0.84074400
0.84313700 0.75947700 0.85480800 0.84437300
0.84705900 0.76282200 0.85857400 0.84801500
0.85098000 0.76619100 0.86234300 0.85164800
0.85490200 0.76957800 0.86610900 0.85526400
0.85882400 0.77297200 0.86986900 0.85886700
0.86274500 0.77637100 0.87362300 0.86245800
0.86666700 0.77977000 0.87737500 0.86604000
0.87058800 0.78316700 0.88115000 0.86963400
0.87451000 0.78656700 0.88495100 0.87324500
0.87843100 0.78997600 0.88878000 0.87687300
0.88235300 0.79339200 0.89262800 0.88051400
0.88627500 0.79681500 0.89648400 0.88416700
0.89019600 0.80024200 0.90034800 0.88782900
0.89411800 0.80367100 0.90422800 0.89150300
0.89803900 0.80710800 0.90813000 0.89518900
0.90196100 0.81055000 0.91205400 0.89889300
0.90588200 0.81400000 0.91598700 0.90260600
0.90980400 0.81745300 0.91992500 0.90632800
0.91372500 0.82090900 0.92385500 0.91004700
0.91764700 0.82436000 0.92777200 0.91375600
0.92156900 0.82780200 0.93166900 0.91745000
0.92549000 0.83123800 0.93554000 0.92112700
0.92941200 0.83466500 0.93937600 0.92479200
0.93333300 0.83808000 0.94317600 0.92844300
0.93725500 0.84148600 0.94693900 0.93208400
0.94117600 0.84488500 0.95066300 0.93571500
0.94509800 0.84827700 0.95434400 0.93932900
0.94902000 0.85166500 0.95797900 0.94292400
0.95294100 0.85504800 0.96156900 0.94649600
0.95686300 0.85842600 0.96511800 0.95004800
0.96078400 0.86179700 0.96862700 0.95358700
0.96470600 0.86516000 0.97210200 0.95711200
0.96862700 0.86851600 0.97554400 0.96062200
0.97254900 0.87186800 0.97895400 0.96412000
0.97647100 0.87521500 0.98233400 0.96760300
0.98039200 0.87855800 0.98568200 0.97107200
0.98431400 0.88189700 0.98900000 0.97452800
0.98823500 0.88523200 0.99228800 0.97797000
0.99215700 0.88856300 0.99554600 0.98139900
0.99607800 0.89188900 0.99877500 0.98481400
1.00000000 0.89521100 1.00000000 0.98821600
END_DATA
CAL    

DESCRIPTOR "Argyll Calibration options and model"
ORIGINATOR "Argyll dispcal"
CREATED "Tue May 26 13:41:21 202"

NUMBER_OF_FIELDS 3
BEGIN_DATA_FORMAT
R_P G_P B_P
END_DATA_FORMAT

NUMBER_OF_SETS 32
BEGIN_DATA
0.00000560999 0.00045502700 0.00084904400
0.99999400000 0.99954500000 0.99915100000
1.72965200000 1.66452800000 2.13163000000
0.44154400000 0.42167700000 0.21267500000
0.13418500000 0.19548800000 0.19779600000
0.13606900000 0.07566390000 0.12521400000
0.11564700000 0.10490700000 0.10676200000
0.06937580000 0.11922000000 0.08771060000
0.04781160000 0.04018150000 0.07860430000
0.07531070000 0.07577300000 0.07559040000
0.05881380000 0.07682310000 0.06090540000
0.05726800000 0.04414560000 0.05939820000
0.05147840000 0.06565640000 0.05593280000
0.05032380000 0.06476720000 0.05975470000
0.04422770000 0.06061290000 0.04173880000
0.04404430000 0.04852910000 0.05503190000
0.04155360000 0.04732520000 0.04146970000
0.03996130000 0.04358370000 0.03460790000
0.03724540000 0.04780450000 0.04616150000
0.03817960000 0.04318720000 0.03628890000
0.02915810000 0.03590110000 0.03351780000
0.03173680000 0.03869770000 0.03713250000
0.02868040000 0.03728430000 0.03414190000
0.02626950000 0.03453420000 0.02974840000
0.02481510000 0.03512870000 0.02810530000
0.02314080000 0.03558770000 0.02589690000
0.02330410000 0.03302710000 0.02518320000
0.02211530000 0.03189020000 0.02523760000
0.02149660000 0.02802390000 0.02288100000
0.02024010000 0.03162970000 0.02409930000
0.01947390000 0.02778930000 0.02464350000
0.01746950000 0.02579540000 0.02243540000
END_DATA
