Dell/U2913WM/U2913WM #2 2020-05-26 13-36 0.3127x 0.329y sRGB F-S XYZLUT+MTX/U2913WM #2 2020-05-26 13-36 0.3127x 0.329y sRGB F-S XYZLUT+MTX.ti1
CTI1   

DESCRIPTOR "Argyll Calibration Target chart information 1"
ORIGINATOR "Argyll targen"
CREATED "Tue May 26 13:42:18 2020"
APPROX_WHITE_POINT "94.192095 97.631237 109.966411"
COLOR_REP "RGB"
ACCURATE_EXPECTED_VALUES "true"
DARK_REGION_EMPHASIS "1.6"
WHITE_COLOR_PATCHES "4"
BLACK_COLOR_PATCHES "4"
SINGLE_DIM_STEPS "21"
COMP_GREY_STEPS "61"
OFPS_PATCHES "435"

NUMBER_OF_FIELDS 7
BEGIN_DATA_FORMAT
SAMPLE_ID RGB_R RGB_G RGB_B XYZ_X XYZ_Y XYZ_Z
END_DATA_FORMAT

NUMBER_OF_SETS 588
BEGIN_DATA
1 100.00000 100.00000 100.00000 94.192100 97.631240 109.96640
2 1.9608000 1.9608000 1.9608000 1.1428000 1.1502000 1.1637000
3 3.9216000 3.9216000 3.9216000 1.2856000 1.3005000 1.3273000
4 5.8824000 5.8824000 5.8824000 1.4495000 1.4729000 1.5152000
5 9.8039000 9.8039000 9.8039000 1.9148000 1.9624000 2.0484000
6 13.726000 13.726000 13.726000 2.5817000 2.6639000 2.8126000
7 17.647000 17.647000 17.647000 3.4695000 3.5979000 3.8300000
8 21.569000 21.569000 21.569000 4.5953000 4.7822000 5.1201000
9 25.490000 25.490000 25.490000 5.9745000 6.2332000 6.7007000
10 29.412000 29.412000 29.412000 7.6213000 7.9656000 8.5879000
11 33.333000 33.333000 33.333000 9.5488000 9.9933000 10.797000
12 37.255000 37.255000 37.255000 11.769000 12.329000 13.341000
13 41.176000 41.176000 41.176000 14.294000 14.985000 16.234000
14 45.098000 45.098000 45.098000 17.134000 17.973000 19.489000
15 49.020000 49.020000 49.020000 20.299000 21.303000 23.117000
16 52.941000 52.941000 52.941000 23.800000 24.986000 27.129000
17 56.863000 56.863000 56.863000 27.646000 29.032000 31.536000
18 60.784000 60.784000 60.784000 31.846000 33.450000 36.349000
19 64.706000 64.706000 64.706000 36.409000 38.250000 41.578000
20 68.627000 68.627000 68.627000 41.343000 43.440000 47.232000
21 72.549000 72.549000 72.549000 46.656000 49.030000 53.321000
22 76.471000 76.471000 76.471000 52.356000 55.027000 59.853000
23 80.392000 80.392000 80.392000 58.452000 61.439000 66.838000
24 84.314000 84.314000 84.314000 64.949000 68.275000 74.285000
25 88.235000 88.235000 88.235000 71.857000 75.541000 82.200000
26 92.157000 92.157000 92.157000 79.181000 83.246000 90.594000
27 96.078000 96.078000 96.078000 86.929000 91.397000 99.472000
28 23.208200 10.143800 0.0000000 2.1528460 1.6658830 0.2407110
29 36.792500 31.617200 0.0000000 7.2580450 7.9710730 0.7899670
30 61.720300 100.00000 20.112000 50.488710 76.819800 10.854350
31 61.157700 100.00000 58.974000 55.537000 79.040230 38.918970
32 0.0000000 78.302900 27.716200 23.472970 42.739840 10.775490
33 0.0000000 83.178000 69.244100 33.886610 51.992070 49.661530
34 0.0000000 85.566100 100.00000 46.403190 59.952650 107.47740
35 0.0000000 100.00000 100.00000 56.223570 78.606350 109.34490
36 0.0000000 19.825500 57.012000 6.9209460 4.9837480 29.766820
37 0.0000000 21.516300 76.276000 12.023170 7.5692760 55.646560
38 70.321800 44.960500 100.00000 43.072710 29.571630 103.85460
39 13.157900 0.0000000 0.0000000 0.6803430 0.3776670 0.1482060
40 16.304300 0.0000000 0.0000000 0.9630180 0.5193070 0.1528330
41 19.662900 0.0000000 0.0000000 1.3158620 0.6961060 0.1586090
42 23.255800 0.0000000 0.0000000 1.7657430 0.9215280 0.1659740
43 27.108400 0.0000000 0.0000000 2.3166520 1.1975720 0.1749920
44 31.250000 0.0000000 0.0000000 3.0179260 1.5489600 0.1864720
45 35.714300 0.0000000 0.0000000 3.9379250 2.0099430 0.2015320
46 40.540500 0.0000000 0.0000000 5.1555080 2.6200380 0.2214640
47 45.774700 0.0000000 0.0000000 6.6683450 3.3780750 0.2462300
48 51.470600 0.0000000 0.0000000 8.5921260 4.3420230 0.2777220
49 54.451600 0.0000000 0.0000000 9.7414430 4.9179120 0.2965370
50 57.692300 0.0000000 0.0000000 11.154370 5.6258860 0.3196660
51 64.516100 0.0000000 0.0000000 14.272430 7.1882530 0.3707100
52 72.033900 0.0000000 0.0000000 18.218920 9.1657180 0.4353140
53 80.357100 0.0000000 0.0000000 23.051980 11.587420 0.5144320
54 100.00000 0.0000000 100.00000 57.348200 27.646680 102.96010
55 100.00000 30.647900 100.00000 60.240650 33.140860 103.51010
56 100.00000 51.479700 100.00000 66.052960 44.181280 104.61540
57 22.273300 0.0000000 35.406600 3.5924590 1.7226570 10.531770
58 30.123700 0.0000000 55.993500 8.1443970 3.8065440 28.434370
59 100.00000 0.0000000 67.028400 45.917440 22.585850 42.415830
60 100.00000 0.0000000 82.140500 50.450230 24.592690 66.424280
61 0.0000000 19.662900 0.0000000 1.3524080 2.4877800 0.3795960
62 0.0000000 23.255800 0.0000000 1.8337760 3.4021350 0.4711340
63 0.0000000 27.108400 0.0000000 2.3829780 4.4453360 0.5755710
64 0.0000000 31.250000 0.0000000 3.0878810 5.7842920 0.7096160
65 0.0000000 35.714300 0.0000000 4.0145650 7.5445180 0.8858360
66 0.0000000 40.540500 0.0000000 5.2488960 9.8891150 1.1205590
67 0.0000000 45.774700 0.0000000 6.8305300 12.893410 1.4213250
68 0.0000000 51.470600 0.0000000 8.7855940 16.607030 1.7931030
69 0.0000000 57.692300 0.0000000 11.348880 21.475970 2.2805420
70 0.0000000 64.516100 0.0000000 14.335540 27.149090 2.8484900
71 0.0000000 72.033900 0.0000000 18.239720 34.565030 3.5909150
72 0.0000000 80.357100 0.0000000 23.600400 44.747590 4.6103120
73 100.00000 100.00000 0.0000000 74.896710 89.088450 7.7662950
74 100.00000 100.00000 28.160100 76.144500 89.640890 14.375320
75 100.00000 100.00000 51.008300 79.185930 90.987440 30.484580
76 0.0000000 0.0000000 4.8077000 0.1503170 0.1082350 0.4881790
77 0.0000000 0.0000000 7.4257000 0.2054570 0.1326480 0.7802320
78 0.0000000 0.0000000 10.204100 0.2859030 0.1682640 1.2063220
79 0.0000000 0.0000000 13.157900 0.3926140 0.2155090 1.7715300
80 0.0000000 0.0000000 16.304300 0.5337110 0.2779780 2.5188690
81 0.0000000 0.0000000 19.662900 0.7176120 0.3593980 3.4929170
82 0.0000000 0.0000000 23.255800 0.9561400 0.4650030 4.7563090
83 0.0000000 0.0000000 27.108400 1.2479910 0.5942170 6.3021270
84 0.0000000 0.0000000 31.250000 1.6000770 0.7500990 8.1669930
85 0.0000000 0.0000000 35.714300 2.0778630 0.9616320 10.697640
86 0.0000000 0.0000000 40.540500 2.6781390 1.2273970 13.877070
87 0.0000000 0.0000000 45.774700 3.4538600 1.5708380 17.985760
88 0.0000000 0.0000000 51.470600 4.4665800 2.0192070 23.349740
89 0.0000000 0.0000000 57.692300 5.7747190 2.5983690 30.278440
90 0.0000000 0.0000000 64.516100 7.3174200 3.2813810 38.449530
91 0.0000000 0.0000000 72.033900 9.2740050 4.1476340 48.812800
92 0.0000000 0.0000000 80.357100 11.872470 5.2980720 62.575850
93 0.0000000 0.0000000 89.622600 15.121700 6.7366290 79.785760
94 33.354100 0.0000000 29.919900 4.8316400 2.3763480 7.5853040
95 34.164200 26.637600 66.890900 13.661120 9.5408990 42.091140
96 35.540500 36.893800 100.00000 27.400890 18.523380 103.20090
97 41.630500 50.705400 100.00000 33.164760 27.296370 104.02660
98 3.1447000 3.1447000 3.1447000 0.2779160 0.2871660 0.3571050
99 3.9683000 3.9683000 3.9683000 0.3402220 0.3538020 0.4316760
100 4.8077000 4.8077000 4.8077000 0.4109070 0.4293290 0.5161220
101 5.6634000 5.6634000 5.6634000 0.4860580 0.5101020 0.6059480
102 6.5359000 6.5359000 6.5359000 0.5757900 0.6065340 0.7135220
103 7.4257000 7.4257000 7.4257000 0.6731140 0.7110430 0.8306470
104 8.3333000 8.3333000 8.3333000 0.7892930 0.8327060 0.9686390
105 9.2593000 9.2593000 9.2593000 0.9153830 0.9633600 1.1196840
106 10.204100 10.204100 10.204100 1.0587680 1.1109340 1.2879990
107 11.168400 11.168400 11.168400 1.2164120 1.2724330 1.4702040
108 12.152800 12.152800 12.152800 1.3942870 1.4554020 1.6733290
109 13.157900 13.157900 13.157900 1.5902610 1.6568910 1.8956870
110 14.184400 14.184400 14.184400 1.8041440 1.8782180 2.1394500
111 15.233000 15.233000 15.233000 2.0375180 2.1214410 2.4075340
112 16.304300 16.304300 16.304300 2.2924870 2.3899200 2.7006040
113 17.399300 17.399300 17.399300 2.5732010 2.6896410 3.0222200
114 18.518500 18.518500 18.518500 2.8794980 3.0190050 3.3713790
115 19.662900 19.662900 19.662900 3.2173050 3.3852810 3.7542250
116 20.833300 20.833300 20.833300 3.5811850 3.7780260 4.1707950
117 22.030700 22.030700 22.030700 3.9728510 4.1961260 4.6249020
118 23.255800 23.255800 23.255800 4.3870840 4.6306630 5.1165210
119 24.509800 24.509800 24.509800 4.8260470 5.0873450 5.6428650
120 25.793600 25.793600 25.793600 5.2883310 5.5660750 6.1974220
121 27.108400 27.108400 27.108400 5.7790440 6.0791210 6.7757940
122 28.455300 28.455300 28.455300 6.3117540 6.6384440 7.3927230
123 29.835400 29.835400 29.835400 6.8933980 7.2503830 8.0567490
124 31.250000 31.250000 31.250000 7.5373090 7.9253460 8.7861850
125 32.700400 32.700400 32.700400 8.2497950 8.6705430 9.6067040
126 34.188000 34.188000 34.188000 9.0221940 9.4786900 10.513810
127 35.714300 35.714300 35.714300 9.8617770 10.358090 11.508110
128 37.280700 37.280700 37.280700 10.784610 11.327570 12.581350
129 38.888900 38.888900 38.888900 11.799260 12.396320 13.715750
130 40.540500 40.540500 40.540500 12.913970 13.578550 14.942190
131 42.237400 42.237400 42.237400 14.115300 14.858430 16.304230
132 43.981500 43.981500 43.981500 15.403260 16.228170 17.794680
133 45.774700 45.774700 45.774700 16.784160 17.684320 19.376410
134 47.619100 47.619100 47.619100 18.273550 19.242300 21.071800
135 49.516900 49.516900 49.516900 19.894480 20.938340 22.973620
136 51.470600 51.470600 51.470600 21.675720 22.810260 25.143670
137 53.482600 53.482600 53.482600 23.642840 24.875800 27.532500
138 55.555600 55.555600 55.555600 25.796180 27.127070 30.039500
139 57.692300 57.692300 57.692300 28.109390 29.542220 32.601760
140 59.895800 59.895800 59.895800 30.539540 32.073740 35.276370
141 62.169300 62.169300 62.169300 33.056750 34.673130 38.184270
142 64.516100 64.516100 64.516100 35.756820 37.460720 41.391830
143 66.939900 66.939900 66.939900 38.777790 40.617940 44.866020
144 69.444400 69.444400 69.444400 42.055780 44.041660 48.577630
145 72.033900 72.033900 72.033900 45.564060 47.720380 52.562130
146 74.712600 74.712600 74.712600 49.472710 51.941220 56.920080
147 77.485400 77.485400 77.485400 53.777780 56.612400 61.891590
148 80.357100 80.357100 80.357100 58.356280 61.475080 67.423700
149 83.333300 83.333300 83.333300 63.245010 66.594920 73.214950
150 86.419700 86.419700 86.419700 68.679360 72.295470 79.363120
151 89.622600 89.622600 89.622600 74.493130 78.407610 85.967590
152 92.948700 92.948700 92.948700 80.561270 84.554070 93.115470
153 96.405200 96.405200 96.405200 87.418750 91.483260 101.13910
154 43.418700 46.659400 0.0000000 12.987500 16.372570 1.5710910
155 42.115900 100.00000 0.0000000 42.433950 72.822330 7.2348760
156 62.168800 100.00000 75.618800 60.250510 81.153490 61.493040
157 0.0000000 55.108800 54.076100 15.172300 21.559740 28.171820
158 32.635900 58.400500 75.279800 24.980850 28.147490 55.982960
159 80.756800 60.412800 73.506200 45.345200 39.603130 53.726650
160 23.557000 72.165500 15.166900 20.431130 35.743430 5.7253920
161 33.927100 100.00000 25.247100 41.417980 72.253760 12.603980
162 100.00000 100.00000 69.330000 83.358690 92.834880 52.586070
163 100.00000 100.00000 86.187000 88.695600 95.197730 80.853630
164 0.0000000 12.166200 36.068300 2.6467230 1.9813010 11.019200
165 27.866900 15.761800 37.204000 5.4328910 3.7893540 11.841110
166 47.189400 64.015100 0.0000000 21.146640 30.240620 2.9200570
167 64.358300 64.568100 0.0000000 28.472720 34.266310 3.0840810
168 53.301200 0.0000000 76.442000 19.757550 9.3254290 55.790880
169 73.299900 0.0000000 76.229000 29.332230 14.126990 55.587360
170 85.432800 100.00000 78.318400 74.379560 88.182160 66.337970
171 90.280700 100.00000 93.306000 83.241910 92.311090 94.700610
172 0.0000000 100.00000 49.402400 40.907620 71.825400 28.222240
173 0.0000000 100.00000 68.503300 45.173500 73.714070 50.816930
174 0.0000000 66.449200 54.589300 20.321990 31.183990 29.703280
175 0.0000000 67.698800 78.442600 27.065340 35.106600 62.135430
176 0.0000000 0.0000000 100.00000 19.379670 8.6217920 102.33860
177 0.0000000 21.801800 100.00000 20.931910 11.570250 102.63370
178 0.0000000 49.317400 100.00000 27.294990 23.656840 103.84380
179 31.353200 62.948000 100.00000 35.873580 35.822220 104.96190
180 56.730000 79.256300 100.00000 52.819350 57.264010 106.84880
181 82.492700 88.963000 100.00000 73.214970 76.859380 108.34780
182 0.0000000 37.309800 24.173500 5.3317190 8.6778980 5.9335380
183 0.0000000 61.410900 27.074700 14.123250 25.054500 8.7369180
184 46.155400 83.696300 82.702800 45.093040 57.858220 71.817460
185 48.036200 100.00000 100.00000 63.547210 82.276010 109.46480
186 59.529000 60.875900 84.709400 37.921290 35.950160 73.079540
187 65.164000 75.507800 90.452500 50.258380 52.750040 85.517260
188 0.0000000 0.0000000 0.0000000 0.0842881 0.0790017 0.1384480
189 41.199400 30.167100 11.263100 8.3782670 8.1441070 2.0131510
190 67.943800 36.208600 21.742200 20.821980 16.081730 5.2257520
191 100.00000 100.00000 100.00000 94.192100 97.631240 109.96640
192 41.000400 0.0000000 22.308700 6.0864280 3.0395520 4.4858440
193 54.045100 0.0000000 39.596500 12.044330 5.9277230 13.377710
194 50.916100 14.897900 32.388900 10.770230 6.3823430 9.0388920
195 57.974800 28.883100 64.866700 21.185650 13.838060 39.584030
196 100.00000 28.738300 83.496700 53.473730 29.659450 69.370010
197 24.782400 0.0000000 13.078500 2.2824370 1.1626310 1.7854430
198 28.821200 19.296900 21.253200 4.5423100 3.9779570 4.2970420
199 41.467000 27.297800 23.167900 8.6025700 7.5517530 5.2521550
200 65.416200 27.824600 24.006100 18.048100 12.395130 5.7459440
201 65.626300 55.306900 29.838100 26.448020 27.532060 9.6809640
202 70.172800 68.089800 35.355300 35.206280 40.008040 13.806860
203 69.707400 72.131400 62.891400 42.000930 46.148440 40.096780
204 79.470300 76.234600 100.00000 62.610760 59.380260 106.66230
205 0.0000000 0.0000000 2.3364000 0.1102910 0.0905140 0.2761740
206 14.146600 0.0000000 15.491600 1.1750000 0.6015910 2.3227720
207 29.314300 9.4785000 25.615900 4.0716720 2.5110050 5.8008050
208 46.315400 24.865700 30.770700 10.283200 7.8611580 8.4195090
209 13.106800 10.835200 0.0000000 1.1120250 1.2035620 0.2310310
210 29.412000 19.508800 0.0000000 3.9339150 3.7536870 0.4184240
211 37.635200 37.554100 46.099700 12.179310 12.049420 19.158370
212 40.769900 41.090900 67.516600 18.530310 16.297930 43.551830
213 56.284500 47.869900 76.722700 28.514690 24.086380 57.700600
214 100.00000 81.137500 0.0000000 62.075070 64.733880 5.3281090
215 100.00000 84.360900 30.450100 65.670030 69.460630 13.379470
216 100.00000 84.297300 53.286100 68.943660 70.845710 30.943900
217 100.00000 28.928200 0.0000000 40.643860 24.025550 1.2527140
218 100.00000 32.661100 18.492500 41.897160 25.582970 4.3767300
219 100.00000 71.063300 85.919200 69.373630 58.634000 76.695140
220 100.00000 73.524200 100.00000 76.399510 63.834440 106.58290
221 100.00000 87.365400 100.00000 85.681070 81.464650 108.34790
222 0.7645000 0.7645000 0.7645000 0.1065020 0.1032180 0.1630340
223 0.0000000 0.0000000 0.0000000 0.0842881 0.0790017 0.1384480
224 0.0000000 25.808900 48.778000 6.0565320 5.7904450 21.019060
225 0.0000000 38.483700 65.060500 12.056750 12.087180 40.039600
226 100.00000 0.0000000 0.0000000 38.052810 19.103890 0.7599970
227 100.00000 0.0000000 14.153500 38.402550 19.258730 2.6124160
228 100.00000 0.0000000 26.320200 39.155380 19.592030 6.5998370
229 100.00000 0.0000000 40.817200 40.683860 20.268750 14.695600
230 40.843900 16.016800 0.0000000 6.0911240 4.2802820 0.3848490
231 60.289800 22.431100 0.0000000 13.974890 9.3304250 0.6505900
232 59.531400 46.299000 0.0000000 18.907360 19.178110 1.6480260
233 68.520000 45.876100 60.003700 29.276890 23.824880 34.432640
234 0.0000000 2.3364000 0.0000000 0.1413820 0.1874510 0.1493050
235 0.0000000 16.007700 28.658600 2.2239670 2.2661760 7.1253360
236 0.0000000 51.301500 61.228100 15.173250 19.342230 35.951550
237 0.0000000 54.449500 79.610400 21.504580 23.963780 63.111860
238 64.069900 58.056700 100.00000 44.779950 37.322550 104.73950
239 31.015600 0.0000000 81.163800 15.038820 6.8684920 64.088840
240 45.061100 0.0000000 100.00000 25.741480 11.809510 102.44270
241 56.405700 26.992000 100.00000 32.154120 18.212620 102.94410
242 80.305900 100.00000 100.00000 79.159640 90.098930 109.72030
243 100.00000 100.00000 100.00000 94.192100 97.631240 109.96640
244 52.010600 30.611800 0.0000000 11.674450 9.9220620 0.8297110
245 76.307300 42.852800 0.0000000 26.478160 21.476060 1.5860980
246 100.00000 64.096400 0.0000000 52.111420 45.808060 3.4334060
247 100.00000 69.956300 43.630300 58.111690 52.778460 20.092790
248 0.0000000 13.157900 0.0000000 0.6858800 1.2217190 0.2528480
249 0.0000000 23.395900 23.350200 2.7316220 3.8274840 5.1290850
250 0.0000000 26.505000 34.684000 4.1670320 5.1033030 10.487370
251 6.7558000 45.458800 50.113600 11.037390 14.622110 23.186210
252 31.032300 74.433400 49.310000 26.562460 40.556060 24.906120
253 33.464900 100.00000 45.432900 43.618700 73.222550 24.763610
254 33.496400 100.00000 62.776400 47.119990 74.773070 43.274380
255 36.295700 100.00000 78.272500 51.992720 76.965700 65.889650
256 60.078300 100.00000 91.548400 64.841650 83.130990 90.804230
257 89.622600 0.0000000 0.0000000 29.477750 14.807180 0.6196220
258 100.00000 0.0000000 53.709400 42.904030 21.251700 26.454980
259 100.00000 29.344500 68.903500 49.064030 27.855810 45.492330
260 1.5432000 1.5432000 1.5432000 0.1578110 0.1586490 0.2194340
261 2.3364000 2.3364000 2.3364000 0.2191080 0.2248800 0.2878770
262 0.0000000 16.304300 0.0000000 0.9643340 1.7506380 0.3057990
263 17.918200 21.591700 0.0000000 2.6483490 3.4943750 0.4452070
264 23.692600 35.583000 0.0000000 5.7256140 8.3598350 0.9086220
265 24.943000 46.109600 42.731400 11.756830 15.341370 16.854000
266 22.053000 68.914100 53.755700 22.946250 34.294890 29.043660
267 100.00000 47.198700 0.0000000 45.254850 32.784070 2.1295480
268 100.00000 52.741900 21.546000 48.000630 36.902830 6.4964500
269 100.00000 61.356700 48.774000 54.773750 45.233390 23.680920
270 100.00000 63.216700 66.005000 59.317780 48.418210 43.637090
271 100.00000 77.572800 81.067500 71.782000 65.644850 68.613450
272 4.8077000 0.0000000 0.0000000 0.2086380 0.1413100 0.1404840
273 7.4257000 0.0000000 0.0000000 0.3059050 0.1900470 0.1420760
274 10.204100 0.0000000 0.0000000 0.4599830 0.2672510 0.1445980
275 0.0000000 4.8077000 0.0000000 0.2205280 0.3377880 0.1643560
276 0.0000000 7.4257000 0.0000000 0.3303280 0.5463520 0.1852350
277 0.0000000 10.204100 0.0000000 0.4814590 0.8334220 0.2139750
278 0.0000000 39.438000 79.411000 16.408500 14.383380 61.793830
279 0.0000000 62.568200 100.00000 32.753980 34.026140 104.88180
280 0.0000000 73.441800 100.00000 38.380500 44.713650 105.95180
281 32.727500 76.470100 100.00000 43.566080 50.054860 106.37760
282 71.092200 0.0000000 16.120300 18.142830 9.1019010 2.7596430
283 80.440100 0.0000000 32.102900 24.702310 12.321080 8.9843950
284 100.00000 25.987400 44.919100 43.420970 24.585570 18.308880
285 45.412000 0.0000000 13.673400 6.8844000 3.4671120 1.9896480
286 59.870700 0.0000000 25.701900 13.201760 6.5902310 5.9238850
287 74.719800 0.0000000 100.00000 39.018660 18.462300 102.66010
288 81.060800 30.473200 100.00000 45.646490 25.783720 103.26570
289 0.0000000 89.622600 0.0000000 30.062260 57.021810 5.8391090
290 0.0000000 100.00000 0.0000000 36.928190 70.063560 7.1447460
291 0.0000000 100.00000 27.928200 38.157310 70.607740 13.654940
292 82.625900 100.00000 47.296200 64.958010 83.897680 26.683710
293 32.713400 76.829100 0.0000000 24.506400 41.963800 4.2227630
294 57.123900 82.695800 0.0000000 35.941600 53.066420 5.0776740
295 74.052300 100.00000 0.0000000 56.190290 79.715220 7.4600680
296 82.620800 100.00000 25.454200 62.377000 82.754770 13.030940
297 0.0000000 42.728100 17.559700 6.4046500 11.335390 3.9661080
298 73.283000 48.039000 53.750300 31.249990 25.868910 27.609290
299 100.00000 52.726900 69.967300 55.873050 40.379580 48.223940
300 100.00000 87.146900 70.937300 75.117040 76.554780 53.210350
301 28.969000 21.395500 15.475300 4.5179840 4.3698580 2.6335400
302 81.844600 25.306400 21.327100 26.762520 16.248000 4.8278440
303 84.338700 27.213600 41.969000 30.774560 18.531050 15.791080
304 84.183700 73.989700 58.709000 50.800280 52.189530 35.501740
305 22.332000 38.870500 22.738400 7.1820310 10.166000 5.4798510
306 33.525600 49.562200 29.724300 12.850620 17.583980 9.0166800
307 41.483200 70.424400 32.910600 24.363480 36.294960 12.413760
308 71.335300 81.344400 61.165500 48.429280 57.710020 39.117700
309 51.087800 72.662600 50.569400 31.184640 41.325550 26.052120
310 71.810300 72.839500 50.355200 40.888350 46.339910 26.006820
311 83.718700 73.493200 70.583700 53.064020 52.727550 50.759650
312 94.467700 82.420700 74.789700 68.089180 68.339100 58.224780
313 100.00000 89.541000 86.385100 81.841530 82.076060 79.909370
314 8.7678000 7.4131000 18.410100 1.1802600 0.9387240 3.1583530
315 10.689300 11.774000 28.091100 2.2336370 1.7815140 6.8196500
316 16.247700 17.026400 40.682100 4.5253590 3.4873560 14.173280
317 29.109800 23.581200 52.907900 9.1092870 6.8369700 25.310590
318 42.444100 32.245400 54.919900 13.985130 11.216190 27.884790
319 45.687300 36.485100 82.943300 23.421840 16.780100 68.143590
320 13.619800 69.459800 64.524800 24.715080 35.437290 41.658580
321 37.184300 73.497500 67.638200 31.334530 41.888530 46.310190
322 27.500000 54.205200 0.0000000 12.161040 19.813980 2.0367150
323 70.714700 76.762000 13.276100 38.967540 49.129240 6.1051280
324 82.257700 90.629500 12.925000 55.260980 70.644450 7.9559060
325 20.132800 71.025400 33.626800 20.723010 34.924290 12.811330
326 18.203800 85.148500 77.309300 38.638320 56.141520 62.224870
327 60.472200 90.350400 100.00000 62.217270 72.741560 108.34090
328 16.809800 12.749000 69.341500 10.047110 5.3744110 45.097830
329 18.426200 29.718100 77.928600 14.867410 10.658740 58.741860
330 88.347500 34.862900 84.710400 45.572630 27.326770 71.658490
331 14.793400 84.622100 41.441100 29.896780 51.715390 19.559770
332 17.515000 87.307500 54.688300 34.430880 56.556030 32.320260
333 14.217000 87.701500 65.577300 36.847110 58.027900 45.293610
334 33.683000 23.306900 31.627700 6.8119390 5.8157580 8.7480810
335 37.420900 26.470800 42.479800 9.4068180 7.6637500 15.812710
336 41.650100 48.610300 54.573900 18.163660 19.571420 28.341860
337 42.002000 49.835700 67.144600 21.549260 21.696890 43.580620
338 43.040000 58.828100 67.625300 25.629820 28.858470 44.935060
339 46.420500 62.441200 84.786100 33.499800 34.671950 73.265570
340 47.942200 73.355900 87.547600 40.608380 46.048680 79.517650
341 65.541800 91.379000 93.313600 62.416700 73.984880 93.394890
342 0.0000000 0.0000000 0.0000000 0.0842881 0.0790017 0.1384480
343 21.045500 10.972900 8.5366000 2.0751280 1.6893300 1.0459670
344 32.494100 34.437600 11.406300 7.1513170 8.7072430 2.1663490
345 40.046600 50.531400 14.843200 13.749660 18.581160 3.8201460
346 46.716600 59.672100 36.167700 21.144920 27.472520 13.401150
347 58.333500 85.776600 42.815200 41.537700 58.682690 20.939180
348 65.252300 87.696700 58.063800 48.973770 64.200070 36.360430
349 100.00000 100.00000 100.00000 94.192100 97.631240 109.96640
350 14.090500 59.471700 17.574800 13.317230 23.519980 5.1673340
351 42.051700 69.644400 16.983300 22.912500 35.062270 5.9954920
352 49.658100 84.518400 17.656200 34.761010 54.180130 8.0163820
353 68.444500 90.385000 28.602700 48.088670 66.747950 13.009200
354 16.130600 15.848800 57.354400 7.4019620 4.5866380 30.077620
355 17.393900 20.390700 87.969200 16.869880 9.5548370 76.871690
356 21.667900 44.094100 92.268800 23.814050 19.736760 86.267710
357 0.0000000 78.008800 78.097600 33.088870 46.717860 62.686160
358 65.149500 88.415000 82.551700 56.221470 68.176710 72.316410
359 11.903200 18.190300 6.6130000 1.7679720 2.4353180 0.8949530
360 21.877900 19.586000 7.8931000 2.9759200 3.2796590 1.1089870
361 26.586000 28.837500 16.730700 5.2851770 6.2596700 3.1563930
362 48.931300 37.195000 46.289300 15.439470 13.556590 19.354470
