Dell/U2913WM/U2913WM #2 2020-05-26 13-36 0.3127x 0.329y sRGB F-S XYZLUT+MTX/U2913WM #2 2020-05-26 13-36 0.3127x 0.329y sRGB F-S XYZLUT+MTX.ti3
CTI3   

DESCRIPTOR "Argyll Calibration Target chart information 3"
ORIGINATOR "Argyll dispread"
CREATED "Tue May 26 13:42:26 2020"
DEVICE_CLASS "DISPLAY"
SINGLE_DIM_STEPS "21"
COMP_GREY_STEPS "61"
DARK_REGION_EMPHASIS "1.6"
COLOR_REP "RGB_XYZ"
TARGET_INSTRUMENT "X-Rite i1 DisplayPro, ColorMunki Display"
DISPLAY_TYPE_REFRESH "YES"
INSTRUMENT_TYPE_SPECTRAL "NO"
LUMINANCE_XYZ_CDM2 "300.683605 314.899068 347.602856"
NORMALIZED_TO_Y_100 "YES"
VIDEO_LUT_CALIBRATION_POSSIBLE "YES"

BEGIN_ARGYLL_COLPROF_ARGS
-v -qh -aX -bn -C "No copyright. Created with DisplayCAL 3.8.9.3 and ArgyllCMS 2.1.2" -M "DELL U2913WM" -A "Dell, Inc."
END_ARGYLL_COLPROF_ARGS

OBSERVER "1931_2"
USE_BLACK_POINT_COMPENSATION "NO"
BLACK_POINT_CORRECTION "0.0"
HIRES_B2A "YES"
HIRES_B2A_SIZE "-1"
SMOOTH_B2A "YES"
PATCH_SEQUENCE "OPTIMIZE_DISPLAY_RESPONSE_DELAY"

NUMBER_OF_FIELDS 7
BEGIN_DATA_FORMAT
SAMPLE_ID RGB_R RGB_G RGB_B XYZ_X XYZ_Y XYZ_Z
END_DATA_FORMAT

NUMBER_OF_SETS 588
BEGIN_DATA
1 100.00000 100.00000 100.00000 95.485710 100.00000 110.38550
2 1.9608000 1.9608000 1.9608000 0.1946600 0.1985730 0.2600290
3 3.9216000 3.9216000 3.9216000 0.3216010 0.3281590 0.4143380
4 5.8824000 5.8824000 5.8824000 0.4923750 0.5240330 0.6114720
5 9.8039000 9.8039000 9.8039000 0.9785720 1.0274260 1.2030610
6 13.726000 13.726000 13.726000 1.7045500 1.7703860 2.0145430
7 17.647000 17.647000 17.647000 2.6220130 2.7337640 3.0867480
8 21.569000 21.569000 21.569000 3.8338470 4.0685020 4.4351110
9 25.490000 25.490000 25.490000 5.1884370 5.4526150 6.0970050
10 29.412000 29.412000 29.412000 6.6784940 7.0278620 7.8216770
11 33.333000 33.333000 33.333000 8.5701360 9.0047380 9.9449980
12 37.255000 37.255000 37.255000 10.740620 11.276870 12.598480
13 41.176000 41.176000 41.176000 13.364220 14.050600 15.378640
14 45.098000 45.098000 45.098000 16.265170 17.160190 18.845280
15 49.020000 49.020000 49.020000 19.436140 20.442540 22.311070
16 52.941000 52.941000 52.941000 23.066420 24.282870 26.931370
17 56.863000 56.863000 56.863000 27.233010 28.622470 31.708250
18 60.784000 60.784000 60.784000 31.596970 33.191020 36.330670
19 64.706000 64.706000 64.706000 35.905040 37.586270 41.666660
20 68.627000 68.627000 68.627000 41.039250 43.008610 47.382030
21 72.549000 72.549000 72.549000 46.220910 48.346520 53.375360
22 76.471000 76.471000 76.471000 52.187750 54.928230 59.845740
23 80.392000 80.392000 80.392000 58.482890 61.635670 67.620660
24 84.314000 84.314000 84.314000 64.834510 68.236050 75.143990
25 88.235000 88.235000 88.235000 72.083280 75.862790 83.139030
26 92.157000 92.157000 92.157000 79.210110 83.373300 91.413880
27 96.078000 96.078000 96.078000 86.646900 90.614410 100.30210
28 23.208200 10.143800 0.0000000 2.1384890 1.6481880 0.2346310
29 36.792500 31.617200 0.0000000 7.2039560 7.8600950 0.7600400
30 61.720300 100.00000 20.112000 51.707870 79.094670 11.022180
31 61.157700 100.00000 58.974000 56.784460 81.443640 38.795820
32 0.0000000 78.302900 27.716200 23.495650 42.686300 10.515940
33 0.0000000 83.178000 69.244100 33.757660 51.707780 49.334390
34 0.0000000 85.566100 100.00000 46.468670 59.868240 107.46100
35 0.0000000 100.00000 100.00000 57.424700 80.895090 109.59980
36 0.0000000 19.825500 57.012000 6.8462110 5.0143440 29.306190
37 0.0000000 21.516300 76.276000 12.043420 7.7307710 55.401150
38 70.321800 44.960500 100.00000 43.252760 29.948430 104.12420
39 13.157900 0.0000000 0.0000000 0.6749300 0.3747460 0.1473000
40 16.304300 0.0000000 0.0000000 0.9607450 0.5180110 0.1515680
41 19.662900 0.0000000 0.0000000 1.2520090 0.6639710 0.1554870
42 23.255800 0.0000000 0.0000000 1.7184670 0.8977670 0.1624210
43 27.108400 0.0000000 0.0000000 2.3112530 1.1949470 0.1711840
44 31.250000 0.0000000 0.0000000 3.0016690 1.5406660 0.1817160
45 35.714300 0.0000000 0.0000000 3.8697330 1.9772260 0.1948400
46 40.540500 0.0000000 0.0000000 4.9740840 2.5301670 0.2109930
47 45.774700 0.0000000 0.0000000 6.4915900 3.2912160 0.2339500
48 51.470600 0.0000000 0.0000000 8.3952250 4.2460020 0.2622300
49 54.451600 0.0000000 0.0000000 9.4860130 4.7919510 0.2786930
50 57.692300 0.0000000 0.0000000 10.866130 5.4833570 0.2990210
51 64.516100 0.0000000 0.0000000 13.955910 7.0333210 0.3452320
52 72.033900 0.0000000 0.0000000 17.863200 8.9891220 0.4036640
53 80.357100 0.0000000 0.0000000 22.610990 11.367640 0.4749070
54 100.00000 0.0000000 100.00000 56.998500 27.475060 103.13830
55 100.00000 30.647900 100.00000 60.109680 33.151660 103.69050
56 100.00000 51.479700 100.00000 65.994740 44.238620 104.73280
57 22.273300 0.0000000 35.406600 3.4996190 1.6947070 10.375280
58 30.123700 0.0000000 55.993500 8.1076010 3.8379900 28.582260
59 100.00000 0.0000000 67.028400 45.618820 22.504840 42.803310
60 100.00000 0.0000000 82.140500 49.986720 24.460020 65.966790
61 0.0000000 19.662900 0.0000000 1.2842880 2.3516020 0.3612960
62 0.0000000 23.255800 0.0000000 1.7439480 3.2185860 0.4457880
63 0.0000000 27.108400 0.0000000 2.3519060 4.3506390 0.5569880
64 0.0000000 31.250000 0.0000000 3.0391240 5.6563740 0.6850660
65 0.0000000 35.714300 0.0000000 3.9104820 7.3085880 0.8467980
66 0.0000000 40.540500 0.0000000 5.0952000 9.5611770 1.0684820
67 0.0000000 45.774700 0.0000000 6.7203030 12.636540 1.3693860
68 0.0000000 51.470600 0.0000000 8.5470290 16.095620 1.7098830
69 0.0000000 57.692300 0.0000000 11.115980 20.953020 2.1862030
70 0.0000000 64.516100 0.0000000 14.137070 26.658030 2.7462140
71 0.0000000 72.033900 0.0000000 18.018160 33.990440 3.4653170
72 0.0000000 80.357100 0.0000000 23.459860 44.312290 4.4805530
73 100.00000 100.00000 0.0000000 75.959270 91.137550 7.8613150
74 100.00000 100.00000 28.160100 77.222820 91.727260 14.586640
75 100.00000 100.00000 51.008300 80.288610 93.168400 30.621410
76 0.0000000 0.0000000 4.8077000 0.1416050 0.1043420 0.4448990
77 0.0000000 0.0000000 7.4257000 0.1965590 0.1289380 0.7340960
78 0.0000000 0.0000000 10.204100 0.2830370 0.1678700 1.1953340
79 0.0000000 0.0000000 13.157900 0.3883760 0.2152910 1.7539080
80 0.0000000 0.0000000 16.304300 0.5433090 0.2850850 2.5718430
81 0.0000000 0.0000000 19.662900 0.7009410 0.3568230 3.4091480
82 0.0000000 0.0000000 23.255800 0.9312860 0.4604600 4.6320060
83 0.0000000 0.0000000 27.108400 1.2004490 0.5821240 6.0544910
84 0.0000000 0.0000000 31.250000 1.5758530 0.7521810 8.0484920
85 0.0000000 0.0000000 35.714300 2.0107470 0.9489740 10.352420
86 0.0000000 0.0000000 40.540500 2.6102580 1.2194990 13.528090
87 0.0000000 0.0000000 45.774700 3.4167060 1.5841020 17.793460
88 0.0000000 0.0000000 51.470600 4.3200270 1.9935590 22.588150
89 0.0000000 0.0000000 57.692300 5.7111700 2.6262330 29.967010
90 0.0000000 0.0000000 64.516100 7.2793620 3.3344620 38.279820
91 0.0000000 0.0000000 72.033900 9.2370710 4.2043780 48.616040
92 0.0000000 0.0000000 80.357100 11.841910 5.3766980 62.439530
93 0.0000000 0.0000000 89.622600 15.248340 6.8804890 80.465550
94 33.354100 0.0000000 29.919900 4.6984160 2.3235450 7.5324340
95 34.164200 26.637600 66.890900 13.740240 9.6898460 42.349740
96 35.540500 36.893800 100.00000 27.598390 18.714900 103.46740
97 41.630500 50.705400 100.00000 33.283810 27.407730 104.25320
98 3.1447000 3.1447000 3.1447000 0.2590250 0.2637200 0.3471000
99 3.9683000 3.9683000 3.9683000 0.3210220 0.3269720 0.4150010
100 4.8077000 4.8077000 4.8077000 0.3818180 0.3991720 0.4749280
101 5.6634000 5.6634000 5.6634000 0.4442450 0.4621590 0.5717770
102 6.5359000 6.5359000 6.5359000 0.5803300 0.6077230 0.6976210
103 7.4257000 7.4257000 7.4257000 0.6672780 0.6991080 0.7933330
104 8.3333000 8.3333000 8.3333000 0.7667710 0.8076220 0.9021240
105 9.2593000 9.2593000 9.2593000 0.9353930 1.0036580 1.1245140
106 10.204100 10.204100 10.204100 1.0521640 1.1019860 1.2952980
107 11.168400 11.168400 11.168400 1.2164740 1.2718170 1.4826350
108 12.152800 12.152800 12.152800 1.3982920 1.4538580 1.6789040
109 13.157900 13.157900 13.157900 1.6363750 1.7322900 1.9149760
110 14.184400 14.184400 14.184400 1.7629330 1.8516220 2.1373400
111 15.233000 15.233000 15.233000 2.0843460 2.1919980 2.3995200
112 16.304300 16.304300 16.304300 2.3533220 2.4599460 2.8076560
113 17.399300 17.399300 17.399300 2.5340030 2.6825870 2.9555260
114 18.518500 18.518500 18.518500 2.8343560 2.9838750 3.4039620
115 19.662900 19.662900 19.662900 3.1271970 3.2880330 3.7337690
116 20.833300 20.833300 20.833300 3.5341700 3.7362760 4.2462740
117 22.030700 22.030700 22.030700 3.9837030 4.1993740 4.6205160
118 23.255800 23.255800 23.255800 4.3243000 4.5230570 5.0754460
119 24.509800 24.509800 24.509800 4.7564170 4.9703910 5.5856300
120 25.793600 25.793600 25.793600 5.3049270 5.5839540 6.1190890
121 27.108400 27.108400 27.108400 5.8210020 6.1110470 6.6776620
122 28.455300 28.455300 28.455300 6.3888450 6.6650290 7.4272540
123 29.835400 29.835400 29.835400 6.8458780 7.1885340 8.0220350
124 31.250000 31.250000 31.250000 7.6236730 7.9697250 8.8660690
125 32.700400 32.700400 32.700400 8.1467590 8.5549980 9.5233190
126 34.188000 34.188000 34.188000 8.9704770 9.4112380 10.430340
127 35.714300 35.714300 35.714300 9.8493830 10.304460 11.399550
128 37.280700 37.280700 37.280700 10.721230 11.240260 12.618970
129 38.888900 38.888900 38.888900 11.809520 12.418480 13.745970
130 40.540500 40.540500 40.540500 12.817930 13.473650 14.871990
131 42.237400 42.237400 42.237400 14.168700 14.850390 16.341570
132 43.981500 43.981500 43.981500 15.411620 16.233150 17.594580
133 45.774700 45.774700 45.774700 16.855510 17.747380 19.532790
134 47.619100 47.619100 47.619100 18.103800 19.038450 20.940000
135 49.516900 49.516900 49.516900 19.738340 20.706770 22.722290
136 51.470600 51.470600 51.470600 21.551570 22.619400 24.786790
137 53.482600 53.482600 53.482600 23.437300 24.622220 27.444070
138 55.555600 55.555600 55.555600 25.878560 27.181690 30.290080
139 57.692300 57.692300 57.692300 28.083910 29.440490 32.760200
140 59.895800 59.895800 59.895800 30.582720 32.131780 35.358280
141 62.169300 62.169300 62.169300 33.060650 34.581900 38.482430
142 64.516100 64.516100 64.516100 35.837470 37.476910 41.734670
143 66.939900 66.939900 66.939900 39.095750 40.892840 45.144900
144 69.444400 69.444400 69.444400 42.022070 43.950820 48.647200
145 72.033900 72.033900 72.033900 45.598720 47.647430 52.868210
146 74.712600 74.712600 74.712600 49.974220 52.351540 57.625120
147 77.485400 77.485400 77.485400 54.043520 56.786600 62.225900
148 80.357100 80.357100 80.357100 58.383770 61.467970 67.731050
149 83.333300 83.333300 83.333300 62.508940 65.763270 72.702690
150 86.419700 86.419700 86.419700 68.048350 71.640130 78.772470
151 89.622600 89.622600 89.622600 74.806430 78.665000 86.964380
152 92.948700 92.948700 92.948700 80.663270 84.688130 93.375060
153 96.405200 96.405200 96.405200 87.396830 91.272310 101.49740
154 43.418700 46.659400 0.0000000 12.899250 16.029740 1.5014660
155 42.115900 100.00000 0.0000000 43.629860 74.821890 7.3851050
156 62.168800 100.00000 75.618800 61.555060 83.341330 61.640880
157 0.0000000 55.108800 54.076100 15.173940 21.605880 27.821240
158 32.635900 58.400500 75.279800 24.940340 28.171840 55.663170
159 80.756800 60.412800 73.506200 45.220990 39.574970 53.701040
160 23.557000 72.165500 15.166900 20.220060 35.199480 5.6190850
161 33.927100 100.00000 25.247100 42.632550 74.282120 12.751540
162 100.00000 100.00000 69.330000 84.434560 94.869870 53.253770
163 100.00000 100.00000 86.187000 89.662350 97.208450 81.087420
164 0.0000000 12.166200 36.068300 2.5830020 1.9726850 10.673620
165 27.866900 15.761800 37.204000 5.4301470 3.7874490 11.942460
166 47.189400 64.015100 0.0000000 20.742880 29.405770 2.7805180
167 64.358300 64.568100 0.0000000 28.050770 33.578400 2.9522560
168 53.301200 0.0000000 76.442000 19.446180 9.2556930 55.758670
169 73.299900 0.0000000 76.229000 28.893390 13.996490 55.269670
170 85.432800 100.00000 78.318400 75.686530 90.335640 66.953270
171 90.280700 100.00000 93.306000 84.293070 94.328140 95.297310
172 0.0000000 100.00000 49.402400 41.846170 73.744870 27.871830
173 0.0000000 100.00000 68.503300 46.174210 75.683690 50.755050
174 0.0000000 66.449200 54.589300 20.214630 31.017220 29.189610
175 0.0000000 67.698800 78.442600 27.134680 35.283120 61.708160
176 0.0000000 0.0000000 100.00000 19.374890 8.6277800 102.47550
177 0.0000000 21.801800 100.00000 21.033810 11.746180 102.78620
178 0.0000000 49.317400 100.00000 27.446280 23.873490 103.93240
179 31.353200 62.948000 100.00000 36.106950 36.038190 105.17200
180 56.730000 79.256300 100.00000 52.959390 57.226690 106.98050
181 82.492700 88.963000 100.00000 73.226540 76.763090 108.46270
182 0.0000000 37.309800 24.173500 5.2735130 8.5493640 5.8856620
183 0.0000000 61.410900 27.074700 13.936290 24.668550 8.4090780
184 46.155400 83.696300 82.702800 44.915150 57.299580 71.622390
185 48.036200 100.00000 100.00000 64.739880 84.307620 109.83520
186 59.529000 60.875900 84.709400 37.919360 36.004950 73.288070
187 65.164000 75.507800 90.452500 50.584300 53.077650 86.587620
188 0.0000000 0.0000000 0.0000000 0.0841512 0.0785479 0.1386680
189 41.199400 30.167100 11.263100 8.3156480 8.0521610 2.0010140
190 67.943800 36.208600 21.742200 20.709200 15.909790 5.1736380
191 100.00000 100.00000 100.00000 95.156120 99.514430 110.38180
192 41.000400 0.0000000 22.308700 5.9920930 2.9987070 4.5503810
193 54.045100 0.0000000 39.596500 11.792570 5.8227600 13.476890
194 50.916100 14.897900 32.388900 10.780630 6.4387260 9.1689680
195 57.974800 28.883100 64.866700 20.936020 13.798370 39.512770
196 100.00000 28.738300 83.496700 53.174830 29.580520 69.594370
197 24.782400 0.0000000 13.078500 2.2597230 1.1528690 1.8279610
198 28.821200 19.296900 21.253200 4.5675320 3.9931560 4.4201050
199 41.467000 27.297800 23.167900 8.6665660 7.6351490 5.2871450
200 65.416200 27.824600 24.006100 17.944730 12.381010 5.7814630
201 65.626300 55.306900 29.838100 26.190450 27.224860 9.6506110
202 70.172800 68.089800 35.355300 35.245870 39.944000 13.730820
203 69.707400 72.131400 62.891400 41.972890 45.913710 40.047060
204 79.470300 76.234600 100.00000 62.818290 59.323950 106.81420
205 0.0000000 0.0000000 2.3364000 0.1101310 0.0901588 0.2791940
206 14.146600 0.0000000 15.491600 1.1319860 0.5818910 2.3717170
207 29.314300 9.4785000 25.615900 4.0611640 2.5293820 5.8183250
208 46.315400 24.865700 30.770700 10.132310 7.7292130 8.3587320
209 13.106800 10.835200 0.0000000 1.0879730 1.2046420 0.2298360
210 29.412000 19.508800 0.0000000 3.8522440 3.6293070 0.3990400
211 37.635200 37.554100 46.099700 12.272140 12.204340 19.377830
212 40.769900 41.090900 67.516600 18.545580 16.388590 43.518930
213 56.284500 47.869900 76.722700 28.564160 24.164230 57.943000
214 100.00000 81.137500 0.0000000 61.663550 64.070470 5.1469580
215 100.00000 84.360900 30.450100 65.246860 68.696930 13.425370
216 100.00000 84.297300 53.286100 68.623740 70.266940 31.234740
217 100.00000 28.928200 0.0000000 40.211640 23.673180 1.1715220
218 100.00000 32.661100 18.492500 41.533240 25.310530 4.4430840
219 100.00000 71.063300 85.919200 69.027450 58.336130 76.410020
220 100.00000 73.524200 100.00000 76.235470 63.677990 106.76100
221 100.00000 87.365400 100.00000 85.565770 81.262700 108.48960
222 0.7645000 0.7645000 0.7645000 0.1357010 0.1318680 0.1980260
223 0.0000000 0.0000000 0.0000000 0.0841914 0.0785225 0.1387220
224 0.0000000 25.808900 48.778000 5.9720540 5.8059320 20.448240
225 0.0000000 38.483700 65.060500 12.051950 12.208290 39.673910
226 100.00000 0.0000000 0.0000000 37.563680 18.868980 0.7042630
227 100.00000 0.0000000 14.153500 37.934650 19.030120 2.6353640
228 100.00000 0.0000000 26.320200 38.677250 19.366730 6.5950030
229 100.00000 0.0000000 40.817200 40.247500 20.075730 14.907790
230 40.843900 16.016800 0.0000000 6.0116490 4.2164260 0.3703830
231 60.289800 22.431100 0.0000000 13.766920 9.0775170 0.6066490
232 59.531400 46.299000 0.0000000 18.602180 18.721150 1.5673390
233 68.520000 45.876100 60.003700 29.201810 23.816670 34.455550
234 0.0000000 2.3364000 0.0000000 0.1349160 0.1754100 0.1482380
235 0.0000000 16.007700 28.658600 2.1936480 2.2755100 6.9125650
236 0.0000000 51.301500 61.228100 15.086540 19.289060 35.388570
237 0.0000000 54.449500 79.610400 21.500250 24.038330 62.810440
238 64.069900 58.056700 100.00000 44.877310 37.442900 104.97810
239 31.015600 0.0000000 81.163800 14.885540 6.8861850 63.700330
240 45.061100 0.0000000 100.00000 25.530240 11.703140 102.72160
241 56.405700 26.992000 100.00000 32.155740 18.352300 103.24060
242 80.305900 100.00000 100.00000 80.257350 91.972910 110.12070
243 100.00000 100.00000 100.00000 95.066170 99.398020 110.38110
244 52.010600 30.611800 0.0000000 11.639410 9.7517330 0.7885090
245 76.307300 42.852800 0.0000000 26.100380 20.913990 1.4876710
246 100.00000 64.096400 0.0000000 51.390510 44.735160 3.2448800
247 100.00000 69.956300 43.630300 57.671940 52.199140 20.044600
248 0.0000000 13.157900 0.0000000 0.7112210 1.2642400 0.2548930
249 0.0000000 23.395900 23.350200 2.7263710 3.7927550 5.1175010
250 0.0000000 26.505000 34.684000 4.1444340 5.1503500 10.113850
251 6.7558000 45.458800 50.113600 10.994560 14.596270 22.897190
252 31.032300 74.433400 49.310000 26.630800 40.470140 24.803530
253 33.464900 100.00000 45.432900 44.693500 75.066430 25.048660
254 33.496400 100.00000 62.776400 48.150530 76.625680 43.448970
255 36.295700 100.00000 78.272500 53.244800 78.935950 66.421220
256 60.078300 100.00000 91.548400 65.871570 85.048780 90.723490
257 89.622600 0.0000000 0.0000000 28.967970 14.559100 0.5721650
258 100.00000 0.0000000 53.709400 42.454050 21.074580 26.832470
259 100.00000 29.344500 68.903500 48.796320 27.794400 46.028710
260 1.5432000 1.5432000 1.5432000 0.1734490 0.1734570 0.2351740
261 2.3364000 2.3364000 2.3364000 0.2167380 0.2158700 0.2918450
262 0.0000000 16.304300 0.0000000 0.9742570 1.7622480 0.3039710
263 17.918200 21.591700 0.0000000 2.5762080 3.4034520 0.4308680
264 23.692600 35.583000 0.0000000 5.5651400 8.1073360 0.8709250
265 24.943000 46.109600 42.731400 11.868050 15.402810 16.757810
266 22.053000 68.914100 53.755700 22.969420 34.194720 28.955770
267 100.00000 47.198700 0.0000000 44.669020 32.094710 2.0021490
268 100.00000 52.741900 21.546000 47.503510 36.337970 6.5122390
269 100.00000 61.356700 48.774000 54.194780 44.479970 23.670640
270 100.00000 63.216700 66.005000 58.900640 47.952580 43.800590
271 100.00000 77.572800 81.067500 71.528390 65.420320 68.578720
272 4.8077000 0.0000000 0.0000000 0.1950880 0.1342680 0.1403550
273 7.4257000 0.0000000 0.0000000 0.3089470 0.1911940 0.1419780
274 10.204100 0.0000000 0.0000000 0.4467000 0.2602880 0.1439940
275 0.0000000 4.8077000 0.0000000 0.2068580 0.3114430 0.1612760
276 0.0000000 7.4257000 0.0000000 0.3194510 0.5236590 0.1822450
277 0.0000000 10.204100 0.0000000 0.4701840 0.8086340 0.2105390
278 0.0000000 39.438000 79.411000 16.392110 14.592130 61.130710
279 0.0000000 62.568200 100.00000 32.864340 34.102160 104.96660
280 0.0000000 73.441800 100.00000 38.458830 44.689030 105.97320
281 32.727500 76.470100 100.00000 43.630260 49.974300 106.55180
282 71.092200 0.0000000 16.120300 17.788010 8.9224620 2.7908740
283 80.440100 0.0000000 32.102900 24.136390 12.058910 9.1071730
284 100.00000 25.987400 44.919100 43.111080 24.425670 18.776100
285 45.412000 0.0000000 13.673400 6.6705950 3.3628680 2.0057270
286 59.870700 0.0000000 25.701900 12.876920 6.4376320 5.9352650
287 74.719800 0.0000000 100.00000 38.766010 18.337000 102.83480
288 81.060800 30.473200 100.00000 45.518610 25.838530 103.42900
289 0.0000000 89.622600 0.0000000 29.977790 56.576080 5.7218610
290 0.0000000 100.00000 0.0000000 37.876540 71.760590 7.2894520
291 0.0000000 100.00000 27.928200 39.059430 72.300450 13.547490
292 82.625900 100.00000 47.296200 66.167890 85.780340 27.172410
293 32.713400 76.829100 0.0000000 24.215960 41.222250 4.0846300
294 57.123900 82.695800 0.0000000 35.910700 52.646460 4.9489200
295 74.052300 100.00000 0.0000000 57.351940 81.484600 7.5854170
296 82.620800 100.00000 25.454200 63.468400 84.504510 13.286140
297 0.0000000 42.728100 17.559700 6.3083070 11.105940 3.8908910
298 73.283000 48.039000 53.750300 31.076200 25.635040 27.758260
299 100.00000 52.726900 69.967300 55.475340 40.053800 48.357960
300 100.00000 87.146900 70.937300 74.761490 75.906810 53.563670
301 28.969000 21.395500 15.475300 4.5817540 4.4366410 2.5723930
302 81.844600 25.306400 21.327100 26.595120 16.174430 4.9516110
303 84.338700 27.213600 41.969000 30.375040 18.345620 15.859860
304 84.183700 73.989700 58.709000 50.723060 52.121480 35.603190
305 22.332000 38.870500 22.738400 7.1799480 10.124290 5.4965850
306 33.525600 49.562200 29.724300 12.660210 17.226120 8.9849540
307 41.483200 70.424400 32.910600 24.408770 36.091570 12.384530
308 71.335300 81.344400 61.165500 48.446520 57.340970 39.154210
309 51.087800 72.662600 50.569400 30.935790 40.698640 25.806180
310 71.810300 72.839500 50.355200 40.733990 45.899120 25.662990
311 83.718700 73.493200 70.583700 52.555200 52.259070 50.947270
312 94.467700 82.420700 74.789700 68.203280 68.244530 58.948890
313 100.00000 89.541000 86.385100 81.384670 81.477460 79.531620
314 8.7678000 7.4131000 18.410100 1.1864860 0.9376080 3.2168350
315 10.689300 11.774000 28.091100 2.2101290 1.7704200 6.7789550
316 16.247700 17.026400 40.682100 4.5121550 3.5089500 14.226250
317 29.109800 23.581200 52.907900 9.1319330 6.8329230 25.439710
318 42.444100 32.245400 54.919900 13.962670 11.203620 27.971220
319 45.687300 36.485100 82.943300 23.493320 16.909890 68.457480
320 13.619800 69.459800 64.524800 24.708090 35.219620 41.760360
321 37.184300 73.497500 67.638200 31.231250 41.583200 46.047740
322 27.500000 54.205200 0.0000000 11.897970 19.191980 1.9433560
323 70.714700 76.762000 13.276100 38.798660 48.647830 5.9967200
324 82.257700 90.629500 12.925000 55.103440 70.032850 7.8879290
325 20.132800 71.025400 33.626800 20.554680 34.431920 12.722420
326 18.203800 85.148500 77.309300 38.349190 55.541870 61.897420
327 60.472200 90.350400 100.00000 62.116250 72.240210 108.44910
328 16.809800 12.749000 69.341500 10.055770 5.5107600 45.197980
329 18.426200 29.718100 77.928600 14.904360 10.772730 58.935280
330 88.347500 34.862900 84.710400 45.281010 27.299580 72.005110
331 14.793400 84.622100 41.441100 29.761730 51.162770 19.425590
332 17.515000 87.307500 54.688300 34.379830 56.241640 32.009640
333 14.217000 87.701500 65.577300 36.754980 57.726590 45.031310
334 33.683000 23.306900 31.627700 6.7628360 5.7095580 8.8394130
335 37.420900 26.470800 42.479800 9.3423100 7.7028590 15.694890
336 41.650100 48.610300 54.573900 18.116820 19.482360 28.335190
337 42.002000 49.835700 67.144600 21.474900 21.577310 43.535420
338 43.040000 58.828100 67.625300 25.639750 28.783330 44.753600
339 46.420500 62.441200 84.786100 33.323980 34.371620 73.325220
340 47.942200 73.355900 87.547600 40.605090 45.998940 79.344510
341 65.541800 91.379000 93.313600 62.474840 73.798980 93.695390
342 0.0000000 0.0000000 0.0000000 0.0841607 0.0785354 0.1386980
343 21.045500 10.972900 8.5366000 2.0609070 1.6959790 1.0220760
344 32.494100 34.437600 11.406300 7.0808290 8.5938580 2.1230280
345 40.046600 50.531400 14.843200 13.629650 18.299710 3.8652430
346 46.716600 59.672100 36.167700 20.967930 27.143540 13.214620
347 58.333500 85.776600 42.815200 41.325430 58.153390 20.753200
348 65.252300 87.696700 58.063800 48.915770 63.893880 36.579480
349 100.00000 100.00000 100.00000 94.943630 99.207240 110.37950
350 14.090500 59.471700 17.574800 13.244060 23.286030 5.1266470
351 42.051700 69.644400 16.983300 22.867990 34.775040 5.9724840
352 49.658100 84.518400 17.656200 34.765620 53.721950 7.9273080
353 68.444500 90.385000 28.602700 47.888150 66.008660 12.877490
354 16.130600 15.848800 57.354400 7.3482000 4.5891480 30.039870
355 17.393900 20.390700 87.969200 16.796180 9.6203990 76.750080
